davideferrari95/blind_handover_controller/data/Test 32 - [2024-02-07 -- 14-46-06]/joint_states_data.csv
shoulder_pan_joint,shoulder_lift_joint,elbow_joint,wrist_1_joint,wrist_2_joint,wrist_3_joint
0.0053270552307367325,-0.007807162590324879,-0.008409954607486725,0.013108203187584877,-5.5780393359036815e-15,0.005624253768473864
0.0053270552307367325,-0.007807162590324879,-0.008409954607486725,0.013108203187584877,-5.5780393359036815e-15,0.005624253768473864
0.0054399617947638035,-0.007926419377326965,-0.008015611208975315,0.012741773389279842,-3.642060884598812e-16,0.00619862973690033
0.005048599559813738,-0.007500962354242802,-0.008951392956078053,0.013004597276449203,-2.3780056256192907e-17,0.006199865136295557
0.005439699161797762,-0.007593242917209864,-0.00871148519217968,0.012736688368022442,-1.5526677439963627e-18,0.005727234296500683
0.005209134891629219,-0.0088914530351758,-0.008564608171582222,0.012827160768210888,-1.013780991141112e-19,0.005908006336539984
0.005368579179048538,-0.008068228140473366,-0.00868968665599823,0.012546745128929615,-6.619266071020902e-21,0.005519535858184099
0.005394727922976017,-0.008014444261789322,-0.00840563140809536,0.012311369180679321,-4.321908133845094e-22,0.005697733256965876
0.005104555748403072,-0.008255873806774616,-0.008145907893776894,0.01289698202162981,-2.821897137394137e-23,0.005746542941778898
0.005316400434821844,-0.00896825734525919,-0.008097440004348755,0.012838191352784634,-1.842497056822667e-24,0.005636903457343578
0.005130701698362827,-0.008122066035866737,-0.00904474500566721,0.012334125116467476,-1.2030189201783486e-25,0.005227190908044577
0.005445819813758135,-0.00820070132613182,-0.008990257978439331,0.011975066736340523,-7.854853663260832e-27,0.006121717859059572
0.005490126088261604,-0.00834509264677763,-0.00920263770967722,0.012413539923727512,-5.1286589972658785e-28,0.006279395427554846
0.005217645317316055,-0.008029949851334095,-0.009130092337727547,0.012593292631208897,-3.348647496227006e-29,0.005400456953793764
0.004854908213019371,-0.00575588783249259,-0.009453904815018177,0.012265082448720932,-2.1864277680096846e-30,0.004978487268090248
0.004699631594121456,-0.00497867027297616,-0.008843685500323772,0.012465182691812515,-1.4275809951470884e-31,0.005304132588207722
0.005054944194853306,-0.005870073568075895,-0.00976982805877924,0.012136542238295078,-9.321084658897237e-33,0.006245902273803949
0.005661501549184322,-0.0066452352330088615,-0.009648812934756279,0.012605886906385422,-6.086001696882427e-34,0.006422596517950296
0.005661501549184322,-0.0066452352330088615,-0.009648812934756279,0.012605886906385422,-6.086001696882427e-34,0.006422596517950296
0.005177163984626532,-0.006537817884236574,-0.009246166795492172,0.012750505469739437,-3.9737242146436837e-35,0.006087308283895254
0.005216820631176233,-0.006035634316504002,-0.009427400305867195,0.01259618904441595,-2.5945577820337763e-36,0.00552795035764575
0.005563938990235329,-0.006287805736064911,-0.009653585031628609,0.01279167365282774,-1.694060878400118e-37,0.005390941631048918
0.005204377230256796,-0.006393754854798317,-0.0093317162245512,0.01312444731593132,-7.222040051406529e-40,0.005416504107415676
0.00552057521417737,-0.005911677144467831,-0.009693159721791744,0.012542372569441795,-4.715509462299442e-41,0.005776602309197187
0.005579508375376463,-0.0057272594422101974,-0.00940163154155016,0.01349060982465744,-3.078652726121623e-42,0.005682359915226698
0.005293230060487986,-0.0055227456614375114,-0.009363662451505661,0.013125759549438953,-2.0038568039844884e-43,0.005462935660034418
0.00498054176568985,-0.0056334915570914745,-0.009631756693124771,0.013450903818011284,-1.2611686178923354e-44,0.005648459307849407
0.0052317725494503975,-0.006139081437140703,-0.00912223570048809,0.013291801325976849,-1.401298464324817e-45,0.005919044371694326
0.005361824296414852,-0.005521290935575962,-0.010041588917374611,0.013445183634757996,-0.0,0.005748792551457882
0.005865249317139387,-0.004989780019968748,-0.009429599158465862,0.013480380177497864,-0.0,0.005730153527110815
0.005301210097968578,-0.005114643834531307,-0.009408066049218178,0.01367119885981083,-0.0,0.005442680791020393
0.005180055741220713,-0.005139957182109356,-0.008808467537164688,0.013558604754507542,-0.0,0.005321330390870571
0.005033102352172136,-0.00580042228102684,-0.009753504768013954,0.013254646211862564,-0.0,0.005243356805294752
0.005921028088778257,-0.005375992506742477,-0.008889139629900455,0.013421941548585892,-0.0,0.005499163642525673
0.005505163688212633,-0.004808534402400255,-0.008835641667246819,0.01318861823529005,-0.0,0.005418987479060888
0.005249754525721073,-0.004391650669276714,-0.009710392914712429,0.013457347638905048,-0.0,0.005805122200399637
0.0054617272689938545,-0.0048601399175822735,-0.008336854167282581,0.01298557873815298,-0.0,0.005442910362035036
0.005134201142936945,-0.005413437727838755,-0.009410683996975422,0.013188670389354229,-0.0,0.005513697396963835
0.005305357277393341,-0.005538615398108959,-0.009989014826714993,0.01275701355189085,-0.0,0.005534959491342306
0.0054665436036884785,-0.005078353453427553,-0.009575732052326202,0.01278715766966343,-0.0,0.005452559795230627
0.006058291532099247,-0.0048338440246880054,-0.008809158578515053,0.012820008210837841,-0.0,0.005584742873907089
0.005600141827017069,-0.0050951349548995495,-0.00984196737408638,0.012819475494325161,-0.0,0.0055444510653615
0.005343613214790821,-0.005199832376092672,-0.009726541116833687,0.012851539067924023,-0.0,0.005547300912439823
0.004938974976539612,-0.0058179679326713085,-0.00910293310880661,0.012190036475658417,-0.0,0.005429441574960947
0.005221780389547348,-0.005574427545070648,-0.00927054975181818,0.013094954192638397,-0.0,0.005631984677165747
0.005670186132192612,-0.005627247970551252,-0.009595830924808979,0.01260151993483305,-0.0,0.005940444767475128
0.005670186132192612,-0.005627247970551252,-0.009595830924808979,0.01260151993483305,-0.0,0.005940444767475128
0.005913239903748035,-0.00521973567083478,-0.009668294340372086,0.013140439055860043,-0.0,0.005672912113368511
0.005344463512301445,-0.004771629348397255,-0.009362413547933102,0.012878958135843277,-0.0,0.005913072731345892
0.005409520585089922,-0.005499835591763258,-0.0093266312032938,0.014572231099009514,-0.0,0.005533231887966394
0.005806771107017994,-0.0061060767620801926,-0.009083587676286697,0.012723904103040695,-0.0,0.005887914914637804
0.005770486313849688,-0.0054543702863156796,-0.009387560188770294,0.01350126601755619,-0.0,0.0056574344635009766
0.005514371674507856,-0.005295248236507177,-0.008534811437129974,0.01316816359758377,-0.0,0.005241126287728548
0.005645544268190861,-0.005175471305847168,-0.008176670409739017,0.013189449906349182,-0.0,0.005681653041392565
0.005221114959567785,-0.005560113582760096,-0.009134246967732906,0.012806321494281292,-0.0,0.00579787464812398
0.005852310452610254,-0.005732928402721882,-0.009043789468705654,0.013278963975608349,-0.0,0.006360585335642099
0.0055933985859155655,-0.00609596399590373,-0.008276761509478092,0.013017098419368267,-0.0,0.005801851395517588
0.005729434546083212,-0.0054273358546197414,-0.009044338949024677,0.013984812423586845,-0.0,0.005731000564992428
0.005477209109812975,-0.004897281993180513,-0.008687402121722698,0.013855282217264175,-0.0,0.005616883747279644
0.005820978432893753,-0.0053040520288050175,-0.008265390992164612,0.013514086604118347,-0.0,0.00592982629314065
0.005612843204289675,-0.0056246379390358925,-0.008837331086397171,0.01330390851944685,-0.0,0.006223710253834724
0.0060537708923220634,-0.006143013946712017,-0.008908433839678764,0.013715709559619427,-0.0,0.005675659514963627
0.006030305754393339,-0.005410695448517799,-0.008614800870418549,0.013029085472226143,-0.0,0.005665028467774391
0.005758499260991812,-0.005399081856012344,-0.008453194051980972,0.012894360348582268,-0.0,0.005346773657947779
0.005597491282969713,-0.005173875484615564,-0.008785056881606579,0.013430236838757992,-0.0,0.005827815271914005
0.0056605832651257515,-0.006043602246791124,-0.009106841869652271,0.01321505568921566,-0.0,0.005618965718895197
0.0061836945824325085,-0.0056713297963142395,-0.008908368647098541,0.013459056615829468,-0.0,0.005845933686941862
0.006472544278949499,-0.00579097168520093,-0.00895871501415968,0.012996719218790531,-0.0,0.005397949367761612
0.005788789596408606,-0.005266521126031876,-0.009094062261283398,0.013901746831834316,-0.0,0.0058096847496926785
0.005786348134279251,-0.004885913338512182,-0.008972923271358013,0.013311939314007759,-0.0,0.005509162321686745
0.005751141346991062,-0.005201349034905434,-0.009090744890272617,0.013529855757951736,-0.0,0.005917033180594444
0.006176119204610586,-0.005495340097695589,-0.009396557696163654,0.013121410273015499,-0.0,0.005612026434391737
0.005852618254721165,-0.006178615614771843,-0.008996659889817238,0.013566378504037857,-0.0,0.005697942804545164
0.005852618254721165,-0.006178615614771843,-0.008996659889817238,0.013566378504037857,-0.0,0.005697942804545164
0.005791498813778162,-0.005705974064767361,-0.008555865846574306,0.013248929753899574,-0.0,0.00549249816685915
0.006143160164356232,-0.005256579723209143,-0.009517182596027851,0.013579406775534153,-0.0,0.005878946743905544
0.006042032968252897,-0.006174455862492323,-0.008727326057851315,0.013344488106667995,-0.0,0.006223274860531092
0.006097310222685337,-0.005583183374255896,-0.009040151722729206,0.01346581056714058,-0.0,0.006048199720680714
0.0060763051733374596,-0.005294455215334892,-0.009102498181164265,0.013455281965434551,-0.0,0.0057019637897610664
0.006039385683834553,-0.005324197467416525,-0.008568825200200081,0.013670834712684155,-0.0,0.005602723453193903
0.005514379125088453,-0.005669808480888605,-0.008883167058229446,0.01326220203191042,-0.0,0.005785118788480759
0.007178187370300293,-0.005435367580503225,-0.009117361158132553,0.01360455621033907,-0.0,0.006241564638912678
0.005851509049534798,-0.005724364425987005,-0.00868796743452549,0.013179948553442955,-0.0,0.006254120264202356
0.005754821002483368,-0.005681322421878576,-0.008831600658595562,0.013776958920061588,-0.0,0.006067108828574419
0.00553450733423233,-0.005599023774266243,-0.009378821589052677,0.01339766290038824,-0.0,0.005933604668825865
0.005961101967841387,-0.005015788599848747,-0.008815605193376541,0.013714224100112915,-0.0,0.005589704029262066
0.0062659624963998795,-0.004950290080159903,-0.008451420813798904,0.013322538696229458,-0.0,0.0063802385702729225
0.0060140835121273994,-0.0054292525164783,-0.009084098041057587,0.01379547268152237,-0.0,0.00618299376219511
0.006177489645779133,-0.005574143957346678,-0.009051200933754444,0.013153239153325558,-0.0,0.005507559049874544
0.006416223477572203,-0.005528594367206097,-0.008476483635604382,0.013655022718012333,-0.0,0.005056947004050016
0.0061695510521531105,-0.005031281150877476,-0.009237824007868767,0.01339686755090952,-0.0,0.005156426690518856
0.0062883165664970875,-0.005053366534411907,-0.008749607019126415,0.013422075659036636,-0.0,0.005798648111522198
0.006468452513217926,-0.005607179366052151,-0.00827935989946127,0.013249850831925869,-0.0,0.0062475064769387245
0.006096196826547384,-0.00559705076739192,-0.008873183280229568,0.013237304985523224,-0.0,0.006083869840949774
0.00566883385181427,-0.005706409458070993,-0.009037554264068604,0.013216739520430565,-0.0,0.005735916551202536
0.005725458730012178,-0.0055283447727561,-0.00873508770018816,0.013105975463986397,-0.0,0.005606238264590502
0.006174027454108,-0.005541492253541946,-0.008834856562316418,0.013264262117445469,-0.0,0.005708592478185892
0.006192481145262718,-0.005236934870481491,-0.008810099214315414,0.012979035265743732,-0.0,0.006334320642054081
0.006093297153711319,-0.0056619602255523205,-0.009111734107136726,0.013302618637681007,-0.0,0.006410044152289629
0.005981286056339741,-0.005261075217276812,-0.00866320263594389,0.012813938781619072,-0.0,0.006029285956174135
0.006288324482738972,-0.005420634523034096,-0.008489444851875305,0.01295850146561861,-0.0,0.006157233379781246
0.006288324482738972,-0.005420634523034096,-0.008489444851875305,0.01295850146561861,-0.0,0.006157233379781246
0.0063384962268173695,-0.005059313029050827,-0.008749285712838173,0.013049385510385036,-0.0,0.005752000957727432
0.005901861470192671,-0.005339041817933321,-0.008729007095098495,0.01314545702189207,-0.0,0.005815040785819292
0.005791863426566124,-0.00521731236949563,-0.009524020366370678,0.013192126527428627,-0.0,0.005897419061511755
0.00646269740536809,-0.005332911852747202,-0.009047407656908035,0.013412117958068848,-0.0,0.006106045097112656
0.006283643189817667,-0.005125467199832201,-0.008497506380081177,0.013350417837500572,-0.0,0.0064728884026408195
0.006120757199823856,-0.005293856840580702,-0.009012492373585701,0.013508385978639126,-0.0,0.005604827776551247
0.005945159122347832,-0.005532194394618273,-0.009396415203809738,0.012858021073043346,-0.0,0.005483446642756462
0.005784466862678528,-0.005103381350636482,-0.008702422492206097,0.012804129160940647,-0.0,0.0057904478162527084
0.005941291805356741,-0.005329672712832689,-0.009916622191667557,0.013058479875326157,-0.0,0.005921144504100084
0.006365935783833265,-0.005261706653982401,-0.009047109633684158,0.013222734443843365,-0.0,0.005936621222645044
0.006161810830235481,-0.005783648695796728,-0.00852497573941946,0.013055261224508286,-0.0,0.00616852380335331
0.006283954717218876,-0.005224728956818581,-0.008691706694662571,0.013596756383776665,-0.0,0.006068242713809013
0.0065046995878219604,-0.005367841571569443,-0.009505447000265121,0.013223286718130112,-0.0,0.005598351359367371
0.006332762539386749,-0.005528762936592102,-0.009208353236317635,0.01344666164368391,-0.0,0.005595538765192032
0.006381445564329624,-0.005200827959924936,-0.008661081083118916,0.013461743481457233,-0.0,0.0060453894548118114
0.00670238584280014,-0.005295487120747566,-0.009245104156434536,0.013355798088014126,-0.0,0.0061655668541789055
0.006796923000365496,-0.005098398309201002,-0.008899056352674961,0.013625823892652988,-0.0,0.006248963996767998
0.006269808858633041,-0.0051744962111115456,-0.008734581060707569,0.013162647373974323,-0.0,0.006298901978880167
0.006626230664551258,-0.005455981008708477,-0.00941260065883398,0.013544823974370956,-0.0,0.0060608871281147
0.006450130138546228,-0.005233285948634148,-0.00907798670232296,0.012430950999259949,-0.0,0.006278118118643761
0.0063468036241829395,-0.005372054874897003,-0.008817201480269432,0.013119363225996494,-0.0,0.0060678282752633095
0.006271598860621452,-0.005129014141857624,-0.009356680326163769,0.013098719529807568,-0.0,0.005865216255187988
0.006577746476978064,-0.005347120109945536,-0.009316019713878632,0.013683986850082874,-0.0,0.006037335377186537
0.006696666590869427,-0.0056017134338617325,-0.009260735474526882,0.013280714862048626,-0.0,0.006082938518375158
0.006696666590869427,-0.0056017134338617325,-0.009260735474526882,0.013280714862048626,-0.0,0.006082938518375158
0.006392983719706535,-0.005391063168644905,-0.009097164496779442,0.013090291060507298,-0.0,0.006272959057241678
0.006211621221154928,-0.005305470898747444,-0.00965141225606203,0.012488995678722858,-0.0,0.006659706123173237
0.006982489954680204,-0.0056830826215445995,-0.009063472039997578,0.01362187322229147,-0.0,0.006213895045220852
0.006718277465552092,-0.005334724206477404,-0.009255900047719479,0.013464939780533314,-0.0,0.006071143783628941
0.006232838146388531,-0.005425645504146814,-0.008699007332324982,0.014064837247133255,-0.0,0.00646990817040205
0.006498998496681452,-0.0055761500261723995,-0.00895486120134592,0.013214399106800556,-0.0,0.0063996752724051476
0.006605893839150667,-0.005542500875890255,-0.009886919520795345,0.013718253001570702,-0.0,0.0063758972100913525
0.007328689098358154,-0.005560125224292278,-0.009465661831200123,0.013643061742186546,-0.0,0.00664822431281209
0.006573542952537537,-0.005088848527520895,-0.008647706359624863,0.014438913203775883,-0.0,0.006253465544432402
0.006405810359865427,-0.005523515399545431,-0.009604298509657383,0.013083136640489101,-0.0,0.006043687928467989
0.006917502731084824,-0.005294987931847572,-0.009329184889793396,0.01441709604114294,-0.0,0.005992314778268337
0.006944744847714901,-0.0050203329883515835,-0.009158373810350895,0.013571685180068016,-0.0,0.006103266030550003
0.007175234146416187,-0.005174691788852215,-0.009666205383837223,0.013355127535760403,-0.0,0.006126625929027796
0.006744457874447107,-0.005078273359686136,-0.00924981851130724,0.013674878515303135,-0.0,0.006149275694042444
0.006355923600494862,-0.0052115521393716335,-0.00886567123234272,0.014525156468153,-0.0,0.006337387952953577
0.006916109472513199,-0.0055288649164140224,-0.009546194225549698,0.013891973532736301,-0.0,0.0061837551183998585
0.006991088390350342,-0.005163742695003748,-0.009769396856427193,0.013729678466916084,-0.0,0.006406466942280531
0.007358666509389877,-0.005262488964945078,-0.009719876572489738,0.013809501193463802,-0.0,0.006078645586967468
0.007358666509389877,-0.005262488964945078,-0.009719876572489738,0.013809501193463802,-0.0,0.006078645586967468
0.0070763202384114265,-0.0054264552891254425,-0.009331312961876392,0.013871625065803528,-0.0,0.006125547457486391
0.006792765576392412,-0.0056578489020466805,-0.009326864965260029,0.013815809041261673,-0.0,0.00652699638158083
0.007052326109260321,-0.005287362262606621,-0.009032389149069786,0.013852782547473907,-0.0,0.006522378884255886
0.00712618138641119,-0.004918640945106745,-0.009786822833120823,0.01402936689555645,-0.0,0.00620254734531045
0.006725756451487541,-0.005350472871214151,-0.009350067935883999,0.013631856068968773,-0.0,0.006187237333506346
0.006898920517414808,-0.005277487449347973,-0.009049227461218834,0.01373923197388649,-0.0,0.006032692268490791
0.007274722680449486,-0.005131208803504705,-0.009171710349619389,0.013504844158887863,-0.0,0.0064836121164262295
0.007003596518188715,-0.00570620596408844,-0.009799286723136902,0.013585126027464867,-0.0,0.006542945746332407
0.0074790604412555695,-0.005112666171044111,-0.00873397383838892,0.013431309722363949,-0.0,0.006314239930361509
0.007677216548472643,-0.005372870247811079,-0.009165565483272076,0.013120674528181553,-0.0,0.006626001559197903
0.006810510065406561,-0.005527785513550043,-0.008885578252375126,0.013679327443242073,-0.0,0.006729051470756531
0.006689003203064203,-0.00557356933131814,-0.00883560162037611,0.013434728607535362,-0.0,0.006877914536744356
0.006782460957765579,-0.004681521560996771,-0.009288448840379715,0.013710168190300465,-0.0,0.0065168277360498905
0.007003709673881531,-0.004053072538226843,-0.009059181436896324,0.013368746265769005,-0.0,0.006612860132008791
0.007317094132304192,-0.004147680941969156,-0.008694588206708431,0.013466495089232922,-0.0,0.006700080819427967
0.007527950219810009,-0.004926525056362152,-0.00932841282337904,0.013589063659310341,-0.0,0.006529089994728565
0.007062767632305622,-0.0049671088345348835,-0.009535410441458225,0.01358221285045147,-0.0,0.006330187898129225
0.006655456498265266,-0.004816477186977863,-0.009042409248650074,0.013241460546851158,-0.0,0.0062552853487432
0.007198011502623558,-0.0045089335180819035,-0.009282605722546577,0.013241984881460667,-0.0,0.00669418228790164
0.007263774983584881,-0.004160241689532995,-0.009303286671638489,0.013445481657981873,-0.0,0.006778423674404621
0.0069780065678060055,-0.00439107371494174,-0.008918771520256996,0.013437943533062935,-0.0,0.006976447533816099
0.0065493471920490265,-0.00464464770630002,-0.008943050168454647,0.013637950643897057,-0.0,0.006523913703858852
0.007017641328275204,-0.004713417496532202,-0.00941796787083149,0.013284692540764809,-0.0,0.006530561484396458
0.0075947679579257965,-0.004627276677638292,-0.008862389251589775,0.013460390269756317,-0.0,0.006641058716922998
0.007135309744626284,-0.004481290467083454,-0.008410767652094364,0.01296994462609291,-0.0,0.006855145562440157
0.006725940387696028,-0.00454387441277504,-0.009445984847843647,0.013782314956188202,-0.0,0.006836502812802792
0.007208789233118296,-0.004610946401953697,-0.009467408992350101,0.013243608176708221,-0.0,0.0068552871234714985
0.007620624266564846,-0.004310544114559889,-0.008900515735149384,0.013430043123662472,-0.0,0.007341598626226187
0.007681668270379305,-0.004292386118322611,-0.009278395213186741,0.013380317017436028,-0.0,0.007062109187245369
0.007681668270379305,-0.004292386118322611,-0.009278395213186741,0.013380317017436028,-0.0,0.007062109187245369
0.006766198668628931,-0.004647272173315287,-0.008925470523536205,0.013866804540157318,-0.0,0.007303441409021616
0.007085835561156273,-0.0048133740201592445,-0.00833146832883358,0.013404478318989277,-0.0,0.006928120739758015
0.007204314693808556,-0.004818376153707504,-0.009735101833939552,0.01313178613781929,-0.0,0.006758915260434151
0.006893045734614134,-0.0044831871055066586,-0.009259219281375408,0.013371150009334087,-0.0,0.006335123907774687
0.006849713623523712,-0.0044281501322984695,-0.008884240873157978,0.012903180904686451,-0.0,0.006515109911561012
0.006972125265747309,-0.004653473850339651,-0.008993968367576599,0.013065772131085396,-0.0,0.0070973471738398075
0.007458699867129326,-0.0041476059705019,-0.008927805349230766,0.013674086891114712,-0.0,0.0068541779182851315
0.007375730201601982,-0.004281497094780207,-0.009637493640184402,0.012932926416397095,-0.0,0.006659975275397301
0.007005632389336824,-0.004255348350852728,-0.009819340892136097,0.013277344405651093,-0.0,0.0068861315958201885
0.007154045160859823,-0.004451465327292681,-0.009301139973104,0.0128841083496809,-0.0,0.0069418298080563545
0.007333616726100445,-0.004480206407606602,-0.008747574873268604,0.01342961098998785,-0.0,0.007782883010804653
0.007477155886590481,-0.004538361914455891,-0.009654379449784756,0.013595439493656158,-0.0,0.00790072325617075
0.006789953447878361,-0.004604859743267298,-0.009531142190098763,0.013477472588419914,-0.0,0.006665199063718319
0.007204292807728052,-0.00449531152844429,-0.008838924579322338,0.013277421705424786,-0.0,0.006383178289979696
0.007270066998898983,-0.004675430711358786,-0.00928704347461462,0.01299370639026165,-0.0,0.0068184384144842625
0.007221678737550974,-0.0042768013663589954,-0.009513176046311855,0.013242023065686226,-0.0,0.0073232511058449745
0.007247728295624256,-0.004437857307493687,-0.009716285392642021,0.01301777083426714,-0.0,0.00704991165548563
0.007584587205201387,-0.004630715120583773,-0.009677526541054249,0.013613256625831127,-0.0,0.006799766793847084
0.007576056756079197,-0.004340869840234518,-0.009193998761475086,0.01304576639086008,-0.0,0.0070364889688789845
0.007112274877727032,-0.004314999096095562,-0.008968804962933064,0.013609321787953377,-0.0,0.007191925775259733
0.0067972405813634396,-0.0044686864130198956,-0.009576142765581608,0.013551844283938408,-0.0,0.007101641036570072
0.0075271837413311005,-0.004687462467700243,-0.00950027909129858,0.014261776581406593,-0.0,0.006800590083003044
0.007631127256900072,-0.004413087386637926,-0.008938077837228775,0.013894239440560341,-0.0,0.0071287029422819614
0.00755498418584466,-0.0044636912643909454,-0.010188308544456959,0.01449123676866293,-0.0,0.007014217786490917
0.007018657401204109,-0.00420999014750123,-0.009242934174835682,0.013938413932919502,-0.0,0.007086444646120071
0.007018657401204109,-0.00420999014750123,-0.009242934174835682,0.013938413932919502,-0.0,0.007086444646120071
0.0077707176096737385,-0.004300014115869999,-0.00890333205461502,0.014083045534789562,-0.0,0.0069931792095303535
0.008413365110754967,-0.00453308317810297,-0.009118836373090744,0.013675026595592499,-0.0,0.007422548718750477
0.0076568289659917355,-0.004632282070815563,-0.009765214286744595,0.013689350336790085,-0.0,0.007615836337208748
0.008121288381516933,-0.004394304007291794,-0.009171071462333202,0.013644245453178883,-0.0,0.007976002991199493
0.008121288381516933,-0.004394304007291794,-0.009171071462333202,0.013644245453178883,-0.0,0.007976002991199493
0.007563108112663031,-0.0042619588784873486,-0.009198252111673355,0.013712252490222454,-0.0,0.00716682244092226
0.007522061467170715,-0.004878298379480839,-0.008872070349752903,0.013698913156986237,-0.0,0.007087863981723785
0.007909626699984074,-0.004502663388848305,-0.00973222590982914,0.013633978553116322,-0.0,0.007512234151363373
0.008516904897987843,-0.004527335520833731,-0.009720036759972572,0.012632164172828197,-0.0,0.00773452827706933
0.007931136526167393,-0.004209192469716072,-0.009293771348893642,0.012502545490860939,-0.0,0.007800375111401081
0.008326253853738308,-0.00416044844314456,-0.009453975595533848,0.013416550122201443,-0.0,0.007653973065316677
0.008127579465508461,-0.004164126235991716,-0.009259837679564953,0.013036608695983887,-0.0,0.007608747575432062
0.007726776879280806,-0.004496275447309017,-0.009147429838776588,0.013760259374976158,-0.0,0.007575040217489004
0.007902084849774837,-0.004095342941582203,-0.010350802913308144,0.013462371192872524,-0.0,0.007600708864629269
0.008392062969505787,-0.0043603889644145966,-0.009657320566475391,0.013527341187000275,-0.0,0.0073805199936032295
0.008426478132605553,-0.0041236174292862415,-0.009012511000037193,0.013130614534020424,-0.0,0.007956968620419502
0.00766883697360754,-0.0038557215593755245,-0.010774287395179272,0.013224235735833645,-0.0,0.007879666984081268
0.00812081154435873,-0.004258377011865377,-0.009836125187575817,0.013406827114522457,-9.907641469908413e-06,0.00792080070823431
0.008369719609618187,-0.004085997585207224,-0.00929627288132906,0.012995555065572262,-6.468981723628531e-07,0.007592933718115091
0.008235347457230091,-0.003962548449635506,-0.009851560927927494,0.013370572589337826,-4.2237829234181845e-08,0.007521357852965593
0.00824029091745615,-0.0038414131850004196,-0.009813238866627216,0.013025536201894283,-2.7578281880380473e-09,0.007670287974178791
0.008547295816242695,-0.003948803059756756,-0.00955828558653593,0.013382118195295334,-1.800664756190784e-10,0.008145993575453758
0.00873926468193531,-0.0038828342221677303,-0.0105348015204072,0.012985027395188808,-1.175705366396329e-11,0.007696774322539568
0.00839532446116209,-0.00371978129260242,-0.009718243032693863,0.013774575665593147,-7.676516215228413e-13,0.008019962348043919
0.00792420469224453,-0.003457546466961503,-0.009219208732247353,0.013202447444200516,-5.0122164990500095e-14,0.007788518909364939
0.008264776319265366,-0.0035516791976988316,-0.010558374226093292,0.013555960729718208,-3.272619153143054e-15,0.0075237643904984
0.008859820663928986,-0.003873663954436779,-0.010022833943367004,0.013334689661860466,-2.136786590283476e-16,0.0076019479893147945
0.008525756187736988,-0.004139805678278208,-0.009576480835676193,0.013623220846056938,-1.395168977810117e-17,0.007535249926149845
0.008525756187736988,-0.004139805678278208,-0.009576480835676193,0.013623220846056938,-1.395168977810117e-17,0.007535249926149845
0.008619347587227821,-0.003962777554988861,-0.010244518518447876,0.013283827342092991,-9.109455742710929e-19,0.007549621164798737
0.008377322927117348,-0.0037225696723908186,-0.010493219830095768,0.014040104113519192,-5.947824099986646e-20,0.007959962822496891
0.008135505951941013,-0.003624866483733058,-0.009680351242423058,0.013270890340209007,-3.883504327701711e-21,0.00782554131001234
0.008738454431295395,-0.004118988290429115,-0.010100748389959335,0.013438679277896881,-1.655598632321985e-23,0.008045326918363571
0.008533043786883354,-0.003535242984071374,-0.010238598100841045,0.013068090192973614,-1.0809875369074782e-24,0.008264695294201374
0.008461086079478264,-0.0034349733032286167,-0.010220162570476532,0.013312273658812046,-7.058075953373224e-26,0.008212177082896233
0.009074036031961441,-0.003615452442318201,-0.01051414106041193,0.012995321303606033,-4.608419096968221e-27,0.007863340899348259
0.009186564944684505,-0.004294317681342363,-0.010373399592936039,0.013523440808057785,-3.0089682226698912e-28,0.008114520460367203
0.00868714228272438,-0.004181036725640297,-0.010588213801383972,0.013143707066774368,-1.9646411362694193e-29,0.007639684248715639
0.009499129839241505,-0.003556055948138237,-0.010334345512092113,0.013650546781718731,-1.2827701533574256e-30,0.007837082259356976
0.009052302688360214,-0.0034404671750962734,-0.010403419844806194,0.013330561108887196,-8.375572398267071e-32,0.008353233337402344
0.00846573431044817,-0.0035442905500531197,-0.010657291859388351,0.01345185935497284,-5.4686502472588005e-33,0.008782295510172844
0.008658915758132935,-0.003623122349381447,-0.011016692034900188,0.013150090351700783,-3.570637788608365e-34,0.008503060787916183
0.00908335018903017,-0.003672884777188301,-0.010684543289244175,0.013342496939003468,-0.00013770678197033703,0.008218333125114441
0.009201385080814362,-0.003734139259904623,-0.010470022447407246,0.013287194073200226,-0.00017149710038211197,0.009088411927223206
0.008555018343031406,-0.003643246367573738,-0.010263616219162941,0.01306059118360281,-0.00016765808686614037,0.00877812784165144
0.00995881948620081,-0.0035458088386803865,-0.011362732388079166,0.013489807955920696,-0.0001617956586414948,0.0085285110399127
0.009018415585160255,-0.0035600862465798855,-0.010111277922987938,0.013098377734422684,-0.0001561904646223411,0.008293380960822105
0.008526516146957874,-0.0036876739468425512,-0.010180763900279999,0.013126090168952942,-0.00015095101844053715,0.008294841274619102
0.009068514220416546,-0.0037041909527033567,-0.011194729246199131,0.01312417071312666,-0.00014605133037548512,0.007889742031693459
0.009128955192863941,-0.0035314150154590607,-0.010403257794678211,0.013428413309156895,-0.00016240653349086642,0.007992456667125225
0.008873064070940018,-0.003573173424229026,-0.010427584871649742,0.012892195954918861,-0.00016409785894211382,0.0088858837261796
0.008873064070940018,-0.003573173424229026,-0.010427584871649742,0.012892195954918861,-0.00016409785894211382,0.0088858837261796
0.009360169060528278,-0.003795566037297249,-0.010831916704773903,0.013657973147928715,-0.0001596782385604456,0.00841468945145607
0.0093652019277215,-0.0038518509827554226,-0.009907428175210953,0.013059193268418312,-0.00015511926903855056,0.007944048382341862
0.008856290951371193,-0.003959830850362778,-0.010129322297871113,0.013041828759014606,-0.0001507891865912825,0.008267858065664768
0.009035136550664902,-0.003969266545027494,-0.010097604244947433,0.013448595069348812,-0.00014669288066215813,0.008183530531823635
0.009378273040056229,-0.003781856270506978,-0.010506943799555302,0.013458804227411747,-0.00016347828204743564,0.008690216578543186
0.009086830541491508,-0.003532904200255871,-0.010396437719464302,0.013275769539177418,-0.00016211722686421126,0.008538254536688328
0.009620738215744495,-0.003631744533777237,-0.009747668169438839,0.013852153904736042,-0.0001543661201139912,0.008709708228707314
0.009652442298829556,-0.0040695276111364365,-0.010003190487623215,0.013327367603778839,-0.00015067483764141798,0.008958698250353336
0.009652442298829556,-0.0040695276111364365,-0.010003190487623215,0.013327367603778839,-0.00015067483764141798,0.008958698250353336
0.009880028665065765,-0.0037444743793457747,-0.00935712642967701,0.013188879005610943,-0.00015902872837614268,0.008953527547419071
0.009205062873661518,-0.00355239724740386,-0.00964716263115406,0.01316984836012125,-0.00016032476560212672,0.008517730049788952
0.009476834908127785,-0.003660287708044052,-0.01046435534954071,0.012668880634009838,-0.00015714127221144736,0.00843071099370718
0.009698629379272461,-0.003805460873991251,-0.01001663412898779,0.013157852925360203,-0.00015380492550320923,0.008633323013782501
0.00968912709504366,-0.003736324142664671,-0.010507182218134403,0.01315249502658844,-0.00015058950521051884,0.008656180463731289
0.009145651012659073,-0.0036002835258841515,-0.010348333977162838,0.013563230633735657,-0.00014750439731869847,0.008391880430281162
0.009645452722907066,-0.0035712711978703737,-0.010112022049725056,0.013087784871459007,-0.00014454316988121718,0.009211018681526184
0.009782502427697182,-0.0034399572759866714,-0.010278168134391308,0.012998339720070362,-0.00015605833323206753,0.00879740435630083
0.009264495223760605,-0.003534906543791294,-0.01057311613112688,0.012965655885636806,-0.000164178796694614,0.008858947083353996
0.009334697388112545,-0.0036169446539133787,-0.009960510767996311,0.012819783762097359,-0.00015927039203234017,0.009062918834388256
0.010233178734779358,-0.003432193072512746,-0.010959559120237827,0.013499838300049305,-0.000153882268932648,0.00908577535301447
0.00969039648771286,-0.0033614360727369785,-0.010050800628960133,0.012469747103750706,-0.0001487972476752475,0.008985907770693302
0.009763121604919434,-0.0031586000695824623,-0.010445669293403625,0.012792270630598068,-0.00015816056111361831,0.008763439953327179
0.010285093449056149,-0.0030133489053696394,-0.010834132321178913,0.0128129618242383,-0.0001665213203523308,0.009074334986507893
0.00980487372726202,-0.003167426912114024,-0.010306998156011105,0.013612954877316952,-0.0001623787684366107,0.008992520160973072
0.00985883828252554,-0.0033909212797880173,-0.010681726038455963,0.013939311727881432,-0.00015769308083690703,0.008842780254781246
0.010166225023567677,-0.0033400324173271656,-0.010762294754385948,0.014504003338515759,-0.00015322193212341517,0.009286625310778618
0.010292517021298409,-0.0030698662158101797,-0.011194754391908646,0.013821580447256565,-0.00014899425150360912,0.008834957145154476
0.009988696314394474,-0.002900947816669941,-0.011375969275832176,0.014047865755856037,-0.0001568597654113546,0.00883444957435131
0.010214355774223804,-0.003341866657137871,-0.011198064312338829,0.013695964589715004,-0.00016393228725064546,0.008905446156859398
0.009952916763722897,-0.003133336780592799,-0.010573825798928738,0.0139966681599617,-0.0001604848657734692,0.009149069897830486
0.01018575020134449,-0.0032404796220362186,-0.010820500552654266,0.014303179457783699,-0.00015654483286198229,0.008796955458819866
0.010226736776530743,-0.0032655461691319942,-0.010503176599740982,0.014145228080451488,-0.00015275206533260643,0.00871031079441309
0.010226736776530743,-0.0032655461691319942,-0.010503176599740982,0.014145228080451488,-0.00015275206533260643,0.00871031079441309
0.0103583550080657,-0.0030662664212286472,-0.011043664067983627,0.013705378398299217,-0.00014913597260601819,0.008975527249276638
0.010738221928477287,-0.0030641620978713036,-0.010714340023696423,0.01337994821369648,-0.00014568713959306479,0.00912669487297535
0.010275203734636307,-0.002994419075548649,-0.010121222585439682,0.013448954559862614,-0.00015239395725075155,0.009253944270312786
0.010474968701601028,-0.0031453317496925592,-0.010508059523999691,0.012985478155314922,-0.00015565365902148187,0.00898702535778284
0.010659530758857727,-0.003137340070679784,-0.010447608307003975,0.012637143023312092,-0.00015239894855767488,0.00867000687867403
0.011420264840126038,-0.003321502823382616,-0.011038342490792274,0.013040640391409397,-0.0001492425799369812,0.008912638761103153
0.010537597350776196,-0.003329438390210271,-0.010472085326910019,0.013066134415566921,-0.00014621209993492812,0.009305113926529884
0.010256710462272167,-0.003403692040592432,-0.010986006818711758,0.013906871899962425,-0.0001433019497198984,0.009043242782354355
0.010463311336934566,-0.0031973484437912703,-0.01087208092212677,0.013941778801381588,-0.000159045826876536,0.009111098013818264
0.010632505640387535,-0.0032221220899373293,-0.010163942351937294,0.014038613066077232,-0.00017075971118174493,0.009504834190011024
0.010381071828305721,-0.0033942244481295347,-0.010684728622436523,0.013448230922222137,-0.0001656341482885182,0.009139519184827805
0.011111462488770485,-0.003491472452878952,-0.011001343838870525,0.013380615040659904,-0.0001598261296749115,0.00987626425921917
0.010550948791205883,-0.0034223219845443964,-0.010235926136374474,0.012808665633201599,-0.00015434858505614102,0.009347752667963505
0.010340509004890919,-0.0032571174670010805,-0.011269070208072662,0.012794860638678074,-0.00014922981790732592,0.009498696774244308
0.010690595023334026,-0.003378350520506501,-0.011720707640051842,0.012491404078900814,-0.00014443915279116482,0.009666142985224724
0.009984496049582958,-0.003656423883512616,-0.011741041205823421,0.012424249202013016,-0.00016604994016233832,0.009776103310286999
0.009997428394854069,-0.0033680242486298084,-0.01055531669408083,0.01297666970640421,-0.00016274752852041274,0.009328815154731274
0.010633710771799088,-0.0031209823209792376,-0.009916220791637897,0.012935001403093338,-0.000158093505888246,0.009231911040842533
0.01026737131178379,-0.0030619625467807055,-0.010607719421386719,0.013612097129225731,-0.00015360354154836386,0.009726247750222683
0.010451963171362877,-0.003213976277038455,-0.010569237172603607,0.013140853494405746,-0.00014935510989744216,0.009471671655774117
0.010580668225884438,-0.0035350301768630743,-0.010038389824330807,0.01345185935497284,-0.0001453350851079449,0.010333913378417492
0.010852916166186333,-0.003373790765181184,-0.010901860892772675,0.01318623311817646,-0.00015311060997191817,0.009388301521539688
0.010553884319961071,-0.003447306342422962,-0.010731790214776993,0.013072851113975048,-0.0001601126859895885,0.0089683523401618
0.010563588701188564,-0.0032275414559990168,-0.010956160724163055,0.013186367228627205,-0.00015683846140746027,0.00981849990785122
0.010041672736406326,-0.003085267497226596,-0.011459850706160069,0.013440691865980625,-0.00015307396824937314,0.01016742642968893
0.010634268634021282,-0.0031028217636048794,-0.011346426792442799,0.013834230601787567,-0.00014944547729101032,0.009955944493412971
0.010557453148066998,-0.0031547280959784985,-0.01050623320043087,0.013554051518440247,-0.0001614457432879135,0.009745893999934196
0.010557453148066998,-0.0031547280959784985,-0.01050623320043087,0.013554051518440247,-0.0001614457432879135,0.009745893999934196
0.010427054017782211,-0.003007771447300911,-0.010750679299235344,0.013759869150817394,-0.00016270688502117991,0.010476729832589626
0.010549505241215229,-0.0032719862647354603,-0.01050132792443037,0.013871148228645325,-0.00015599153994116932,0.0095448549836874
0.011206228286027908,-0.0031221385579556227,-0.010404634289443493,0.013536392711102962,-0.00015268482093233615,0.009886878542602062
0.011570927686989307,-0.0031514258589595556,-0.010230042971670628,0.013714496046304703,-0.00018797905067913234,0.009970183484256268
0.010440679267048836,-0.003211048198863864,-0.0110181188210845,0.013140333816409111,-0.0001858245668699965,0.009778437204658985
0.011039056815207005,-0.0031518186442553997,-0.010688886977732182,0.013454574160277843,-0.00017880660016089678,0.010264573618769646
0.010829836130142212,-0.003058370901271701,-0.010835418477654457,0.013257838785648346,-0.0001719949214020744,0.010088948532938957
0.010082396678626537,-0.0033883373253047466,-0.010960685089230537,0.013568742200732231,-0.000165663703228347,0.009937936440110207
0.010964679531753063,-0.0029971785843372345,-0.011016201227903366,0.013453320600092411,-0.00015978064038790762,0.010248151607811451
0.010835392400622368,-0.003048039972782135,-0.01045199390500784,0.013674860820174217,-0.00017713788838591427,0.010144601576030254
0.01064104214310646,-0.0030551895033568144,-0.010829527862370014,0.013507516123354435,-0.00017849843425210565,0.009988810867071152
0.010845956392586231,-0.0029855803586542606,-0.010212183929979801,0.013507967814803123,-0.00017324280634056777,0.010559526272118092
0.010499224066734314,-0.0030341960955411196,-0.010993115603923798,0.01360462885349989,-0.00016788722132332623,0.010236593894660473
0.011199592612683773,-0.003021474462002516,-0.011169279925525188,0.013090098276734352,-0.0001628265017643571,0.01045137271285057
0.011441582813858986,-0.003140049520879984,-0.010356452316045761,0.013191673904657364,-0.00015805999282747507,0.010350151918828487
0.010733152739703655,-0.0031072008423507214,-0.010914984159171581,0.013148697093129158,-0.00017743889475241303,0.010254938155412674
0.011471832171082497,-0.003054944332689047,-0.01127102691680193,0.013588971458375454,-0.00017409256543032825,0.010289343073964119
0.01118407491594553,-0.0028823225293308496,-0.011203842237591743,0.013563249260187149,-0.00016950926510617137,0.010711790062487125
0.01109208445996046,-0.0029612239450216293,-0.011284933425486088,0.013318957760930061,-0.00016507446707691997,0.010246293619275093
0.011935869231820107,-0.002834942890331149,-0.010702600702643394,0.013257496058940887,-0.00016085943207144737,0.010551074519753456
0.011164257302880287,-0.0028591209556907415,-0.01131492666900158,0.01356756966561079,-0.00015685423568356782,0.010280934162437916
0.011351823806762695,-0.0027155850548297167,-0.010948684066534042,0.013258228078484535,-0.00016925166710279882,0.009907170198857784
0.011232143267989159,-0.0029040081426501274,-0.010817364789545536,0.013365419581532478,-0.0001703898306004703,0.010347897186875343
0.011232143267989159,-0.0029040081426501274,-0.010817364789545536,0.013365419581532478,-0.0001703898306004703,0.010347897186875343
0.011896816082298756,-0.002850475488230586,-0.011698511429131031,0.013175010681152344,-0.00016302434960380197,0.009840116836130619
0.012100417166948318,-0.0026085004210472107,-0.011549125425517559,0.013654844835400581,-0.00015941608580760658,0.010396977886557579
0.012100417166948318,-0.0026085004210472107,-0.011549125425517559,0.013654844835400581,-0.00015941608580760658,0.010396977886557579
0.011534678749740124,-0.002611952368170023,-0.011631210334599018,0.013512153178453445,-0.00015596271259710193,0.010143020190298557
0.011382156051695347,-0.002512602601200342,-0.011816343292593956,0.0134127177298069,-0.0001739446452120319,0.01008415687829256
0.012161415070295334,-0.00257264100946486,-0.011568089947104454,0.01364192645996809,-0.00016916226013563573,0.010432282462716103
0.011173300445079803,-0.0026702089235186577,-0.01192842610180378,0.01307899784296751,-0.0001631430786801502,0.010493646375834942
0.01287936419248581,-0.002523045986890793,-0.01250764075666666,0.013393659144639969,-0.00015744214761070907,0.010228770785033703
0.013071774505078793,-0.0026056983042508364,-0.011531657539308071,0.013071260415017605,-0.00015211942081805319,0.010574154555797577
0.013002485036849976,-0.0027306710835546255,-0.011694108135998249,0.013963179662823677,-0.00014714483404532075,0.01106431894004345
0.012832751497626305,-0.002613488119095564,-0.011185216717422009,0.013798335567116737,-0.00014248523802962154,0.011255850084125996
0.012941869907081127,-0.002799687208607793,-0.0116540202870965,0.013961265794932842,-0.00013811147073283792,0.011329260654747486
0.013094269670546055,-0.0025885216891765594,-0.011659943498671055,0.013375762850046158,-0.00013399873569142073,0.010774785652756691
0.013109896332025528,-0.0024320592638105154,-0.011970891617238522,0.013649648986756802,-0.00015271206211764365,0.010694392956793308
0.013554392382502556,-0.002425065264105797,-0.012007363140583038,0.013679773546755314,-0.000151535336044617,0.01075743231922388
0.012851065956056118,-0.0024523192550987005,-0.011433975771069527,0.013886742293834686,-0.0001475961325922981,0.01106220856308937
0.013436556793749332,-0.0023646848276257515,-0.012036624364554882,0.014099718071520329,-0.00014368222036864609,0.011192543432116508
0.013165613636374474,-0.0025294122751802206,-0.011935797519981861,0.014043339528143406,-0.00013995892368257046,0.010166729800403118
0.013543280772864819,-0.0023871755693107843,-0.01142938993871212,0.013944415375590324,-0.00013642267731484026,0.010507588274776936
0.013197332620620728,-0.002493130974471569,-0.011769580654799938,0.013639140874147415,-0.00013306118489708751,0.01096928957849741
0.013399886898696423,-0.002647807588800788,-0.011414171196520329,0.013433428481221199,-0.00012986085494048893,0.011467124335467815
0.013313863426446915,-0.0023365516681224108,-0.011838573031127453,0.013226836919784546,-0.00014248139632400125,0.011419461108744144
0.0132402703166008,-0.00226597604341805,-0.011711214669048786,0.0135616734623909,-0.00014419500075746328,0.011378300376236439
0.013380531221628189,-0.0023522109258919954,-0.011427780613303185,0.013573531061410904,-0.00014128597103990614,0.011734478175640106
0.01329429168254137,-0.0022974435705691576,-0.011800588108599186,0.013916702941060066,-0.00013820776075590402,0.011628741398453712
0.013575272634625435,-0.002472217660397291,-0.011297264136373997,0.013695667497813702,-0.0001352420513285324,0.012109169736504555
0.012989697977900505,-0.002378833945840597,-0.012549705803394318,0.014345336705446243,-0.00013239977124612778,0.011913246475160122
0.013542184606194496,-0.0022717018146067858,-0.011537039652466774,0.013603624887764454,-0.0001296745176659897,0.011844474822282791
0.013381543569266796,-0.00231893896125257,-0.011533839628100395,0.013493908569216728,-0.0001270593493245542,0.012007330544292927
0.01359096635133028,-0.002177364658564329,-0.011938399635255337,0.013015607371926308,-0.00012454739771783352,0.011865351349115372
0.013080989010632038,-0.0024481534492224455,-0.01140625774860382,0.013649031519889832,-0.00013507800758816302,0.011399672366678715
0.01351574994623661,-0.0022267447784543037,-0.012155191972851753,0.013704100623726845,-0.00013663187564816326,0.011713706888258457
0.01351715438067913,-0.0025207996368408203,-0.011320329271256924,0.01422171201556921,-0.0001343512994935736,0.011578314006328583
0.01351715438067913,-0.0025207996368408203,-0.011320329271256924,0.01422171201556921,-0.0001343512994935736,0.011578314006328583
0.013706372119486332,-0.0023622012231498957,-0.011052693240344524,0.014052930288016796,-0.00013190717436373234,0.011410025879740715
0.013608848676085472,-0.002380280289798975,-0.011261901818215847,0.013293230906128883,-0.00012724609405267984,0.01246690470725298
0.01359027810394764,-0.002132377354428172,-0.01162023562937975,0.013243335299193859,-0.0001250363129656762,0.012243738397955894
0.013468680903315544,-0.0021668989211320877,-0.012428916059434414,0.013713433407247066,-0.00012303190305829048,0.012029395438730717
0.013468680903315544,-0.0021668989211320877,-0.012428916059434414,0.013713433407247066,-0.00012303190305829048,0.012029395438730717
0.013738822191953659,-0.0022343203891068697,-0.012001526542007923,0.013531588017940521,-0.00012517422146629542,0.011779053136706352
0.014429401606321335,-0.002151539083570242,-0.011243916116654873,0.013512441888451576,-0.00012182244245195761,0.012179143726825714
0.014421083964407444,-0.0021332704927772284,-0.011878164485096931,0.014196948148310184,-0.00011861349776154384,0.012080291286110878
0.01417987048625946,-0.002079503145068884,-0.01198436226695776,0.014341306872665882,-0.00011556733807083219,0.012005480006337166
0.013703159987926483,-0.0020064879208803177,-0.011451651342213154,0.014483638107776642,-0.00011267354420851916,0.012366410344839096
0.01410641334950924,-0.002144420053809881,-0.011815181002020836,0.013865366578102112,-0.00012072340177837759,0.01194207463413477
0.013903417624533176,-0.001956375315785408,-0.011498084291815758,0.01398741640150547,-0.00012802996207028627,0.011843287386000156
0.014025525189936161,-0.0021046821493655443,-0.012090920470654964,0.013819403946399689,-0.00012571350089274347,0.01206254493445158
0.013520769774913788,-0.0019369571236893535,-0.011804880574345589,0.014952259138226509,-0.00012289579899515957,0.012314381077885628
0.014072339981794357,-0.002077725948765874,-0.01143586728721857,0.013959972187876701,-0.00012016369873890653,0.012138369493186474
0.013636020943522453,-0.0020252931863069534,-0.012068256735801697,0.01364502776414156,-0.00013207804295234382,0.01171533390879631
0.014230248518288136,-0.0020257916767150164,-0.011592541821300983,0.013425362296402454,-0.0001338871370535344,0.011941674165427685
0.014052951708436012,-0.00193022470921278,-0.012234593741595745,0.01435083243995905,-0.00013139635848347098,0.012246227823197842
0.014232573099434376,-0.001933303545229137,-0.01175396516919136,0.01392503920942545,-0.000128731073345989,0.013025864958763123
0.013738960027694702,-0.0017639667494222522,-0.011712251231074333,0.014357848092913628,-0.00012615449668373913,0.01263987272977829
0.01465979777276516,-0.0018229364650323987,-0.012261156924068928,0.013761918991804123,-0.00012367800809442997,0.013568304479122162
0.014155387878417969,-0.0016658167587593198,-0.011662956327199936,0.014006425626575947,-0.00012129676906624809,0.013110160827636719
0.014155387878417969,-0.0016658167587593198,-0.011662956327199936,0.014006425626575947,-0.00012129676906624809,0.013110160827636719
0.014091018587350845,-0.001768740126863122,-0.011942464858293533,0.014040599577128887,-0.0001334107801085338,0.012832732871174812
0.014091018587350845,-0.001768740126863122,-0.011942464858293533,0.014040599577128887,-0.0001334107801085338,0.012832732871174812
0.014243795536458492,-0.0018407221650704741,-0.01216252613812685,0.013988208957016468,-0.00017190816288348287,0.01136485394090414
0.01410053763538599,-0.001836187206208706,-0.011892962269484997,0.014476543292403221,-0.0002029738388955593,0.012236625887453556
0.01463024690747261,-0.0017609545029699802,-0.011443320661783218,0.013865047134459019,-0.00019664080173242837,0.012310375459492207
0.013757153414189816,-0.0017756290035322309,-0.012067608535289764,0.01387008372694254,-0.00018856575479730964,0.012990073300898075
0.014065917581319809,-0.0017132267821580172,-0.012033962644636631,0.014338563196361065,-0.00020642729941755533,0.013281689956784248
0.014390950091183186,-0.0017801937647163868,-0.011875473894178867,0.014065185561776161,-0.00020086301083210856,0.013251135125756264
0.013935579918324947,-0.0018718071514740586,-0.011324657127261162,0.014480390585958958,-0.0002096147509291768,0.012908520177006721
0.01449035108089447,-0.001921965624205768,-0.01175200380384922,0.013969860039651394,-0.00021719095821026713,0.012678899802267551
0.013874849304556847,-0.001974118873476982,-0.011421849019825459,0.014249544590711594,-0.0002108871703967452,0.012587359175086021
0.015071882866322994,-0.0019075339660048485,-0.01204451359808445,0.014171312563121319,-0.0002294168807566166,0.012970094569027424
0.014279873110353947,-0.0018606240628287196,-0.012718120589852333,0.013981867581605911,-0.00022570774308405817,0.012877264991402626
0.014703002758324146,-0.0016848794184625149,-0.011508048512041569,0.014160319231450558,-0.00033134041586890817,0.013289812952280045
0.014404918067157269,-0.0012724988628178835,-0.011738834902644157,0.0142858000472188,-0.00034263121779076755,0.013145675882697105
0.014669639989733696,-0.0010163158876821399,-0.011770030483603477,0.01404475700110197,-0.00035173335345461965,0.013682872988283634
0.014513162896037102,-0.0008743793587200344,-0.012825053185224533,0.014027879573404789,-0.00035714366822503507,0.013558038510382175
0.014996268786489964,-0.0008726265514269471,-0.011732450686395168,0.014161726459860802,-0.00033674100995995104,0.013178070075809956
0.01470466423779726,-0.0006770960171706975,-0.01200857013463974,0.013890598900616169,-0.0003662632661871612,0.013009645976126194
0.015341962687671185,-0.000547655625268817,-0.012792352586984634,0.013774711638689041,-0.0003491730894893408,0.013271627947688103
0.01503799483180046,-0.0005836865748278797,-0.011885405518114567,0.01376085914671421,-0.0003310298779979348,0.013486525043845177
0.015359418466687202,-0.0006121292826719582,-0.012417611666023731,0.014438409358263016,-0.0003145118826068938,0.013560759834945202
0.015244996175169945,-0.000637733843177557,-0.012177630327641964,0.014579547569155693,-0.00033941390574909747,0.013593149371445179
0.01549004577100277,-0.0007689552148804069,-0.012745345942676067,0.014252649620175362,-0.00032661293516866863,0.013539651408791542
0.015450539998710155,-0.0007318520802073181,-0.012726020067930222,0.013795028440654278,-0.00031408705399371684,0.013741516508162022
0.015332330949604511,-0.0007545341504737735,-0.012502268888056278,0.01413990929722786,-0.00035913719329982996,0.013635375536978245
0.015373190864920616,-0.0006634523742832243,-0.012431657873094082,0.013618223369121552,-0.00033683996298350394,0.01342991553246975
0.015178658068180084,-0.0005908315069973469,-0.012019607238471508,0.013829329051077366,-0.0003678299253806472,0.013284849934279919
0.01532871462404728,-0.0006104712374508381,-0.012680142186582088,0.013529511168599129,-0.0003513029951136559,0.013876865617930889
0.015330363996326923,-0.0005653519183397293,-0.011393542401492596,0.01386226061731577,-0.0003570777189452201,0.013913406059145927
0.015346757136285305,-0.0005189002840779722,-0.012995540164411068,0.013416379690170288,-0.00036130924127064645,0.014545355923473835
0.015029390342533588,-0.0005450280732475221,-0.012848946265876293,0.014075210317969322,-0.0003432349767535925,0.014272322878241539
0.015029390342533588,-0.0005450280732475221,-0.012848946265876293,0.014075210317969322,-0.0003432349767535925,0.014272322878241539
0.015909481793642044,-0.0005091019556857646,-0.012772921472787857,0.013620213605463505,-0.00035990774631500244,0.014445746317505836
0.01575477235019207,-0.0004419328470248729,-0.012633037753403187,0.013926082290709019,-0.0003530285321176052,0.013939586468040943
0.01609041355550289,-0.0004388222296256572,-0.013273014687001705,0.014028001576662064,-0.00040333045762963593,0.013625492341816425
0.016454843804240227,-0.00046636260231025517,-0.012607619166374207,0.01367215346544981,-0.00037590376450680196,0.01392443012446165
0.016385851427912712,-0.0004823750350624323,-0.01357362326234579,0.014033437706530094,-0.0004118271463084966,0.014395372942090034
0.016108740121126175,-0.00047101880772970617,-0.012783357873558998,0.013836473226547241,-0.0004178513481747359,0.013995490036904812
0.016344035044312477,-0.0006802243879064918,-0.01289139874279499,0.014509543776512146,-0.0004189883475191891,0.014148024842143059
0.016071241348981857,-0.0006000849534757435,-0.012941732071340084,0.014035992324352264,-0.00044337689178064466,0.014315105974674225
0.016440747305750847,-0.0006338504026643932,-0.013042759150266647,0.014307701960206032,-0.00042702065547928214,0.013958371244370937
0.016034120693802834,-0.0005685020005330443,-0.013232269324362278,0.01337925624102354,-0.0006151154520921409,0.014354389160871506
0.016816172748804092,-0.0005143416929058731,-0.013074400834739208,0.014791297726333141,-0.0006071000825613737,0.01466556079685688
0.01667160540819168,-0.0005383812240324914,-0.013300343416631222,0.013679556548595428,-0.0005933661595918238,0.01482693012803793
0.016761166974902153,-0.0005038908566348255,-0.012824080884456635,0.013495108112692833,-0.00057878257939592,0.014968553557991982
0.016718391329050064,-0.0005253106355667114,-0.013233127072453499,0.013564825989305973,-0.0005324461380951107,0.014694263227283955
0.016595564782619476,-0.0004964412655681372,-0.012791489250957966,0.013757804408669472,-0.0005562644801102579,0.014242252334952354
0.017073487862944603,-0.0004689398338086903,-0.013549283146858215,0.014534476213157177,-0.0005203066975809634,0.014666189439594746
0.016585903242230415,-0.0004204008437227458,-0.01271668728441,0.014410366304218769,-0.0005196362617425621,0.014870068989694118
0.016987673938274384,-0.0003844093589577824,-0.013633351773023605,0.014715582132339478,-0.0004986345302313566,0.014722337946295738
0.01690378226339817,-0.0003541474579833448,-0.01387056428939104,0.014803406782448292,-0.0004510055878199637,0.014473075978457928
0.016728878021240234,-0.0003283021505922079,-0.013349142856895924,0.014494648203253746,-0.00048065048758871853,0.014683532528579235
0.017531493678689003,-0.00036628931411542,-0.013169937767088413,0.013848373666405678,-0.00045016082003712654,0.014654327183961868
0.01757379248738289,-0.0003437786363065243,-0.013190594501793385,0.01393570564687252,-0.0004805242351721972,0.015307254157960415
0.01746528409421444,-0.0003232097369618714,-0.013253246434032917,0.01364027988165617,-0.0004503961536101997,0.015268392860889435
0.017936158925294876,-0.0003382294380571693,-0.012629088945686817,0.014236894436180592,-0.0004647884634323418,0.0157373808324337
0.01739479973912239,-0.0003365249140188098,-0.013361355289816856,0.01380146574229002,-0.00044955621706321836,0.015267666429281235
0.01717125065624714,-0.00031966716051101685,-0.012503319419920444,0.013969858177006245,-0.0004582391702570021,0.01524370163679123
0.01718476042151451,-0.0003327172889839858,-0.013162978924810886,0.014054717496037483,-0.0004908418050035834,0.01489530224353075
0.01718476042151451,-0.0003327172889839858,-0.013162978924810886,0.014054717496037483,-0.0004908418050035834,0.01489530224353075
0.01781746745109558,-0.0003314754576422274,-0.012654119171202183,0.014496096409857273,-0.00048786253319121897,0.015245414339005947
0.01791832037270069,-0.00033422495471313596,-0.013781740330159664,0.014292532578110695,-0.0005049133906140924,0.015429574996232986
0.0176694393157959,-0.0003192362783011049,-0.013213631696999073,0.014368930831551552,-0.0004833734128624201,0.01566884107887745
0.017796410247683525,-0.00033549731597304344,-0.013181911781430244,0.014394935220479965,-0.0004758168070111424,0.015266512520611286
0.018029263243079185,-0.00031595525797456503,-0.013082247227430344,0.014103978872299194,-0.0004497262998484075,0.015449399128556252
0.01807515136897564,-0.0003475299454294145,-0.013405835255980492,0.014162632636725903,-0.00042350150761194527,0.015369291417300701
0.018122728914022446,-0.00032998478855006397,-0.013204253278672695,0.013690357096493244,-0.00040179159259423614,0.015502579510211945
0.018412727862596512,-0.0003135679289698601,-0.013694281689822674,0.014049191027879715,-0.0004405686922837049,0.015590852126479149
0.018276190385222435,-0.00033962688758037984,-0.01319898385554552,0.013399610295891762,-0.0004059303901158273,0.015723396092653275
0.017843952402472496,-0.00032589377951808274,-0.013586713932454586,0.013866274617612362,-0.00043688187724910676,0.01552526094019413
0.017896467819809914,-0.00031311422935687006,-0.013070530258119106,0.013568250462412834,-0.0004122774407733232,0.016344863921403885
0.01786939613521099,-0.00039592673419974744,-0.013756741769611835,0.013986865058541298,-0.00043875526171177626,0.014936636202037334
0.01829938404262066,-0.00036527117481455207,-0.013394617475569248,0.014112795703113079,-0.00041725111077539623,0.015351139940321445
0.01907094195485115,-0.00040444909245707095,-0.013496181927621365,0.014264373108744621,-0.00039178633596748114,0.015466373413801193
0.018380338326096535,-0.0003770959156099707,-0.013292759656906128,0.014083554036915302,-0.00040769047336652875,0.016094312071800232
0.018579622730612755,-0.0003524890053085983,-0.013568374328315258,0.014352470636367798,-0.00039733212906867266,0.015890682116150856
0.018804170191287994,-0.00038524577394127846,-0.01321242842823267,0.014314580708742142,-0.00037763052387163043,0.015932179987430573
0.018417470157146454,-0.00036373204784467816,-0.013506880961358547,0.014577710069715977,-0.00040788171463645995,0.016023289412260056
0.01902473345398903,-0.0003438846324570477,-0.013602526858448982,0.014252795837819576,-0.0003778443206101656,0.016090188175439835
0.018917256966233253,-0.00032608435139991343,-0.013309606350958347,0.01442311517894268,-0.0004000285407528281,0.01624940149486065
0.018756719306111336,-0.0003537005395628512,-0.013624831102788448,0.014279737137258053,-0.0003872465167660266,0.015833431854844093
0.019110240042209625,-0.00033769712899811566,-0.01376625057309866,0.01464018039405346,-0.00041447579860687256,0.016079572960734367
0.0188731886446476,-0.00032257381826639175,-0.013972471468150616,0.0144418403506279,-0.00039562859456054866,0.01615026965737343
0.018806301057338715,-0.0003087407967541367,-0.013316909782588482,0.014635024592280388,-0.00039860597462393343,0.01610512286424637
0.01962084136903286,-0.00029604561859741807,-0.013668881729245186,0.014225243590772152,-0.00040037589496932924,0.01618378423154354
0.019511591643095016,-0.0002843528345692903,-0.013166189193725586,0.014601531438529491,-0.0003807638422586024,0.016550661996006966
0.019477546215057373,-0.0002797899942379445,-0.01396134216338396,0.014126226305961609,-0.00044506374979391694,0.016484901309013367
0.019477546215057373,-0.0002797899942379445,-0.01396134216338396,0.014126226305961609,-0.00044506374979391694,0.016484901309013367
0.01964118517935276,-0.00026446612901054323,-0.013498907908797264,0.014376640319824219,-0.0004170059983152896,0.016023308038711548
0.01964157447218895,-0.0002497984387446195,-0.014418632723391056,0.014100631698966026,-0.0004534370673354715,0.0161769799888134
0.019702794030308723,-0.00022483417706098408,-0.014382251538336277,0.014219958335161209,-0.00044864718802273273,0.01646125130355358
0.020101338624954224,-0.00021413437207229435,-0.01383480429649353,0.014217035844922066,-0.0004260105488356203,0.01659383811056614
0.019757529720664024,-0.00020440688240341842,-0.014057343825697899,0.014057476073503494,-0.00044882053043693304,0.01652594655752182
0.019747700542211533,-0.00019552491721697152,-0.013836251571774483,0.014401485212147236,-0.00042885166476480663,0.016759531572461128
0.01998499594628811,-0.00018738218932412565,-0.014384914189577103,0.014895417727530003,-0.0005059341783635318,0.01657271943986416
0.019842088222503662,-0.00017989113985095173,-0.014045928604900837,0.014274517074227333,-0.0005144894239492714,0.016862748190760612
0.01980816014111042,-0.00017297598242294043,-0.014807894825935364,0.013308180496096611,-0.0005078399553894997,0.01705361157655716
0.020209843292832375,-0.00016657286323606968,-0.013861646875739098,0.013842415064573288,-0.0005042563425377011,0.017296073958277702
0.020423326641321182,-0.00016062699432950467,-0.01494720857590437,0.014111639000475407,-0.0004986582789570093,0.01729484274983406
0.02010253630578518,-0.00015509087825194,-0.014438292011618614,0.014249678701162338,-0.0004641485575120896,0.0168294720351696
0.020614832639694214,-0.00014992359501775354,-0.014546960592269897,0.014159700833261013,-0.0004624132125172764,0.017155339941382408
0.020497454330325127,-0.00014508955064229667,-0.01429374422878027,0.014320082031190395,-0.00046036680578254163,0.01706690900027752
0.01986055262386799,-0.0001405575021635741,-0.014902157709002495,0.014554912224411964,-0.000496674154419452,0.01746045984327793
0.020352259278297424,-0.00013629997556563467,-0.01482410728931427,0.01481629628688097,-0.0005127855692990124,0.018190152943134308
0.020758477970957756,-0.00013229304749984294,-0.015556246042251587,0.014863901771605015,-0.0005067449528723955,0.01698925718665123
0.021451182663440704,-0.000128514802781865,-0.014979269355535507,0.01493934728205204,-0.00046576187014579773,0.0171143040060997
0.020759284496307373,-0.00012494655675254762,-0.015425046905875206,0.014856996946036816,-0.000495331478305161,0.0174272358417511
0.02093595638871193,-0.00012157099263276905,-0.014837045222520828,0.015259535983204842,-0.0004953452153131366,0.017869366332888603
0.02064642868936062,-0.00011837290367111564,-0.015487248077988625,0.015350526198744774,-0.000491203332785517,0.018138891085982323
0.01996512897312641,-0.0001153388584498316,-0.015293478034436703,0.01573079638183117,-0.00046453552204184234,0.017789212986826897
0.0216227900236845,-0.00011245657515246421,-0.015995176509022713,0.015018186531960964,-0.0005305921658873558,0.01782185211777687
0.021876759827136993,-0.00010971479787258431,-0.015486394055187702,0.015549159608781338,-0.0004816986620426178,0.0178495142608881
0.02108750492334366,-0.00010710352216847241,-0.015924571081995964,0.01464499719440937,-0.00043553757132031024,0.017910480499267578
0.02062450535595417,-0.00010461360216140747,-0.01565657928586006,0.01454046182334423,-0.00039708902477286756,0.01734570786356926
0.02062450535595417,-0.00010461360216140747,-0.01565657928586006,0.01454046182334423,-0.00039708902477286756,0.01734570786356926
0.021146198734641075,-0.00010223686695098877,-0.01520058698952198,0.013838793151080608,-0.0004326468042563647,0.017075190320611
0.02190500870347023,-9.996574954129755e-05,-0.015497361309826374,0.014132348820567131,-0.0004542053211480379,0.017784951254725456
0.02129087597131729,-9.571330883773044e-05,-0.01619190350174904,0.014985929243266582,-0.0004653151554521173,0.018026867881417274
0.021046152338385582,-9.37199147301726e-05,-0.01572897657752037,0.014663487672805786,-0.00044046525727026165,0.018194055184721947
0.021243412047624588,-9.180785127682611e-05,-0.016160013154149055,0.014996739104390144,-0.0004459269985090941,0.018113767728209496
0.021350258961319923,-8.997230179375038e-05,-0.015845254063606262,0.014680885709822178,-0.00041116721695289016,0.018210867419838905
0.02156268060207367,-8.820869697956368e-05,-0.016175854951143265,0.015688341110944748,-0.0004135427298024297,0.018455278128385544
0.021689999848604202,-8.651287498651072e-05,-0.015739887952804565,0.015368469059467316,-0.0004149594169575721,0.018455255776643753
0.02171127125620842,-8.488101593684405e-05,-0.015821851789951324,0.0155173996463418,-0.0003873544337693602,0.018710115924477577
0.021598905324935913,-8.330960554303601e-05,-0.015861451625823975,0.014693515375256538,-0.0003615448949858546,0.018354713916778564
0.021488549187779427,-8.17954060039483e-05,-0.015507178381085396,0.014437670819461346,-0.0003876741393469274,0.01770404726266861
0.021362172439694405,-8.033525227801874e-05,-0.015947440639138222,0.0137688759714365,-0.00037147762486711144,0.017881294712424278
0.022093676030635834,-7.892621943028644e-05,-0.01554097980260849,0.01433779951184988,-0.00039790201117284596,0.018168531358242035
0.02203851379454136,-7.756577542750165e-05,-0.016419967636466026,0.013703744858503342,-0.0003799717815127224,0.01806231029331684
0.021809780970215797,-7.625154103152454e-05,-0.015690334141254425,0.014276573434472084,-0.0004083119856659323,0.018635638058185577
0.021977532655000687,-7.498103514080867e-05,-0.0157856997102499,0.014456241391599178,-0.000389464054023847,0.018624354153871536
0.02225564792752266,-7.375214772764593e-05,-0.01535700261592865,0.015049655921757221,-0.0004121715319342911,0.018692336976528168
0.022325310856103897,-7.256295793922618e-05,-0.016039501875638962,0.015231398865580559,-0.0003982030029874295,0.018852077424526215
0.022086936980485916,-7.141142850741744e-05,-0.016378270462155342,0.015417384915053844,-0.00037184206303209066,0.018359236419200897
0.022308262065052986,-7.029592234175652e-05,-0.016127778217196465,0.015095703303813934,-0.0004018848412670195,0.018518703058362007
0.022817809134721756,-6.921479507582262e-05,-0.016088344156742096,0.01510961726307869,-0.00040759771945886314,0.01967605948448181
0.022817809134721756,-6.921479507582262e-05,-0.016088344156742096,0.01510961726307869,-0.00040759771945886314,0.01967605948448181
0.0225063543766737,-6.71491288812831e-05,-0.016396090388298035,0.015481065958738327,-0.0003886268241330981,0.0184952262789011
0.0225063543766737,-6.71491288812831e-05,-0.016396090388298035,0.015481065958738327,-0.0003886268241330981,0.0184952262789011
0.02251056581735611,-6.61619269521907e-05,-0.015434850938618183,0.015854395925998688,-0.0004443761717993766,0.018966233357787132
0.02224484086036682,-6.52033559163101e-05,-0.01587316207587719,0.015193126164376736,-0.00042817770736292005,0.018677638843655586
0.022777538746595383,-6.427205516956747e-05,-0.0160493403673172,0.015393578447401524,-0.0003925084602087736,0.01880876161158085
0.022991497069597244,-6.248713907552883e-05,-0.016129253432154655,0.01579025387763977,-0.00039985112380236387,0.018833959475159645
0.02278364822268486,-6.163138459669426e-05,-0.016052216291427612,0.014959110878407955,-0.00037327417521737516,0.019069377332925797
0.02258901298046112,-4.912318036076613e-05,-0.01607326976954937,0.015139695256948471,-0.0003491918323561549,0.01876135542988777
0.023103997111320496,-4.7997073124861345e-05,-0.015686579048633575,0.014805417507886887,-0.000327977177221328,0.01880749687552452
0.0233449786901474,-4.735938637168147e-05,-0.01627807505428791,0.016040373593568802,-0.00035376427695155144,0.01907944120466709
0.023025942966341972,-4.674433512263931e-05,-0.01572205126285553,0.014679327607154846,-0.000340724247507751,0.01910415105521679
0.02304796874523163,-3.854778333334252e-05,-0.01607268676161766,0.014146304689347744,-0.0003236148913856596,0.019124813377857208
0.022959860041737556,6.935121291462565e-06,-0.01579364389181137,0.014333566650748253,-0.0003078243462368846,0.01934019848704338
0.023342881351709366,4.103242827113718e-05,-0.01600443758070469,0.014880779199302197,-0.0003244376857765019,0.019368909299373627
0.02345091663300991,4.122571772313677e-05,-0.016282035037875175,0.014756913296878338,-0.0003197582555003464,0.01945888251066208
0.023518521338701248,4.061657818965614e-05,-0.016117602586746216,0.014737552031874657,-0.000306768313748762,0.019281968474388123
0.02293192222714424,4.0014787373365834e-05,-0.016308194026350975,0.014411709271371365,-0.0002933584910351783,0.01904231309890747
0.02368505485355854,3.9430440665455535e-05,-0.015772728249430656,0.01469393540173769,-0.00027545689954422414,0.01952042244374752
0.023855898529291153,3.886293416144326e-05,-0.016337767243385315,0.01457582414150238,-0.00025956486933864653,0.020214203745126724
0.024060573428869247,3.831147478194907e-05,-0.015754425898194313,0.015056204050779343,-0.00028787346673198044,0.019707895815372467
0.023937853053212166,3.777552774408832e-05,-0.016094094142317772,0.014851588755846024,-0.0002788187703117728,0.019275465980172157
0.023497531190514565,3.725427086465061e-05,-0.015743887051939964,0.01472614984959364,-0.000298146071145311,0.018999574705958366
0.022537628188729286,4.756784619530663e-05,-0.016115693375468254,0.014487842097878456,-0.00029448774876073003,0.019230585545301437
0.023156119510531425,4.831937258131802e-05,-0.01661180891096592,0.014730634167790413,-0.00031951157143339515,0.019310878589749336
0.023156119510531425,4.831937258131802e-05,-0.01661180891096592,0.014730634167790413,-0.00031951157143339515,0.019310878589749336
0.02387203648686409,4.769780935021117e-05,-0.01595791056752205,0.01509717758744955,-0.00030831890762783587,0.020068475976586342
0.023543259128928185,4.70743871119339e-05,-0.01628527045249939,0.014821106567978859,-0.000295811565592885,0.020313560962677002
0.023583615198731422,4.646679008146748e-05,-0.01586839184165001,0.014958594925701618,-0.00042022429988719523,0.019463779404759407
0.023968923836946487,4.5874658098910004e-05,-0.016431385651230812,0.014850510284304619,-0.0004028359253425151,0.019492527469992638
0.0237193051725626,5.5912209063535556e-05,-0.016242222860455513,0.01500235591083765,-0.00040189753053709865,0.020322460681200027
0.0237193051725626,5.5912209063535556e-05,-0.016242222860455513,0.01500235591083765,-0.00040189753053709865,0.020322460681200027
0.02377869188785553,5.4562289733439684e-05,-0.016300158575177193,0.014581040479242802,-0.00041419430635869503,0.019494911655783653
0.02375561185181141,0.0002020739484578371,-0.016504844650626183,0.014799687080085278,-0.00044231448555365205,0.019143598154187202
0.023892473429441452,0.0002114418166456744,-0.016167961061000824,0.014998814091086388,-0.00042001245310530066,0.02059347741305828
0.024093883112072945,0.0002021939872065559,-0.016654562205076218,0.015345748513936996,-0.0004910478601232171,0.019101334735751152
0.023910971358418465,0.000193502550246194,-0.01627279818058014,0.01536361500620842,-0.0005172495730221272,0.019268864765763283
0.024078024551272392,0.00021823507267981768,-0.016935620456933975,0.015649298205971718,-0.0005113527295179665,0.019899554550647736
0.0239932369440794,0.0002137557603418827,-0.016838345676660538,0.01522543653845787,-0.0005371597944758832,0.02030857652425766
0.02425665594637394,0.00020566961029544473,-0.016691384837031364,0.015548663213849068,-0.0005564210005104542,0.020129060372710228
0.02417389675974846,0.00019812396203633398,-0.016941281035542488,0.01539954449981451,-0.0005322747747413814,0.01987849548459053
0.02386859804391861,0.0001911122672026977,-0.01619010418653488,0.01604337804019451,-0.0004966513952240348,0.01983986236155033
0.023899201303720474,0.00018457992700859904,-0.016767505556344986,0.01565537042915821,-0.0005642519681714475,0.01996009610593319
0.0247684046626091,0.00020781236526090652,-0.016928166151046753,0.01540453638881445,-0.0005328156403265893,0.020247606560587883
0.024275755509734154,0.00020155754464212805,-0.017508337274193764,0.015133973211050034,-0.0004784166521858424,0.02059042640030384
0.02439497970044613,0.00019531446741893888,-0.0172368586063385,0.01525473315268755,-0.0005127711920067668,0.020938968285918236
0.024299317970871925,0.0002154122048523277,-0.016487058252096176,0.015330505557358265,-0.0005111763020977378,0.020701829344034195
0.02393428608775139,0.00021049351198598742,-0.016963647678494453,0.01524124015122652,-0.0005051211337558925,0.02094067633152008
0.024326978251338005,0.00028689944883808494,-0.01629638858139515,0.015527918934822083,-0.0005190314841456711,0.020807718858122826
0.02439592406153679,0.0002708380052354187,-0.017611656337976456,0.01555548794567585,-0.0004985552513971925,0.02085653692483902
0.023469513282179832,0.00025547598488628864,-0.017431052401661873,0.015905214473605156,-0.0005329643609002233,0.020780403167009354
0.023469513282179832,0.00025547598488628864,-0.017431052401661873,0.015905214473605156,-0.0005329643609002233,0.020780403167009354
0.0254419706761837,0.00028811467927880585,-0.016674667596817017,0.015324153937399387,-0.0005704338545911014,0.020696599036455154
0.024783071130514145,0.0002752822474576533,-0.017512338235974312,0.01571342907845974,-0.0005691990372724831,0.021028589457273483
0.024803401902318,0.00030382422846741974,-0.01683451235294342,0.01508867647498846,-0.0005578221171163023,0.021451959386467934
0.024464484304189682,0.000291447649942711,-0.01713375374674797,0.015233084559440613,-0.000578208127990365,0.02114119939506054
0.024839486926794052,0.000313663826091215,-0.016584377735853195,0.015113278292119503,-0.0006550672696903348,0.02102101594209671
0.02465769276022911,0.0003048335784114897,-0.016761500388383865,0.0156076205894351,-0.0007625458529219031,0.02159367874264717
0.02561742253601551,0.0003953568811994046,-0.01748446747660637,0.015950337052345276,-0.0007001421181485057,0.021521488204598427
0.026133298873901367,0.0004103667160961777,-0.016946593299508095,0.015929168090224266,-0.0007177914376370609,0.021332750096917152
0.025468841195106506,0.0004170727916061878,-0.01685177907347679,0.015535366721451283,-0.0006729417364113033,0.021847521886229515
0.024506550282239914,0.00045080078416503966,-0.017137577757239342,0.015574110671877861,-0.0007098249043338001,0.021603798493742943
0.025238117203116417,0.00046085522626526654,-0.017273420467972755,0.015145333483815193,-0.0006282585673034191,0.021532924845814705
0.02581566385924816,0.0004512241284828633,-0.016583114862442017,0.015534580685198307,-0.0006543726776726544,0.021135453134775162
0.02566990815103054,0.00042854613275267184,-0.017381837591528893,0.0153373247012496,-0.000674088834784925,0.021460924297571182
0.02576480247080326,0.0005446021677926183,-0.017258433625102043,0.01593875326216221,-0.0006623000954277813,0.021834902465343475
0.026770999655127525,0.0005734276492148638,-0.01730540208518505,0.016184436157345772,-0.0006424696184694767,0.02162175066769123
0.026475252583622932,0.0005279695615172386,-0.017801884561777115,0.015353664755821228,-0.000660271558444947,0.021942907944321632
0.026781458407640457,0.0005578497075475752,-0.017177317291498184,0.015146137215197086,-0.0006858350825496018,0.022310620173811913
0.02617265284061432,0.0005799951031804085,-0.017250249162316322,0.015869513154029846,-0.0006335364887490869,0.022120969370007515
0.025881730020046234,0.0006674985634163022,-0.016999579966068268,0.01568482257425785,-0.0005685828509740531,0.022152617573738098
0.02652851492166519,0.0007554938783869147,-0.017438678070902824,0.015595177188515663,-0.0005940113915130496,0.022518932819366455
0.026859167963266373,0.0008494191570207477,-0.01807478815317154,0.015556052327156067,-0.0005475379293784499,0.02233024686574936
0.02665071003139019,0.0011411436134949327,-0.017181722447276115,0.015305288136005402,-0.0005040307296440005,0.02244415320456028
0.026819640770554543,0.0012265340192243457,-0.01762479357421398,0.01593361236155033,-0.000524236704222858,0.02347492426633835
0.026668859645724297,0.001127866329625249,-0.017357394099235535,0.015446645207703114,-0.0004959526122547686,0.021794885396957397
0.0268388781696558,0.000999127165414393,-0.017463183030486107,0.015772443264722824,-0.0004731429216917604,0.021515104919672012
0.027051424607634544,0.000980663811787963,-0.017653552815318108,0.015057013370096684,-0.0004745277692563832,0.022556545212864876
0.027051424607634544,0.000980663811787963,-0.017653552815318108,0.015057013370096684,-0.0004745277692563832,0.022556545212864876
0.02731933444738388,0.0008662249310873449,-0.016889996826648712,0.015523133799433708,-0.00047116828500293195,0.02299584448337555
0.027397463098168373,0.0009663606761023402,-0.01786256581544876,0.01531379297375679,-0.0004707799234893173,0.022708717733621597
0.027956580743193626,0.0009871689835563302,-0.01747460477054119,0.01571756787598133,-0.00046799553092569113,0.021614287048578262
0.027706481516361237,0.0014416181948035955,-0.01719827763736248,0.015708042308688164,-0.0004957285709679127,0.021735897287726402
0.027941035106778145,0.0013863318599760532,-0.017747413367033005,0.01592070795595646,-0.0004707075422629714,0.022908862680196762
0.027841074392199516,0.0013115252368152142,-0.017525050789117813,0.01591811701655388,-0.0005960555863566697,0.023680157959461212
0.028174402192234993,0.0013335645198822021,-0.017612146213650703,0.016088325530290604,-0.0006587794632650912,0.022650480270385742
0.028397252783179283,0.0012572546256706119,-0.01727958209812641,0.015616518445312977,-0.000670442939735949,0.023500820621848106
0.02871047891676426,0.0013628429733216763,-0.017942914739251137,0.016265369951725006,-0.0006319002714008093,0.0244047362357378
0.028384409844875336,0.001332647167146206,-0.018311023712158203,0.01586618460714817,-0.0007259508711285889,0.02334258146584034
0.02860376611351967,0.0015299121150746942,-0.017910445109009743,0.01646423526108265,-0.0007569715962745249,0.02237642928957939
0.02901429310441017,0.0016988726565614343,-0.01813328079879284,0.016547759994864464,-0.0007606638828292489,0.022313911467790604
0.028782226145267487,0.0017916911747306585,-0.017618408426642418,0.016838928684592247,-0.0007019983022473752,0.023142743855714798
0.029041964560747147,0.001871363609097898,-0.017940599471330643,0.016652911901474,-0.0007108923746272922,0.023884858936071396
0.029180308803915977,0.0018213759176433086,-0.0181049145758152,0.016050003468990326,-0.000661212601698935,0.02376357652246952
0.02935420721769333,0.0017917874502018094,-0.01811288669705391,0.016368381679058075,-0.0006753355264663696,0.023539293557405472
0.02953212521970272,0.0016807600622996688,-0.018777281045913696,0.016377611085772514,-0.000650268979370594,0.023706743493676186
0.02988128550350666,0.0018560743192210793,-0.018708083778619766,0.01709369197487831,-0.0006255952757783234,0.023632140830159187
0.02982407994568348,0.001748762559145689,-0.017877867445349693,0.017025617882609367,-0.0005635538254864514,0.02378985472023487
0.029650673270225525,0.0020811932627111673,-0.018512027338147163,0.01691378653049469,-0.0005836712080053985,0.0236645620316267
0.02960672415792942,0.002422699239104986,-0.018681718036532402,0.017127839848399162,-0.0005432593752630055,0.02375066466629505
0.029952744022011757,0.002265159972012043,-0.019148414954543114,0.016426706686615944,-0.0005531951901502907,0.023754920810461044
0.030976073816418648,0.0021965843625366688,-0.01863126829266548,0.016604574397206306,-0.0005288651445880532,0.023741349577903748
0.031020985916256905,0.002092968439683318,-0.01801619865000248,0.016322309151291847,-0.0004974835319444537,0.023795505985617638
0.028289860114455223,0.002227319171652198,-0.01910215988755226,0.016518689692020416,-0.0004545506672002375,0.0240474883466959
0.0297929085791111,0.002244386123493314,-0.018524186685681343,0.01651903986930847,-0.0004899502382613719,0.023927884176373482
0.030823521316051483,0.0024289977736771107,-0.01794854924082756,0.016362138092517853,-0.0005240825703367591,0.02385808899998665
0.030823521316051483,0.0024289977736771107,-0.01794854924082756,0.016362138092517853,-0.0005240825703367591,0.02385808899998665
0.02998943068087101,0.0027112208772450686,-0.018736956641077995,0.016162084415555,-0.0005532224895432591,0.023910824209451675
0.030397146940231323,0.0028349594213068485,-0.019386237487196922,0.015996215865015984,-0.0007768882787786424,0.024090273305773735
0.031306106597185135,0.002628932474181056,-0.018585525453090668,0.01704656146466732,-0.0007367313373833895,0.023870788514614105
0.03087935969233513,0.0025189497973769903,-0.018675468862056732,0.017111530527472496,-0.0007469996344298124,0.024163667112588882
0.02972164936363697,0.0025092032738029957,-0.018611645326018333,0.017089908942580223,-0.0006918548606336117,0.02425805851817131
0.031045550480484962,0.0029394980520009995,-0.01891390047967434,0.016541749238967896,-0.0006692760507576168,0.023938579484820366
0.031075114384293556,0.0030339546501636505,-0.01846970245242119,0.01641811430454254,-0.0006480602314695716,0.023830970749258995
0.03137616068124771,0.002997827949002385,-0.018547650426626205,0.016118302941322327,-0.0006033014506101608,0.024287011474370956
0.030874483287334442,0.002767732134088874,-0.018859684467315674,0.016817796975374222,-0.0005399049259722233,0.02489602193236351
0.030973413959145546,0.002956096548587084,-0.0181074608117342,0.0167047381401062,-0.0005719578475691378,0.024924447759985924
0.030500419437885284,0.003429367672652006,-0.018697256222367287,0.016965903341770172,-0.0005974485538899899,0.024173690006136894
0.03049304708838463,0.0037435577251017094,-0.019060181453824043,0.016861870884895325,-0.0006300439708866179,0.023581096902489662
0.030519219115376472,0.003492908552289009,-0.018437176942825317,0.016361597925424576,-0.0009682267555035651,0.02328425645828247
0.030456533655524254,0.003374073188751936,-0.018935125321149826,0.016995040699839592,-0.0009958065347746015,0.024135060608386993
0.030428173020482063,0.003192838979884982,-0.019205333665013313,0.0169961117208004,-0.00098495336715132,0.02494770474731922
0.030268419533967972,0.0035855851601809263,-0.018476422876119614,0.017549213021993637,-0.001087494078092277,0.025114361196756363
0.030232109129428864,0.0038284205365926027,-0.019275106489658356,0.01719708926975727,-0.0010288080666214228,0.02532566897571087
0.030484693124890327,0.0037654561456292868,-0.01951345056295395,0.01690779998898506,-0.0009314948110841215,0.02548670955002308
0.030530858784914017,0.00410890718922019,-0.018257783725857735,0.017171546816825867,-0.0009124264470301569,0.02521028369665146
0.030293922871351242,0.004217452369630337,-0.018945317715406418,0.016171135008335114,-0.000810460012871772,0.02458144724369049
0.028698217123746872,0.0041059767827391624,-0.019348708912730217,0.01660693809390068,-0.0008070043986663222,0.023947663605213165
0.031177733093500137,0.003949420992285013,-0.01865425892174244,0.01563233882188797,-0.0007374024135060608,0.024247068911790848
0.031177733093500137,0.003949420992285013,-0.01865425892174244,0.01563233882188797,-0.0007374024135060608,0.024247068911790848
0.03185798600316048,0.004211862571537495,-0.019026007503271103,0.016064712777733803,-0.0006229352438822389,0.025200646370649338
0.0318840891122818,0.0042554885149002075,-0.01898643560707569,0.01667562499642372,-0.0006258217617869377,0.025627125054597855
0.029970631003379822,0.00431940658017993,-0.018692022189497948,0.016572576016187668,-0.0006292368052527308,0.025629252195358276
0.030307216569781303,0.0042245276272296906,-0.019401689991354942,0.016262181103229523,-0.0006116899312473834,0.02536485716700554
0.03156328573822975,0.004384663887321949,-0.019283058121800423,0.01592160016298294,-0.0006290818564593792,0.025286726653575897
0.031209157779812813,0.00463052187114954,-0.018971499055624008,0.01684306003153324,-0.0007765003829263151,0.025722889229655266
0.031382326036691666,0.0042779636569321156,-0.018963918089866638,0.01657511293888092,-0.0006949318340048194,0.02573280595242977
0.031483396887779236,0.0042556775733828545,-0.018886826932430267,0.016589073464274406,-0.0007118453504517674,0.025454487651586533
0.030970385298132896,0.0041735246777534485,-0.018983429297804832,0.01675354316830635,-0.0007125348201952875,0.02581515721976757
0.030942317098379135,0.004884563852101564,-0.018588775768876076,0.017053380608558655,-0.000667545769829303,0.025878015905618668
0.03150724992156029,0.00501263840124011,-0.01869807578623295,0.0169642586261034,-0.0006744824931956828,0.026052996516227722
0.03145028278231621,0.004554697312414646,-0.019219566136598587,0.017197636887431145,-0.0006082147592678666,0.025882797315716743
0.03194022551178932,0.00435059005394578,-0.019159773364663124,0.0176716111600399,-0.0006293074693530798,0.027172904461622238
0.032098572701215744,0.004217035602778196,-0.01919437386095524,0.017012659460306168,-0.0005748093244619668,0.02541065402328968
0.031818147748708725,0.004862252157181501,-0.019584231078624725,0.01702219992876053,-0.0006006276234984398,0.025347527116537094
0.03151194006204605,0.005000849720090628,-0.019569259136915207,0.01696513406932354,-0.0005913429777137935,0.02605482190847397
0.03158826753497124,0.005249987822026014,-0.019181882962584496,0.0176649522036314,-0.0005787998088635504,0.026128215715289116
0.0320957712829113,0.004849352408200502,-0.01939707063138485,0.018012186512351036,-0.0005378314526751637,0.02632131241261959
0.03204774856567383,0.004679955542087555,-0.019618690013885498,0.017644042149186134,-0.0005181616870686412,0.026416953653097153
0.03191974386572838,0.005097356624901295,-0.019614972174167633,0.0182512104511261,-0.0004808625380974263,0.026180928573012352
0.03259092569351196,0.005066657904535532,-0.02036166377365589,0.01721065305173397,-0.00047742974129505455,0.026340564712882042
0.03340183570981026,0.005213855300098658,-0.020372025668621063,0.016732804477214813,-0.0004735339025501162,0.026279175654053688
0.03132335841655731,0.005617203656584024,-0.019379349425435066,0.017031660303473473,-0.0004911532741971314,0.026182495057582855
0.03298979997634888,0.005180855747312307,-0.019619561731815338,0.016929810866713524,-0.0004711639485321939,0.025976745411753654
0.03298979997634888,0.005180855747312307,-0.019619561731815338,0.016929810866713524,-0.0004711639485321939,0.025976745411753654
0.032871346920728683,0.005121411755681038,-0.02009245753288269,0.01785728707909584,-0.0004393823037389666,0.026076292619109154
0.03274470195174217,0.005392754916101694,-0.019861431792378426,0.016848843544721603,-0.0004614982462953776,0.02621864341199398
0.03284493833780289,0.005169583484530449,-0.020502885803580284,0.016642196103930473,-0.0004402023914735764,0.026469185948371887
0.03338467702269554,0.005387202370911837,-0.019928455352783203,0.016646916046738625,-0.0004485931131057441,0.026633772999048233
0.03356269747018814,0.005366292782127857,-0.019576970487833023,0.016775479540228844,-0.0004383706545922905,0.026218397542834282
0.033471740782260895,0.005271715112030506,-0.02066190168261528,0.017199862748384476,-0.0004416616284288466,0.02719462290406227
0.03348126634955406,0.005321921780705452,-0.020684795454144478,0.017627958208322525,-0.0004676324315369129,0.027558354660868645
0.033622752875089645,0.005543372593820095,-0.020162271335721016,0.017577074468135834,-0.0004975094925612211,0.026853444054722786
0.03421175479888916,0.006187421269714832,-0.02047821134328842,0.016587555408477783,-0.0006573316641151905,0.02578520029783249
0.03420672565698624,0.005615432746708393,-0.019873136654496193,0.01701870560646057,-0.0007204836583696306,0.026028987020254135
0.03381031006574631,0.0059669287875294685,-0.019512159749865532,0.016580723226070404,-0.0007446846575476229,0.02697836607694626
0.033579397946596146,0.005463628564029932,-0.01934409886598587,0.017858168110251427,-0.0006898289429955184,0.027022352442145348
0.03456276282668114,0.006072626914829016,-0.02082236483693123,0.017325695604085922,-0.000688360829371959,0.026940850540995598
0.03552519530057907,0.005693722516298294,-0.02054458111524582,0.016501592472195625,-0.0006466460763476789,0.028207439929246902
0.03439096733927727,0.00581758189946413,-0.02016512304544449,0.01710474118590355,-0.0006481811869889498,0.027767479419708252
0.033503707498311996,0.00569665664806962,-0.020549727603793144,0.016836067661643028,-0.000673629401717335,0.02619978040456772
0.03502602502703667,0.006033528130501509,-0.02099374309182167,0.017393535003066063,-0.0006484505720436573,0.026411375030875206
0.03481268510222435,0.0058631920255720615,-0.02033279277384281,0.017093395814299583,-0.000665537198074162,0.027422012761235237
0.03569557145237923,0.00602558720856905,-0.020444922149181366,0.016795296221971512,-0.0006123270140960813,0.028285186737775803
0.036310791969299316,0.006530481856316328,-0.020630065351724625,0.017365898936986923,-0.0006274909828789532,0.02812798134982586
0.03515162691473961,0.0057074883952736855,-0.020235469564795494,0.017310788854956627,-0.0005858010263182223,0.02749931439757347
0.03439798951148987,0.005348867271095514,-0.020341698080301285,0.017835257574915886,-0.0006182713550515473,0.02767781727015972
0.034929871559143066,0.005529587157070637,-0.02092418633401394,0.01788920722901821,-0.0006366284796968102,0.02766464278101921
0.034929871559143066,0.005529587157070637,-0.02092418633401394,0.01788920722901821,-0.0006366284796968102,0.02766464278101921
0.03615298494696617,0.006258963141590357,-0.02097182907164097,0.017753751948475838,-0.0005923455464653671,0.027842136099934578
0.03510698303580284,0.0063149514608085155,-0.020276835188269615,0.01773400418460369,-0.0005352377775125206,0.02768508717417717
0.03592006117105484,0.005406832788139582,-0.02100847102701664,0.01722572185099125,-0.0005623567849397659,0.027585487812757492
0.036046698689460754,0.005939119029790163,-0.020870961248874664,0.01720878854393959,-0.0005207588546909392,0.027985766530036926
0.03542281314730644,0.005687877535820007,-0.020350022241473198,0.017373625189065933,-0.00048126568435691297,0.02808973379433155
0.035851407796144485,0.006460998207330704,-0.02038130909204483,0.017207182943820953,-0.0005064877332188189,0.027780188247561455
0.03561754897236824,0.006252785678952932,-0.020384663715958595,0.01755451411008835,-0.000476804852951318,0.027972320094704628
0.03540326654911041,0.005169390235096216,-0.020756259560585022,0.01698964461684227,-0.00046395568642765284,0.027667945250868797
0.03620929643511772,0.0033882902935147285,-0.020313838496804237,0.017343051731586456,-0.0004241458373144269,0.027947718277573586
0.035941533744335175,0.00211862800642848,-0.020900264382362366,0.01752302423119545,-0.00042708098771981895,0.02838115021586418
0.035804107785224915,0.002598539460450411,-0.020705366507172585,0.017615672200918198,-0.00045832039904780686,0.028676139190793037
0.03739449381828308,0.0047590164467692375,-0.020585909485816956,0.017391161993145943,-0.0004763470496982336,0.02892746776342392
0.037238121032714844,0.004465533886104822,-0.020785562694072723,0.017681697383522987,-0.00046174656017683446,0.028824901208281517
0.034731630235910416,0.0039056309033185244,-0.020900782197713852,0.0175382848829031,-0.000631154456641525,0.028396768495440483
0.035626646131277084,0.0032091790344566107,-0.020001929253339767,0.01723407208919525,-0.000669846951495856,0.028478631749749184
0.03696362301707268,0.0033703160006552935,-0.020687811076641083,0.01790125109255314,-0.0007175934733822942,0.029610317200422287
0.036552298814058304,0.003732296172529459,-0.021378714591264725,0.017460785806179047,-0.0006805213051848114,0.03012998029589653
0.037563785910606384,0.003971466328948736,-0.02164955623447895,0.01748739369213581,-0.0010356020648032427,0.029557649046182632
0.03771914169192314,0.00347563112154603,-0.02101934514939785,0.01775815524160862,-0.0009950337698683143,0.028398873284459114
0.03571353480219841,0.0032821176573634148,-0.021521223708987236,0.017738021910190582,-0.000980027369223535,0.028316574171185493
0.0359356626868248,0.0032656798139214516,-0.020828217267990112,0.01821322925388813,-0.0009215458412654698,0.02944580838084221
0.03722064942121506,0.0036292094737291336,-0.020034778863191605,0.01796746253967285,-0.000901449064258486,0.028967510908842087
0.03702754154801369,0.00345752970315516,-0.02089361660182476,0.017731301486492157,-0.0008892877376638353,0.02962440811097622
0.03692535310983658,0.0035709217190742493,-0.021897226572036743,0.018077414482831955,-0.000840616412460804,0.031138699501752853
0.03690419718623161,0.0036736917681992054,-0.022019565105438232,0.017832068726420403,-0.0007905912934802473,0.02993946708738804
0.03733319044113159,0.0037272560875862837,-0.020913178101181984,0.01841452345252037,-0.0007790889358147979,0.02960977889597416
0.03739722818136215,0.003723614849150181,-0.0213900338858366,0.018610505387187004,-0.0007235493394546211,0.02901432476937771
0.03725176677107811,0.0037199670914560556,-0.022665157914161682,0.018315639346837997,-0.00065458012977615,0.02985728159546852
0.03718918189406395,0.003680440131574869,-0.022393137216567993,0.01897530071437359,-0.0006717008072882891,0.03094567358493805
0.03738892450928688,0.004269424360245466,-0.02089846506714821,0.018475765362381935,-0.00069659692235291,0.030170653015375137
0.03738892450928688,0.004269424360245466,-0.02089846506714821,0.018475765362381935,-0.00069659692235291,0.030170653015375137
0.03788898140192032,0.004112045746296644,-0.021024994552135468,0.01797332428395748,-0.0007172102923505008,0.02980288863182068
0.03784491866827011,0.0040520732291042805,-0.021121812984347343,0.017879925668239594,-0.0009172981954179704,0.02949547953903675
0.03817348554730415,0.004131027963012457,-0.021403713151812553,0.01796993613243103,-0.0009158744942396879,0.029687650501728058
0.03817348554730415,0.004131027963012457,-0.021403713151812553,0.01796993613243103,-0.0009158744942396879,0.029687650501728058
0.037684231996536255,0.004456494934856892,-0.021756350994110107,0.01851930469274521,-0.0009138621971942484,0.030201826244592667
0.037963755428791046,0.004606190137565136,-0.02202046662569046,0.018656985834240913,-0.0009674127213656902,0.030213167890906334
0.038821130990982056,0.004795408342033625,-0.02194233611226082,0.019048839807510376,-0.000970998837146908,0.03010421432554722
0.03813309222459793,0.004537368193268776,-0.021174384281039238,0.018830925226211548,-0.0009512855322100222,0.03015080839395523
0.038662925362586975,0.004495483823120594,-0.021593555808067322,0.01867913454771042,-0.0008335958700627089,0.030101865530014038
0.038704875856637955,0.0045650494284927845,-0.021688684821128845,0.018284045159816742,-0.0007580891833640635,0.03048122674226761
0.03896380960941315,0.004660012200474739,-0.021453142166137695,0.01761753484606743,-0.0006789674516767263,0.03054685704410076
0.03882499411702156,0.004581763409078121,-0.02159924991428852,0.018398389220237732,-0.0006482054013758898,0.030673373490571976
0.03865892067551613,0.005201281979680061,-0.022260311990976334,0.018590698018670082,-0.0006736124632880092,0.03093666397035122
0.03839606046676636,0.005024827551096678,-0.022137731313705444,0.018327657133340836,-0.0006970114191062748,0.03050576150417328
0.039035141468048096,0.00478597916662693,-0.021724190562963486,0.01869630254805088,-0.0006752927438355982,0.031159523874521255
0.04019168019294739,0.0050117322243750095,-0.02168765477836132,0.018542246893048286,-0.0007363187614828348,0.031069032847881317
0.03914658725261688,0.0048957266844809055,-0.022367559373378754,0.018576012924313545,-0.000732542248442769,0.031228303909301758
0.03794107958674431,0.004943974316120148,-0.022359682247042656,0.01821085810661316,-0.0007525626569986343,0.03094756044447422
0.03880530968308449,0.005381932482123375,-0.02171490527689457,0.01784277707338333,-0.0007694921223446727,0.03177395090460777
0.03947509080171585,0.005174458026885986,-0.02196628972887993,0.018040856346488,-0.0007383953197859228,0.03127755969762802
0.040839001536369324,0.0052069490775465965,-0.022302400320768356,0.018535606563091278,-0.0007969186990521848,0.031231578439474106
0.04043960943818092,0.005426464136689901,-0.02235409989953041,0.01826351508498192,-0.0008246274664998055,0.0321771539747715
0.03846600279211998,0.005164881702512503,-0.02202722057700157,0.018317855894565582,-0.000827185285743326,0.03190053626894951
0.038806598633527756,0.005658830516040325,-0.021382171660661697,0.017816361039876938,-0.0008352951263077557,0.030886508524417877
0.040591515600681305,0.005497053265571594,-0.02165287360548973,0.01759699173271656,-0.0008882703259587288,0.030671412125229836
0.04019354656338692,0.005317017436027527,-0.02181936241686344,0.018297217786312103,-0.0009184774244204164,0.03226295858621597
0.039891865104436874,0.005340225994586945,-0.021785428747534752,0.018011029809713364,-0.0008029619348235428,0.03193454444408417
0.03999655693769455,0.0056291441433131695,-0.021615799516439438,0.018901681527495384,-0.0007847858360037208,0.033343106508255005
0.04002112150192261,0.005440983921289444,-0.02189820073544979,0.019081564620137215,-0.0007702677394263446,0.033175237476825714
0.04062098637223244,0.006324805319309235,-0.021953865885734558,0.018666885793209076,-0.0007373048574663699,0.03256389871239662
0.04062098637223244,0.006324805319309235,-0.021953865885734558,0.018666885793209076,-0.0007373048574663699,0.03256389871239662
0.04009633883833885,0.005797370802611113,-0.02217746339738369,0.01924586482346058,-0.0007081948569975793,0.031194711104035378
0.040179479867219925,0.005528873763978481,-0.022155631333589554,0.019620496779680252,-0.0008379265782423317,0.03269019350409508
0.04047594591975212,0.005961799528449774,-0.02204396016895771,0.019550617784261703,-0.0010968889109790325,0.032984066754579544
0.04166483134031296,0.0065650613978505135,-0.02201797068119049,0.019605521112680435,-0.0012465885374695063,0.03274787589907646
0.03987163305282593,0.005841937381774187,-0.021939806640148163,0.018923167139291763,-0.001237681251950562,0.03280752897262573
0.039370980113744736,0.005793121177703142,-0.022409481927752495,0.018705997616052628,-0.0010973828611895442,0.03200455382466316
0.03998154029250145,0.0058351727202534676,-0.022619502618908882,0.018582206219434738,-0.0010474963346496224,0.03220367804169655
0.04023725539445877,0.006023393478244543,-0.02249876968562603,0.018615584820508957,-0.001006323262117803,0.03228667750954628
0.04197070747613907,0.0064505115151405334,-0.02237551286816597,0.019107438623905182,-0.000933354371227324,0.032334133982658386
0.040015362203121185,0.006217165384441614,-0.021571047604084015,0.019404912367463112,-0.0008658483275212348,0.032160691916942596
0.03866146132349968,0.007104427553713322,-0.022305196151137352,0.01901634782552719,-0.0008583056041970849,0.03240981698036194
0.041062131524086,0.005717213731259108,-0.023096267133951187,0.0187834519892931,-0.000773655017837882,0.03306873142719269
0.041174087673425674,0.00567980669438839,-0.023019321262836456,0.01862381026148796,-0.0007568299188278615,0.0327182337641716
0.04081796482205391,0.006711396388709545,-0.021888338029384613,0.018451092764735222,-0.0007441744673997164,0.03328729793429375
0.0404805913567543,0.006857949309051037,-0.022376244887709618,0.019036414101719856,-0.0007598979864269495,0.03355405107140541
0.040924422442913055,0.006329041440039873,-0.022947335615754128,0.019130395725369453,-0.0007325335755012929,0.03289009630680084
0.04119151830673218,0.0063687399961054325,-0.022680014371871948,0.01880006492137909,-0.000975667149759829,0.033372096717357635
0.0411306694149971,0.006960524246096611,-0.022476566955447197,0.01898091658949852,-0.0009777722880244255,0.03350177779793739
0.041086070239543915,0.006971998605877161,-0.02158386819064617,0.018798310309648514,-0.0009843157604336739,0.033847250044345856
0.04102091118693352,0.00655762804672122,-0.02201620489358902,0.018293805420398712,-0.0012343289563432336,0.03279043361544609
0.041407860815525055,0.006273600272834301,-0.022470694035291672,0.018968235701322556,-0.0011163502931594849,0.033894553780555725
0.041568733751773834,0.006588271353393793,-0.02343309111893177,0.019276753067970276,-0.001075165462680161,0.03519173339009285
0.041632652282714844,0.007314211223274469,-0.023021506145596504,0.019576696678996086,-0.0010397449368610978,0.034672901034355164
0.04209756478667259,0.006975037045776844,-0.02238551713526249,0.01965293660759926,-0.0009567691595293581,0.03261725232005119
