davideferrari95/blind_handover_controller/data/Test 206 - [2024-02-08 -- 12-05-56]/joint_states_data.csv
shoulder_pan_joint,shoulder_lift_joint,elbow_joint,wrist_1_joint,wrist_2_joint,wrist_3_joint
0.0020967291202396154,0.005309725645929575,-0.005325246136635542,0.00016621168470010161,-0.0,0.0019387145293876529
0.00254464172758162,0.005415276158601046,-0.005523098632693291,0.00016193899500649422,-0.0,0.0024082979653030634
0.00254464172758162,0.005415276158601046,-0.005523098632693291,0.00016193899500649422,-0.0,0.0024082979653030634
0.0024056932888925076,0.005338373593986034,-0.005335906986147165,0.00015788045129738748,-0.0,0.0026032766327261925
0.002276146085932851,0.0049978564493358135,-0.005383437033742666,0.00017455070337746292,-0.0,0.0028025091160088778
0.002015074249356985,0.005333086010068655,-0.005446526687592268,0.0001717264822218567,-0.0,0.002609967952594161
0.001956318970769644,0.005141624249517918,-0.005471873562783003,0.00016781120211817324,-0.0,0.002359604462981224
0.002191052073612809,0.0053107161074876785,-0.005323977209627628,0.0001639945839997381,-0.0,0.0021021876018494368
0.0021674963645637035,0.005304691847413778,-0.00556842191144824,0.00016034259169828147,-0.0,0.0020031484309583902
0.002334888558834791,0.005520642269402742,-0.005351455416530371,0.00015684957907069474,-0.0,0.002160888398066163
0.0021244699601083994,0.004829110577702522,-0.005404149182140827,0.0001503009261796251,-0.0,0.002342769643291831
0.0023552922066301107,0.005428350064903498,-0.005487561225891113,0.00014722745981998742,-0.0,0.0020809131674468517
0.0023531720507889986,0.005391223821789026,-0.0057450649328529835,0.00014427702990360558,-0.0,0.001736053847707808
0.002383375307545066,0.005794302094727755,-0.005787739530205727,0.00012139465979998931,-0.0,0.0017161982832476497
0.0023869124706834555,0.0051768263801932335,-0.005646628327667713,0.00011559265840332955,-0.0,0.001741094863973558
0.002285141497850418,0.005317955277860165,-0.004998867865651846,0.00011252661352045834,-0.0,0.0018411020282655954
0.0021539409644901752,0.005459299776703119,-0.005535593722015619,0.00010977008059853688,-0.0,0.0023701663594692945
0.001995170721784234,0.0051697539165616035,-0.005466212052851915,0.00010715529788285494,-0.0,0.0023521154653280973
0.0016214672941714525,0.006121032405644655,-0.0058528645895421505,0.00010466288222232834,-0.0,0.002268037060275674
0.0015902291052043438,0.005476050078868866,-0.005748072639107704,0.00010228384053334594,-0.0,0.002022132044658065
0.0015231311554089189,0.0048306225799024105,-0.005479075480252504,0.00010001052578445524,-0.0,0.0019322586013004184
0.001874555484391749,0.005262140184640884,-0.004986968822777271,9.783612767932937e-05,-0.0,0.0017321965424343944
0.0017310954863205552,0.005217506550252438,-0.005092044360935688,9.575416333973408e-05,-0.0,0.0016114086611196399
0.0018077663844451308,0.005659724120050669,-0.005988494027405977,9.375906665809453e-05,-0.0,0.0016466715605929494
0.001806006534025073,0.005519911181181669,-0.005737698171287775,9.184542432194576e-05,-0.0,0.0016804669285193086
0.0015335679054260254,0.005229135509580374,-0.005687651224434376,0.00010681051935534924,-0.0,0.001737865386530757
0.0015317287761718035,0.005181404761970043,-0.004725471138954163,0.00010581353126326576,-0.0,0.001974579645320773
0.0015317287761718035,0.005181404761970043,-0.004725471138954163,0.00010581353126326576,-0.0,0.001974579645320773
0.0014716307632625103,0.005617628805339336,-0.00501444423571229,0.0001038500849972479,-0.0,0.0019998899661004543
0.001694537466391921,0.005318273790180683,-0.005526642315089703,0.00010189513704972342,-0.0,0.0019042326603084803
0.0015916062984615564,0.006062573753297329,-0.005515886936336756,0.00010000832116929814,-0.0,0.0017349012196063995
0.00199388200417161,0.005457486025989056,-0.005896298680454493,9.818983380682766e-05,-0.0,0.0016048324760049582
0.0018440337153151631,0.004954938311129808,-0.005206617526710033,9.643629164202139e-05,-0.0,0.0016283271834254265
0.0018477817066013813,0.005177279468625784,-0.004593024495989084,9.474423859501258e-05,-0.0,0.0015882503939792514
0.0017809669952839613,0.0050797355361282825,-0.004589524120092392,9.311056783189997e-05,-0.0,0.0019389597000554204
0.0017292216653004289,0.00553077831864357,-0.00561055913567543,9.000664431368932e-05,-0.0,0.0020628799684345722
0.0019697747193276882,0.005355075933039188,-0.00559071684256196,8.853102917782962e-05,-0.0,0.002307495102286339
0.002016454003751278,0.005438770167529583,-0.005063951015472412,8.710296970093623e-05,-0.0,0.002301609143614769
0.002374851144850254,0.005137591157108545,-0.004728649742901325,8.572025399189442e-05,-0.0,0.0024635351728647947
0.0020815148018300533,0.005469062365591526,-0.004672701004892588,9.660612704465166e-05,-0.0,0.002214144915342331
0.0019152252934873104,0.0055985646322369576,-0.0052842749282717705,9.680957737145945e-05,-0.0,0.0021277801133692265
0.0018220210913568735,0.005572384689003229,-0.005742819048464298,9.545307693770155e-05,-0.0,0.0019449391402304173
0.0017847378039732575,0.005097537767142057,-0.005273445043712854,9.403546573594213e-05,-0.0,0.001966781448572874
0.001797171775251627,0.004848666023463011,-0.004618472885340452,9.265296830562875e-05,-0.0,0.0018341299146413803
0.0020187885966151953,0.0057258643209934235,-0.004540855530649424,9.131009574048221e-05,-0.0,0.0018138638697564602
0.0020595365203917027,0.005725860595703125,-0.004706166218966246,9.000561112770811e-05,-0.0,0.0017499634996056557
0.002089256187900901,0.005366517696529627,-0.004814010113477707,8.873788465280086e-05,-0.0,0.001548386411741376
0.0020148865878582,0.005572896916419268,-0.0052133467979729176,8.750535198487341e-05,-0.0,0.001577709219418466
0.0018943240866065025,0.005169565323740244,-0.005468984134495258,8.630657248431817e-05,-0.0,0.001505127758719027
0.0018943240866065025,0.005169565323740244,-0.005468984134495258,8.630657248431817e-05,-0.0,0.001505127758719027
0.0018718189094215631,0.005506992340087891,-0.005541007034480572,8.514018554706126e-05,-0.0,0.0017953370697796345
0.0019617928192019463,0.0053045484237372875,-0.004608620889484882,8.400493970839307e-05,-0.0,0.001898258808068931
0.0019292447250336409,0.005082566756755114,-0.0045409249141812325,8.289953257190064e-05,-0.0,0.0020157990511506796
0.002195644425228238,0.005642651114612818,-0.004663316532969475,8.182286546798423e-05,-0.0,0.0018403177382424474
0.0021808193996548653,0.005377235822379589,-0.005702245514839888,8.077380334725603e-05,-0.0,0.0016793319955468178
0.0021512755192816257,0.005153140053153038,-0.005860514007508755,7.9751291195862e-05,-0.0,0.0015239036874845624
0.0023053111508488655,0.005062979646027088,-0.005545662250369787,7.875436858739704e-05,-0.0,0.0014516105875372887
0.002175230998545885,0.005030879285186529,-0.004702796693891287,7.778205326758325e-05,-0.0,0.0014620337169617414
0.002184937708079815,0.005359766073524952,-0.004983710590749979,7.683345029363409e-05,-0.0,0.0014636525884270668
0.002091717440634966,0.005108759738504887,-0.005424102768301964,7.590768655063584e-05,-0.0,0.0019267697352916002
0.002250323537737131,0.004894006531685591,-0.005499320570379496,7.500407809857279e-05,-0.0,0.0019882158376276493
0.0020668955985456705,0.005074646789580584,-0.005956851411610842,7.412162085529417e-05,-0.0,0.0020529753528535366
0.002397842239588499,0.0053823902271687984,-0.005207644775509834,7.241762068588287e-05,-0.0,0.0015694693429395556
0.0022371606901288033,0.005158823449164629,-0.004980830475687981,7.159468805184588e-05,-0.0,0.001405908609740436
0.0022160280495882034,0.005331068765372038,-0.005123202223330736,4.4084918044973165e-05,-0.0,0.0012240533251315355
0.002154368907213211,0.005575709044933319,-0.0055655366741120815,3.4815817343769595e-05,-0.0,0.0011756767053157091
0.002310774754732847,0.005144485272467136,-0.0054902383126318455,3.361564813531004e-05,-0.0,0.001061812974512577
0.0024644953664392233,0.005250317044556141,-0.005427283234894276,3.296411159681156e-05,-0.0,0.0011719519970938563
0.002396482275798917,0.005123802926391363,-0.005132823716849089,3.236900010961108e-05,-0.0,0.0016932879807427526
0.0025050395634025335,0.005551876965910196,-0.005307371262460947,3.1797018891666085e-05,-0.0,0.0018140199827030301
0.002316259779036045,0.005745823495090008,-0.005112378392368555,3.1245093850884587e-05,-0.0,0.0019391492241993546
0.002204702701419592,0.00510756578296423,-0.0053812554106116295,3.071198079851456e-05,-0.0,0.0019086959073320031
0.002276739338412881,0.005275775212794542,-0.005695633590221405,3.0196755687939003e-05,-0.0,0.0015907238703221083
0.0022382817696779966,0.005173941608518362,-0.005281238351017237,2.969854904222302e-05,-0.0,0.0014099430991336703
0.0025109522975981236,0.005092494655400515,-0.005303030367940664,2.921649684139993e-05,-0.0,0.0013012142153456807
0.0025473502464592457,0.005924414377659559,-0.005331012886017561,2.874984420486726e-05,-0.0,0.0012623125221580267
0.0024325514677911997,0.0053471834398806095,-0.005585412960499525,2.8297894459683448e-05,-0.0,0.0013336858246475458
0.0025058069732040167,0.005080872215330601,-0.005406341515481472,2.7859901820193045e-05,-0.0,0.001316748675890267
0.0022197954822331667,0.005032944027334452,-0.005060265772044659,1.7249742086278275e-05,-0.0,0.0018860234413295984
0.002241589594632387,0.00509580597281456,-0.005247193854302168,1.3742314877163153e-05,-0.0,0.0020789618138223886
0.002241589594632387,0.00509580597281456,-0.005247193854302168,1.3742314877163153e-05,-0.0,0.0020789618138223886
0.0025536571629345417,0.005574842914938927,-0.0051125758327543736,1.3326921362022404e-05,-0.0,0.0021730074658989906
0.0024807725567370653,0.005353516899049282,-0.005336909554898739,1.3118811693857424e-05,-0.0,0.0019682627171278
0.0027432264760136604,0.005154008511453867,-0.005171040538698435,1.2929443073517177e-05,-0.0,0.0016797032440081239
0.0025395434349775314,0.0048845913261175156,-0.00460549583658576,1.274627629754832e-05,-0.0,0.0015184185467660427
0.002539264038205147,0.005371463019400835,-0.004944733344018459,1.0712017939340512e-07,-0.0,0.0011557915713638067
0.002539264038205147,0.005371463019400835,-0.004944733344018459,1.0712017939340512e-07,-0.0,0.0011557915713638067
0.0025751879438757896,0.0052186958491802216,-0.005066154524683952,6.994182566444351e-09,-0.0,0.0010653254576027393
0.0030174176208674908,0.0052957129664719105,-0.0052082897163927555,4.566701183872368e-10,-0.0,0.0011542050633579493
0.0028679624665528536,0.0050647142343223095,-0.005292502231895924,2.98172979362743e-11,-0.0,0.0015825341688469052
0.0030221431516110897,0.004854131955653429,-0.004602846689522266,1.9468565214814104e-12,-0.0,0.0016821864992380142
0.002637885045260191,0.005296295043081045,-0.004483651835471392,1.2711583359265727e-13,-0.0,0.001836820738390088
0.0026447633281350136,0.004983439110219479,-0.004926362074911594,5.419146860547971e-16,-0.0,0.00156625104136765
0.0028936259914189577,0.005251038353890181,-0.00525306724011898,3.538315693649064e-17,-0.0,0.0012622808571904898
0.0029157986864447594,0.004986120853573084,-0.005076700355857611,2.3102674743850782e-18,-0.0,0.0011534374207258224
0.002765188692137599,0.005263237748295069,-0.004732789471745491,1.5084397149622536e-19,-0.0,0.0011055164504796267
0.0027265395037829876,0.005489887669682503,-0.004527853336185217,9.849033566309329e-21,-0.0,0.001101529924198985
0.002453571418300271,0.00477582449093461,-0.004578573163598776,6.43071584435989e-22,-0.0,0.0012621061177924275
0.002371795242652297,0.005073328036814928,-0.00514146639034152,4.198797680560961e-23,-0.0,0.0012923694448545575
0.002564260270446539,0.00530762504786253,-0.004967830143868923,-0.00032923161052167416,-0.0,0.0018676563631743193
0.0028076875023543835,0.004931692034006119,-0.0054631647653877735,-0.0005485882284119725,-0.0,0.0017754624132066965
0.002549435943365097,0.004984870553016663,-0.0052743395790457726,-0.0005506603047251701,-0.0,0.0017101768171414733
0.002599622355774045,0.0053501129150390625,-0.004680469632148743,-0.0005753347650170326,-0.0,0.0014154801610857248
0.0024172004777938128,0.005044277291744947,-0.004942129831761122,-0.0006025184411555529,-0.0,0.001300473464652896
0.0023289830423891544,0.005431164056062698,-0.0048830024898052216,-0.0008799736388027668,-0.0,0.0011602409649640322
0.002610711148008704,0.005107979290187359,-0.004909580107778311,-0.0009950925596058369,-0.0,0.0010542211821302772
0.0028566792607307434,0.004876685328781605,-0.005303149111568928,-0.0010278098052367568,-0.0,0.0008348451810888946
0.002629016526043415,0.0051323710940778255,-0.005405142903327942,-0.00159021548461169,-0.0,0.0007832221454009414
0.0026578325778245926,0.005250922404229641,-0.004847891628742218,-0.0015418987022712827,-0.0,0.0008100101840682328
0.0026948079466819763,0.005570793058723211,-0.004472662229090929,-0.0014467582805082202,-0.0,0.0008326936513185501
0.0027583888731896877,0.005260964389890432,-0.004893084522336721,-0.0014653707621619105,-0.0,0.0011252679396420717
0.0025977413170039654,0.00491271261125803,-0.0050317212007939816,-0.0014399189967662096,-0.0,0.0012022560695186257
0.0026843477971851826,0.005075279623270035,-0.0058999257162213326,-0.001717630890198052,-0.0,0.0012992395786568522
0.0026843477971851826,0.005075279623270035,-0.0058999257162213326,-0.001717630890198052,-0.0,0.0012992395786568522
0.0027283309027552605,0.005135810002684593,-0.0053694420494139194,-0.0019704613368958235,-0.0,0.0013324534520506859
0.00307757337577641,0.005134138744324446,-0.0046171084977686405,-0.002303765155375004,-0.0,0.0011178420390933752
0.0028818673454225063,0.005437471903860569,-0.004457548726350069,-0.0021795211359858513,-0.0,0.0010713394731283188
0.0030784993432462215,0.004871714860200882,-0.005555761978030205,-0.0020916806533932686,-0.0,0.0009233994642272592
0.0029869528952986,0.004884330555796623,-0.0054613687098026276,-0.0021813709754496813,-0.0,0.0008056078222580254
0.002838886808604002,0.005252469796687365,-0.00543302483856678,-0.0021971394307911396,-0.0,0.0008086249581538141
0.0029430806171149015,0.005490664392709732,-0.004701328929513693,-0.0023918296210467815,-0.0,0.0006215646862983704
0.0034856004640460014,0.005361901596188545,-0.004941222257912159,-0.002239810535684228,-0.0,0.0006681950762867928
0.0033931464422494173,0.005112342536449432,-0.005122779402881861,-0.002175156259909272,-0.0,0.0006924332119524479
0.0030903227161616087,0.005077130626887083,-0.0056803300976753235,-0.00217358092777431,-0.0,0.001151064527221024
0.003363307099789381,0.004973154049366713,-0.005723167210817337,-0.0025986963883042336,-0.0,0.001204781699925661
0.0030361218377947807,0.005232459865510464,-0.005686330143362284,-0.0029246918857097626,-0.0,0.0011606777552515268
0.003137880703434348,0.005362298805266619,-0.005124482326209545,-0.0028860257007181644,-0.0,0.0010393980192020535
0.0031074779108166695,0.005345463752746582,-0.004866342525929213,-0.0027083824388682842,-0.0,0.0009881447767838836
0.00329486932605505,0.005253732670098543,-0.005499646998941898,-0.0027832642663270235,-0.0,0.0009587602107785642
0.0031978036276996136,0.004862306639552116,-0.005410625133663416,-0.003124889684841037,-4.6170976020221133e-07,0.000830320583190769
0.003086248878389597,0.005169076379388571,-0.0058535365387797356,-0.00332618341781199,-3.014634941678196e-08,0.0008233324042521417
0.003071066690608859,0.0050619724206626415,-0.005290755536407232,-0.003563509089872241,-1.968341267755136e-09,0.0007403598865494132
0.0031636503990739584,0.005179041530936956,-0.0048239566385746,-0.003265557810664177,-1.2851862629670308e-10,0.0007087439298629761
0.0030730352737009525,0.005653889384120703,-0.004657135810703039,-0.0029022740200161934,-8.39134751268178e-12,0.0006825088057667017
0.003415886079892516,0.005267049185931683,-0.005269338376820087,-0.002793495310470462,-5.478950084424061e-13,0.0006311533506959677
0.0032211586367338896,0.0052363988943398,-0.005729821510612965,-0.0030538393184542656,-3.577363015191959e-14,0.0005116760148666799
0.003462128806859255,0.0049397703260183334,-0.005834727082401514,-0.0030582481995224953,-2.335762808755408e-15,0.0005411440506577492
0.003462128806859255,0.0049397703260183334,-0.005834727082401514,-0.0030582481995224953,-2.335762808755408e-15,0.0005411440506577492
0.0030197089072316885,0.004993257578462362,-0.005126672796905041,-0.0029287845827639103,-1.525086130253818e-16,0.0005735273007303476
0.003057404886931181,0.005828946363180876,-0.005202931817620993,-0.00276121380738914,-9.95772429100523e-18,0.0005959441186860204
0.00304400478489697,0.005499835126101971,-0.005163310561329126,-0.002520754700526595,-6.501682007673191e-19,0.0008030022727325559
0.003081029513850808,0.0051612695679068565,-0.004907869268208742,-0.0024527660571038723,-4.2451338782398996e-20,0.0007526504923589528
0.003014179179444909,0.004846753552556038,-0.005425786599516869,-0.002812227699905634,-2.771769343514215e-21,0.000760432449169457
0.003141111461445689,0.0048361592926084995,-0.00564546138048172,-0.002933761803433299,-1.809767328305574e-22,0.0006798476097173989
0.0031825893092900515,0.005636219866573811,-0.005504406522959471,-0.0028832994867116213,-1.181648712768576e-23,0.0006045866757631302
0.0033767742570489645,0.005436255596578121,-0.005085428711026907,-0.0028566604014486074,-5.037553266432629e-26,0.0004938904894515872
0.003211693838238716,0.005465335678309202,-0.005469303112477064,-0.0032000441569834948,-3.2891624776668085e-27,0.00045246194349601865
0.0030197519809007645,0.004857576917856932,-0.005639171693474054,-0.003175877733156085,-2.1475878698404364e-28,0.0004174533823970705
0.003054080531001091,0.00542961061000824,-0.005519045051187277,-0.0034990599378943443,-1.4022214442597367e-29,0.0004475097230169922
0.0032146230805665255,0.005287174601107836,-0.0051762741059064865,-0.003330547595396638,-9.155504201379463e-31,0.0004214738728478551
0.003517050528898835,0.006021298002451658,-0.005310376640409231,-0.003473303746432066,-5.977890122271958e-32,0.00042273549479432404
0.0037065709475427866,0.005534349009394646,-0.005121731664985418,-0.0032183800358325243,-3.90313495235734e-33,0.00042318194755353034
0.0037201789673417807,0.005746777635067701,-0.005852814763784409,-0.003302403027191758,-2.5484683087516134e-34,0.00040124572115018964
0.003740850603207946,0.005297157447785139,-0.005784188397228718,-0.003509588073939085,-1.663967785365531e-35,0.0003801611892413348
0.0034750988706946373,0.005380277521908283,-0.004941955208778381,-0.003452155739068985,-1.0864520348672657e-36,0.0003610964340623468
0.0034138173796236515,0.005750659853219986,-0.004533594474196434,-0.003559592878445983,-7.093754540113906e-38,0.0003109810349997133
0.0031809848733246326,0.005628556944429874,-0.004633682779967785,-0.0032620506826788187,-4.6317146167297465e-39,0.0002632799732964486
0.0034643092658370733,0.0055097248405218124,-0.004801988136023283,-0.0034733733627945185,-3.0241842548133175e-40,0.00024689367273822427
0.00372887565754354,0.004736193455755711,-0.005537704564630985,-0.0034927644301205873,-1.9745696660800997e-41,0.0002774897147901356
0.003900890238583088,0.005090702790766954,-0.005211289040744305,-0.0034236253704875708,7.78121921030106e-06,0.0002666184736881405
0.0033675413578748703,0.0054506342858076096,-0.0046957083977758884,-0.0031406860798597336,0.00013352675887290388,0.0002542466972954571
0.003282498335465789,0.0054801832884550095,-0.004722408950328827,-0.003166329115629196,0.00013765913899987936,0.00024282291997224092
0.003499169135466218,0.005735176615417004,-0.004826138727366924,-0.003262880491092801,0.00013409402163233608,0.00023237302957568318
0.003499169135466218,0.005735176615417004,-0.004826138727366924,-0.003262880491092801,0.00013409402163233608,0.00023237302957568318
0.003498690901324153,0.005316870752722025,-0.00480171013623476,-0.0035560447722673416,0.00014303240459412336,0.0002227838704129681
0.003576383227482438,0.005256522446870804,-0.005173849407583475,-0.0034969854168593884,0.00015103662735782564,0.00021395523799583316
0.0037102322094142437,0.005173073150217533,-0.004880264867097139,-0.0034900924656540155,0.0001476903271395713,0.00020580044656526297
0.0038394401781260967,0.005676005035638809,-0.0046846396289765835,-0.003247221000492573,0.0001438078616047278,0.0002290440897922963
0.003902727970853448,0.005442184861749411,-0.004478223621845245,-0.0033926237374544144,0.00016035183216445148,0.00022294667724054307
0.00395748158916831,0.0057914601638913155,-0.004658790770918131,-0.0036642365157604218,0.0001590942410985008,0.00021545235358644277
0.0038659684360027313,0.0053198994137346745,-0.004919386934489012,-0.0038411528803408146,0.00015535324928350747,0.00020833546295762062
0.004062327556312084,0.0051960209384560585,-0.00465809041634202,-0.004163432400673628,0.0001688493211986497,0.00019541093206498772
0.003889968153089285,0.00531854759901762,-0.004367543384432793,-0.003950499463826418,0.00016530566790606827,0.00018953155085910112
0.0042502121068537235,0.005583061836659908,-0.0044655571691691875,-0.0038012643344700336,0.00016202456026803702,0.000183995405677706
0.004184074699878693,0.005242499522864819,-0.005167064256966114,-0.0037410962395370007,0.00029410768183879554,0.00013732549268752337
0.004541546106338501,0.005739090498536825,-0.0050923204980790615,-0.0036832005716860294,0.00028482364723458886,9.261630475521088e-05
0.004675430245697498,0.005319349933415651,-0.004935632459819317,-0.0036277747713029385,0.00026843734667636454,8.573476952733472e-05
0.004257348366081715,0.005539158824831247,-0.005226022098213434,-0.0036659417673945427,0.00029719542362727225,8.168190106516704e-05
0.004238338675349951,0.005826713051646948,-0.004670554772019386,-0.0037230500020086765,0.0002873739576898515,7.812503463355824e-05
0.004016676917672157,0.005289379972964525,-0.00503430375829339,-0.003744510468095541,0.00027322297682985663,7.487391121685505e-05
0.004321428015828133,0.005724252667278051,-0.004873515572398901,-0.0038152539636939764,0.00028125036624260247,7.188315794337541e-05
0.004586576949805021,0.005445302929729223,-0.004395746160298586,-0.003392251441255212,0.00028803982422687113,6.912233948241919e-05
0.0047682058066129684,0.0053237914107739925,-0.004496587906032801,-0.0034133607987314463,0.000305879395455122,6.656576442765072e-05
0.004416043404489756,0.0056742033921182156,-0.004675206728279591,-0.0036389781162142754,0.00030231100390665233,6.4191481214948e-05
0.004358203615993261,0.0060997093096375465,-0.005106283351778984,-0.0039031105116009712,0.00029070815071463585,6.198083428898826e-05
0.004609063733369112,0.005441371817141771,-0.004974421113729477,-0.004005908500403166,0.0002799860085360706,5.991757279844023e-05
0.004609063733369112,0.005441371817141771,-0.004974421113729477,-0.004005908500403166,0.0002799860085360706,5.991757279844023e-05
0.004708342254161835,0.0053758779540658,-0.004430695436894894,-0.004448338411748409,0.0003409178461879492,5.798705751658417e-05
0.0047896080650389194,0.0053474875167012215,-0.0049379803240299225,-0.004441169090569019,0.00032190431375056505,5.617704664473422e-05
0.00446151290088892,0.005637621972709894,-0.004852907732129097,-0.00439445348456502,0.00035270361695438623,5.447677176562138e-05
0.004464952740818262,0.005868117790669203,-0.004955817013978958,-0.004069907125085592,0.0003377529210411012,5.287628300720826e-05
0.004674597177654505,0.005534961819648743,-0.004963249899446964,-0.0038858684711158276,0.0003573875001166016,3.2341398764401674e-05
0.004741664044559002,0.005119587294757366,-0.0051127346232533455,-0.003988165874034166,0.00034979465999640524,2.5405661290278658e-05
0.004667209926992655,0.00566997192800045,-0.0048538376577198505,-0.004189124796539545,0.00033214909490197897,2.4325190679519437e-05
0.00435783714056015,0.005443152971565723,-0.004890126641839743,-0.004577949643135071,0.00034374624374322593,2.305223279108759e-05
0.004981703124940395,0.005581623408943415,-0.004833031911402941,-0.004881496075540781,0.00044706027256324887,5.815899839944905e-06
0.00481508020311594,0.00526723125949502,-0.005001795012503862,-0.004838199354708195,0.0004950470174662769,3.7973669009261357e-07
0.004683922044932842,0.005294858943670988,-0.004821649752557278,-0.005199570674449205,0.00052688765572384,2.4794090336399677e-08
0.004956153221428394,0.005460890009999275,-0.0045934258960187435,-0.004705036990344524,0.0004906351678073406,1.6188769214053877e-09
0.00484734121710062,0.005507243797183037,-0.004575443919748068,-0.004511603619903326,0.0004870198026765138,1.0570109371110803e-10
0.004831262398511171,0.005750351119786501,-0.004907502327114344,-0.004804188851267099,0.0004832388658542186,6.901526659192081e-12
0.005102546885609627,0.005936731584370136,-0.004708506632596254,-0.005501803942024708,0.0004546077980194241,4.5062038952700667e-13
0.005334319546818733,0.005531019065529108,-0.004954131320118904,-0.00555880693718791,0.00047395832370966673,2.942228912220478e-14
0.005015675909817219,0.005849957931786776,-0.004824274685233831,-0.005102308467030525,0.00045372184831649065,1.921065430416833e-15
0.005534960422664881,0.0054451352916657925,-0.004663174971938133,-0.005277236457914114,0.00043003878090530634,1.254318284378588e-16
0.005291745997965336,0.005813525058329105,-0.0042790318839251995,-0.005580846685916185,0.00048574377433396876,-0.00045236517325975
0.004983020480722189,0.005511438939720392,-0.004478601738810539,-0.005761738866567612,0.0004568549629766494,-0.0007842497434467077
0.005202682688832283,0.0057870796881616116,-0.005036613903939724,-0.005506358575075865,0.00048729305854067206,-0.0007289386121556163
0.005031789653003216,0.005282670725136995,-0.004956968128681183,-0.005113757681101561,0.0005125991883687675,-0.0007233550422824919
0.00524241104722023,0.005436166189610958,-0.0048459782265126705,-0.0048767621628940105,0.0005385029362514615,-0.0006704329862259328
0.005343236494809389,0.005467644426971674,-0.004811820108443499,-0.0047791688703000546,0.0006458064308390021,-0.0006491164094768465
0.0049461498856544495,0.0057295868173241615,-0.00430457154288888,-0.005174995865672827,0.0007745007169432938,-0.000630145485047251
0.00556363258510828,0.005496147088706493,-0.004532773979008198,-0.005296698305755854,0.0007971948361955583,-0.0006050098454579711
0.005373756401240826,0.005662416573613882,-0.004644550383090973,-0.00550828967243433,0.0008097115205600858,-0.0006351503543555737
0.00537014240399003,0.005691240541636944,-0.004345670808106661,-0.005297190975397825,0.000750532082747668,-0.0007242865976877511
0.00537014240399003,0.005691240541636944,-0.004345670808106661,-0.005297190975397825,0.000750532082747668,-0.0007242865976877511
0.005460209213197231,0.0057443114928901196,-0.004975639749318361,-0.00521815987303853,0.0008291996200568974,-0.001004961784929037
0.005195273086428642,0.005679308902472258,-0.004885411821305752,-0.005544768646359444,0.0007904304657131433,-0.001325033139437437
0.00526910275220871,0.00537370378151536,-0.004714447073638439,-0.005940778646618128,0.0007430643890984356,-0.001279524527490139
0.00542049715295434,0.005190449766814709,-0.004199751652777195,-0.00604239059612155,0.0007362854084931314,-0.0012607951648533344
0.005688534118235111,0.005763078574091196,-0.004343552514910698,-0.006157133728265762,0.0007280128775164485,-0.00123870640527457
0.005236358381807804,0.0058518932200968266,-0.0049485270865261555,-0.006265112664550543,0.0007060920470394194,-0.0011767646064981818
0.005266885738819838,0.006292283069342375,-0.00503802765160799,-0.006563370116055012,0.0007284506573341787,-0.0011587458429858088
0.005551385227590799,0.005721377674490213,-0.004847378004342318,-0.00666961120441556,0.0007503990200348198,-0.0012563286582008004
0.006053550634533167,0.005723015405237675,-0.004630155861377716,-0.006659365724772215,0.0007676331442780793,-0.0013608027948066592
0.005380172748118639,0.005859569646418095,-0.004564683418720961,-0.006697244010865688,0.0009822251740843058,-0.001570871565490961
0.005673316307365894,0.006424020044505596,-0.004797353409230709,-0.007182627450674772,0.0009103972115553916,-0.0014850252773612738
0.0061883991584181786,0.005471688695251942,-0.004676890093833208,-0.0073979138396680355,0.0009048221400007606,-0.0014122426509857178
0.005940367467701435,0.005269167013466358,-0.005105991847813129,-0.0072742002084851265,0.0008960535633377731,-0.001302744378335774
0.006326611153781414,0.005727073177695274,-0.004960803780704737,-0.006908372975885868,0.000854910584166646,-0.0012700059451162815
0.005807720590382814,0.006338821724057198,-0.0045067002065479755,-0.0069145518355071545,0.0007634959765709937,-0.001278376905247569
0.0059366365894675255,0.006214942783117294,-0.004456193186342716,-0.00737273832783103,0.0007766206399537623,-0.0013743485324084759
0.00616857223212719,0.0063726091757416725,-0.004527008160948753,-0.007392037194222212,0.0006859180866740644,-0.001755210105329752
0.006021241191774607,0.005480661056935787,-0.00460467766970396,-0.007073481101542711,0.0007029715925455093,-0.001977490959689021
0.006295087281614542,0.005359848029911518,-0.004683531820774078,-0.007183643989264965,0.0007045205566100776,-0.002750915242359042
0.006414985749870539,0.005320522002875805,-0.004692552145570517,-0.007951564155519009,0.0006607186514884233,-0.003107541473582387
0.006126080639660358,0.006403358653187752,-0.004931316711008549,-0.007912535220384598,0.0006171732093207538,-0.0029970991890877485
0.006281234323978424,0.006198475137352943,-0.004860608372837305,-0.007820835337042809,0.0005574742099270225,-0.0027326038107275963
0.00601054634898901,0.0057142493315041065,-0.004574819002300501,-0.007782366592437029,0.0005822961102239788,-0.002459835261106491
0.00616591889411211,0.005402030888944864,-0.00456519890576601,-0.007768940180540085,0.000613068463280797,-0.002406243234872818
0.006563736125826836,0.005642694886773825,-0.004946236498653889,-0.00769863510504365,0.0006284883129410446,-0.002368839457631111
0.006509570870548487,0.006243469193577766,-0.005074627697467804,-0.0078032901510596275,0.0007290177745744586,-0.0028769581113010645
0.005857586860656738,0.006233228370547295,-0.0048138913698494434,-0.007769770920276642,0.0008096979581750929,-0.0031139100901782513
0.006359898019582033,0.00565220694988966,-0.00466185063123703,-0.007665236480534077,0.0007651669438928366,-0.0026818031910806894
0.006619538180530071,0.005401125177741051,-0.004650635179132223,-0.0076962909661233425,0.0007781074964441359,-0.0025665988214313984
0.006619538180530071,0.005401125177741051,-0.004650635179132223,-0.0076962909661233425,0.0007781074964441359,-0.0025665988214313984
0.006218675523996353,0.0055113607086241245,-0.004933933261781931,-0.007097790949046612,0.0007845927611924708,-0.0022324405144900084
0.0061918520368635654,0.0056049576960504055,-0.004650133661925793,-0.007973511703312397,0.0007183138513937593,-0.0020915113855153322
0.005861090030521154,0.0062045142985880375,-0.00494032260030508,-0.007755203638225794,0.0007260625716298819,-0.0022843636106699705
0.006503317505121231,0.005868712440133095,-0.004900649655610323,-0.0076691643334925175,0.0007464957889169455,-0.0026274570263922215
0.006669456604868174,0.005621124058961868,-0.004719241056591272,-0.007877831347286701,0.0007653084467165172,-0.0033104042522609234
0.00660388357937336,0.0058202012442052364,-0.00479488680139184,-0.007984431460499763,0.0008205117774195969,-0.0031281081028282642
0.006238922011107206,0.006114657502621412,-0.004709268920123577,-0.007734130136668682,0.0008595337858423591,-0.003154480131343007
0.006790123879909515,0.006084406282752752,-0.004833918996155262,-0.007759438827633858,0.0008034331258386374,-0.0032558459788560867
0.006882302463054657,0.005951487924903631,-0.0049286456778645515,-0.00814245454967022,0.0008037803927436471,-0.0028129585552960634
0.006570847239345312,0.006143450736999512,-0.004991895519196987,-0.008136231452226639,0.000725005695130676,-0.002702206140384078
0.006264450494199991,0.005631680600345135,-0.004889846313744783,-0.008062418550252914,0.0007371118408627808,-0.002683925675228238
0.00675132405012846,0.0063904351554811,-0.0045394254848361015,-0.008073286153376102,0.0007015482988208532,-0.003153692465275526
0.006863896735012531,0.006159199867397547,-0.004829691257327795,-0.008611342869699001,0.0006953395204618573,-0.003912932705134153
0.006804570555686951,0.005983436480164528,-0.004849539138376713,-0.00898612942546606,0.00071857834700495,-0.004255850799381733
0.006402892526239157,0.005949316546320915,-0.00495881075039506,-0.008276213891804218,0.0007385381613858044,-0.004087994806468487
0.007216272875666618,0.006055379752069712,-0.004881185479462147,-0.008573261089622974,0.0007156653446145356,-0.0035949349403381348
0.007676831446588039,0.006514366250485182,-0.004949728958308697,-0.008463265374302864,0.0009428491466678679,-0.003537627635523677
0.006907550618052483,0.0064087421633303165,-0.00484287878498435,-0.008427375927567482,0.0009857503464445472,-0.0036506650503724813
0.006580146960914135,0.006025778595358133,-0.004535234998911619,-0.008917562663555145,0.000993613270111382,-0.0037904393393546343
0.006837778724730015,0.005899091716855764,-0.005076862871646881,-0.00914451852440834,0.0010068046394735575,-0.0038450779393315315
0.007405148819088936,0.006135181058198214,-0.00547643331810832,-0.008755626156926155,0.0010534720495343208,-0.003933788742870092
0.00736656179651618,0.00622845534235239,-0.005035193171352148,-0.009373108856379986,0.0009935382986441255,-0.004169465973973274
0.00708822812885046,0.006049031857401133,-0.004895753692835569,-0.009577994234859943,0.0009776855586096644,-0.004296674393117428
0.007305341772735119,0.006106764543801546,-0.004856199491769075,-0.009197604842483997,0.0009128995588980615,-0.004465159494429827
0.007688108831644058,0.005548452492803335,-0.004807277116924524,-0.009035853669047356,0.0008625405607745051,-0.004685247782617807
0.007688108831644058,0.005548452492803335,-0.004807277116924524,-0.009035853669047356,0.0008625405607745051,-0.004685247782617807
0.007453924976289272,0.005942793563008308,-0.004697071388363838,-0.009451252408325672,0.000869564653839916,-0.004189988132566214
0.007290457375347614,0.006455643568187952,-0.005305422469973564,-0.008965388871729374,0.0008651086245663464,-0.0038621160201728344
0.007283272687345743,0.006476318929344416,-0.005025329999625683,-0.009557340294122696,0.0008688161033205688,-0.003916461952030659
0.007531275972723961,0.006418133154511452,-0.004508513025939465,-0.00973664503544569,0.0008591281366534531,-0.003983247093856335
0.008049407973885536,0.005795384291559458,-0.00458232406526804,-0.009347006678581238,0.0008947955211624503,-0.004254169296473265
0.007107255514711142,0.006020916625857353,-0.005051749758422375,-0.00928066298365593,0.0008006129064597189,-0.004814439453184605
0.006846434902399778,0.006098827347159386,-0.004979581572115421,-0.009892456233501434,0.0008070589974522591,-0.004895821679383516
0.0076692234724760056,0.005969586782157421,-0.0049490006640553474,-0.009930112399160862,0.0008102581487037241,-0.004818947520107031
0.007446580566465855,0.0064371800981462,-0.0048347520641982555,-0.010000965557992458,0.0008281458867713809,-0.004005851689726114
0.007334189955145121,0.006231248844414949,-0.004684592597186565,-0.009651120752096176,0.000837898813188076,-0.00445373822003603
0.00794568657875061,0.006348366383463144,-0.005155199207365513,-0.010155411437153816,0.0007656666566617787,-0.004811032209545374
0.008206763304769993,0.006514659617096186,-0.005011145956814289,-0.010232869535684586,0.0007749263313598931,-0.00550766522064805
0.00761428801342845,0.00621249433606863,-0.00493921572342515,-0.010296867229044437,0.0008072361815720797,-0.005266077350825071
0.008132802322506905,0.006360762286931276,-0.0054360623471438885,-0.010093217715620995,0.0007856223965063691,-0.004464021418243647
0.008125784806907177,0.006601353175938129,-0.005110839381814003,-0.010145987384021282,0.0007399789174087346,-0.004284079186618328
0.008255727589130402,0.00616437615826726,-0.004714393522590399,-0.00994955189526081,0.0007552322931587696,-0.004523641895502806
0.008443093858659267,0.006095407996326685,-0.004828696604818106,-0.010469982400536537,0.0007514089229516685,-0.004677620250731707
0.008600972592830658,0.006600020453333855,-0.005258052609860897,-0.011106823571026325,0.0007535854820162058,-0.0052260649390518665
0.00848641712218523,0.0062657129019498825,-0.005128500517457724,-0.009792226366698742,0.0007973149768076837,-0.00597223499789834
0.00842192955315113,0.006397521123290062,-0.005437800195068121,-0.010201437398791313,0.0007824452477507293,-0.0057278526946902275
0.008222600445151329,0.006445840001106262,-0.004601293243467808,-0.010193614289164543,0.0007945887045934796,-0.005172164645045996
0.008294271305203438,0.005831344518810511,-0.00454314611852169,-0.00968640111386776,0.0007598454831168056,-0.004390701185911894
0.008626468479633331,0.006339452229440212,-0.004671168979257345,-0.010363561101257801,0.000855998310726136,-0.004459175746887922
0.00805668719112873,0.006204636767506599,-0.005146272014826536,-0.011616522446274757,0.0008813586900942028,-0.005604726728051901
0.008765380829572678,0.006097177974879742,-0.005121104884892702,-0.010525581426918507,0.0008763092337176204,-0.0057296594604849815
0.009261037223041058,0.0059341564774513245,-0.004987796768546104,-0.009823992848396301,0.0008787264814600348,-0.005872576031833887
0.008963904343545437,0.00574213732033968,-0.005123710725456476,-0.010395342484116554,0.0009180394699797034,-0.005373507272452116
0.008963904343545437,0.00574213732033968,-0.005123710725456476,-0.010395342484116554,0.0009180394699797034,-0.005373507272452116
0.008304732851684093,0.005598307121545076,-0.00492265447974205,-0.009705650620162487,0.0009389754268340766,-0.004977656062692404
0.008640137501060963,0.005797273013740778,-0.004753962159156799,-0.010297277010977268,0.0009346342994831502,-0.005603243596851826
0.008716138079762459,0.006250668317079544,-0.0048994095996022224,-0.010195206850767136,0.0009146871161647141,-0.005660512484610081
0.00860057957470417,0.006075550802052021,-0.004964135587215424,-0.00977011676877737,0.0009121146867983043,-0.005820152349770069
0.009641903452575207,0.00601856829598546,-0.005034588743001223,-0.010510072112083435,0.0009632223518565297,-0.005837961565703154
0.008685247041285038,0.0063199326395988464,-0.004853029269725084,-0.009842385537922382,0.0009577120654284954,-0.006036233156919479
0.009272322058677673,0.006342463660985231,-0.004747810773551464,-0.010808590799570084,0.0010254911612719297,-0.005754770711064339
0.009738500230014324,0.006068055052310228,-0.005152947269380093,-0.010674795135855675,0.0010217592353001237,-0.00587818119674921
0.008619873784482479,0.006268118973821402,-0.004938726779073477,-0.01079192478209734,0.0010031764395534992,-0.005788774695247412
0.009450404904782772,0.006007812451571226,-0.005038965027779341,-0.011304621584713459,0.0009887422202154994,-0.005747618153691292
0.009323405101895332,0.006274729501456022,-0.0050488002598285675,-0.01089241448789835,0.0009687403216958046,-0.005684899631887674
0.009058745577931404,0.006607891526073217,-0.004921632818877697,-0.011583730578422546,0.0009644012316130102,-0.006040853448212147
0.009108112193644047,0.006526201032102108,-0.004835955798625946,-0.011303569190204144,0.0009548300877213478,-0.006360947620123625
0.009894698858261108,0.006234544795006514,-0.004701619502156973,-0.01127360574901104,0.0009474164107814431,-0.0061640068888664246
0.00948349293321371,0.006478960160166025,-0.004656318109482527,-0.011857068166136742,0.0010372758843004704,-0.006268345285207033
0.009255551733076572,0.006703883875161409,-0.004286688752472401,-0.011822065338492393,0.0010684356093406677,-0.005959940608590841
0.009398145601153374,0.007103012874722481,-0.004492703825235367,-0.012409484013915062,0.0010645142756402493,-0.005931030958890915
0.009283356368541718,0.006360297091305256,-0.004114415496587753,-0.012546923942863941,0.0012755338102579117,-0.005912669003009796
0.009055997245013714,0.006254539825022221,-0.004370089154690504,-0.012417391873896122,0.0012315526837483048,-0.006107300985604525
0.009481772780418396,0.006544559262692928,-0.004314726684242487,-0.012832866981625557,0.001214992837049067,-0.006331997457891703
0.01030636578798294,0.0073544965125620365,-0.004164430312812328,-0.012280124239623547,0.0011374462628737092,-0.006611127872020006
0.0092563945800066,0.00654512457549572,-0.004444427788257599,-0.012304420582950115,0.001129555283114314,-0.006586332339793444
0.009668770246207714,0.006387722212821245,-0.004706468898802996,-0.012098764069378376,0.0010914828162640333,-0.006486745085567236
0.009769707918167114,0.006355132907629013,-0.004359342623502016,-0.012256118468940258,0.0010720067657530308,-0.00651678116992116
0.009653499349951744,0.0072425794787704945,-0.0043902089819312096,-0.01217600516974926,0.0011504157446324825,-0.006356417667120695
0.009796315804123878,0.00755190709605813,-0.004156114067882299,-0.012050057761371136,0.0010377768194302917,-0.006473415065556765
0.009635276161134243,0.006683100014925003,-0.0039651961997151375,-0.012269619852304459,0.0010106893023476005,-0.006404907442629337
0.009284346364438534,0.006268775090575218,-0.004148359876126051,-0.012022024020552635,0.000986120430752635,-0.0063439407385885715
0.009284346364438534,0.006268775090575218,-0.004148359876126051,-0.012022024020552635,0.000986120430752635,-0.0063439407385885715
0.009884321130812168,0.0068485429510474205,-0.004475895315408707,-0.012523778714239597,0.0009109965758398175,-0.006857794243842363
0.010603118687868118,0.007042509503662586,-0.004713521338999271,-0.012715727090835571,0.0009001155849546194,-0.007025448605418205
0.009943107143044472,0.007434924133121967,-0.004747315309941769,-0.013132990337908268,0.0009171339916065335,-0.007555866148322821
0.009951939806342125,0.006647998932749033,-0.004391435068100691,-0.013332397677004337,0.000923973333556205,-0.00720851868391037
0.010132147930562496,0.006540868431329727,-0.003994117956608534,-0.012985032051801682,0.0010258298134431243,-0.007242931984364986
0.009956782683730125,0.007044347934424877,-0.004599235951900482,-0.013608849607408047,0.0009963572956621647,-0.007587996311485767
0.010397654958069324,0.006781536154448986,-0.004723829682916403,-0.013951552100479603,0.0009659526403993368,-0.007834362797439098
0.010134389623999596,0.0071058450266718864,-0.004836577456444502,-0.013631596229970455,0.0008768262341618538,-0.00738255912438035
0.009970496408641338,0.0077622197568416595,-0.004516118671745062,-0.01425708644092083,0.0008014476043172181,-0.007060566917061806
0.010707206092774868,0.006889263167977333,-0.004356021992862225,-0.01405535638332367,0.0007855422445572913,-0.007153843529522419
0.01042130682617426,0.006873274687677622,-0.004190811887383461,-0.014268152415752411,0.0007987249409779906,-0.0072836969047784805
0.010596152395009995,0.0067563471384346485,-0.004452407825738192,-0.013978489674627781,0.0008241537143476307,-0.007589885964989662
0.009617999196052551,0.00683790585026145,-0.0045420704409480095,-0.014153273776173592,0.0008859725785441697,-0.007082968484610319
0.010467109270393848,0.007272711489349604,-0.004877593833953142,-0.014279651455581188,0.0009183318470604718,-0.007281371392309666
0.010087556205689907,0.006922202650457621,-0.004917315673083067,-0.014368468895554543,0.0009000358986668289,-0.007356376852840185
0.009958876296877861,0.0072638303972780704,-0.004683216102421284,-0.01354685053229332,0.0008990508504211903,-0.007444862276315689
0.010556301102042198,0.006609909702092409,-0.0045212809927761555,-0.01414778083562851,0.0009770652977749705,-0.007483062334358692
0.010267199948430061,0.0070413327775895596,-0.004671250935643911,-0.014038912020623684,0.0010778633877635002,-0.0075591434724628925
0.010413309559226036,0.006744671147316694,-0.004550986923277378,-0.014563506469130516,0.0010674282675608993,-0.007613493595272303
0.00991400983184576,0.0068925353698432446,-0.004988481290638447,-0.01405239850282669,0.0009925775229930878,-0.007692018989473581
0.01005665585398674,0.007151759695261717,-0.0048547545447945595,-0.01457933709025383,0.0010104180546477437,-0.007691571023315191
0.009909235872328281,0.007419482339173555,-0.004692446440458298,-0.01429859921336174,0.0009920281590893865,-0.007695731706917286
0.010810364969074726,0.007298686541616917,-0.0044099316000938416,-0.014715645462274551,0.0009676676709204912,-0.007618434727191925
0.010245922952890396,0.007294393610209227,-0.004573149140924215,-0.014213954098522663,0.0009114281856454909,-0.007841185666620731
0.010572624392807484,0.007361746858805418,-0.004906838294118643,-0.014970948919653893,0.0008555429521948099,-0.0076803476549685
0.010572624392807484,0.007361746858805418,-0.004906838294118643,-0.014970948919653893,0.0008555429521948099,-0.0076803476549685
0.010528252460062504,0.007539113983511925,-0.004955655429512262,-0.014640468172729015,0.0007672926294617355,-0.00748851615935564
0.01020174939185381,0.007346888538450003,-0.004688420332968235,-0.015010425820946693,0.0007726094336248934,-0.007815673016011715
0.010170837864279747,0.007272002752870321,-0.004910010378807783,-0.013983252458274364,0.0007879751501604915,-0.0078083546832203865
0.010660304687917233,0.006955639459192753,-0.004868751857429743,-0.015109428204596043,0.0008086556917987764,-0.00817062333226204
0.010558275505900383,0.007225880399346352,-0.004730337765067816,-0.015391252934932709,0.0011051540495827794,-0.008208324201405048
0.009989172220230103,0.007424297742545605,-0.00463953148573637,-0.015622679144144058,0.0011084608267992735,-0.007911182940006256
0.009882574900984764,0.0066335988231003284,-0.004705296829342842,-0.014752118848264217,0.001082138391211629,-0.007645220495760441
0.010636589489877224,0.007183139678090811,-0.004830110818147659,-0.015615652315318584,0.0012649577111005783,-0.008257539942860603
0.011356464587152004,0.007261577062308788,-0.004641866777092218,-0.015551325865089893,0.0012055978877469897,-0.00837043859064579
0.010489323176443577,0.006982864812016487,-0.004725151229649782,-0.01640165038406849,0.0011430870508775115,-0.008775257505476475
0.01058176625519991,0.007142872083932161,-0.004856227431446314,-0.016066569834947586,0.0012057662243023515,-0.009178890846669674
0.010933143086731434,0.007126110140234232,-0.004798421636223793,-0.016632797196507454,0.0011992607032880187,-0.008699041791260242
0.010271402075886726,0.007358798757195473,-0.004707304760813713,-0.015921806916594505,0.0011660803575068712,-0.00843362882733345
0.010730413720011711,0.0073699974454939365,-0.00525824585929513,-0.016368404030799866,0.0011929478496313095,-0.008698156103491783
0.010609819553792477,0.007568378932774067,-0.005099274218082428,-0.01600862666964531,0.001155792735517025,-0.008804765529930592
0.011030827648937702,0.007119249552488327,-0.0044000339694321156,-0.01643860526382923,0.0011253642151132226,-0.009236302226781845
0.011982139199972153,0.008032445795834064,-0.0044199684634804726,-0.016512112691998482,0.0012551109539344907,-0.009357424452900887
0.01049492135643959,0.007137691602110863,-0.004950751084834337,-0.016927972435951233,0.0012207209365442395,-0.009594149887561798
0.010671407915651798,0.00670253112912178,-0.004863818176090717,-0.01711423136293888,0.0013347846688702703,-0.00919900182634592
0.011167159304022789,0.007249356713145971,-0.0047556208446621895,-0.01606251299381256,0.001487330300733447,-0.009413067251443863
0.010681957006454468,0.007935825735330582,-0.005000330042093992,-0.01664089597761631,0.00142986373975873,-0.009019594639539719
0.011103642173111439,0.00738639896735549,-0.005244261119514704,-0.016833096742630005,0.0015221835346892476,-0.009327367879450321
0.011103642173111439,0.00738639896735549,-0.005244261119514704,-0.016833096742630005,0.0015221835346892476,-0.009327367879450321
0.01071956567466259,0.007518995087593794,-0.004863343201577663,-0.016677528619766235,0.001376085914671421,-0.009246359579265118
0.011730815283954144,0.008148488588631153,-0.004625968635082245,-0.016234789043664932,0.001247857348062098,-0.008981145918369293
0.010459162294864655,0.007871456444263458,-0.005028857849538326,-0.01661844365298748,0.0012834272347390652,-0.008946005254983902
0.010963685810565948,0.007039273157715797,-0.005605375859886408,-0.015920473262667656,0.001261879107914865,-0.00915483944118023
0.010963685810565948,0.007039273157715797,-0.005605375859886408,-0.015920473262667656,0.001261879107914865,-0.00915483944118023
0.011734230443835258,0.0072046141140162945,-0.00517534464597702,-0.016155067831277847,0.0012447873596102,-0.009204141795635223
0.010532473213970661,0.008141457103192806,-0.004822774790227413,-0.016132459044456482,0.001357813598588109,-0.00927030574530363
0.010865435004234314,0.0071318494156003,-0.00530674122273922,-0.016751881688833237,0.001316775451414287,-0.009753349237143993
0.011013887822628021,0.0072247604839503765,-0.005186665803194046,-0.017360223457217216,0.0015305537963286042,-0.009950514882802963
0.011738855391740799,0.008104486390948296,-0.005479605868458748,-0.017317213118076324,0.0015698769129812717,-0.009321717545390129
0.01123886276036501,0.007981241680681705,-0.005626725498586893,-0.01726270280778408,0.0014962831046432257,-0.00943851564079523
0.011495109647512436,0.007299924269318581,-0.005628679879009724,-0.017801856622099876,0.001438783248886466,-0.009710575453937054
0.011578706093132496,0.007492876145988703,-0.005362713243812323,-0.01799585483968258,0.0013033566065132618,-0.009864550083875656
0.011758580803871155,0.008063814602792263,-0.005343117285519838,-0.017622211948037148,0.0013318238779902458,-0.010034830309450626
0.013750502839684486,0.00749941635876894,-0.005437752231955528,-0.018094167113304138,0.001327401027083397,-0.0103610223159194
0.0139194056391716,0.0071181124076247215,-0.0056022899225354195,-0.017960507422685623,0.0016754820244386792,-0.009794466197490692
0.013654411770403385,0.007694074418395758,-0.005210744682699442,-0.017759613692760468,0.0016346375923603773,-0.008938596583902836
0.013652416877448559,0.00779576925560832,-0.005352674052119255,-0.01867201365530491,0.0018657274777069688,-0.008852973580360413
0.014039970934391022,0.007135614287108183,-0.005512265954166651,-0.01886201649904251,0.001657377346418798,-0.009058531373739243
0.01378688495606184,0.00713953236117959,-0.00619084294885397,-0.018643900752067566,0.0014992004726082087,-0.009257012978196144
0.014412221498787403,0.007482185028493404,-0.005742034874856472,-0.01873316802084446,0.001187566900625825,-0.00947132520377636
0.013981937430799007,0.0076483772136271,-0.005785099230706692,-0.019092699512839317,0.0012023310409858823,-0.00960307102650404
0.014486153610050678,0.0073517137207090855,-0.005262664053589106,-0.018967868760228157,0.001193821313790977,-0.009292305447161198
0.014231128618121147,0.0071828910149633884,-0.005376242101192474,-0.01865135133266449,0.001340748742222786,-0.009627170860767365
0.014563411474227905,0.007443937472999096,-0.0057631488889455795,-0.01831195317208767,0.001443740213289857,-0.009785321541130543
0.014270041137933731,0.008005769923329353,-0.0061391922645270824,-0.018918581306934357,0.001604079850949347,-0.00973941944539547
0.01442041527479887,0.008209251798689365,-0.005395957268774509,-0.018742484971880913,0.0018151258118450642,-0.010350310243666172
0.014212017878890038,0.007817446254193783,-0.005161058623343706,-0.0183264147490263,0.001981814857572317,-0.010231992229819298
0.01474248617887497,0.007955288514494896,-0.005550880450755358,-0.018817249685525894,0.0019917823374271393,-0.009706828743219376
0.014350161887705326,0.007926581427454948,-0.006202002987265587,-0.018967680633068085,0.0017880776431411505,-0.010374345816671848
0.014664971269667149,0.007648077793419361,-0.0056100450456142426,-0.01885482296347618,0.0018196983728557825,-0.01032379548996687
0.014124473556876183,0.0079403817653656,-0.005213421303778887,-0.019563809037208557,0.0016779630677774549,-0.009789255447685719
0.014124473556876183,0.0079403817653656,-0.005213421303778887,-0.019563809037208557,0.0016779630677774549,-0.009789255447685719
0.01453297957777977,0.008210993371903896,-0.005546856205910444,-0.019202958792448044,0.0016387662617489696,-0.009784613735973835
0.013994041830301285,0.007758755702525377,-0.00535180326551199,-0.018980104476213455,0.0015890698414295912,-0.010640881024301052
0.014451318420469761,0.0080116493627429,-0.00515745347365737,-0.01969698816537857,0.001452682656235993,-0.009231003001332283
0.014191674999892712,0.00827225111424923,-0.004855436738580465,-0.01963004097342491,0.0013563899556174874,-0.009950985200703144
0.014580586925148964,0.007869333028793335,-0.005137397442013025,-0.019583038985729218,0.0013643050333485007,-0.010885674506425858
0.014048933051526546,0.0077712442725896835,-0.005505355075001717,-0.02006535977125168,0.0012838583206757903,-0.010661028325557709
0.014208832755684853,0.007612717803567648,-0.005328085273504257,-0.02009078487753868,0.0012775668874382973,-0.010546115227043629
0.014368454925715923,0.007881798781454563,-0.004940099082887173,-0.019627002999186516,0.0012833063956350088,-0.010161223821341991
0.01430829893797636,0.007767693605273962,-0.004896122496575117,-0.019799983128905296,0.001465669833123684,-0.01018986850976944
0.014766993001103401,0.008127653039991856,-0.005391945131123066,-0.0196459349244833,0.001397891202941537,-0.010421235114336014
0.0141613082960248,0.0077728149481117725,-0.005054650828242302,-0.01975320465862751,0.0015885797329246998,-0.010506942868232727
0.014722844585776329,0.008076589554548264,-0.005124833434820175,-0.020182037726044655,0.0015907015185803175,-0.01021257508546114
0.014302522875368595,0.007830310612916946,-0.004889335483312607,-0.020132144913077354,0.0014869614969938993,-0.00993907917290926
0.014809164218604565,0.007670574355870485,-0.0049354275688529015,-0.02020888961851597,0.0015307776629924774,-0.010588369332253933
0.01448577269911766,0.008210761472582817,-0.0055211205035448074,-0.02053317055106163,0.0014830875443294644,-0.011610184796154499
0.01491232868283987,0.0081035066395998,-0.005566451232880354,-0.020122352987527847,0.001556468429043889,-0.011382563039660454
0.01463713962584734,0.008371204137802124,-0.004719430115073919,-0.020470645278692245,0.0016235260991379619,-0.011345377191901207
0.015147456899285316,0.008517997339367867,-0.0044935704208910465,-0.02112734131515026,0.001989958807826042,-0.010673699900507927
0.014910745434463024,0.008638235740363598,-0.00500879529863596,-0.022189956158399582,0.0019091212889179587,-0.010748866014182568
0.015262134373188019,0.008677464909851551,-0.005155465565621853,-0.02190644107758999,0.0019569378346204758,-0.011619826778769493
0.01457739807665348,0.008548635989427567,-0.0057981074787676334,-0.02158649079501629,0.001884622499346733,-0.010585702024400234
0.014771636575460434,0.0084437420591712,-0.005294501315802336,-0.021135656163096428,0.0017319894395768642,-0.010731922462582588
0.014958606101572514,0.008180790580809116,-0.004431326407939196,-0.021239247173070908,0.0016045228112488985,-0.011021674610674381
0.01522431243211031,0.007881746627390385,-0.004490339662879705,-0.021608319133520126,0.0016573104076087475,-0.010415084660053253
0.015242734923958778,0.008723492734134197,-0.0051595354452729225,-0.02253563143312931,0.0017983258003368974,-0.010724592953920364
0.014276333153247833,0.00857620220631361,-0.005017786752432585,-0.02219938114285469,0.0016895266016945243,-0.011153291910886765
0.015306703746318817,0.007734951563179493,-0.005670156795531511,-0.022111937403678894,0.001731361378915608,-0.010838805697858334
0.01547358650714159,0.007879642769694328,-0.005409866105765104,-0.023000996559858322,0.0017178658163174987,-0.010908657684922218
0.01547358650714159,0.007879642769694328,-0.005409866105765104,-0.023000996559858322,0.0017178658163174987,-0.010908657684922218
0.015569810755550861,0.009020981378853321,-0.004473935347050428,-0.021972985938191414,0.0016356523847207427,-0.010682446882128716
0.015390072949230671,0.008574624545872211,-0.004366850946098566,-0.0211765319108963,0.0015670727007091045,-0.010701160877943039
0.015568511560559273,0.008275637403130531,-0.005035353824496269,-0.021766124293208122,0.0015803632559254766,-0.010564856231212616
0.015256572514772415,0.008487380109727383,-0.00507808243855834,-0.02143782377243042,0.0016445802757516503,-0.010651765391230583
0.016038496047258377,0.008885565213859081,-0.0057850126177072525,-0.02132798731327057,0.0016021623741835356,-0.011103739030659199
0.015393177047371864,0.008913913741707802,-0.004537944216281176,-0.022264689207077026,0.0021623175125569105,-0.010998623445630074
0.015160239301621914,0.008471628651022911,-0.004988348111510277,-0.022314488887786865,0.002234154148027301,-0.011104000732302666
0.015782417729496956,0.008590742014348507,-0.00506994454190135,-0.02212471142411232,0.002285633236169815,-0.011501196771860123
0.015424233861267567,0.00900174118578434,-0.0049189673736691475,-0.021982675418257713,0.002194262109696865,-0.011276003904640675
0.0157947801053524,0.008389591239392757,-0.0057564848102629185,-0.021685199812054634,0.002032103016972542,-0.0116726104170084
0.01568513922393322,0.008720741607248783,-0.0053915404714643955,-0.02184705063700676,0.0018907691119238734,-0.011332903988659382
0.015332609415054321,0.008778950199484825,-0.004832087550312281,-0.022116880863904953,0.0016755895921960473,-0.011174146085977554
0.01576278544962406,0.008491043001413345,-0.0046789138577878475,-0.022122029215097427,0.0016206741565838456,-0.011536486446857452
0.015881823375821114,0.008947455324232578,-0.004782808478921652,-0.02265043370425701,0.0015352016780525446,-0.011775653809309006
0.01678916998207569,0.008548020385205746,-0.005170443095266819,-0.02334699034690857,0.0015672931913286448,-0.011879103258252144
0.015797697007656097,0.008693501353263855,-0.005525432992726564,-0.023044809699058533,0.0016280849231407046,-0.011888150125741959
0.01608852855861187,0.00942676980048418,-0.005040640477091074,-0.022590557113289833,0.0020454854238778353,-0.011566324159502983
0.016012003645300865,0.008564777672290802,-0.004547253251075745,-0.022280985489487648,0.0019720904529094696,-0.011647538281977177
0.01639205403625965,0.008494274690747261,-0.0046913293190300465,-0.022926483303308487,0.0020810903515666723,-0.011494516395032406
0.01602681539952755,0.009162581525743008,-0.005211165640503168,-0.02299538254737854,0.001916334149427712,-0.011634954251348972
0.015948660671710968,0.008968026377260685,-0.00508822500705719,-0.022793754935264587,0.0018015678506344557,-0.012077460996806622
0.01617305539548397,0.008494689129292965,-0.005367969162762165,-0.02308151125907898,0.0017950128531083465,-0.012538755312561989
0.016204172745347023,0.008819344453513622,-0.005100206471979618,-0.02301531285047531,0.001789025031030178,-0.011905073188245296
0.016698051244020462,0.009357007220387459,-0.0052366191521286964,-0.02297578938305378,0.0017568059265613556,-0.011923208832740784
0.016484996303915977,0.009265952743589878,-0.004935351200401783,-0.023121310397982597,0.001865743426606059,-0.012549818493425846
0.016564862802624702,0.008314891718327999,-0.0048874299973249435,-0.023157648742198944,0.001892643398605287,-0.01257652323693037
0.017257599160075188,0.008934004232287407,-0.0049351975321769714,-0.02338920533657074,0.0018974223639816046,-0.013247732073068619
0.017257599160075188,0.008934004232287407,-0.0049351975321769714,-0.02338920533657074,0.0018974223639816046,-0.013247732073068619
0.016650011762976646,0.00895102508366108,-0.005840285215526819,-0.02303248830139637,0.0018927819328382611,-0.01303477305918932
0.01689034141600132,0.008304123766720295,-0.005192179698497057,-0.022956985980272293,0.0019043826032429934,-0.012802827171981335
0.016614694148302078,0.008259458467364311,-0.004909541457891464,-0.023790474981069565,0.0019007299561053514,-0.012272500433027744
0.0172989834100008,0.00882662646472454,-0.005346214864403009,-0.024552177637815475,0.0019082630751654506,-0.012534341774880886
0.016753600910305977,0.008485428988933563,-0.005166489165276289,-0.024307208135724068,0.0019082550425082445,-0.012832226231694221
0.01701270416378975,0.008415872231125832,-0.005475355312228203,-0.023893197998404503,0.001733308774419129,-0.013075096532702446
0.017009224742650986,0.008905080147087574,-0.005194078665226698,-0.022633958607912064,0.0017246564384549856,-0.012958211824297905
0.017044709995388985,0.008512383326888084,-0.004953145980834961,-0.0230963584035635,0.0016283165896311402,-0.012971784919500351
0.01768728718161583,0.008728663437068462,-0.005111628212034702,-0.02398945949971676,0.0016117575578391552,-0.013192498125135899
0.016979623585939407,0.008941314183175564,-0.005197962746024132,-0.02337202988564968,0.0020368497353047132,-0.012735760770738125
0.017276719212532043,0.008897519670426846,-0.005071471445262432,-0.023481151089072227,0.0019767507910728455,-0.01253550499677658
0.017242318019270897,0.008831345476210117,-0.005324479192495346,-0.024788079783320427,0.002266268478706479,-0.012507240287959576
0.017455924302339554,0.00921286828815937,-0.005516974721103907,-0.025417285040020943,0.0023550179321318865,-0.01297690998762846
0.01705741323530674,0.009074962697923183,-0.005172429606318474,-0.024830132722854614,0.0022792003583163023,-0.013177111744880676
0.01775095798075199,0.009142362512648106,-0.004863807000219822,-0.024107176810503006,0.002111715031787753,-0.013257506303489208
0.017677048221230507,0.009416797198355198,-0.004768726881593466,-0.02479315735399723,0.0018711199518293142,-0.013754426501691341
0.01690850779414177,0.009289290755987167,-0.0053584398701786995,-0.025828875601291656,0.0019756266847252846,-0.013684774748980999
0.017372868955135345,0.008446295745670795,-0.005512647796422243,-0.026218896731734276,0.0020045118872076273,-0.013354698196053505
0.018539393320679665,0.008959385566413403,-0.005570325069129467,-0.025765860453248024,0.002074354561045766,-0.01268689800053835
0.017884640023112297,0.009031089954078197,-0.0051251864060759544,-0.026131615042686462,0.002047131070867181,-0.013586070388555527
0.017965443432331085,0.008827847428619862,-0.004980296362191439,-0.026011290028691292,0.0021252655424177647,-0.014434177428483963
0.01799228973686695,0.009065937250852585,-0.005212159361690283,-0.025882069021463394,0.002058259677141905,-0.013768406584858894
0.0181452427059412,0.00933683943003416,-0.005312941037118435,-0.026417722925543785,0.001976226456463337,-0.013380513526499271
0.018450304865837097,0.00890297256410122,-0.005782705266028643,-0.025853291153907776,0.0019369085785001516,-0.013438912108540535
0.018450304865837097,0.00890297256410122,-0.005782705266028643,-0.025853291153907776,0.0019369085785001516,-0.013438912108540535
0.018315035849809647,0.009127171710133553,-0.005200169514864683,-0.025909673422574997,0.001916644163429737,-0.013879768550395966
0.01848195306956768,0.009557848796248436,-0.005392026621848345,-0.025910457596182823,0.0018984116613864899,-0.01364644430577755
0.018599476665258408,0.00931012723594904,-0.005237414035946131,-0.026277834549546242,0.0019270622869953513,-0.01378882210701704
0.018910709768533707,0.008869175799190998,-0.005366743076592684,-0.026509346440434456,0.0019102196674793959,-0.013558278791606426
0.01941988244652748,0.010304760187864304,-0.005667941179126501,-0.026115506887435913,0.0019094131421297789,-0.013799981214106083
0.0193097572773695,0.009138651192188263,-0.005462612025439739,-0.02598283812403679,0.001916752546094358,-0.013990189880132675
0.01875883899629116,0.00846568588167429,-0.005505761131644249,-0.026645906269550323,0.0022863447666168213,-0.014098694548010826
0.01861858181655407,0.008915465325117111,-0.005155291873961687,-0.026492001488804817,0.0023958042729645967,-0.01383522991091013
0.018646717071533203,0.00903092510998249,-0.004821676295250654,-0.026904115453362465,0.002321752719581127,-0.013741632923483849
0.01908065937459469,0.009067704901099205,-0.005267620552331209,-0.02690640091896057,0.0022593336179852486,-0.013686375692486763
0.01959265023469925,0.00947518739849329,-0.005807917099446058,-0.02721656672656536,0.0022305191960185766,-0.014142791740596294
0.018783897161483765,0.008693624287843704,-0.005125096533447504,-0.027353914454579353,0.0021667734254151583,-0.013974186964333057
0.019557802006602287,0.008453271351754665,-0.0047426060773432255,-0.0271970946341753,0.002133516129106283,-0.014213168062269688
0.019726403057575226,0.00914932694286108,-0.005138230975717306,-0.027539843693375587,0.0020018592476844788,-0.014054186642169952
0.01959424838423729,0.009016969241201878,-0.005861167795956135,-0.02771611325442791,0.0021093469113111496,-0.013994785957038403
0.019854415208101273,0.008966534398496151,-0.005872754380106926,-0.02767755649983883,0.0021122179459780455,-0.013916974887251854
0.020233094692230225,0.009345656260848045,-0.005089852027595043,-0.02769400365650654,0.0020578198600560427,-0.014426402747631073
0.019643623381853104,0.008907699026167393,-0.005225725006312132,-0.02763342298567295,0.002010483294725418,-0.014446567744016647
0.01982494816184044,0.008886347524821758,-0.005186651833355427,-0.027399752289056778,0.002063405467197299,-0.014667472802102566
0.019928116351366043,0.009296350181102753,-0.006032668054103851,-0.026839060708880424,0.0024289567954838276,-0.014353866688907146
0.02019837498664856,0.00957575999200344,-0.005715518724173307,-0.028094494715332985,0.0026441682130098343,-0.014289652928709984
0.020495757460594177,0.009043695405125618,-0.0052701919339597225,-0.02747717872262001,0.002554085571318865,-0.01410627644509077
0.020541498437523842,0.00955798476934433,-0.00533547718077898,-0.026849543675780296,0.0024706183467060328,-0.014454083517193794
0.020061388611793518,0.009579678997397423,-0.005136736668646336,-0.026544367894530296,0.002119965385645628,-0.01428759191185236
0.020230663940310478,0.00956660881638527,-0.005433724727481604,-0.026803309097886086,0.0018947753123939037,-0.014333663508296013
0.020803015679121017,0.009236232377588749,-0.005266344174742699,-0.02824757993221283,0.0019118230557069182,-0.01424209401011467
0.02049284242093563,0.009423363022506237,-0.005716537591069937,-0.028673827648162842,0.0020643200259655714,-0.014237448573112488
0.020453041419386864,0.009339912794530392,-0.00527658686041832,-0.027756553143262863,0.002072716597467661,-0.014131776988506317
0.02084585651755333,0.009302602149546146,-0.004928403068333864,-0.02832217700779438,0.0022594346664845943,-0.01440111268311739
0.0209442600607872,0.009647303260862827,-0.005151635501533747,-0.028810013085603714,0.002281010616570711,-0.014021821320056915
0.0209442600607872,0.009647303260862827,-0.005151635501533747,-0.028810013085603714,0.002281010616570711,-0.014021821320056915
0.020244775339961052,0.009503768756985664,-0.005040528252720833,-0.027877001091837883,0.002282739384099841,-0.014560543932020664
0.021196171641349792,0.009618022479116917,-0.006066889502108097,-0.02738206461071968,0.0024024536833167076,-0.014358652755618095
0.021429292857646942,0.009805864654481411,-0.005750241689383984,-0.02755686268210411,0.0025199917145073414,-0.014590681530535221
0.021122215315699577,0.009436766617000103,-0.005839006509631872,-0.028220506384968758,0.002482694573700428,-0.0142235541716218
0.02134506218135357,0.009777437895536423,-0.005310665350407362,-0.028408454731106758,0.002586355898529291,-0.01457180269062519
0.021264715120196342,0.009777522645890713,-0.004881766624748707,-0.028077485039830208,0.00229256902821362,-0.014861048199236393
0.021419864147901535,0.009226473048329353,-0.00538370106369257,-0.028245190158486366,0.002144457306712866,-0.015017715282738209
0.021529389545321465,0.010821595788002014,-0.00592102762311697,-0.02828153222799301,0.001965055475011468,-0.014667964540421963
0.0217177364975214,0.009794027544558048,-0.005273405462503433,-0.028045862913131714,0.0018423059955239296,-0.014386842958629131
0.022396447136998177,0.009546219371259212,-0.005297624971717596,-0.027772577479481697,0.0019843140617012978,-0.01501481607556343
0.022069865837693214,0.010512758046388626,-0.005153602920472622,-0.028326217085123062,0.00186350557487458,-0.015488632023334503
0.021557321771979332,0.009386936202645302,-0.0059614358469843864,-0.028890538960695267,0.002058933489024639,-0.01548933144658804
0.021719560027122498,0.0097162164747715,-0.005518303252756596,-0.02883867174386978,0.002399036893621087,-0.0153902443125844
0.02190481871366501,0.010588512755930424,-0.005126823205500841,-0.02893814630806446,0.002517514396458864,-0.01481693610548973
0.022538088262081146,0.009809811599552631,-0.005407310556620359,-0.029366642236709595,0.0025483318604528904,-0.015031779184937477
0.022382155060768127,0.009703182615339756,-0.005609533749520779,-0.029705490916967392,0.0024371084291487932,-0.015398705378174782
0.02226695977151394,0.010324856266379356,-0.005794418975710869,-0.02964666858315468,0.002334924880415201,-0.015296095982193947
0.022360486909747124,0.009812692180275917,-0.005534825846552849,-0.02984645962715149,0.0025445742066949606,-0.01483248732984066
0.022600263357162476,0.010060104541480541,-0.005477428436279297,-0.029929418116807938,0.0027510258369147778,-0.015151328407227993
0.022806856781244278,0.010142232291400433,-0.005244084633886814,-0.02982233464717865,0.002614516532048583,-0.015089353546500206
0.022835802286863327,0.009417273104190826,-0.005284870509058237,-0.030429687350988388,0.002413009060546756,-0.01591305620968342
0.022588806226849556,0.009795024059712887,-0.005161108449101448,-0.031059034168720245,0.0021125944331288338,-0.01581561006605625
0.02299072965979576,0.010403958149254322,-0.005695118103176355,-0.030657196417450905,0.0018479395657777786,-0.015236279927194118
0.02341865375638008,0.009934808127582073,-0.00535115972161293,-0.030856991186738014,0.0017907584551721811,-0.015310305170714855
0.023202385753393173,0.010533214546740055,-0.005325241945683956,-0.032392390072345734,0.001832793583162129,-0.015824193134903908
0.022924350574612617,0.010847842320799828,-0.00552585581317544,-0.03155244514346123,0.0019018294988200068,-0.016074683517217636
0.022671785205602646,0.009951948188245296,-0.005054815206676722,-0.02983049303293228,0.0022473246790468693,-0.01613904908299446
0.02308380976319313,0.010167885571718216,-0.005305751226842403,-0.02998310513794422,0.0024275274481624365,-0.01610589772462845
0.02308380976319313,0.010167885571718216,-0.005305751226842403,-0.02998310513794422,0.0024275274481624365,-0.01610589772462845
0.02392401732504368,0.010097390040755272,-0.005355351138859987,-0.03140423446893692,0.002413189737126231,-0.015397574752569199
0.024201376363635063,0.010343811474740505,-0.005757245700806379,-0.03073536977171898,0.002570298733189702,-0.01561460830271244
0.023350853472948074,0.011111653409898281,-0.005214170552790165,-0.0317179337143898,0.0027100336737930775,-0.015604899264872074
0.022188479080796242,0.010191228240728378,-0.004877247381955385,-0.031738653779029846,0.002594124060124159,-0.015813086181879044
0.024136880412697792,0.00988057442009449,-0.005052495747804642,-0.03189490735530853,0.002515387022867799,-0.015996882691979408
0.024186410009860992,0.010412454605102539,-0.005658383946865797,-0.030816813930869102,0.0025673566851764917,-0.016506006941199303
0.023592151701450348,0.010073794052004814,-0.005439782980829477,-0.03200490400195122,0.00238228403031826,-0.01652807928621769
0.024041911587119102,0.01042562909424305,-0.0051594083197414875,-0.03247298672795296,0.00249650445766747,-0.016550833359360695
0.02465062588453293,0.010034752078354359,-0.005298929754644632,-0.03251243010163307,0.0023814949672669172,-0.016530247405171394
0.024107765406370163,0.010294768027961254,-0.00554678775370121,-0.033073049038648605,0.002274236408993602,-0.017081230878829956
0.024034304544329643,0.010613914579153061,-0.005641565658152103,-0.03316830098628998,0.0021906818728893995,-0.016455430537462234
0.023757334798574448,0.010283153504133224,-0.005459529813379049,-0.03313819319009781,0.002547304145991802,-0.01656063087284565
0.024315249174833298,0.011032722890377045,-0.0050932131707668304,-0.03332393616437912,0.002623929176479578,-0.0169402826577425
0.02509547397494316,0.011159488931298256,-0.005993183236569166,-0.033468663692474365,0.002684718230739236,-0.017105871811509132
0.02437981590628624,0.01031875517219305,-0.005500216502696276,-0.033332906663417816,0.0028944399673491716,-0.01689796708524227
0.024266721680760384,0.010794717818498611,-0.006002923008054495,-0.03329131379723549,0.0031550927087664604,-0.017203575000166893
0.024499330669641495,0.010495091788470745,-0.005439802072942257,-0.033787235617637634,0.0029791463166475296,-0.01718577928841114
0.024906158447265625,0.010072540491819382,-0.0051058134995400906,-0.03374893218278885,0.0025568522978574038,-0.017059408128261566
0.025249086320400238,0.010536444373428822,-0.005959746893495321,-0.034186944365501404,0.002484472468495369,-0.017380138859152794
0.025204475969076157,0.009985050186514854,-0.00547640398144722,-0.034035783261060715,0.002534454222768545,-0.017461955547332764
0.02537035197019577,0.011070462875068188,-0.0056580365635454655,-0.034043002873659134,0.002501180861145258,-0.017408078536391258
0.025271855294704437,0.010498127900063992,-0.005841259378939867,-0.033942535519599915,0.0027164886705577374,-0.017345689237117767
0.025270216166973114,0.009871826507151127,-0.005843088962137699,-0.03433437645435333,0.002704428508877754,-0.017295021563768387
0.02494143880903721,0.010295258834958076,-0.005964851472526789,-0.03431490436196327,0.0026893916074186563,-0.017380131408572197
0.02494143880903721,0.010295258834958076,-0.005964851472526789,-0.03431490436196327,0.0026893916074186563,-0.017380131408572197
0.025158997625112534,0.010609225369989872,-0.005406794138252735,-0.033686500042676926,0.0025471425615251064,-0.017323670908808708
0.025299035012722015,0.010328628122806549,-0.0058582802303135395,-0.034023087471723557,0.002533257706090808,-0.01728540100157261
0.025731349363923073,0.011064201593399048,-0.005637158174067736,-0.03384701907634735,0.0026857182383537292,-0.017507532611489296
0.025531630963087082,0.011253953911364079,-0.005833976436406374,-0.034931425005197525,0.002708791522309184,-0.01758727617561817
0.0258315522223711,0.010260914452373981,-0.005847676191478968,-0.03542337939143181,0.0029892001766711473,-0.01750226505100727
0.025564195588231087,0.010828007943928242,-0.005865802988409996,-0.03385545313358307,0.0028684777207672596,-0.01742597669363022
0.025511804968118668,0.010188451036810875,-0.005777775775641203,-0.032772041857242584,0.0027508882340043783,-0.01764022186398506
0.024413783103227615,0.010120468214154243,-0.005952558945864439,-0.03414975479245186,0.0025600390508770943,-0.018014658242464066
0.026369290426373482,0.010540587827563286,-0.005764557048678398,-0.03490349277853966,0.002658527111634612,-0.01769517920911312
0.027182545512914658,0.011014263145625591,-0.006168138701468706,-0.036346424371004105,0.0027372902259230614,-0.018371451646089554
0.02628229930996895,0.01073813159018755,-0.005666011478751898,-0.03498414531350136,0.00294366548769176,-0.017840074375271797
0.025726890191435814,0.010620360262691975,-0.005836318712681532,-0.03405576944351196,0.002905183704569936,-0.017566518858075142
0.02615939825773239,0.010349162854254246,-0.006002445705235004,-0.03570422902703285,0.002825083676725626,-0.01783665083348751
0.02665269561111927,0.0106360437348485,-0.005638650618493557,-0.036681462079286575,0.0027192512061446905,-0.01841837726533413
0.02721520885825157,0.010689456947147846,-0.005601115524768829,-0.03653483837842941,0.003040367504581809,-0.019031517207622528
0.026783527806401253,0.01140217948704958,-0.005162345711141825,-0.03672872856259346,0.003323376178741455,-0.018727269023656845
0.0272117517888546,0.010742457583546638,-0.005601964425295591,-0.037620630115270615,0.0035426397807896137,-0.01944207400083542
0.027066713199019432,0.010314861312508583,-0.005781392101198435,-0.03765910118818283,0.003304835641756654,-0.01914108544588089
0.027335554361343384,0.010903299786150455,-0.005276189185678959,-0.037785906344652176,0.0030168199446052313,-0.018890660256147385
0.026726247742772102,0.01065765880048275,-0.005598738789558411,-0.037911657243967056,0.0027222137432545424,-0.018046988174319267
0.026584291830658913,0.010825072415173054,-0.005575462244451046,-0.03784212842583656,0.0026124685537070036,-0.018533723428845406
0.026662811636924744,0.010962804779410362,-0.005965469405055046,-0.037754107266664505,0.0026339299511164427,-0.019115829840302467
0.027091000229120255,0.010448282584547997,-0.006117700133472681,-0.037854526191949844,0.0026027129497379065,-0.01953047327697277
0.027283847332000732,0.010915878228843212,-0.005232755560427904,-0.037687163800001144,0.0029371969867497683,-0.018929559737443924
0.027181224897503853,0.010173952206969261,-0.005159785971045494,-0.03778272494673729,0.003049002494663,-0.019011927768588066
0.027345430105924606,0.010331830941140652,-0.006027533207088709,-0.03822704032063484,0.002963501261547208,-0.019506612792611122
0.02690310962498188,0.010847825556993484,-0.006262460723519325,-0.03858316317200661,0.0027703673113137484,-0.019853245466947556
0.027096493169665337,0.010975010693073273,-0.006059690378606319,-0.03943760693073273,0.0025891223922371864,-0.0200782623142004
0.027277829125523567,0.011270544491708279,-0.006246407050639391,-0.038011908531188965,0.002623156178742647,-0.0191296748816967
0.027286453172564507,0.011530672200024128,-0.0056929257698357105,-0.0379108227789402,0.0027090904768556356,-0.019100746139883995
0.027612872421741486,0.011387360282242298,-0.005951141472905874,-0.039870090782642365,0.002924737287685275,-0.018931832164525986
0.027612872421741486,0.011387360282242298,-0.005951141472905874,-0.039870090782642365,0.002924737287685275,-0.018931832164525986
0.027556851506233215,0.011737157590687275,-0.005982362199574709,-0.040076132863759995,0.0031447827350348234,-0.018936168402433395
0.027692347764968872,0.010406555607914925,-0.006408255081623793,-0.038411419838666916,0.003021546173840761,-0.019376561045646667
0.027795908972620964,0.00998428463935852,-0.0062951757572591305,-0.03920016810297966,0.002841200912371278,-0.019867420196533203
0.02639603614807129,0.010828787460923195,-0.005761758424341679,-0.04012497887015343,0.0028069450054317713,-0.019633302465081215
0.02798382192850113,0.010210832580924034,-0.00591746112331748,-0.04092716425657272,0.002998381620272994,-0.019795797765254974
0.028308385983109474,0.010561659932136536,-0.006366884335875511,-0.03891659900546074,0.003347981721162796,-0.019619973376393318
0.02797454409301281,0.010560526512563229,-0.006314463447779417,-0.03929328918457031,0.003204522654414177,-0.019422786310315132
0.027835698798298836,0.011116450652480125,-0.005600415635854006,-0.040524981915950775,0.003102344460785389,-0.019345249980688095
0.027996432036161423,0.011974651366472244,-0.0061126877553761005,-0.040938254445791245,0.0031061472836881876,-0.019347788766026497
0.02836155891418457,0.011978404596447945,-0.007144599687308073,-0.040831372141838074,0.003219304606318474,-0.01977713033556938
0.02836155891418457,0.011978404596447945,-0.007144599687308073,-0.040831372141838074,0.003219304606318474,-0.01977713033556938
0.028209533542394638,0.011363220401108265,-0.007076463662087917,-0.04060358181595802,0.003411757294088602,-0.019955437630414963
0.028620434924960136,0.011232608929276466,-0.006137524731457233,-0.04074537754058838,0.00361293344758451,-0.019723281264305115
0.028381720185279846,0.011580348014831543,-0.0066668265499174595,-0.040291909128427505,0.003702032146975398,-0.019917238503694534
0.028073815628886223,0.011432580649852753,-0.006561690010130405,-0.04004260152578354,0.00329628330655396,-0.019640417769551277
0.02808070369064808,0.012033505365252495,-0.006579563021659851,-0.0399397537112236,0.0030009280890226364,-0.019428322091698647
0.028570059686899185,0.011716905049979687,-0.006033419165760279,-0.03995222970843315,0.003075145883485675,-0.019872326403856277
0.028743479400873184,0.011734471656382084,-0.0057251667603850365,-0.040346164256334305,0.0029746813233941793,-0.01992773823440075
0.02875421941280365,0.012354465201497078,-0.006096367724239826,-0.040403611958026886,0.0029000206850469112,-0.019836507737636566
0.028796516358852386,0.011650620959699154,-0.0071543431840837,-0.040058936923742294,0.0032399974297732115,-0.019688162952661514
0.02879076451063156,0.01224265806376934,-0.006323277484625578,-0.040109191089868546,0.0032279957085847855,-0.019977983087301254
0.0294196717441082,0.012622387148439884,-0.0060032811015844345,-0.04013628512620926,0.0032679163850843906,-0.02017015777528286
0.02978733740746975,0.012084373272955418,-0.005870809778571129,-0.04023658484220505,0.0032643103040754795,-0.019540933892130852
0.029612332582473755,0.012286229059100151,-0.005790396593511105,-0.040129631757736206,0.002926837420091033,-0.020025644451379776
0.02846415899693966,0.012549502775073051,-0.006358799524605274,-0.0400041826069355,0.0028624709229916334,-0.020059555768966675
0.02930210344493389,0.012163913808763027,-0.00683731772005558,-0.04085680842399597,0.002757766516879201,-0.01998766139149666
0.02930210344493389,0.012163913808763027,-0.00683731772005558,-0.04085680842399597,0.002757766516879201,-0.01998766139149666
0.029063984751701355,0.012643813155591488,-0.005668295081704855,-0.04051661118865013,0.0035412530414760113,-0.020143022760748863
0.029063984751701355,0.012643813155591488,-0.005668295081704855,-0.04051661118865013,0.0035412530414760113,-0.020143022760748863
0.029790859669446945,0.011993691325187683,-0.006201751064509153,-0.040176644921302795,0.00345908896997571,-0.02066950686275959
0.03056384064257145,0.012092288583517075,-0.006391105242073536,-0.04189634695649147,0.0031035197898745537,-0.021049590781331062
0.029948651790618896,0.012339478358626366,-0.006273502018302679,-0.042692843824625015,0.00295929703861475,-0.02098372019827366
0.02925897389650345,0.012380661442875862,-0.0057358588092029095,-0.041330207139253616,0.0029803349170833826,-0.020475424826145172
0.030552079901099205,0.012183718383312225,-0.00619887188076973,-0.04158329591155052,0.003438737243413925,-0.020958414301276207
0.03067452646791935,0.012391447089612484,-0.006532929837703705,-0.04302426055073738,0.003276568604633212,-0.021016044542193413
0.030053146183490753,0.012526203878223896,-0.006053553894162178,-0.04357637092471123,0.0033557768911123276,-0.021353930234909058
0.031132258474826813,0.012444784864783287,-0.005977681837975979,-0.04358793422579765,0.003191035008057952,-0.021136373281478882
0.030757993459701538,0.012170286849141121,-0.0055777281522750854,-0.04327959194779396,0.0030888961628079414,-0.021154997870326042
0.030541660264134407,0.011996702291071415,-0.006298265885561705,-0.04370773583650589,0.0031673673074692488,-0.02081974968314171
0.030545659363269806,0.012587711215019226,-0.006067638285458088,-0.04388410598039627,0.003330973209813237,-0.021420709788799286
0.031102754175662994,0.012342678382992744,-0.005753749515861273,-0.04376351833343506,0.003472730051726103,-0.021839240565896034
0.03064795769751072,0.012088359333574772,-0.006120143458247185,-0.044026609510183334,0.003621888579800725,-0.02216939441859722
0.030794737860560417,0.011877116747200489,-0.005636159796267748,-0.044214196503162384,0.0037550891283899546,-0.021532492712140083
0.031249849125742912,0.011985165998339653,-0.006310575176030397,-0.044808704406023026,0.003366386517882347,-0.021149583160877228
0.031730882823467255,0.012503332458436489,-0.006758523639291525,-0.045182257890701294,0.0030946354381740093,-0.020869066938757896
0.03172115609049797,0.012053539976477623,-0.005954161286354065,-0.0454450361430645,0.0028568515554070473,-0.021210893988609314
0.03148742765188217,0.012601434253156185,-0.005821359809488058,-0.044403500854969025,0.0031579243950545788,-0.02149788662791252
0.03158710524439812,0.012290971353650093,-0.005711665377020836,-0.04635385796427727,0.0036979629658162594,-0.022215276956558228
0.03287148103117943,0.012570172548294067,-0.006270383484661579,-0.046669285744428635,0.003840383607894182,-0.02173810824751854
0.03255195543169975,0.011737511493265629,-0.006338919512927532,-0.04472564905881882,0.0037201596423983574,-0.021717555820941925
0.031096357852220535,0.011772764846682549,-0.0059075369499623775,-0.04559675604104996,0.0036107117775827646,-0.0222663264721632
0.03157244250178337,0.011968499049544334,-0.0053626494482159615,-0.04616501182317734,0.003592857625335455,-0.02237740531563759
0.03157244250178337,0.011968499049544334,-0.0053626494482159615,-0.04616501182317734,0.003592857625335455,-0.02237740531563759
0.03289254754781723,0.011735055595636368,-0.0055370326153934,-0.048003386706113815,0.0034580708015710115,-0.02220098115503788
0.03215848654508591,0.012290156446397305,-0.00628878315910697,-0.04644424095749855,0.0031025146599859,-0.021671701222658157
0.03341911733150482,0.012527541257441044,-0.006253362167626619,-0.04519784450531006,0.002985777799040079,-0.021292192861437798
0.03361568972468376,0.012290322221815586,-0.005824918858706951,-0.04643772915005684,0.003275949275121093,-0.021450363099575043
0.033471301198005676,0.012264063581824303,-0.0059507559053599834,-0.046077415347099304,0.003329208819195628,-0.022032905369997025
0.0316990502178669,0.011907669715583324,-0.005736627150326967,-0.04636727645993233,0.0033357057254761457,-0.022683117538690567
0.033195678144693375,0.012288055382668972,-0.006028030067682266,-0.046045150607824326,0.003603728022426367,-0.022435957565903664
0.03299671411514282,0.01239775214344263,-0.005766130983829498,-0.046256449073553085,0.003748012240976095,-0.02244950830936432
0.032849837094545364,0.01228337362408638,-0.005926165729761124,-0.04573751240968704,0.0035481827799230814,-0.022469811141490936
0.033477094024419785,0.011882376857101917,-0.005860547069460154,-0.04563280940055847,0.003194565884768963,-0.022897038608789444
0.03313206136226654,0.011998161673545837,-0.005892220884561539,-0.04596012085676193,0.0033307636622339487,-0.0229423139244318
0.03331359475851059,0.011582457460463047,-0.006101354490965605,-0.046180225908756256,0.003228936344385147,-0.02300204336643219
0.03298841789364815,0.012474087066948414,-0.00552338408306241,-0.04667246341705322,0.0035702998284250498,-0.023119397461414337
0.03305622562766075,0.011820849031209946,-0.005788139998912811,-0.04708996042609215,0.003774648765102029,-0.023417774587869644
0.0332406647503376,0.012351363897323608,-0.0059574362821877,-0.04739634692668915,0.0038051041774451733,-0.023296205326914787
0.03363716974854469,0.012602404691278934,-0.0059044742956757545,-0.04779354855418205,0.0037857582792639732,-0.02320101670920849
0.03421575576066971,0.012174993753433228,-0.006440924480557442,-0.04842083156108856,0.003717060200870037,-0.023283712565898895
0.03402043506503105,0.013053457252681255,-0.005586378742009401,-0.04894160106778145,0.0036416472867131233,-0.023259051144123077
0.033702436834573746,0.01219286397099495,-0.005902020260691643,-0.04928454011678696,0.003326795995235443,-0.023309996351599693
0.033912502229213715,0.012700977735221386,-0.0055695162154734135,-0.051136564463377,0.003020264906808734,-0.023572633042931557
0.03368868678808212,0.01239899080246687,-0.005940649658441544,-0.049491073936223984,0.0028573595918715,-0.023349443450570107
0.03230911120772362,0.012401080690324306,-0.006111575290560722,-0.04818371683359146,0.0032233528327196836,-0.023577453568577766
0.034856416285037994,0.012699289247393608,-0.005796975456178188,-0.0493231937289238,0.003856359049677849,-0.023869497701525688
0.03493087366223335,0.01264907605946064,-0.005422559101134539,-0.050850991159677505,0.004313853103667498,-0.02406708523631096
0.0339936688542366,0.012917946092784405,-0.0060364739038050175,-0.05147038772702217,0.004406300373375416,-0.024207670241594315
0.03389779105782509,0.012716311030089855,-0.006323668174445629,-0.04897080734372139,0.004086402244865894,-0.024171773344278336
0.03413208946585655,0.013065263628959656,-0.006218230817466974,-0.05015520006418228,0.0037041406612843275,-0.023975498974323273
0.03442101553082466,0.01272899191826582,-0.00616057775914669,-0.051349591463804245,0.0033955785911530256,-0.02504558302462101
0.0344177708029747,0.012987500056624413,-0.00546559551730752,-0.051305193454027176,0.0031700776889920235,-0.025211460888385773
0.03452829644083977,0.012570398859679699,-0.006070019211620092,-0.051285989582538605,0.0035627945326268673,-0.02452974207699299
0.03399372473359108,0.012650270015001297,-0.005898204166442156,-0.05137108266353607,0.003922140225768089,-0.02307816967368126
0.03399372473359108,0.012650270015001297,-0.005898204166442156,-0.05137108266353607,0.003922140225768089,-0.02307816967368126
0.03410736843943596,0.01256411150097847,-0.005933057051151991,-0.051111817359924316,0.004392558708786964,-0.02341906912624836
0.034099943935871124,0.012456274591386318,-0.006073544733226299,-0.05084133520722389,0.0045625814236700535,-0.024454303085803986
0.03425554931163788,0.012965263798832893,-0.00549751752987504,-0.050892461091279984,0.004483863245695829,-0.025352902710437775
0.034999776631593704,0.012938283383846283,-0.005936639849096537,-0.050395417958498,0.003675600280985236,-0.024551264941692352
0.0343598872423172,0.013412097468972206,-0.005581569392234087,-0.04980940744280815,0.0034385796170681715,-0.0245940163731575
0.03400532156229019,0.013629814609885216,-0.006697317585349083,-0.05290088430047035,0.0034568000119179487,-0.025592228397727013
0.03430276736617088,0.012652115896344185,-0.0059420461766421795,-0.05016035959124565,0.003904219251126051,-0.02431713230907917
0.034615639597177505,0.01331557147204876,-0.005861661396920681,-0.05010540783405304,0.0040518613532185555,-0.02408837527036667
0.03570139408111572,0.01321007963269949,-0.0058602686040103436,-0.05021141469478607,0.003958235960453749,-0.02474094182252884
0.03531835228204727,0.013234845362603664,-0.006176257971674204,-0.05173737555742264,0.0041414787992835045,-0.02602269873023033
0.03398381173610687,0.013693620450794697,-0.006133172195404768,-0.04940519109368324,0.004196082707494497,-0.02536250650882721
0.03403031826019287,0.013191894628107548,-0.005795920267701149,-0.04925457015633583,0.004103866405785084,-0.02526131272315979
0.035426992923021317,0.013404017314314842,-0.005613273940980434,-0.05053956061601639,0.003904422977939248,-0.025494573637843132
0.034991659224033356,0.013330402784049511,-0.005600360222160816,-0.05109184607863426,0.0038375072181224823,-0.025300659239292145
0.03500426933169365,0.013711513951420784,-0.006465206854045391,-0.051225632429122925,0.0038569699972867966,-0.025430098176002502
0.03539184853434563,0.013237797655165195,-0.006341932807117701,-0.05128348246216774,0.0038294203113764524,-0.02543536014854908
0.03519802168011665,0.013433584943413734,-0.005709879565984011,-0.05192369595170021,0.003830219153314829,-0.025630824267864227
0.03550250455737114,0.013128934428095818,-0.0063081057742238045,-0.05222157761454582,0.0040297978557646275,-0.02599547617137432
0.03597186133265495,0.013789750635623932,-0.006778372451663017,-0.052220772951841354,0.004331391770392656,-0.02570350654423237
0.03557385504245758,0.013230050913989544,-0.0065583838149905205,-0.05210325866937637,0.004345375578850508,-0.025879813358187675
0.035970792174339294,0.013858995400369167,-0.006220032460987568,-0.05247931927442551,0.004011285956948996,-0.025973428040742874
0.036057185381650925,0.013361411169171333,-0.006138956174254417,-0.05252678692340851,0.0036159821320325136,-0.025979848578572273
0.036227963864803314,0.013561015948653221,-0.0060728550888597965,-0.052549201995134354,0.003610887797549367,-0.025885704904794693
0.0372699536383152,0.013355042785406113,-0.006640776060521603,-0.05272199586033821,0.003833746537566185,-0.02584943175315857
0.037130072712898254,0.013797075487673283,-0.006899738684296608,-0.05339561030268669,0.004071652889251709,-0.026512466371059418
0.03560665622353554,0.014035108499228954,-0.006260573398321867,-0.05357995256781578,0.004067118279635906,-0.02629118598997593
0.03630303964018822,0.013934300281107426,-0.006117162294685841,-0.05373543128371239,0.003934843000024557,-0.026599204167723656
0.03630303964018822,0.013934300281107426,-0.006117162294685841,-0.05373543128371239,0.003934843000024557,-0.026599204167723656
0.03643866628408432,0.013596870005130768,-0.006164941471070051,-0.053671013563871384,0.003759784856811166,-0.026559319347143173
0.03645368292927742,0.013286203145980835,-0.006923998706042767,-0.0560273639857769,0.0036796650383621454,-0.02655945159494877
0.037966202944517136,0.01400851458311081,-0.006490594241768122,-0.05455096811056137,0.003723875153809786,-0.026851946488022804
0.03767688572406769,0.013591781258583069,-0.006178306881338358,-0.05438532680273056,0.003577527357265353,-0.026715366169810295
0.035644542425870895,0.01372174546122551,-0.006244458723813295,-0.055153049528598785,0.003494720906019211,-0.026659579947590828
0.03695115074515343,0.013188815675675869,-0.0066074468195438385,-0.057299256324768066,0.003843458369374275,-0.02617364190518856
0.03808155655860901,0.01400548592209816,-0.0067109293304383755,-0.05472574010491371,0.004023966379463673,-0.026260100305080414
0.03753633424639702,0.014571603387594223,-0.006228597369045019,-0.05557359382510185,0.004358542617410421,-0.026181699708104134
0.03788020461797714,0.014138530008494854,-0.006444357801228762,-0.05523126944899559,0.004108314402401447,-0.02649431861937046
0.037947896867990494,0.014309599995613098,-0.006768094375729561,-0.05495661497116089,0.003919780720025301,-0.02661914937198162
0.03823491185903549,0.013858606107532978,-0.006728903856128454,-0.05389275774359703,0.003909101709723473,-0.026774007827043533
0.038686882704496384,0.01463627815246582,-0.006482972763478756,-0.05472322925925255,0.003905222052708268,-0.0266164131462574
0.0382748544216156,0.013953610323369503,-0.0063829924911260605,-0.05558064579963684,0.0038760039024055004,-0.02647525444626808
0.03856322169303894,0.014545591548085213,-0.006608958821743727,-0.05548140034079552,0.0038354916032403708,-0.027684135362505913
0.03877095878124237,0.014095309190452099,-0.007504262495785952,-0.05459006503224373,0.004149068612605333,-0.027323566377162933
0.03881720453500748,0.01464606262743473,-0.006593023426830769,-0.05638239532709122,0.004265667870640755,-0.027220914140343666
0.0387272834777832,0.014357862994074821,-0.0061636692844331264,-0.05487602949142456,0.0041251289658248425,-0.027312949299812317
0.039381444454193115,0.015075761824846268,-0.006437389180064201,-0.05414002388715744,0.003945796750485897,-0.02663646824657917
0.03935946151614189,0.01449254434555769,-0.00664882268756628,-0.05488439276814461,0.003903547767549753,-0.02714153379201889
0.03902602568268776,0.01475834846496582,-0.006857998203486204,-0.0570482462644577,0.0041738166473805904,-0.028286319226026535
0.0396808497607708,0.013066957704722881,-0.0064623416401445866,-0.055293358862400055,0.004263026174157858,-0.02812129259109497
0.03936910256743431,0.01404370553791523,-0.00617324560880661,-0.05613081529736519,0.004125689156353474,-0.02839483879506588
0.039203375577926636,0.014205883257091045,-0.007062940858304501,-0.056847427040338516,0.004197392147034407,-0.028804117813706398
0.03921519219875336,0.01510070450603962,-0.006952178198844194,-0.056767988950014114,0.004540805704891682,-0.028409356251358986
0.039164766669273376,0.01441980805248022,-0.006268901284784079,-0.05679837614297867,0.004251326434314251,-0.02783551625907421
0.03928206115961075,0.01475307997316122,-0.006518818438053131,-0.056490205228328705,0.004262127447873354,-0.027073685079813004
0.0394388884305954,0.014495477080345154,-0.0068927002139389515,-0.0567128024995327,0.004133875016123056,-0.027923092246055603
0.0394388884305954,0.014495477080345154,-0.0068927002139389515,-0.0567128024995327,0.004133875016123056,-0.027923092246055603
0.03968408703804016,0.014935039915144444,-0.006723685655742884,-0.05721733346581459,0.003993049263954163,-0.02880026027560234
0.039309583604335785,0.014849575236439705,-0.006871831137686968,-0.05704967677593231,0.0043528457172214985,-0.028726553544402122
0.03912695497274399,0.01488127838820219,-0.0065213036723434925,-0.057326629757881165,0.004496460314840078,-0.028515778481960297
0.0400816835463047,0.013867827132344246,-0.00682568084448576,-0.05795879289507866,0.004401720594614744,-0.028303297236561775
0.040725935250520706,0.014631151221692562,-0.006817133165895939,-0.0580148883163929,0.004431036300957203,-0.028280237689614296
0.038684211671352386,0.014134134165942669,-0.007169900927692652,-0.057349175214767456,0.004509945400059223,-0.02863113395869732
0.038399264216423035,0.014509964734315872,-0.0066450610756874084,-0.05854204297065735,0.0044159903191030025,-0.02851084992289543
0.040254153311252594,0.014106521382927895,-0.0065936073660850525,-0.059449248015880585,0.00412720488384366,-0.02857205457985401
0.040733225643634796,0.014551176689565182,-0.0072363754734396935,-0.057803042232990265,0.003864274127408862,-0.028860673308372498
0.040606677532196045,0.014851311221718788,-0.00687464140355587,-0.059460822492837906,0.0042182691395282745,-0.02924937941133976
0.03863179311156273,0.014560488983988762,-0.006615577265620232,-0.05939863249659538,0.004188674967736006,-0.028098786249756813
0.04057919234037399,0.01457100361585617,-0.007236877456307411,-0.05795607715845108,0.003948470577597618,-0.028574353083968163
0.0404016375541687,0.01464657112956047,-0.007721811067312956,-0.05817943066358566,0.0037708678282797337,-0.02913038246333599
0.040842652320861816,0.014727181755006313,-0.007538426201790571,-0.06039007753133774,0.0037779370322823524,-0.029328452423214912
0.04024417698383331,0.014988656155765057,-0.006740225944668055,-0.05770248919725418,0.0041543468832969666,-0.0292325671762228
0.04062436893582344,0.01536011416465044,-0.006875793449580669,-0.057077642530202866,0.0045194742269814014,-0.02975447289645672
0.04091139882802963,0.014896365813910961,-0.0074832444079220295,-0.05777822807431221,0.004470008425414562,-0.030282795429229736
0.04080883786082268,0.014288910664618015,-0.007598908618092537,-0.05827498808503151,0.0042656222358345985,-0.029609104618430138
0.040776778012514114,0.014765321277081966,-0.007112518884241581,-0.05813847854733467,0.004117176868021488,-0.028486507013440132
0.04111097753047943,0.014994312077760696,-0.00668956246227026,-0.05835587903857231,0.004005591385066509,-0.028324132785201073
0.04260019585490227,0.014631936326622963,-0.007107671350240707,-0.057666901499032974,0.004234605468809605,-0.029250621795654297
0.040277205407619476,0.014659003354609013,-0.007367162499576807,-0.057870231568813324,0.00416182167828083,-0.029306471347808838
0.04000400751829147,0.015185408294200897,-0.007135502994060516,-0.0581340491771698,0.004016938619315624,-0.029541077092289925
0.04135729372501373,0.014652705751359463,-0.006906160153448582,-0.059963930398225784,0.004007343668490648,-0.03051334246993065
0.04185085371136665,0.015182211995124817,-0.006946681533008814,-0.05794289708137512,0.004077353980392218,-0.030185816809535027
0.04252864047884941,0.01477009430527687,-0.007373183500021696,-0.057200685143470764,0.004059396684169769,-0.028842607513070107
0.041839029639959335,0.015080687589943409,-0.007306472864001989,-0.060028839856386185,0.004293201956897974,-0.028424158692359924
0.041839029639959335,0.015080687589943409,-0.007306472864001989,-0.060028839856386185,0.004293201956897974,-0.028424158692359924
0.042131584137678146,0.014939723536372185,-0.00747974356636405,-0.0571993924677372,0.004294372629374266,-0.029949495568871498
0.042131584137678146,0.014939723536372185,-0.00747974356636405,-0.0571993924677372,0.004294372629374266,-0.029949495568871498
0.04256157949566841,0.01473300252109766,-0.007792814169079065,-0.058366045355796814,0.004045362118631601,-0.031210942193865776
0.04168955236673355,0.015155663713812828,-0.007695963606238365,-0.059318602085113525,0.004464100580662489,-0.028865842148661613
0.04174226522445679,0.01479713711887598,-0.0070255110040307045,-0.059539612382650375,0.004177164752036333,-0.028534667566418648
0.042135585099458694,0.015325780026614666,-0.0071953097358345985,-0.05974051356315613,0.004289934411644936,-0.029292132705450058
0.04204278811812401,0.014978524297475815,-0.008134506642818451,-0.059763699769973755,0.0041120522655546665,-0.02954096533358097
0.041906487196683884,0.0150349922478199,-0.007183507084846497,-0.0604313388466835,0.0047897701151669025,-0.02966332621872425
0.04209737479686737,0.015248879790306091,-0.006810629274696112,-0.060995351523160934,0.004509650636464357,-0.029947128146886826
0.04245523363351822,0.014752603136003017,-0.007139040622860193,-0.060116976499557495,0.004428609274327755,-0.029847947880625725
0.042668286710977554,0.015239080414175987,-0.007195067126303911,-0.061607975512742996,0.004585892427712679,-0.02979196608066559
