davideferrari95/blind_handover_controller/data/Test 36 - [2024-02-07 -- 14-48-32]/joint_states_data.csv
shoulder_pan_joint,shoulder_lift_joint,elbow_joint,wrist_1_joint,wrist_2_joint,wrist_3_joint
0.0036756929475814104,-0.0048759994097054005,-0.011450630612671375,0.013726906850934029,0.00022285597515292466,0.004532939754426479
0.00428886478766799,-0.00441767368465662,-0.011403629556298256,0.01466070394963026,0.00021240809292066842,0.004616547841578722
0.00428886478766799,-0.00441767368465662,-0.011403629556298256,0.01466070394963026,0.00021240809292066842,0.004616547841578722
0.004287060350179672,-0.005133209750056267,-0.01125903520733118,0.014349517412483692,0.000237979504163377,0.004894099663943052
0.004256607964634895,-0.005173706915229559,-0.012067331001162529,0.015239656902849674,0.0002325489913346246,0.004459167364984751
0.00408887630328536,-0.004917999729514122,-0.011107902973890305,0.014761139638721943,0.0002232484403066337,0.0043887789361178875
0.004443310666829348,-0.005211076699197292,-0.011510893702507019,0.014965666458010674,0.00021440307318698615,0.0041824085637927055
0.004235119093209505,-0.005039583425968885,-0.01156462263315916,0.014810770750045776,0.00023824843810871243,0.004326701629906893
0.004391135182231665,-0.004799369722604752,-0.01147423405200243,0.015444930642843246,0.00023158168187364936,0.004573623184114695
0.004252417013049126,-0.004949426744133234,-0.011594022624194622,0.01489386148750782,0.00022350114886648953,0.004653255920857191
0.004426817409694195,-0.0048376163467764854,-0.011187362484633923,0.01554747112095356,0.0002158516872441396,0.004636166617274284
0.004225366748869419,-0.004760291893035173,-0.011731680482625961,0.015295487828552723,0.0002307565009687096,0.004371460061520338
0.004225366748869419,-0.004760291893035173,-0.011731680482625961,0.015295487828552723,0.0002307565009687096,0.004371460061520338
0.003965998999774456,-0.005183710716664791,-0.01124733779579401,0.015564335510134697,0.00023036015045363456,0.004409272689372301
0.004172943532466888,-0.0050140246748924255,-0.01100804191082716,0.0150239747017622,0.0002236599539173767,0.004537457600235939
0.0045005702413618565,-0.004802233073860407,-0.011074461974203587,0.015163850970566273,0.00021694967290386558,0.004662467632442713
0.004241133574396372,-0.00454986235126853,-0.010842124931514263,0.015108552761375904,0.00024377900990657508,0.004556829575449228
0.004393566399812698,-0.0045480323024094105,-0.01126367598772049,0.015368828549981117,0.0002614509139675647,0.00477644195780158
0.004232737235724926,-0.004582428839057684,-0.011203259229660034,0.015401847660541534,0.0002490610640961677,0.004395239986479282
0.0039413198828697205,-0.004581058397889137,-0.01068679615855217,0.01556247379630804,0.00023612398945260793,0.004348307382315397
0.004169865045696497,-0.00465527456253767,-0.011334676295518875,0.015475273132324219,0.0002632052928674966,0.004535734187811613
0.004286122042685747,-0.005023657809942961,-0.011138723231852055,0.015463613905012608,0.0002560459543019533,0.004555875435471535
0.004491059575229883,-0.0049531115218997,-0.01082349382340908,0.01557580940425396,0.00024478527484461665,0.00458108214661479
0.0041201296262443066,-0.004665088374167681,-0.011004316620528698,0.01475033164024353,0.0002341890794923529,0.004492927808314562
0.0042496551759541035,-0.0047820210456848145,-0.010688642039895058,0.014983179979026318,0.0002244541683467105,0.004600034095346928
0.004487406928092241,-0.004762547556310892,-0.011241496540606022,0.014881608076393604,0.0002420316159259528,0.004633651115000248
0.00435673538595438,-0.004994875285774469,-0.011415663175284863,0.015309263952076435,0.00024114914413075894,0.00439476128667593
0.004582345951348543,-0.005024205427616835,-0.010837504640221596,0.014456713572144508,0.00023278557637240738,0.0049343169666826725
0.004320009611546993,-0.005186012480407953,-0.012009399943053722,0.014843106269836426,0.00022452387202065438,0.004839263390749693
0.0042930226773023605,-0.0048691947013139725,-0.011454046703875065,0.014436754398047924,0.00021679865312762558,0.004401849117130041
0.004000023938715458,-0.004600404761731625,-0.011445076204836369,0.014774695038795471,0.00020958579261787236,0.004451988264918327
0.004076035693287849,-0.004740865435451269,-0.010847533121705055,0.014704412780702114,0.00022086905664764345,0.00481014046818018
0.004363675601780415,-0.005088805686682463,-0.011582686565816402,0.01398468017578125,0.00021754558838438243,0.004759165458381176
0.00411774730309844,-0.0055456929840147495,-0.01126861572265625,0.014615693129599094,0.00021137793373782188,0.0046713389456272125
0.004292596597224474,-0.0052877250127494335,-0.011350777931511402,0.014248932711780071,0.0002053621574304998,0.004499069415032864
0.004327434115111828,-0.004458174109458923,-0.011714431457221508,0.014699268154799938,0.00019966790569014847,0.0043023088946938515
0.0043385750614106655,-0.00451447069644928,-0.010926630347967148,0.014401931315660477,0.00019428007362876087,0.004402081482112408
0.0043385750614106655,-0.00451447069644928,-0.010926630347967148,0.014401931315660477,0.00019428007362876087,0.004402081482112408
0.004397111479192972,-0.0054984441958367825,-0.011418918147683144,0.014933607541024685,0.00019378442084416747,0.004195128567516804
0.004185546655207872,-0.005351934116333723,-0.011140396818518639,0.015008031390607357,0.00018656138854566962,0.004412833135575056
0.004014501813799143,-0.005094096064567566,-0.01172197237610817,0.014402810484170914,0.0001791843242244795,0.004586626775562763
0.00451788492500782,-0.005117766559123993,-0.0113150579854846,0.014588743448257446,0.00017232495883945376,0.004626925103366375
0.0042315879836678505,-0.004847702570259571,-0.012047866359353065,0.01466472540050745,0.0001659684639889747,0.004593005403876305
0.0043959468603134155,-0.004874090664088726,-0.011310502886772156,0.015148601494729519,0.0001600643590791151,0.004597083665430546
0.004119074437767267,-0.004830701742321253,-0.011661949567496777,0.014946013689041138,0.00018338840163778514,0.004463104531168938
0.004119074437767267,-0.004830701742321253,-0.011661949567496777,0.014946013689041138,0.00018338840163778514,0.004463104531168938
0.004060846287757158,-0.0047686449252069,-0.011937979608774185,0.015077203512191772,0.00017918211233336478,0.004736372269690037
0.004004846327006817,-0.004624505527317524,-0.011620830744504929,0.01511385664343834,0.00017354583542328328,0.004790083970874548
0.003934068139642477,-0.004587430041283369,-0.01205148920416832,0.015256024897098541,0.00016814940317999572,0.004854435101151466
0.004371552262455225,-0.004236395005136728,-0.011605458334088326,0.015062026679515839,0.0001630715560168028,0.004622146487236023
0.004611324053257704,-0.004017082042992115,-0.011391356587409973,0.014859719201922417,0.00015829094627406448,0.004761152435094118
0.0048410315066576,-0.004305930808186531,-0.011559798382222652,0.014534302055835724,0.0001760298473527655,0.004909981042146683
0.004574652761220932,-0.004676999524235725,-0.011146120727062225,0.014461825601756573,0.00017422442033421248,0.00485511589795351
0.004224587697535753,-0.004707728512585163,-0.012147495523095131,0.014597932808101177,0.0001697300176601857,0.0046472093090415
0.003920919261872768,-0.004682234022766352,-0.011851579882204533,0.014808258041739464,0.00016528982087038457,0.004587499890476465
0.004325851798057556,-0.004368287045508623,-0.012094778940081596,0.014986558817327023,0.0001825302024371922,0.004685296211391687
0.004647047258913517,-0.004154311493039131,-0.012003112584352493,0.015047470107674599,0.00017938426753971726,0.004283182322978973
0.0044291699305176735,-0.004471644759178162,-0.011110354214906693,0.01513228751718998,0.00017511280020698905,0.003932612016797066
0.004497705493122339,-0.004703769460320473,-0.012167070992290974,0.01446562446653843,0.00019764978787861764,0.004712910391390324
0.004412440583109856,-0.004900128580629826,-0.011807636357843876,0.015203212387859821,0.00021365015709307045,0.005056493449956179
0.0041899653151631355,-0.005383895710110664,-0.011561010964214802,0.014959469437599182,0.00020554960065055639,0.004314453341066837
0.004284478258341551,-0.0046481662429869175,-0.011173183098435402,0.01513582095503807,0.00020687529467977583,0.004568235948681831
0.0046538193710148335,-0.004306145012378693,-0.011638900265097618,0.015582875348627567,0.00021578275482170284,0.00473060691729188
0.004775654058903456,-0.0044160205870866776,-0.011641483753919601,0.015005088411271572,0.00020857052004430443,0.004798315931111574
0.0044266399927437305,-0.0048108333721756935,-0.011547532863914967,0.01566031575202942,0.00020088425662834197,0.004831057507544756
0.004340087994933128,-0.004779593087732792,-0.011985893361270428,0.014783313497900963,0.00019368279026821256,0.004790714010596275
0.004423707257956266,-0.004723442252725363,-0.011044325307011604,0.01586209610104561,0.00020224612671881914,0.00476135965436697
0.004551773425191641,-0.004524152260273695,-0.011061478406190872,0.014130456373095512,0.00020979960390832275,0.004652098752558231
0.00458410382270813,-0.004163384437561035,-0.010924802161753178,0.015031762421131134,0.00020394130842760205,0.004625223111361265
0.0045837536454200745,-0.003923539072275162,-0.01020029652863741,0.015710847452282906,0.00019760458962991834,0.004996973089873791
0.004529326688498259,-0.004303471185266972,-0.011774525046348572,0.015512342564761639,0.00020502627012319863,0.00492092827335
0.004876818507909775,-0.004559748340398073,-0.01197107508778572,0.014969518408179283,0.00021159619791433215,0.0053288135677576065
0.005090451333671808,-0.004604533780366182,-0.011518474668264389,0.015258679166436195,0.0002063541323877871,0.005072810687124729
0.00444081099703908,-0.0044507612474262714,-0.011942693963646889,0.01533370278775692,0.00020065673743374646,0.0047918581403791904
0.00444081099703908,-0.0044507612474262714,-0.011942693963646889,0.01533370278775692,0.00020065673743374646,0.0047918581403791904
0.004290855955332518,-0.00419614790007472,-0.010616989806294441,0.01505030132830143,0.00024324718106072396,0.0048597450368106365
0.004622036125510931,-0.004265026655048132,-0.011788328178226948,0.015267250128090382,0.0002457847003825009,0.004797328729182482
0.004836046602576971,-0.004076737444847822,-0.011249620467424393,0.014909142628312111,0.00023403465456794947,0.004864401649683714
0.004725215956568718,-0.004495525732636452,-0.011275296099483967,0.015136395581066608,0.00022252641792874783,0.004873421974480152
0.004635955207049847,-0.004750414285808802,-0.011159953661262989,0.014685471542179585,0.0002327538386452943,0.005184299778193235
0.004717106930911541,-0.004417379852384329,-0.010376475751399994,0.015175295062363148,0.00024158017185982317,0.004899771884083748
0.0047284262254834175,-0.004446882288902998,-0.01124243438243866,0.014935026876628399,0.00023243845498654991,0.004499619361013174
0.00478019705042243,-0.00447301147505641,-0.011091961525380611,0.015462315641343594,0.00022292327776085585,0.004578831605613232
0.0046662092208862305,-0.004452036693692207,-0.01096347440034151,0.015087605454027653,0.0002140888391295448,0.004854780621826649
0.004808913916349411,-0.004626858979463577,-0.011101753450930119,0.015468604862689972,0.0002059238322544843,0.0045310878194868565
0.00532651087269187,-0.004450106993317604,-0.010352058336138725,0.014838584698736668,0.000198358204215765,0.004593694116920233
0.004863720387220383,-0.004481669515371323,-0.010853689163923264,0.015352755784988403,0.00021898523846175522,0.004605714697390795
0.004810837097465992,-0.004602283705025911,-0.010618126951158047,0.015407425351440907,0.00020842652884311974,0.004679565783590078
0.0049648769199848175,-0.004576439503580332,-0.011310887522995472,0.014963376335799694,0.00020176683028694242,0.004802097100764513
0.004934332799166441,-0.0041594356298446655,-0.010783297941088676,0.014948958531022072,0.00019550604338292032,0.004574928432703018
0.005169016309082508,-0.004139308352023363,-0.010975741781294346,0.015081828460097313,0.00018962091417051852,0.004336537793278694
0.005017478950321674,-0.004253163933753967,-0.011447521857917309,0.015101835131645203,0.00018408034520689398,0.0047689094208180904
0.004730513319373131,-0.004489625338464975,-0.011354315094649792,0.015169133432209492,0.00017885369015857577,0.0049049570225179195
0.004792076535522938,-0.00454124016687274,-0.011533956974744797,0.015012772753834724,0.00019709256594069302,0.004748170264065266
0.00535143818706274,-0.004814590327441692,-0.011714521795511246,0.01478892657905817,0.00019331209477968514,0.0046993643045425415
0.005291522014886141,-0.00438316585496068,-0.011440347880125046,0.014633510261774063,0.0001883534132502973,0.004746205639094114
0.004871664568781853,-0.0041955383494496346,-0.011294291354715824,0.014689245261251926,0.0001835577713791281,0.004718068987131119
0.005080754403024912,-0.004018811509013176,-0.010983333922922611,0.014353659935295582,0.00017899488739203662,0.004743046592921019
0.004937219899147749,-0.004458246286958456,-0.011585695669054985,0.014254128560423851,0.00017465250857640058,0.004997971002012491
0.004903347697108984,-0.004721466451883316,-0.011539645493030548,0.014325826428830624,0.0001705161266727373,0.004900519270449877
0.004903347697108984,-0.004721466451883316,-0.011539645493030548,0.014325826428830624,0.0001705161266727373,0.004900519270449877
0.005330835934728384,-0.004891945980489254,-0.010673386976122856,0.014334321953356266,0.00016657104424666613,0.004829879850149155
0.005071433261036873,-0.004724984522908926,-0.011090352199971676,0.0144783491268754,0.00016280436830129474,0.005043532699346542
0.005267750937491655,-0.00464637391269207,-0.010945454239845276,0.014601669274270535,0.0001592044427525252,0.005022854078561068
0.00514473021030426,-0.004742726217955351,-0.011211298406124115,0.014465579763054848,0.00015576020814478397,0.0057406057603657246
0.004852540325373411,-0.004459113348275423,-0.011727502569556236,0.014643874950706959,0.00015246194379869848,0.005433943588286638
0.004750453867018223,-0.004613332450389862,-0.010778658092021942,0.014525165781378746,0.00014930017641745508,0.005006787832826376
0.005113156512379646,-0.004666212946176529,-0.01108487043529749,0.014727318659424782,0.0001395825092913583,0.005218018312007189
0.004967874381691217,-0.005096372216939926,-0.010929521173238754,0.014388582669198513,0.00013463890354614705,0.005201645195484161
0.005478770472109318,-0.005030978005379438,-0.01082638744264841,0.014584598131477833,0.00013067826512269676,0.0050031766295433044
0.005335962399840355,-0.00438595050945878,-0.011875598691403866,0.014024131000041962,0.00012698692444246262,0.005213056690990925
0.004902586340904236,-0.0045050038024783134,-0.011393601074814796,0.014684587717056274,0.00012350131873972714,0.0051012421026825905
0.0048374091275036335,-0.004972349386662245,-0.01107021514326334,0.01452452503144741,0.00012020229041809216,0.004995816387236118
0.005392399616539478,-0.004885438829660416,-0.011092749424278736,0.015173019841313362,0.00011707504017977044,0.0055009471252560616
0.005103165749460459,-0.0050184642896056175,-0.011344344355165958,0.01534225232899189,0.00011128417827421799,0.004926969297230244
0.004907037131488323,-0.0048447721637785435,-0.011090593412518501,0.014973502606153488,0.00010859838948817924,0.0052745710127055645
0.005096775479614735,-0.004803455900400877,-0.011528135277330875,0.014974250458180904,0.00010603928240016103,0.005123176611959934
0.00539105711504817,-0.004421127960085869,-0.011236450634896755,0.014491135254502296,0.00010359786392655224,0.005481456872075796
0.005183943547308445,-0.0044438824988901615,-0.010533425956964493,0.01497381180524826,0.00010126646520802751,0.005333978217095137
0.005308147054165602,-0.004651921335607767,-0.011122709140181541,0.014703230932354927,9.903765749186277e-05,0.005021726246923208
0.005204507615417242,-0.005051581654697657,-0.011071629822254181,0.015412814915180206,9.690500883152708e-05,0.0050839767791330814
0.004946404602378607,-0.004815999418497086,-0.011730014346539974,0.01551330927759409,9.486194176133722e-05,0.004936412908136845
0.004946404602378607,-0.004815999418497086,-0.011730014346539974,0.01551330927759409,9.486194176133722e-05,0.004936412908136845
0.005258437246084213,-0.004942534491419792,-0.011387700214982033,0.015942394733428955,9.290357411373407e-05,0.004956210032105446
0.005191403441131115,-0.004929397255182266,-0.010746299289166927,0.015300753526389599,9.102428157348186e-05,0.005349001847207546
0.00545137096196413,-0.004761225078254938,-0.011169574223458767,0.015280206687748432,8.921951666707173e-05,0.005163524299860001
0.005480150226503611,-0.004621234256774187,-0.011159082874655724,0.014369875192642212,8.748510299483314e-05,0.004918918013572693
0.005281830206513405,-0.0050453185103833675,-0.010677346028387547,0.014622922986745834,8.581664587836713e-05,0.0051497966051101685
0.0053545827977359295,-0.00504123093560338,-0.011644759215414524,0.014455103315412998,8.421064558206126e-05,0.005362020805478096
0.005217887926846743,-0.004641854669898748,-0.011038115248084068,0.014686470851302147,8.266367512987927e-05,0.005414248909801245
0.005708977114409208,-0.004832152277231216,-0.010846253484487534,0.014744000509381294,8.117254765238613e-05,0.005120181944221258
0.005399681627750397,-0.004844821523874998,-0.011264133267104626,0.015080664306879044,7.973428728291765e-05,0.004982454236596823
0.005779089871793985,-0.004726259037852287,-0.011320316232740879,0.015278622508049011,7.834609277779236e-05,0.0051533556543290615
0.005440381355583668,-0.004791799932718277,-0.0121309170499444,0.01413978822529316,7.700539572397247e-05,0.005089070647954941
0.0053367107175290585,-0.005026129074394703,-0.01119049359112978,0.014491815119981766,7.57097513996996e-05,0.005603913217782974
0.005542030557990074,-0.004754985217005014,-0.010937836952507496,0.015221343375742435,7.445714436471462e-05,0.005428875796496868
0.005592606496065855,-0.004690626636147499,-0.011455066502094269,0.014869333244860172,7.324521720875055e-05,0.005754954647272825
0.00567131582647562,-0.004926140420138836,-0.011129367165267467,0.015354018658399582,7.207209273474291e-05,0.005407657939940691
0.006103074178099632,-0.00485821720212698,-0.011505299247801304,0.014749600552022457,7.09360174369067e-05,0.0057473210617899895
0.005407633259892464,-0.004774875473231077,-0.011827382259070873,0.01440526358783245,6.983511411817744e-05,0.005493961740285158
0.00578705407679081,-0.004551540594547987,-0.012143965810537338,0.014391358941793442,6.773292261641473e-05,0.005672790110111237
0.00584840914234519,-0.0046792905777692795,-0.011431614868342876,0.014546637423336506,6.67284766677767e-05,0.006080209743231535
0.00581022072583437,-0.004747369326651096,-0.011610756628215313,0.0143362358212471,6.575346924364567e-05,0.005529380869120359
0.005950001068413258,-0.004873951897025108,-0.01205380167812109,0.014903183095157146,6.480651791207492e-05,0.0053469957783818245
0.005500855855643749,-0.005127385258674622,-0.011350253596901894,0.01446034386754036,6.388645124388859e-05,0.005642785225063562
0.006062708329409361,-0.004852296784520149,-0.011639134958386421,0.015139239840209484,6.299217056948692e-05,0.005370546132326126
0.006349706556648016,-0.0041528502479195595,-0.011651533655822277,0.014788332395255566,6.212255539139733e-05,0.005823168437927961
0.005726030096411705,-0.004095049109309912,-0.012091001495718956,0.014749139547348022,6.127663073129952e-05,0.005663109477609396
0.005783982574939728,-0.004660113714635372,-0.012086975388228893,0.014430872164666653,6.0453417972894385e-05,0.00575082004070282
0.005730944685637951,-0.004861259367316961,-0.010976950637996197,0.014905743300914764,5.9652105846907943e-05,0.005550179164856672
0.005730944685637951,-0.004861259367316961,-0.010976950637996197,0.014905743300914764,5.9652105846907943e-05,0.005550179164856672
0.0061914981342852116,-0.004753898363560438,-0.012239962816238403,0.01451969426125288,5.887168299523182e-05,0.005656152032315731
0.006295819766819477,-0.00454095471650362,-0.011447739787399769,0.014540606178343296,5.81114218221046e-05,0.006018841173499823
0.005904186517000198,-0.004624242428690195,-0.011635348200798035,0.014627905562520027,5.737056926591322e-05,0.005807003006339073
0.0055224960669875145,-0.004605250898748636,-0.012014535255730152,0.014964429661631584,5.664838681695983e-05,0.005827437620609999
0.0055152554996311665,-0.004896544385701418,-0.011832271702587605,0.014235034584999084,5.594417962129228e-05,0.005671598948538303
0.00620296411216259,-0.004716807045042515,-0.011922156438231468,0.01477939821779728,5.5257212807191536e-05,0.005578827112913132
0.005821432918310165,-0.0055302819237113,-0.011112012900412083,0.014489160850644112,5.4586918849963695e-05,0.005341063719242811
0.0057931747287511826,-0.004351374693214893,-0.01185834314674139,0.015073726885020733,5.393267929321155e-05,0.0057867299765348434
0.005938508082181215,-0.00329971662722528,-0.011966599151492119,0.014293217100203037,5.3293973905965686e-05,0.005932562984526157
0.00548371858894825,-0.002951604314148426,-0.011520950123667717,0.014615165069699287,5.267022061161697e-05,0.006187385879456997
0.006341166328638792,-0.003467726521193981,-0.011714696884155273,0.013954431749880314,5.206087735132314e-05,0.006248785648494959
0.005968592595309019,-0.004069512709975243,-0.011356516741216183,0.014635053463280201,5.146545299794525e-05,0.00601643742993474
0.005924203433096409,-0.004170943982899189,-0.011453765444457531,0.01421938557177782,5.0883514632005244e-05,0.006266062613576651
0.005583344027400017,-0.003760076593607664,-0.011945446021854877,0.014577975496649742,5.0314618420088664e-05,0.006075331941246986
0.006076635327190161,-0.0034011423122137785,-0.011917881667613983,0.01472675520926714,3.2488585475221043e-06,0.005593252833932638
0.0061461240984499454,-0.003697431879118085,-0.0110527528449893,0.014300884678959846,2.1212724732322386e-07,0.005532692186534405
0.006117051001638174,-0.0038645875174552202,-0.011117855086922646,0.014582612551748753,1.3850394608994065e-08,0.005525127984583378
0.005742907989770174,-0.003858228214085102,-0.011280772276222706,0.014356803148984909,9.043317206192114e-10,0.006373542360961437
0.005763678345829248,-0.0033801996614784002,-0.011278650723397732,0.014885345473885536,5.904639971410219e-11,0.006471238564699888
0.006285059731453657,-0.003445914713665843,-0.012022185139358044,0.014630787074565887,3.855308433609039e-12,0.005349813029170036
0.0062495386227965355,-0.003701540408656001,-0.01143729593604803,0.01516786403954029,2.5172407019068144e-13,0.004995178431272507
0.0063230437226593494,-0.0038805087096989155,-0.011004259809851646,0.015035603195428848,1.6435783262809187e-14,0.005545352585613728
0.0063230437226593494,-0.0038805087096989155,-0.011004259809851646,0.015035603195428848,1.6435783262809187e-14,0.005545352585613728
0.005840738769620657,-0.0036004362627863884,-0.011179921217262745,0.015201837755739689,7.006831901977434e-17,0.006460169330239296
0.005840738769620657,-0.0036004362627863884,-0.011179921217262745,0.015201837755739689,7.006831901977434e-17,0.006460169330239296
0.006305465009063482,-0.0032533714547753334,-0.011966248974204063,0.015032618306577206,4.574960605740935e-18,0.00614921422675252
0.006305948365479708,-0.0034310498740524054,-0.011437036097049713,0.01483825407922268,2.987122382869736e-19,0.00559324910864234
0.006374755874276161,-0.003497371217235923,-0.011314865201711655,0.014547775499522686,1.950377662389673e-20,0.005528120789676905
0.006386210210621357,-0.0033555366098880768,-0.011189524084329605,0.014526402577757835,1.2734570738256738e-21,0.005961380433291197
0.005857529118657112,-0.003430774202570319,-0.01083647832274437,0.014696466736495495,8.314764966073716e-23,0.0062157572247087955
0.006250981241464615,-0.0032048190478235483,-0.011513171717524529,0.01421403605490923,5.428947060618245e-24,0.006452284287661314
0.00668345345184207,-0.0034844204783439636,-0.011713084764778614,0.014183185063302517,3.544714430136342e-25,0.0057614641264081
0.006424836814403534,-0.0037376934196799994,-0.011485635302960873,0.013934756629168987,2.314445326878144e-26,0.005754371639341116
0.0063485875725746155,-0.003385295858606696,-0.011585877276957035,0.014113912358880043,1.5111672567608395e-27,0.006107487715780735
0.0061787390150129795,-0.0031697971280664206,-0.010503985919058323,0.01444376353174448,9.86684243906205e-29,0.006451915018260479
0.006131726782768965,-0.003173647914081812,-0.01200624369084835,0.014773713424801826,6.442343245218291e-30,0.00619574636220932
0.006426983512938023,-0.0033286281395703554,-0.01131883542984724,0.014580275863409042,4.206389925377954e-31,0.005907558370381594
0.006621876731514931,-0.003366949735209346,-0.01084265485405922,0.01464355830103159,2.7464720210352254e-32,0.006032346282154322
0.006042762193828821,-0.0035745117347687483,-0.011385353282094002,0.014417726546525955,1.793250060300001e-33,0.006201401352882385
0.006296877283602953,-0.0037377309054136276,-0.011074382811784744,0.014676030725240707,1.170864234694742e-34,0.006636946462094784
0.0068216947838664055,-0.003508444409817457,-0.011011481285095215,0.013841090723872185,7.644906862181146e-36,0.006300985347479582
0.007138837594538927,-0.0034355733077973127,-0.011435159482061863,0.014065012335777283,4.9915780396134255e-37,0.00652567483484745
0.006175259593874216,-0.0038556160870939493,-0.011208433657884598,0.014553412795066833,2.1279880258497737e-39,0.006795161869376898
0.006852596066892147,-0.003457865910604596,-0.011526898480951786,0.01453534234315157,1.3894294663319859e-40,0.006843812298029661
0.006855277344584465,-0.003478685161098838,-0.011019997298717499,0.014639731496572495,9.072006258038866e-42,0.006409435532987118
0.0068688285537064075,-0.003733573015779257,-0.011894318275153637,0.014718171209096909,5.927492504093976e-43,0.006529245059937239
0.006827841512858868,-0.0034074310678988695,-0.011499992571771145,0.015131792053580284,3.923635700109488e-44,0.006814007181674242
0.006719341967254877,-0.003305968130007386,-0.011595305055379868,0.015472211875021458,2.802596928649634e-45,0.007385258562862873
0.007388696074485779,-0.00324091874063015,-0.011549710296094418,0.015887416899204254,0.0,0.007028802763670683
0.0067420839332044125,-0.0034606284461915493,-0.01089118979871273,0.015722118318080902,0.0,0.007076055742800236
0.006845072843134403,-0.0036993527319282293,-0.011454874649643898,0.014739963226020336,0.0,0.0066115171648561954
0.006845072843134403,-0.0036993527319282293,-0.011454874649643898,0.014739963226020336,0.0,0.0066115171648561954
0.007016486022621393,-0.0037727379240095615,-0.011128628626465797,0.014629356563091278,0.0,0.006701315753161907
0.0074678706005215645,-0.0034118809271603823,-0.011062919162213802,0.013637371361255646,0.0,0.006809438578784466
0.00765998987480998,-0.003478721249848604,-0.011464607901871204,0.013724352233111858,0.0,0.006813923828303814
0.006935103330761194,-0.0032608008477836847,-0.011045805178582668,0.013719757087528706,0.0,0.006173628382384777
0.006927519105374813,-0.003552212379872799,-0.01130294892936945,0.014295609667897224,0.0,0.006100191734731197
0.007450479082763195,-0.0037548865657299757,-0.0110689802095294,0.01445581391453743,0.0,0.006641864310950041
0.007301291450858116,-0.0037596840411424637,-0.010803316719830036,0.014890640042722225,0.0,0.006721642334014177
0.007102000992745161,-0.003732598852366209,-0.010946480557322502,0.0146423215046525,0.0,0.00710621802136302
0.00749418418854475,-0.00328072695992887,-0.010525240562856197,0.01444957870990038,0.0,0.006667194422334433
0.007799986749887466,-0.003182814223691821,-0.011172974482178688,0.014084371738135815,0.0,0.00673673814162612
0.007627001963555813,-0.0032604490406811237,-0.011392679996788502,0.013746756128966808,0.0,0.007199858780950308
0.007687537930905819,-0.0035529707092791796,-0.01095136720687151,0.013713359832763672,0.0,0.0074098301120102406
0.007392367348074913,-0.003807121654972434,-0.011331314221024513,0.014066386967897415,0.0,0.007660830393433571
0.008680399507284164,-0.0038420523051172495,-0.011327126994729042,0.014356056228280067,0.0,0.007504089269787073
0.007596236653625965,-0.0033968922216445208,-0.011124327778816223,0.014353353530168533,0.0,0.0068761445581912994
0.007373062893748283,-0.003053868655115366,-0.011156261898577213,0.014690863899886608,0.0,0.006720158737152815
0.007573931012302637,-0.0033740466460585594,-0.011089135892689228,0.01460999809205532,0.0,0.007251558359712362
0.007840964943170547,-0.0031181559897959232,-0.012083609588444233,0.014571809209883213,0.0,0.007643368560820818
0.007593077141791582,-0.003282660385593772,-0.010991294868290424,0.01474450621753931,0.0,0.00725405290722847
0.008139224722981453,-0.0032644926104694605,-0.011554407887160778,0.014754380099475384,0.0,0.007225012872368097
0.007970704697072506,-0.003392888233065605,-0.011173039674758911,0.014696387574076653,0.0,0.0074027953669428825
0.008378158323466778,-0.003326235106214881,-0.01216328889131546,0.01506789866834879,0.0,0.007859255187213421
0.007769306655973196,-0.0033917154651135206,-0.011497139930725098,0.01467687264084816,0.0,0.007377677597105503
0.008331041783094406,-0.0031399957370013,-0.011329700239002705,0.01477340143173933,0.0,0.007392357103526592
0.00855877436697483,-0.003105391748249531,-0.01189163327217102,0.014375529251992702,0.0,0.0076997834257781506
0.008086557500064373,-0.0032344143837690353,-0.011399304494261742,0.014614484272897243,0.0,0.008045642636716366
0.0077323890291154385,-0.0031586948316544294,-0.012331047095358372,0.014294236898422241,0.0,0.007558166980743408
0.0077323890291154385,-0.0031586948316544294,-0.012331047095358372,0.014294236898422241,0.0,0.007558166980743408
0.008188646286725998,-0.003067879704758525,-0.011639739386737347,0.014467663131654263,0.0,0.006978601682931185
0.00831705890595913,-0.0029166245367377996,-0.011210972443223,0.013970638625323772,0.0,0.0072484309785068035
0.008154886774718761,-0.003012557979673147,-0.012677047401666641,0.014260564930737019,0.0,0.00748185720294714
0.0077459863387048244,-0.003194208722561598,-0.011386677622795105,0.014230461791157722,0.0,0.00732819177210331
0.008082738146185875,-0.003470137482509017,-0.011610855348408222,0.014315394684672356,0.0,0.007130072917789221
0.008156046271324158,-0.003329270053654909,-0.011770795099437237,0.014454042539000511,0.0,0.007451150566339493
0.008101127110421658,-0.003462648717686534,-0.01222355104982853,0.014813033863902092,0.0,0.00795544870197773
0.008404062129557133,-0.003246413543820381,-0.012137720361351967,0.014532072469592094,0.0,0.008122646249830723
0.007919827476143837,-0.0030447605531662703,-0.011697552166879177,0.014936668798327446,0.0,0.007754206191748381
0.008326305076479912,-0.003028060309588909,-0.012694927863776684,0.01426299475133419,0.0,0.007818073034286499
0.007830682210624218,-0.0031924431677907705,-0.011929347179830074,0.014105112291872501,0.0,0.007852925918996334
0.00815968681126833,-0.0031016848515719175,-0.011938606388866901,0.0139685133472085,0.0,0.007768184877932072
0.008287902921438217,-0.003564778482541442,-0.012431761249899864,0.01394069567322731,0.0,0.007645048666745424
0.008233090862631798,-0.0033494497183710337,-0.011721232905983925,0.015507056377828121,0.0,0.007826421409845352
0.008960447274148464,-0.0031023311894387007,-0.011960753239691257,0.014033480547368526,0.0,0.007269086316227913
0.008525432087481022,-0.0030704978853464127,-0.011705808341503143,0.01394899282604456,0.0,0.007151092402637005
0.008265805430710316,-0.0031485564541071653,-0.012121094390749931,0.014466325752437115,0.0,0.008469527587294579
0.008771270513534546,-0.0029420810751616955,-0.011762715876102448,0.014481565915048122,0.0,0.007437559776008129
0.008830061182379723,-0.0031929973047226667,-0.012020887807011604,0.014487537555396557,0.0,0.007272987626492977
0.009003512561321259,-0.0029833971057087183,-0.011726305820047855,0.01437470968812704,0.0,0.0076239085756242275
0.008890628814697266,-0.003174742218106985,-0.012274353764951229,0.014703002758324146,0.0,0.008256829343736172
0.0089090745896101,-0.003326644189655781,-0.012128690257668495,0.014522752724587917,0.0,0.007979714311659336
0.008677000179886818,-0.0035323393531143665,-0.0121430279687047,0.014675878919661045,0.0,0.007936781272292137
0.00947869848459959,-0.0033195975702255964,-0.012655339203774929,0.014644790440797806,0.0,0.0075531816110014915
0.00947869848459959,-0.0033195975702255964,-0.012655339203774929,0.014644790440797806,0.0,0.0075531816110014915
0.00930921919643879,-0.003118275199085474,-0.011967172846198082,0.014312894083559513,0.0,0.007850910536944866
0.009080000221729279,-0.003395575098693371,-0.012048536911606789,0.014372856356203556,0.0,0.007859162986278534
0.009010464884340763,-0.0031983100343495607,-0.011962836608290672,0.014127056114375591,0.0,0.008174194023013115
0.009198644198477268,-0.00316188158467412,-0.012279096990823746,0.014214012771844864,0.0,0.00842659268528223
0.00875118188560009,-0.003178938291966915,-0.011779477819800377,0.01464622188359499,0.0,0.008428105153143406
0.008869890123605728,-0.003036376554518938,-0.011363805271685123,0.014811338856816292,0.0,0.00871156807988882
0.009497427381575108,-0.0030124906916171312,-0.012083543464541435,0.014579975977540016,0.0,0.008556640706956387
0.009790485724806786,-0.003040105337277055,-0.011542209424078465,0.01425448153167963,0.0,0.008474858477711678
0.009080290794372559,-0.0031150192953646183,-0.01222720742225647,0.014812781475484371,0.0,0.008318107575178146
0.00951017439365387,-0.0031611116137355566,-0.011545322835445404,0.015076368115842342,0.0,0.008094298653304577
0.009474718943238258,-0.0030785209964960814,-0.01262590941041708,0.01490736473351717,0.0,0.00824768841266632
0.009175693616271019,-0.0032199067063629627,-0.012038051150739193,0.015351347625255585,0.0,0.008193138055503368
0.009535040706396103,-0.0027228170074522495,-0.011585094034671783,0.014865022152662277,0.0,0.008049160242080688
0.009678499773144722,-0.0027626066002994776,-0.012721320614218712,0.014842340722680092,0.0,0.00865794625133276
0.009455236606299877,-0.003085690550506115,-0.011741814203560352,0.014410048723220825,0.0,0.008824335411190987
0.009656076319515705,-0.0028217339422553778,-0.012022697366774082,0.014467662200331688,0.0,0.00877873133867979
0.009594782255589962,-0.0030871445778757334,-0.012133104726672173,0.014028707519173622,0.0,0.008146884851157665
0.009838450700044632,-0.0030790239106863737,-0.01234026625752449,0.01408328302204609,0.0,0.008745651692152023
0.0097213014960289,-0.003121946007013321,-0.01189978327602148,0.014431986026465893,0.0,0.008906308561563492
0.00938327144831419,-0.0029408156406134367,-0.01211551297456026,0.01405100803822279,0.0,0.008484636433422565
0.0102006196975708,-0.0028130889404565096,-0.01193450391292572,0.014464757405221462,0.0,0.009129599668085575
0.009910746477544308,-0.0028526671230793,-0.01161098200827837,0.01402753870934248,0.0,0.008937425911426544
0.010030294768512249,-0.003098839893937111,-0.012408402748405933,0.014604240655899048,0.0,0.008632006123661995
0.01015371736139059,-0.0031686779111623764,-0.011969509534537792,0.014636272564530373,0.0,0.00931923184543848
0.00999419204890728,-0.0030372675973922014,-0.012644706293940544,0.01513565145432949,0.0,0.009215950965881348
0.009668245911598206,-0.002775156171992421,-0.01187982503324747,0.015204984694719315,0.0,0.008915401063859463
0.010618212632834911,-0.0029192136134952307,-0.012212807312607765,0.015039623714983463,0.0,0.008570731617510319
0.010087531059980392,-0.002959699369966984,-0.011955478228628635,0.014512303285300732,0.0,0.008930036798119545
0.010087531059980392,-0.002959699369966984,-0.011955478228628635,0.014512303285300732,0.0,0.008930036798119545
0.009380193427205086,-0.0030577462166547775,-0.011463568545877934,0.014529982581734657,0.0,0.009191354736685753
0.010402834974229336,-0.002984933089464903,-0.012343194335699081,0.0142200393602252,0.0,0.009188241325318813
0.009897633455693722,-0.003014633897691965,-0.012138194404542446,0.014375771395862103,0.0,0.009392684325575829
0.009273831732571125,-0.0029096624348312616,-0.012217124924063683,0.01428032387048006,0.0,0.009329316206276417
0.009976849891245365,-0.0027196472510695457,-0.011763740330934525,0.014681710861623287,0.0,0.0091299032792449
0.010549241676926613,-0.002553220372647047,-0.011743205599486828,0.014701515436172485,0.0,0.009775734506547451
0.009871971793472767,-0.0025281962007284164,-0.012429853901267052,0.01556206215173006,0.0,0.009623408317565918
0.00993803795427084,-0.0026474895421415567,-0.011790120042860508,0.015034769661724567,0.0,0.009563963860273361
0.010361374355852604,-0.0031060264445841312,-0.012324156239628792,0.015111014246940613,0.0,0.00929090566933155
0.009861373342573643,-0.002843869850039482,-0.01205476839095354,0.014740987680852413,0.0,0.00947712454944849
0.009898829273879528,-0.002699467586353421,-0.012492241337895393,0.016021523624658585,1.5499680330322008e-06,0.009625599719583988
0.00985095277428627,-0.002698720432817936,-0.012401566840708256,0.014865915291011333,1.0120183446815645e-07,0.010054954327642918
0.009837525896728039,-0.0025327408220618963,-0.012083334848284721,0.014686605893075466,6.60775700822569e-09,0.009647486731410027
0.010424732230603695,-0.0026288130320608616,-0.012423025444149971,0.014571157284080982,4.3143930095190797e-10,0.009413444437086582
0.010027789510786533,-0.002530080731958151,-0.012484359554946423,0.01502896100282669,1.839293474470427e-12,0.009558920748531818
0.010024902410805225,-0.002530239289626479,-0.012220448814332485,0.015279795043170452,1.2009272428500223e-13,0.009474141523241997
0.010708242654800415,-0.0023164143785834312,-0.012194628827273846,0.015220548026263714,7.841196598002819e-15,0.009888522326946259
0.010096505284309387,-0.0024053531233221292,-0.012242781929671764,0.014958770014345646,5.119741360121665e-16,0.00972620490938425
0.010241556912660599,-0.002305980073288083,-0.012354192323982716,0.01505984365940094,3.342825121634202e-17,0.00962047465145588
0.009621364995837212,-0.00226011173799634,-0.012720686383545399,0.015047408640384674,2.182626061242633e-18,0.009888311848044395
0.01066562533378601,-0.002633992349728942,-0.012558592483401299,0.01505860686302185,1.4250988125550925e-19,0.010207578539848328
0.01023806817829609,-0.0028697012457996607,-0.013214251026511192,0.01509533915668726,9.304877162426581e-21,0.009226115420460701
0.00969679281115532,-0.0025831705424934626,-0.012292646802961826,0.014800168573856354,6.075419455971078e-22,0.009299696423113346
0.01023684162646532,-0.002607839647680521,-0.012599272653460503,0.014704861678183079,3.966815145352084e-23,0.009480576030910015
0.01023684162646532,-0.002607839647680521,-0.012599272653460503,0.014704861678183079,3.966815145352084e-23,0.009480576030910015
0.010394719429314137,-0.0026189666241407394,-0.012814772315323353,0.014996395446360111,2.5900470913742912e-24,0.010354478843510151
0.009765570051968098,-0.002463361481204629,-0.01234674546867609,0.0147940618917346,1.6911156351868864e-25,0.010502750054001808
0.01074804738163948,-0.0026320035103708506,-0.012911787256598473,0.014858187176287174,1.1041776994271877e-26,0.010338877327740192
0.010249096900224686,-0.0026918428484350443,-0.012035073712468147,0.01447557657957077,7.209491005597694e-28,0.00996033288538456
0.009960029274225235,-0.0027286137919873,-0.01301764976233244,0.014882092364132404,4.7072824375062754e-29,0.010679632425308228
0.010610894300043583,-0.002471978310495615,-0.0127855921164155,0.014494383707642555,-1.0663668035704177e-05,0.01039988175034523
0.01069609448313713,-0.002301214961335063,-0.013188604265451431,0.015079892240464687,-0.0001973536709556356,0.009892157278954983
0.010054302401840687,-0.002239007968455553,-0.01280199084430933,0.014775418676435947,-0.0002007589937420562,0.010022172704339027
0.01076854020357132,-0.0026125716976821423,-0.012914220802485943,0.015172014012932777,-0.00019294802041258663,0.01046981941908598
0.010666039772331715,-0.0024874291848391294,-0.012889149598777294,0.014433644711971283,-0.00018506342894397676,0.009887592867016792
0.010233340784907341,-0.0023649579379707575,-0.012832686305046082,0.014700254425406456,-0.00021088990615680814,0.009955172426998615
0.010541293770074844,-0.002391782123595476,-0.013415231369435787,0.014443909749388695,-0.00020504192798398435,0.010005444288253784
0.010277040302753448,-0.0025863710325211287,-0.012923778034746647,0.015139252878725529,-0.00021381277474574745,0.010634171776473522
0.010838747955858707,-0.002491603372618556,-0.01394888199865818,0.014537842012941837,-0.0002213900734204799,0.010400762781500816
0.010862933471798897,-0.002530063735321164,-0.013116742484271526,0.014884278178215027,-0.00021482603915501386,0.010279528796672821
0.010542623698711395,-0.002282551256939769,-0.013715328648686409,0.01480666734278202,-0.00022235731012187898,0.010549244470894337
0.011025164276361465,-0.0022396950516849756,-0.014004940167069435,0.014018218964338303,-0.0002228121884400025,0.010254047811031342
0.012214716523885727,-0.0021864897571504116,-0.013149832375347614,0.01422246266156435,-0.00034001306630671024,0.011052343063056469
0.01296610850840807,-0.002362864790484309,-0.013640368357300758,0.013535767793655396,-0.0003242827078793198,0.010485243052244186
0.012384851463139057,-0.0021308716386556625,-0.013359952718019485,0.013480663299560547,-0.00030301057267934084,0.010554795153439045
0.012540852651000023,-0.002151999156922102,-0.013810556381940842,0.013084450736641884,-0.0003257189819123596,0.01018599234521389
0.012277154251933098,-0.0019445497309789062,-0.01364849228411913,0.013848519884049892,-0.0003194972814526409,0.01025173906236887
0.012570163235068321,-0.0019626356661319733,-0.013557103462517262,0.013877595774829388,-0.0003460712905507535,0.01039976067841053
0.012499256990849972,-0.0018188700778409839,-0.013566146604716778,0.015270955860614777,-0.00033375623752363026,0.010621843859553337
0.012749445624649525,-0.001990516670048237,-0.0133353928104043,0.01538801658898592,-0.00031733393552713096,0.010385151952505112
0.013165827840566635,-0.002054440788924694,-0.013790789060294628,0.01545979268848896,-0.00032321186154149473,0.010768871754407883
0.013046735897660255,-0.0022756089456379414,-0.012719168327748775,0.014481166377663612,-0.0003280519740656018,0.010937979444861412
0.013046735897660255,-0.0022756089456379414,-0.012719168327748775,0.014481166377663612,-0.0003280519740656018,0.010937979444861412
0.013201081193983555,-0.002245502080768347,-0.013206619769334793,0.015137323178350925,-0.00031497719464823604,0.010828697122633457
0.012818676419556141,-0.0021310667507350445,-0.01287572830915451,0.014794640243053436,-0.00030185343348421156,0.010995499789714813
0.013331963680684566,-0.002006716327741742,-0.01355930045247078,0.015344102866947651,-0.00028971070423722267,0.01089390181005001
0.012871266342699528,-0.00201217969879508,-0.012828918173909187,0.014798235148191452,-0.00027856943779625,0.010733316652476788
0.013293033465743065,-0.002028639428317547,-0.013337496668100357,0.014805159531533718,-0.0003017639392055571,0.011105895042419434
0.013102672062814236,-0.0019721926655620337,-0.013069311156868935,0.014045925810933113,-0.0002853644546121359,0.010963465087115765
0.013438861817121506,-0.0019351332448422909,-0.013493682257831097,0.014460325241088867,-0.0002685082727111876,0.011181395500898361
0.013168776407837868,-0.0016852054977789521,-0.013198328204452991,0.014843870885670185,-0.00025339412968605757,0.011198463849723339
0.013061150908470154,-0.0013363051693886518,-0.0130902836099267,0.01470718253403902,-0.0002814016188494861,0.010809563100337982
0.013514482416212559,-0.0011021319078281522,-0.01347761694341898,0.013949207961559296,-0.00027286307886242867,0.01114725973457098
0.013016726821660995,-0.0010658435057848692,-0.013315930962562561,0.014042736031115055,-0.00026008987333625555,0.0117225032299757
0.013387821614742279,-0.0008348908158950508,-0.013676333241164684,0.014105509035289288,-0.00027869961922988296,0.011737192049622536
0.013097858987748623,-0.0007888236432336271,-0.012827331200242043,0.01493903435766697,-0.0002760895586106926,0.011198936030268669
0.013714242726564407,-0.0008803000673651695,-0.013574694283306599,0.014807717874646187,-0.00026509800227358937,0.01097819209098816
0.013290651142597198,-0.001139130094088614,-0.013233172707259655,0.015188557095825672,-0.00028129754355177283,0.011838550679385662
0.013668392784893513,-0.0013655322836712003,-0.013693351298570633,0.015097767114639282,-0.0002788728743325919,0.011255139485001564
0.013548762537539005,-0.0011313596041873097,-0.014041539281606674,0.014383700676262379,-0.00025985436514019966,0.010942643508315086
0.013551278039813042,-0.0009781697299331427,-0.013398824259638786,0.014216015115380287,-0.0003007605264429003,0.011803193017840385
0.013736014254391193,-0.0008450829773209989,-0.013851678930222988,0.014172566123306751,-0.0002854899503290653,0.011973932385444641
0.013657834380865097,-0.000711599481292069,-0.01387915201485157,0.014562360942363739,-0.0002686856023501605,0.011971463449299335
0.013889736495912075,-0.0007219333783723414,-0.013997489586472511,0.014561931602656841,-0.0002974274684675038,0.01201412733644247
0.01403126958757639,-0.0007185210124589503,-0.013461258262395859,0.014708752743899822,-0.0002875867357943207,0.012401304207742214
0.013771274127066135,-0.000737712427508086,-0.013707160949707031,0.014656013809144497,-0.00027341360691934824,0.012050468474626541
0.01409426610916853,-0.0007024554652161896,-0.01395236887037754,0.0146745964884758,-0.0002602578606456518,0.01241346076130867
0.014257784932851791,-0.0007755064289085567,-0.013330223970115185,0.014506581239402294,-0.0002841342648025602,0.012504362501204014
0.014074867591261864,-0.0007927252445369959,-0.013309265486896038,0.014523704536259174,-0.00027657378814183176,0.011967186816036701
0.014263205230236053,-0.0007369795930571854,-0.013253034092485905,0.014605809934437275,-0.0002932503412012011,0.012287518009543419
0.01395384781062603,-0.0007531105657108128,-0.013514327816665173,0.014654292725026608,-0.0002902684500440955,0.012151911854743958
0.01395384781062603,-0.0007531105657108128,-0.013514327816665173,0.014654292725026608,-0.0002902684500440955,0.012151911854743958
0.013930016197264194,-0.0008694231510162354,-0.01234819833189249,0.01504491362720728,-0.00027957305428572,0.012317409738898277
0.014133160933852196,-0.0008819752256385982,-0.013256242498755455,0.014968805946409702,-0.00033812643960118294,0.012528710067272186
0.01412007212638855,-0.0008846836863085628,-0.01345917023718357,0.01497943140566349,-0.000324267108226195,0.012604787014424801
0.01447534840553999,-0.0007879709010012448,-0.014016859233379364,0.014748630113899708,-0.000347698776749894,0.012682187370955944
0.014849923551082611,-0.0007990432786755264,-0.013451607897877693,0.014605114236474037,-0.0003397623950149864,0.012434592470526695
0.014833557419478893,-0.0007852130220271647,-0.014293890446424484,0.014925625175237656,-0.00032050200388766825,0.012407073751091957
0.015000770799815655,-0.0007865254883654416,-0.01375174056738615,0.015459243208169937,-0.00032716672285459936,0.012289591133594513
0.014361567795276642,-0.00080166629049927,-0.013920149765908718,0.015190976671874523,-0.00033260328928008676,0.012365737929940224
0.01448606513440609,-0.0007442992646247149,-0.013601405546069145,0.015420224517583847,-0.00031733157811686397,0.01250546146184206
0.014165936969220638,-0.0007495750905945897,-0.013705547899007797,0.014959066174924374,-0.000334071897668764,0.012348814867436886
0.014695762656629086,-0.0006882481393404305,-0.013867766596376896,0.015234422869980335,-0.00032883070525713265,0.012555837631225586
0.0146848876029253,-0.0007091740262694657,-0.014371204189956188,0.014699316583573818,-0.00031509247492067516,0.012631827965378761
0.014887676574289799,-0.0006963171763345599,-0.014003683812916279,0.01504451408982277,-0.00034348503686487675,0.012665576301515102
0.015039465390145779,-0.0006500683375634253,-0.01354568637907505,0.014616238884627819,-0.00035598018439486623,0.0124882273375988
0.015129027888178825,-0.0006655583856627345,-0.013492068275809288,0.015257018618285656,-0.0003322818665765226,0.0133209815248847
0.014611203223466873,-0.0006114564021117985,-0.013476534746587276,0.014517094939947128,-0.00033964074100367725,0.012672800570726395
0.014940667897462845,-0.0006337424274533987,-0.013860191218554974,0.014703481458127499,-0.0003454997204244137,0.012781064957380295
0.0153266042470932,-0.0005692346021533012,-0.013862982392311096,0.014860739931464195,-0.00035740810562856495,0.01308742817491293
0.01532931812107563,-0.0005193345132283866,-0.01283082365989685,0.01458999328315258,-0.00033973497920669615,0.013115203008055687
0.01533553283661604,-0.0005549311172217131,-0.01329314149916172,0.01535620354115963,-0.00032244555768556893,0.012996498495340347
0.01653295010328293,-0.0005064166034571826,-0.013001353479921818,0.014995699748396873,-0.0003446927876211703,0.013079841621220112
0.015647752210497856,-0.0005390641163103282,-0.014067737385630608,0.014874030835926533,-0.00033390396856702864,0.012851767241954803
0.01427525095641613,-0.0005438962834887207,-0.013719254173338413,0.014632871374487877,-0.00031942682107910514,0.012918698601424694
0.015494462102651596,-0.0005266411462798715,-0.014181336387991905,0.015146913938224316,-0.00035059917718172073,0.01362741831690073
0.015577592886984348,-0.0004953033057972789,-0.01371759083122015,0.015239915810525417,-0.00033965043257921934,0.013235079124569893
0.015638647601008415,-0.0005472745979204774,-0.014193578623235226,0.014778799377381802,-0.00031674630008637905,0.012689056806266308
0.015638647601008415,-0.0005472745979204774,-0.014193578623235226,0.014778799377381802,-0.00031674630008637905,0.012689056806266308
0.015792913734912872,-0.000575124635361135,-0.014016126282513142,0.014608284458518028,-0.0003395194071345031,0.01335473544895649
0.015689712017774582,-0.0005293686990626156,-0.014488384127616882,0.01484819408506155,-0.0003322153352200985,0.013512911275029182
0.015938425436615944,-0.0004822229384444654,-0.014047275297343731,0.015265238471329212,-0.00033926527248695493,0.013960689306259155
0.015993375331163406,-0.000513356935698539,-0.01476364303380251,0.014137057587504387,-0.0003442899906076491,0.013747467659413815
0.016032177954912186,-0.0004772765969391912,-0.014406093396246433,0.014042687602341175,-0.00035076437052339315,0.013363951817154884
0.015824738889932632,-0.00044369298848323524,-0.014717552810907364,0.014207686297595501,-0.0003547508385963738,0.0135550107806921
0.016256632283329964,-0.00047125117271207273,-0.014543686993420124,0.014407863840460777,-0.000405352097004652,0.013718727044761181
0.015585399232804775,-0.00044442698708735406,-0.014804679900407791,0.014404835179448128,-0.00042955068056471646,0.014047457836568356
0.016444889828562737,-0.0004432404530234635,-0.01438185479491949,0.014592642895877361,-0.0003958629094995558,0.01390179805457592
0.016236037015914917,-0.0004598611267283559,-0.01501070149242878,0.014752324670553207,-0.0004268784250598401,0.013889909721910954
0.016385279595851898,-0.00044738323776982725,-0.01433363277465105,0.014837618917226791,-0.00040353063377551734,0.013773065060377121
0.016265494748950005,-0.0004134640621487051,-0.01480065006762743,0.015096383169293404,-0.00037597716436721385,0.013847456313669682
0.016198430210351944,-0.0004453985020518303,-0.014485808089375496,0.015012959018349648,-0.00035152313648723066,0.013524699956178665
0.016745302826166153,-0.0004182732373010367,-0.015050128102302551,0.014962483197450638,-0.00038121078978292644,0.013724178075790405
0.016376938670873642,-0.0004289150529075414,-0.014260183088481426,0.015514330007135868,-0.0003626004618126899,0.013941854238510132
0.0168891754001379,-0.00042175460839644074,-0.014991465955972672,0.015461553819477558,-0.0003792002971749753,0.014262918382883072
0.0166034959256649,-0.00039864302380010486,-0.014401881024241447,0.015931585803627968,-0.0003709944721776992,0.014110551215708256
0.01685277372598648,-0.00042416859650984406,-0.015067589469254017,0.015630478039383888,-0.000360321719199419,0.014174425974488258
0.01694045588374138,-0.00043831521179527044,-0.015109934844076633,0.014853840693831444,-0.00034165714168921113,0.01450423989444971
0.017147613689303398,-0.0004280180437490344,-0.014131277799606323,0.014729330316185951,-0.0003489381924737245,0.014338351786136627
0.016702167689800262,-0.00044008615077473223,-0.015205701813101768,0.014088939875364304,-0.00035436765756458044,0.014745010994374752
0.017145546153187752,-0.0004310174845159054,-0.014352807775139809,0.014543152414262295,-0.0003342781856190413,0.014558089897036552
0.01729004457592964,-0.00044139145757071674,-0.014988339506089687,0.014612996019423008,-0.00035356738953851163,0.014603032730519772
0.016944559291005135,-0.0004332992248237133,-0.014370251446962357,0.01531953364610672,-0.0003462366294115782,0.014234894886612892
0.017118655145168304,-0.0004089346621185541,-0.01512012630701065,0.015194443985819817,-0.00032894453033804893,0.014361416921019554
0.01677795499563217,-0.0004716937546618283,-0.01504252478480339,0.015122180804610252,-0.00033446800080128014,0.01443755254149437
0.0172866340726614,-0.00048656004946678877,-0.015283237211406231,0.014786545187234879,-0.00033894291846081614,0.014551127329468727
0.01696411520242691,-0.0004711218934971839,-0.014759908430278301,0.015393778681755066,-0.0004575566854327917,0.014532365836203098
0.017081134021282196,-0.0004336406127549708,-0.015199531801044941,0.015621621161699295,-0.000507568649481982,0.01444903202354908
0.017480865120887756,-0.000445093639427796,-0.01501033827662468,0.01583307422697544,-0.0005048808525316417,0.014271814376115799
0.017220746725797653,-0.000435583817306906,-0.015136311762034893,0.015523318201303482,-0.0005320998025126755,0.015737684443593025
0.017220746725797653,-0.000435583817306906,-0.015136311762034893,0.015523318201303482,-0.0005320998025126755,0.015737684443593025
0.017567269504070282,-0.0004076769982930273,-0.015000848099589348,0.014713481068611145,-0.0008203887264244258,0.014595345593988895
0.017674852162599564,-0.0003828986082226038,-0.014994758181273937,0.01515479851514101,-0.0008581366273574531,0.014250928536057472
0.01721074804663658,-0.00040637259371578693,-0.015450291335582733,0.014870669692754745,-0.0008022401598282158,0.014396431855857372
0.01755685545504093,-0.0003900851006619632,-0.015205697156488895,0.014712569303810596,-0.0007582892430946231,0.01492638885974884
0.017368333414196968,-0.0003701070381794125,-0.015312093310058117,0.014933016151189804,-0.0007212731288745999,0.015268642455339432
0.017337491735816002,-0.0003720237873494625,-0.01475816871970892,0.015404256992042065,-0.0006500303279608488,0.015356107614934444
0.017582189291715622,-0.0003532931150402874,-0.015608145855367184,0.015082544647157192,-0.0005893517518416047,0.01574932038784027
0.017692286521196365,-0.00039050725172273815,-0.014691881835460663,0.01571960747241974,-0.0006103799678385258,0.015894953161478043
0.018404556438326836,-0.0003665079711936414,-0.015255252830684185,0.015073951333761215,-0.0005669476231560111,0.015896586701273918
0.017805323004722595,-0.0003432408848311752,-0.014734407886862755,0.01538276206701994,-0.0005013625486753881,0.016016075387597084
0.017557293176651,-0.00032272463431581855,-0.01514811534434557,0.014988472685217857,-0.0004349609953351319,0.01581442728638649
0.017086291685700417,-0.00035455432953312993,-0.01486923173069954,0.01596449688076973,-0.00046364814625121653,0.015066276304423809
0.017261093482375145,-0.0003362992138136178,-0.015551491640508175,0.01580759882926941,-0.0004354242410045117,0.015313469804823399
0.01777547225356102,-0.0003472476964816451,-0.014979218132793903,0.015298423357307911,-0.0004336167767178267,0.016215858981013298
0.018078263849020004,-0.0004000294138677418,-0.014605307020246983,0.015474973246455193,-0.00040923545020632446,0.016199255362153053
0.017899220809340477,-0.00039909733459353447,-0.015299294143915176,0.01564355567097664,-0.00038449495332315564,0.015773890540003777
0.017604738473892212,-0.0003670054138638079,-0.015159099362790585,0.015212363563477993,-0.0004071637522429228,0.015435632318258286
0.01822221837937832,-0.00033932924270629883,-0.015056540258228779,0.015189130790531635,-0.00039116290281526744,0.015776535496115685
0.018264811486005783,-0.0003155298763886094,-0.014791564084589481,0.014796861447393894,-0.00040717507363297045,0.015803128480911255
0.01789063960313797,-0.0002948537585325539,-0.015431316569447517,0.015327871777117252,-0.0004067959380336106,0.016579974442720413
0.018011894077062607,-0.00027671761927194893,-0.015096678398549557,0.015268590301275253,-0.0004302985325921327,0.016440534964203835
0.018232010304927826,-0.0002606852794997394,-0.014989305287599564,0.014740156941115856,-0.00041447137482464314,0.01605571061372757
0.017952347174286842,-0.0002464089193381369,-0.015385597012937069,0.01432072278112173,-0.00044151159818284214,0.01602821983397007
0.017952347174286842,-0.0002464089193381369,-0.015385597012937069,0.01432072278112173,-0.00044151159818284214,0.01602821983397007
0.018176527693867683,-0.00023361500643659383,-0.015158217400312424,0.01480759959667921,-0.0004197352391202003,0.015428781509399414
0.018724985420703888,-0.0002220846072304994,-0.015401380136609077,0.014583367854356766,-0.0004354120173957199,0.015555568039417267
0.018663819879293442,-0.00021163873316254467,-0.014894832856953144,0.015005028806626797,-0.00042281189234927297,0.015729065984487534
0.018980272114276886,-0.00020213225798215717,-0.015174728818237782,0.014570804312825203,-0.0004001540073659271,0.01601342111825943
0.018565917387604713,-0.0001934427273226902,-0.01488853245973587,0.015128066763281822,-0.00046511556138284504,0.01643288880586624
0.019684607163071632,-0.00018546931096352637,-0.01575530134141445,0.015044450759887695,-0.0004483642114792019,0.01664249785244465
0.019234366714954376,-0.00017812704027164727,-0.015363560058176517,0.015343816950917244,-0.00048003101255744696,0.018104836344718933
0.01877482421696186,-0.00017134453810285777,-0.015946239233016968,0.014903404749929905,-0.0004497442569117993,0.01616060547530651
0.018952751532197,-0.00016505997336935252,-0.015117935836315155,0.015375861898064613,-0.00046660611405968666,0.015930060297250748
0.01947813667356968,-0.00015921909653116018,-0.015926137566566467,0.014935472048819065,-0.00044916238402947783,0.015897594392299652
0.019427243620157242,-0.00015377835370600224,-0.015540821477770805,0.014942222274839878,-0.0004202252021059394,0.0164145790040493
0.019539950415492058,-0.00014869678125251085,-0.01555529423058033,0.015344441868364811,-0.000442653865320608,0.016866307705640793
0.019669367000460625,-0.00014394018216989934,-0.01539152767509222,0.015307960100471973,-0.0004232737119309604,0.017043830826878548
0.019594045355916023,-0.00013947887055110186,-0.01601932756602764,0.015375742688775063,-0.0004001751949544996,0.017046993598341942
0.019719289615750313,-0.00013528538693208247,-0.016268227249383926,0.01517428271472454,-0.00037912323023192585,0.01690538413822651
0.020207487046718597,-0.00013133703032508492,-0.01579703763127327,0.015441752970218658,-0.0003601550997700542,0.017212817445397377
0.019582606852054596,-0.00012409340706653893,-0.015368676744401455,0.014963551424443722,-0.00033407562295906246,0.01690155826508999
0.02024458907544613,-0.00012076315761078149,-0.01650783233344555,0.014467774890363216,-0.0003140241315122694,0.017133595421910286
0.020068593323230743,-0.000117606992716901,-0.016299990937113762,0.014740437269210815,-0.0002937295357696712,0.017026033252477646
0.019442778080701828,-0.00011461173562565818,-0.01679273694753647,0.014852005988359451,-0.0003163442888762802,0.016849331557750702
0.019904598593711853,-0.0001117651627282612,-0.016068067401647568,0.01539986114948988,-0.0003108222153969109,0.01689653843641281
0.020123755559325218,-0.00010905656381510198,-0.01613590121269226,0.015354526229202747,-0.00029468463617376983,0.017241284251213074
0.019977519288659096,-0.00010647614544723183,-0.016786932945251465,0.015528437681496143,-0.0002794823667500168,0.017525358125567436
0.019989676773548126,-0.00010401511826785281,-0.016119929030537605,0.015344733372330666,-0.0003040750452782959,0.016895143315196037
0.020319273695349693,-0.00010166520223719999,-0.015930166468024254,0.01578626036643982,-0.0002950838243123144,0.016892289742827415
0.019997404888272285,-9.941912139765918e-05,-0.015572182834148407,0.01562076061964035,-0.0003171358839608729,0.017126521095633507
0.02029738947749138,-9.727018186822534e-05,-0.016243906691670418,0.016242293640971184,-0.0003083636693190783,0.017499523237347603
0.020626870915293694,-9.52121481532231e-05,-0.01618952490389347,0.016082096844911575,-0.0003427538031246513,0.01779162511229515
0.020626870915293694,-9.52121481532231e-05,-0.01618952490389347,0.016082096844911575,-0.0003427538031246513,0.01779162511229515
0.020610157400369644,-9.323930134996772e-05,-0.01611543633043766,0.01577797159552574,-0.00035995981306768954,0.017581550404429436
0.020471826195716858,-9.134667197940871e-05,-0.016325777396559715,0.01574021205306053,-0.0003853880916722119,0.018040120601654053
0.020768579095602036,-8.952947973739356e-05,-0.015888040885329247,0.015249441377818584,-0.00037421565502882004,0.018232811242341995
0.020721765235066414,-8.77829224918969e-05,-0.016206374391913414,0.015380851924419403,-0.00040145579259842634,0.01824359782040119
0.02097603864967823,-8.610335498815402e-05,-0.01580367609858513,0.015034996904432774,-0.0003839517303276807,0.017784278839826584
0.020732691511511803,-8.448679727734998e-05,-0.01626812294125557,0.015848832204937935,-0.00036231763078831136,0.017445610836148262
0.021182822063565254,-8.292979327961802e-05,-0.015672214329242706,0.016080133616924286,-0.00038820283953100443,0.01851056143641472
0.02083647809922695,-8.142921433318406e-05,-0.016267869621515274,0.016574490815401077,-0.0003730270254891366,0.018005138263106346
0.020804887637495995,-7.998192450031638e-05,-0.016001813113689423,0.016661863774061203,-0.000478897534776479,0.018029334023594856
0.021211856976151466,-7.85851661930792e-05,-0.016107624396681786,0.01619952917098999,-0.0005175589467398822,0.01802825927734375
0.0220502819865942,-7.723640010226518e-05,-0.01661727949976921,0.01564136892557144,-0.0005412419559434056,0.01811397261917591
0.021986322477459908,-7.593318150611594e-05,-0.01618974469602108,0.015176841989159584,-0.0005515927914530039,0.018811510875821114
0.021343497559428215,-7.467316754627973e-05,-0.016456371173262596,0.01558898575603962,-0.0005437246873043478,0.018942657858133316
0.020903991535305977,-7.345427729887888e-05,-0.015602897852659225,0.01568877510726452,-0.0006827914039604366,0.019184289500117302
0.021745434030890465,-7.22746190149337e-05,-0.01641601324081421,0.016175931319594383,-0.0007392159313894808,0.018481941893696785
0.02187703177332878,-7.113214815035462e-05,-0.016293201595544815,0.015760933980345726,-0.0007329770014621317,0.018458779901266098
0.021883361041545868,-7.002532220212743e-05,-0.016344493255019188,0.015916621312499046,-0.0007016534800641239,0.018162604421377182
0.021375508978962898,-6.895237311255187e-05,-0.016556421294808388,0.015545318834483624,-0.0006778626702725887,0.018253618851304054
0.0230149794369936,-6.690214650006965e-05,-0.016430828720331192,0.015325119718909264,-0.0006094494601711631,0.019080786034464836
0.02273688279092312,-6.59221041132696e-05,-0.01582168973982334,0.015361136756837368,-0.0006090619135648012,0.01983782835304737
0.02235722355544567,-6.497037975350395e-05,-0.016558561474084854,0.01558468583971262,-0.000634052325040102,0.019671747460961342
0.022482257336378098,-5.56115664949175e-05,-0.016114307567477226,0.01650078408420086,-0.0006494598928838968,0.019180718809366226
0.02207508683204651,-3.94200615119189e-05,-0.01650957576930523,0.0156692061573267,-0.0006091205286793411,0.019155507907271385
0.022205494344234467,2.1164873032830656e-05,-0.0163860060274601,0.014518213458359241,-0.0006252480088733137,0.01931092143058777
0.02321886271238327,2.8360476790112443e-05,-0.016283441334962845,0.015513800084590912,-0.0005839226651005447,0.01919271983206272
0.023224348202347755,2.8020031095365994e-05,-0.016601642593741417,0.015562886372208595,-0.0005860547535121441,0.019707927480340004
0.023074889555573463,2.75918919214746e-05,-0.01603236235678196,0.015794461593031883,-0.0005601528100669384,0.01929318532347679
0.023074889555573463,2.75918919214746e-05,-0.01603236235678196,0.015794461593031883,-0.0005601528100669384,0.01929318532347679
0.02332938089966774,2.7175368813914247e-05,-0.01659185253083706,0.015283367596566677,-0.0005008181906305254,0.01886736787855625
0.023374071344733238,2.677118027349934e-05,-0.01601364277303219,0.015984605997800827,-0.0004941705847159028,0.019473008811473846
0.02355261519551277,2.6378875190857798e-05,-0.016482708975672722,0.01577729731798172,-0.0004885750822722912,0.019725888967514038
0.023301325738430023,2.599789877422154e-05,-0.01639578491449356,0.01598295569419861,-0.00045036597293801606,0.019564399495720863
0.023555196821689606,2.5627723516663536e-05,-0.016485976055264473,0.01601031795144081,-0.00048022548435255885,0.0194977056235075
0.023896925151348114,2.5268029276048765e-05,-0.01659747213125229,0.015965882688760757,-0.00045010788016952574,0.02062583528459072
0.023891104385256767,2.4918215785874054e-05,-0.016222259029746056,0.015691976994276047,-0.0004645063017960638,0.01939615234732628
0.023657066747546196,3.543374259606935e-05,-0.016575241461396217,0.015441002324223518,-0.0004493024607654661,0.019268173724412918
0.024000447243452072,3.635116445366293e-05,-0.016089409589767456,0.016175128519535065,-0.0004237513931002468,0.019929498434066772
0.02377833053469658,3.588671825127676e-05,-0.01675018109381199,0.015831224620342255,-0.00040454239933751523,0.019885502755641937
0.02403235249221325,3.541625483194366e-05,-0.016641870141029358,0.016064805909991264,-0.0003730138414539397,0.020041167736053467
0.024151036515831947,3.495772762107663e-05,-0.016419753432273865,0.015987221151590347,-0.00040859964792616665,0.020049264654517174
0.024499231949448586,3.451090742601082e-05,-0.016856573522090912,0.016021598130464554,-0.00038373610004782677,0.019980262964963913
0.02434733882546425,4.5279502955963835e-05,-0.0164691973477602,0.016006087884306908,-0.00040247704600915313,0.019819406792521477
0.024101391434669495,4.4865504605695605e-05,-0.016531972214579582,0.016027983278036118,-0.00039120580186136067,0.02005995437502861
0.024198999628424644,4.4315260311122984e-05,-0.016193613409996033,0.016132958233356476,-0.000369169341865927,0.020282136276364326
0.024624036625027657,5.457189763546921e-05,-0.01649046130478382,0.015685608610510826,-0.0003918917500413954,0.01999417133629322
0.024690134450793266,5.342131407815032e-05,-0.01677529886364937,0.015844156965613365,-0.00041194327059201896,0.020526336506009102
0.02454829216003418,5.288571628625505e-05,-0.01753736287355423,0.016541413962841034,-0.00042411769391037524,0.020379429683089256
0.024683460593223572,0.0001825410727178678,-0.017279569059610367,0.01615244336426258,-0.0004283917951397598,0.020558584481477737
0.02436158061027527,0.00017712608678266406,-0.017714984714984894,0.016291014850139618,-0.0004288845229893923,0.0207690317183733
0.024442709982395172,0.00017044079140760005,-0.017526309937238693,0.016659406945109367,-0.00044832658022642136,0.020840255543589592
0.02484099194407463,0.0001642208662815392,-0.017203617841005325,0.0165263619273901,-0.0004328704089857638,0.020684752613306046
0.025714615359902382,0.0001584386482136324,-0.017518723383545876,0.016514575108885765,-0.00040596825419925153,0.020498789846897125
0.025710800662636757,0.0001530499430373311,-0.01671195589005947,0.01633957028388977,-0.00043214496690779924,0.020651213824748993
0.024795537814497948,0.00017642180318944156,-0.017688315361738205,0.016778577119112015,-0.0004107927670702338,0.020926116034388542
0.023307127878069878,0.00017194623069372028,-0.01757378689944744,0.016416771337389946,-0.00038881629006937146,0.02085925079882145
0.025861278176307678,0.0001666548050707206,-0.017635582014918327,0.01676621474325657,-0.0004208570462651551,0.020930571481585503
0.025861278176307678,0.0001666548050707206,-0.017635582014918327,0.01676621474325657,-0.0004208570462651551,0.020930571481585503
0.02562573552131653,0.0001616655063116923,-0.017679523676633835,0.01685396209359169,-0.0004019422340206802,0.020825721323490143
0.024597840383648872,0.0001741571759339422,-0.01724250800907612,0.01673922687768936,-0.00037008326034992933,0.020690204575657845
0.025652552023530006,0.00017783422663342208,-0.017899787053465843,0.016761405393481255,-0.00040558187174610794,0.021807538345456123
0.02624678611755371,0.00017306422523688525,-0.017841743305325508,0.016236571595072746,-0.00041194475488737226,0.02111484482884407
0.02610400877892971,0.0001921695366036147,-0.017758430913090706,0.016437409445643425,-0.0004134487535338849,0.02048002928495407
0.026223503053188324,0.0001881308271549642,-0.01789216697216034,0.015954863280057907,-0.0003897303540725261,0.020650828257203102
0.025091804563999176,0.00027821119874715805,-0.017465190961956978,0.016400333493947983,-0.00036713131703436375,0.021187348291277885
0.024570148438215256,0.00031379214487969875,-0.017650801688432693,0.016870534047484398,-0.0003834503295365721,0.021644767373800278
0.02573298290371895,0.0002984839666169137,-0.017472436651587486,0.01669367030262947,-0.00037492337287403643,0.022153671830892563
0.02615247294306755,0.0002828739525284618,-0.017031151801347733,0.017154613509774208,-0.0003570734988898039,0.021863795816898346
0.026184046640992165,0.0003117562737315893,-0.016674207523465157,0.016685208305716515,-0.00034024417982436717,0.021856412291526794
0.026158077642321587,0.00029869540594518185,-0.017627261579036713,0.01688174158334732,-0.0003602888318710029,0.021378451958298683
0.02545812726020813,0.00032110937172546983,-0.018154894933104515,0.016107730567455292,-0.0003390705678611994,0.020959146320819855
0.026238786056637764,0.00031175685580819845,-0.017736658453941345,0.016422711312770844,-0.0003463052853476256,0.02130732126533985
0.026370590552687645,0.0005252448027022183,-0.017787674441933632,0.016793113201856613,-0.00037991852150298655,0.022495510056614876
0.026357924565672874,0.000487832585349679,-0.01793353073298931,0.01783948391675949,-0.00036458810791373253,0.02208837680518627
0.026576001197099686,0.0005189763032831252,-0.01797213964164257,0.017305942252278328,-0.0003877034760080278,0.02225686050951481
0.026233751326799393,0.0005270685069262981,-0.01822999119758606,0.0169170331209898,-0.00037400517612695694,0.022539407014846802
0.026670856401324272,0.000511517864651978,-0.017807476222515106,0.016733646392822266,-0.0005083007854409516,0.022557012736797333
0.02658047154545784,0.0006855823448859155,-0.017880190163850784,0.017052318900823593,-0.0005476035294122994,0.022415155544877052
0.026209795847535133,0.0007184966816566885,-0.017867134883999825,0.017603397369384766,-0.000569788389839232,0.021894782781600952
0.026537081226706505,0.0007315032416954637,-0.017817437648773193,0.01662277616560459,-0.0005975384847261012,0.02194996550679207
0.026537081226706505,0.0007315032416954637,-0.017817437648773193,0.01662277616560459,-0.0005975384847261012,0.02194996550679207
0.02655671536922455,0.000665733590722084,-0.018555860966444016,0.01669268123805523,-0.0005715324659831822,0.02178007923066616
0.026841966435313225,0.0006845974130555987,-0.018390817567706108,0.016710862517356873,-0.0007549180299974978,0.02267579734325409
0.027077464386820793,0.0007315915427170694,-0.017844103276729584,0.0165388286113739,-0.000784753356128931,0.02312508225440979
0.027371233329176903,0.0007615992799401283,-0.018248355016112328,0.017746534198522568,-0.0008000524248927832,0.023020204156637192
0.026933137327432632,0.0007798378355801105,-0.017779342830181122,0.015574618242681026,-0.0007656307425349951,0.023012317717075348
0.027391886338591576,0.0007263580337166786,-0.0182437002658844,0.01601126790046692,-0.0007321613375097513,0.022961953654885292
0.027864757925271988,0.0007433731225319207,-0.018487105146050453,0.016398847103118896,-0.000737006776034832,0.023933324962854385
0.02749810367822647,0.0008493562345393002,-0.017831500619649887,0.017006395384669304,-0.0007690605707466602,0.022832870483398438
0.027416691184043884,0.0008639138541184366,-0.017795618623495102,0.016544677317142487,-0.0007714021485298872,0.02194484882056713
0.027447205036878586,0.0008653597324155271,-0.01805271953344345,0.016516122967004776,-0.0007596567738801241,0.022006303071975708
0.02743394486606121,0.0008358434424735606,-0.018056383356451988,0.016986019909381866,-0.0007282368605956435,0.022303743287920952
0.027403654530644417,0.0007800656603649259,-0.018585512414574623,0.016813233494758606,-0.0007710770587436855,0.022739136591553688
0.027368847280740738,0.0008909305324777961,-0.018176229670643806,0.01718895696103573,-0.0007582600228488445,0.023012755438685417
0.028286216780543327,0.0008936836384236813,-0.01826213113963604,0.01710471138358116,-0.0007177650113590062,0.022807497531175613
0.0284934863448143,0.0009307294967584312,-0.01830858364701271,0.017117895185947418,-0.0007280763238668442,0.022684600204229355
0.028397535905241966,0.0012884747702628374,-0.017410334199666977,0.017121361568570137,-0.0006638457998633385,0.022835686802864075
0.028127102181315422,0.0012817889219149947,-0.01861611008644104,0.01663707010447979,-0.0006751805194653571,0.023174451664090157
0.027040965855121613,0.0012176521122455597,-0.01906772516667843,0.016824988648295403,-0.0006267257849685848,0.02314302697777748
0.02795211598277092,0.0012056647101417184,-0.018075203523039818,0.017349280416965485,-0.000603071297518909,0.023270366713404655
0.027869010344147682,0.0012427414767444134,-0.018370574340224266,0.017107484862208366,-0.0006191347492858768,0.02352399006485939
0.028350377455353737,0.0013263951987028122,-0.018573498353362083,0.017322009429335594,-0.0006437544943764806,0.02342979982495308
0.029242100194096565,0.0014334949664771557,-0.019316699355840683,0.018216708675026894,-0.0006280086236074567,0.024178477004170418
0.028411628678441048,0.0018830593908205628,-0.01844305731356144,0.017827173694968224,-0.0007486332906410098,0.02400294318795204
0.028428085148334503,0.001969150034710765,-0.018457042053341866,0.017508700489997864,-0.0007629667525179684,0.024076083675026894
0.02770385704934597,0.0021323631517589092,-0.018256522715091705,0.017767349258065224,-0.0007802515174262226,0.023098114877939224
0.028082752600312233,0.0020486139692366123,-0.018079128116369247,0.016924386844038963,-0.0007940054056234658,0.023100579157471657
0.02909482643008232,0.0019185730488970876,-0.018733900040388107,0.016866367310285568,-0.0007430516998283565,0.023842575028538704
0.028885673731565475,0.0018887155456468463,-0.018982086330652237,0.016836214810609818,-0.0008012108155526221,0.02472750097513199
0.028860818594694138,0.0019169615115970373,-0.018662896007299423,0.017202280461788177,-0.0008182574529200792,0.02396444045007229
0.028860818594694138,0.0019169615115970373,-0.018662896007299423,0.017202280461788177,-0.0008182574529200792,0.02396444045007229
0.02906787022948265,0.0023385800886899233,-0.018532760441303253,0.018364811316132545,-0.0008209977531805634,0.024155540391802788
0.028959494084119797,0.0025607962161302567,-0.018754668533802032,0.018084434792399406,-0.0007896348251961172,0.024705437943339348
0.028873911127448082,0.0027215303853154182,-0.018679484724998474,0.01807018741965294,-0.0007531422888860106,0.02479807659983635
0.028992662206292152,0.002362565603107214,-0.019578445702791214,0.01699722930788994,-0.0007373531116172671,0.024296952411532402
0.02898041345179081,0.002277511404827237,-0.019553564488887787,0.01639636605978012,-0.0007643243880011141,0.023963220417499542
0.028772348538041115,0.0024372690822929144,-0.018728796392679214,0.016767684370279312,-0.0007669267943128943,0.0240522138774395
0.02915729209780693,0.0027724760584533215,-0.019714264199137688,0.01651584357023239,-0.0007071318104863167,0.02345895953476429
0.028914064168930054,0.0029106109868735075,-0.019192762672901154,0.017133524641394615,-0.000721670628990978,0.02423100359737873
0.029462097212672234,0.0028944711666554213,-0.018816323950886726,0.01716749556362629,-0.0007333874818868935,0.024822834879159927
0.028277317062020302,0.002810547361150384,-0.019584504887461662,0.016879526898264885,-0.0006944183260202408,0.0248548723757267
0.03008655458688736,0.002722505945712328,-0.020229535177350044,0.01698378100991249,-0.0007177073275670409,0.02486470900475979
0.030283916741609573,0.0028235716745257378,-0.019466539844870567,0.016684530302882195,-0.0007179034291766584,0.024609722197055817
0.03001273050904274,0.0031220712698996067,-0.01966080628335476,0.01810988411307335,-0.0007120458176359534,0.024830473586916924
0.02941790595650673,0.0032123595010489225,-0.019791118800640106,0.01824643276631832,-0.0006868846830911934,0.02495732717216015
0.029774406924843788,0.0032850834541022778,-0.01930229552090168,0.017839057371020317,-0.0007208919269032776,0.024988768622279167
0.030032366514205933,0.0031294841319322586,-0.01993529126048088,0.01783781684935093,-0.0007448925171047449,0.0252037663012743
0.03157585859298706,0.0029857615008950233,-0.019892362877726555,0.016921624541282654,-0.0007640561670996249,0.02535466104745865
0.030217638239264488,0.0034915246069431305,-0.019702043384313583,0.017328517511487007,-0.0007026037201285362,0.025589730590581894
0.029918553307652473,0.0035837481264024973,-0.01987401582300663,0.01734330877661705,-0.0006536247092299163,0.025197044014930725
0.030970970168709755,0.0034278733655810356,-0.01965218037366867,0.01812031678855419,-0.0006664117681793869,0.025377346202731133
0.030780281871557236,0.00354162510484457,-0.019687660038471222,0.01781863532960415,-0.0006952465628273785,0.02572367526590824
0.030902568250894547,0.003939589485526085,-0.02004346065223217,0.017833370715379715,-0.0006982267368584871,0.025589721277356148
0.031653162091970444,0.0040162093937397,-0.019676031544804573,0.01770932413637638,-0.0006497915601357818,0.02582533098757267
0.03186855837702751,0.003899554256349802,-0.019382301717996597,0.017311271280050278,-0.0006686599808745086,0.02553294040262699
0.030752161517739296,0.0037731914781033993,-0.020052744075655937,0.017822472378611565,-0.0007179183303378522,0.02567184716463089
0.03067662939429283,0.004198674578219652,-0.01987614668905735,0.017468733713030815,-0.0007644956931471825,0.02603045105934143
0.03067662939429283,0.004198674578219652,-0.01987614668905735,0.017468733713030815,-0.0007644956931471825,0.02603045105934143
0.03154096379876137,0.004612447693943977,-0.01908043585717678,0.01738116890192032,-0.000783085182774812,0.025997482240200043
0.03205174580216408,0.004713794216513634,-0.01954607293009758,0.017485907301306725,-0.0007963667158037424,0.02608579769730568
0.031822022050619125,0.004658663645386696,-0.019933000206947327,0.01733487658202648,-0.0009502227185294032,0.025523291900753975
0.032042331993579865,0.004567397758364677,-0.019608622416853905,0.01757713034749031,-0.0009961638133972883,0.025792475789785385
0.03181227296590805,0.004591567907482386,-0.019745267927646637,0.01728042960166931,-0.0009844285668805242,0.026136893779039383
0.03200666978955269,0.0048909541219472885,-0.01970895752310753,0.017982929944992065,-0.0009814470540732145,0.026337428018450737
0.03086944669485092,0.004828058183193207,-0.01933632232248783,0.01807083748281002,-0.0010043361689895391,0.026365133002400398
0.032481204718351364,0.004776565823704004,-0.019524138420820236,0.01731862872838974,-0.0009877589764073491,0.026404375210404396
0.03255404904484749,0.005190982483327389,-0.01989770494401455,0.01777162030339241,-0.0009198814514093101,0.026922613382339478
0.03260958939790726,0.00503074424341321,-0.019464751705527306,0.018082864582538605,-0.0008551017963327467,0.02672017365694046
0.03272939845919609,0.004779344890266657,-0.01961039938032627,0.01765437237918377,-0.0008489505853503942,0.02693796157836914
0.03307054191827774,0.004646788816899061,-0.01953957974910736,0.017567288130521774,-0.0007875418523326516,0.02746608853340149
0.033028703182935715,0.00483313063159585,-0.019114280119538307,0.017646873369812965,-0.0007562389364466071,0.026262519881129265
0.033325280994176865,0.005408860743045807,-0.019434437155723572,0.01874839887022972,-0.0007723005255684257,0.026685627177357674
0.033219486474990845,0.005616847425699234,-0.019897565245628357,0.01841522753238678,-0.0007365244091488421,0.02761347033083439
0.03303070738911629,0.005386029370129108,-0.01979721710085869,0.01778135634958744,-0.0007503245142288506,0.027631593868136406
0.03375687077641487,0.0051422095857560635,-0.019765648990869522,0.017991580069065094,-0.0008414876065216959,0.026382217183709145
0.03405359014868736,0.0054868366569280624,-0.019488472491502762,0.01795572228729725,-0.0008188483188860118,0.02773766964673996
0.03406421095132828,0.005617412738502026,-0.019636288285255432,0.01867237314581871,-0.0007737510604783893,0.027593452483415604
0.03448896110057831,0.005756341386586428,-0.02014985680580139,0.018321368843317032,-0.0007839222089387476,0.027340466156601906
0.034624308347702026,0.005433324724435806,-0.020998425781726837,0.018613319844007492,-0.0007197383092716336,0.028574783354997635
0.03486739471554756,0.005559212528169155,-0.020016781985759735,0.01852276735007763,-0.0007663267315365374,0.028299925848841667
0.03473937511444092,0.005364049691706896,-0.02010238729417324,0.01811310648918152,-0.000727644597645849,0.027321692556142807
0.03471250832080841,0.0059007140807807446,-0.020260371267795563,0.018459852784872055,-0.0007444106740877032,0.02658771723508835
0.035324156284332275,0.006083569955080748,-0.01946406066417694,0.018816405907273293,-0.0007607286679558456,0.027358824387192726
0.03669300302863121,0.005817499477416277,-0.020050665363669395,0.018302828073501587,-0.0008414421463385224,0.028623543679714203
0.033874619752168655,0.005479712970554829,-0.020851189270615578,0.01824561506509781,-0.0008937157108448446,0.028920594602823257
0.034930624067783356,0.005911926738917828,-0.020668156445026398,0.019915862008929253,-0.0008884082781150937,0.028709491714835167
0.036291781812906265,0.006335959769785404,-0.019626596942543983,0.018656618893146515,-0.0008464210550300777,0.028303038328886032
0.03542741388082504,0.00636631716042757,-0.020590249449014664,0.0186233501881361,-0.0008013091864995658,0.02842290885746479
0.03542741388082504,0.00636631716042757,-0.020590249449014664,0.0186233501881361,-0.0008013091864995658,0.02842290885746479
0.036370888352394104,0.0062714689411222935,-0.02090318314731121,0.018123717978596687,-0.0007913192384876311,0.02847164310514927
0.03695867210626602,0.006236497312784195,-0.02021200582385063,0.018614821135997772,-0.0007621410768479109,0.02887772023677826
0.03561331331729889,0.005904280114918947,-0.02002377063035965,0.01881285384297371,-0.0007201242842711508,0.0287508312612772
0.034761302173137665,0.006350517738610506,-0.020664161071181297,0.018198693171143532,-0.0007301245932467282,0.028790412470698357
0.036803681403398514,0.0066057238727808,-0.019708944484591484,0.018401041626930237,-0.0007112709572538733,0.02917983941733837
0.03664150461554527,0.006088098511099815,-0.01958431303501129,0.019117573276162148,-0.0006854681414552033,0.02902739681303501
0.03634746000170708,0.006108796689659357,-0.01984379068017006,0.018712185323238373,-0.0006731922039762139,0.029243148863315582
0.03658419847488403,0.005916142836213112,-0.020402580499649048,0.01835876703262329,-0.0006592830759473145,0.029163213446736336
0.036535657942295074,0.006209233775734901,-0.020358191803097725,0.018779827281832695,-0.0006339838728308678,0.02913263998925686
0.03660786151885986,0.006759356707334518,-0.020493190735578537,0.018872341141104698,-0.0006585137452930212,0.029407614842057228
0.0364670567214489,0.006223889999091625,-0.020529650151729584,0.019088469445705414,-0.0006644708919338882,0.02926655113697052
0.03649106249213219,0.00599090289324522,-0.020366286858916283,0.01909089833498001,-0.0006296653300523758,0.029188033193349838
0.03667917475104332,0.006096393335610628,-0.020469089969992638,0.01868739165365696,-0.0007538676145486534,0.028561364859342575
0.03667650744318962,0.0067471107468008995,-0.020530909299850464,0.01917683146893978,-0.0007792280521243811,0.02888135239481926
0.03712538257241249,0.005954243708401918,-0.02011271007359028,0.01841069757938385,-0.0009337355149909854,0.029598243534564972
0.035828378051519394,0.006339496932923794,-0.02048448473215103,0.01868099346756935,-0.0010479566408321261,0.028657637536525726
0.03726593405008316,0.005874411668628454,-0.02064451389014721,0.018935220316052437,-0.0010309327626600862,0.02781802788376808
0.03882210701704025,0.0062554096803069115,-0.020318493247032166,0.018642611801624298,-0.000979624455794692,0.02866518124938011
0.03810399770736694,0.0065430449321866035,-0.020473668351769447,0.018550636246800423,-0.00091262609930709,0.029104769229888916
0.03592519834637642,0.0059667713940143585,-0.020658617839217186,0.01821715198457241,-0.0008714408031664789,0.029463309794664383
0.036737341433763504,0.0058740549720823765,-0.020448802039027214,0.017969045788049698,-0.0008791963919065893,0.03002467192709446
0.038097888231277466,0.006514045409858227,-0.020207209512591362,0.018110908567905426,-0.0008734706789255142,0.03000861592590809
0.037685688585042953,0.005342008080333471,-0.020624037832021713,0.01793261617422104,-0.0008761679637245834,0.029741939157247543
0.038255490362644196,0.003143498906865716,-0.020576857030391693,0.019016683101654053,-0.0007964616524986923,0.028756365180015564
0.03858182951807976,0.002591067925095558,-0.01998368836939335,0.019287966191768646,-0.0007939653005450964,0.02909497544169426
0.0366540253162384,0.0021254015155136585,-0.02055291086435318,0.018268777057528496,-0.000799097353592515,0.0303795263171196
0.0366540253162384,0.0021254015155136585,-0.02055291086435318,0.018268777057528496,-0.000799097353592515,0.0303795263171196
0.03761272504925728,0.004600247368216515,-0.01964678429067135,0.019830528646707535,-0.000807303236797452,0.030064333230257034
0.03761272504925728,0.004600247368216515,-0.01964678429067135,0.019830528646707535,-0.000807303236797452,0.030064333230257034
0.037726327776908875,0.004314021673053503,-0.019795779138803482,0.020143281668424606,-0.0007571222959086299,0.02990289218723774
0.03773648291826248,0.003669044701382518,-0.02071397192776203,0.020032862201333046,-0.0008384482935070992,0.029993129894137383
0.03756866976618767,0.00342021812684834,-0.02075749635696411,0.019425682723522186,-0.0007885937811806798,0.030217915773391724
0.03760503977537155,0.0033787928987294436,-0.020512212067842484,0.01827135682106018,-0.0008539797854609787,0.02981835976243019
0.037729229778051376,0.0035778048913925886,-0.020725594833493233,0.018277814611792564,-0.0008217412978410721,0.029947495087981224
0.03798966854810715,0.003907719627022743,-0.021485617384314537,0.01835057884454727,-0.0010196305811405182,0.030224384739995003
0.03796279430389404,0.00394433131441474,-0.02155599556863308,0.018466396257281303,-0.0010318366112187505,0.030581843107938766
0.038029588758945465,0.003708573756739497,-0.02086658589541912,0.019140493124723434,-0.0010238155955448747,0.03048086166381836
0.036890506744384766,0.003478455590084195,-0.021015681326389313,0.01907672919332981,-0.001102535636164248,0.03152986243367195
0.03868236765265465,0.0036275708116590977,-0.021825410425662994,0.018715962767601013,-0.001084619085304439,0.029987208545207977
0.03886473923921585,0.0038672792725265026,-0.022259868681430817,0.018674345687031746,-0.0010544806718826294,0.030410194769501686
0.038411568850278854,0.00411970354616642,-0.022023281082510948,0.018439432606101036,-0.001022998825646937,0.030875692144036293
0.03866170719265938,0.0036381252575665712,-0.022135663777589798,0.018353983759880066,-0.0009417145629413426,0.030964208766818047
0.03849188983440399,0.004141068086028099,-0.021474182605743408,0.018082810565829277,-0.0009348975145258009,0.030874228104948997
0.03908267989754677,0.004094449337571859,-0.021827667951583862,0.018066281452775,-0.0009302232647314668,0.030745983123779297
0.03878495842218399,0.003548012115061283,-0.022427551448345184,0.018414631485939026,-0.0009491245727986097,0.03035002201795578
0.03923160210251808,0.004052698612213135,-0.02236715890467167,0.018532931804656982,-0.0008995471289381385,0.030171673744916916
0.039613306522369385,0.004217615816742182,-0.021986357867717743,0.018970753997564316,-0.0008309396216645837,0.030335331335663795
0.039613306522369385,0.004217615816742182,-0.021986357867717743,0.018970753997564316,-0.0008309396216645837,0.030335331335663795
0.039316706359386444,0.004318328574299812,-0.02220195345580578,0.01948169246315956,-0.0008115282980725169,0.030431553721427917
0.0389099083840847,0.003962596878409386,-0.02246926724910736,0.019654514268040657,-0.0007426526281051338,0.030177820473909378
0.03950939700007439,0.003756304271519184,-0.022107219323515892,0.02010463736951351,-0.000753996369894594,0.03040856122970581
0.04080653563141823,0.004302235320210457,-0.022011442109942436,0.01948866806924343,-0.000691194785758853,0.030877023935317993
0.0392136387526989,0.004581680987030268,-0.021848438307642937,0.019144339486956596,-0.0007073084707371891,0.031432539224624634
0.038816701620817184,0.004328170791268349,-0.021791014820337296,0.01971088908612728,-0.0007293572416529059,0.03178895637392998
0.04013795033097267,0.004498105030506849,-0.02165159583091736,0.02029317431151867,-0.0007587082800455391,0.030906502157449722
0.040259040892124176,0.00454149441793561,-0.022745033726096153,0.01982150413095951,-0.0011481133988127112,0.03013163059949875
0.040801044553518295,0.004637036472558975,-0.02256564423441887,0.01936691626906395,-0.0011384220561012626,0.030842792242765427
0.0405617319047451,0.004770102445036173,-0.02189941704273224,0.018879322335124016,-0.001103531918488443,0.03114485554397106
0.03930727392435074,0.00479635177180171,-0.022439323365688324,0.01879512146115303,-0.0012334365164861083,0.03132714331150055
0.03998115286231041,0.004536731634289026,-0.022389834746718407,0.01903120055794716,-0.0011911287438124418,0.032684434205293655
0.040573861449956894,0.004908171482384205,-0.02235337346792221,0.019520621746778488,-0.0011813943274319172,0.0320725180208683
0.03989875316619873,0.005005126353353262,-0.022280408069491386,0.019487416371703148,-0.00111586251296103,0.029636844992637634
0.041404496878385544,0.005663640331476927,-0.022336171939969063,0.018998797982931137,-0.0010517080081626773,0.0312142726033926
0.04036574810743332,0.005124313291162252,-0.022879794239997864,0.019485285505652428,-0.001023711054585874,0.03243822231888771
0.04054979607462883,0.0047654565423727036,-0.022833282127976418,0.019691290333867073,-0.001038801739923656,0.03262009099125862
0.04071388766169548,0.004898910876363516,-0.022661810740828514,0.020180871710181236,-0.0011578276753425598,0.03181397542357445
0.040423620492219925,0.00592685816809535,-0.022561877965927124,0.020006777718663216,-0.0011494274949654937,0.031855277717113495
0.04095596820116043,0.005662424955517054,-0.022797347977757454,0.019511131569743156,-0.0011481158435344696,0.03188953921198845
0.04079248011112213,0.005819207523018122,-0.02317621186375618,0.01870574615895748,-0.001138136489316821,0.03194241598248482
0.041027676314115524,0.005086931865662336,-0.022609390318393707,0.019351603463292122,-0.0009860744467005134,0.031966399401426315
0.04274852201342583,0.005725916009396315,-0.022708304226398468,0.01971178874373436,-0.0009551087860018015,0.032368049025535583
0.04026452451944351,0.005728292744606733,-0.022953175008296967,0.02046292833983898,-0.00090069166617468,0.032386910170316696
0.03986930474638939,0.005782013293355703,-0.022767199203372,0.020304907113313675,-0.0008466201834380627,0.03216596320271492
0.04119971767067909,0.005354960449039936,-0.022961465641856194,0.019803889095783234,-0.000728028710000217,0.032232243567705154
0.0413927361369133,0.00512520968914032,-0.022792760282754898,0.019963646307587624,-0.0007330478983931243,0.03231286257505417
0.04215540364384651,0.005287523381412029,-0.022773098200559616,0.020136483013629913,-0.0007521981024183333,0.032510507851839066
0.04170825332403183,0.005695771891623735,-0.023033803328871727,0.020021509379148483,-0.0007748053758405149,0.03236110508441925
0.04170825332403183,0.005695771891623735,-0.023033803328871727,0.020021509379148483,-0.0007748053758405149,0.03236110508441925
0.03984110429883003,0.005745185073465109,-0.02297777682542801,0.019963055849075317,-0.0010061825159937143,0.0325072817504406
0.041803814470767975,0.006082296837121248,-0.023222999647259712,0.020132901147007942,-0.0010584465926513076,0.0327557697892189
0.042036838829517365,0.0056258682161569595,-0.022786667570471764,0.020083660259842873,-0.0010058300103992224,0.03258002921938896
0.04148523509502411,0.005774008110165596,-0.022824885323643684,0.019890625029802322,-0.0009341412805952132,0.03260297700762749
0.04139411449432373,0.006456025876104832,-0.02292967028915882,0.020545369014143944,-0.0009362190612591803,0.03392286226153374
0.04193155840039253,0.0062139336951076984,-0.022971754893660545,0.020132359117269516,-0.0009270684677176178,0.033988501876592636
0.04192736744880676,0.005756324622780085,-0.02293136715888977,0.01944654807448387,-0.0009228321723639965,0.03239975497126579
0.041794583201408386,0.00561115937307477,-0.022935494780540466,0.01991131901741028,-0.0009198556072078645,0.03172130510210991
0.041498661041259766,0.006250513717532158,-0.022869886830449104,0.0200473815202713,-0.0008521723211742938,0.03275775536894798
0.04201425239443779,0.006043149624019861,-0.02344546839594841,0.01994781754910946,-0.0009015534305945039,0.03283832594752312
0.04205342009663582,0.005945525597780943,-0.02372092753648758,0.019866114482283592,-0.0009042171877808869,0.033412203192710876
0.04187844693660736,0.006008540280163288,-0.023134365677833557,0.02006000280380249,-0.0008459951495751739,0.03408757224678993
0.042323432862758636,0.005852283909916878,-0.022286951541900635,0.01987682469189167,-0.0008485057041980326,0.03302494063973427
0.04070171341300011,0.005665898323059082,-0.02271074429154396,0.019655095413327217,-0.0008572094957344234,0.03216661140322685
0.04254554584622383,0.00571028096601367,-0.025566067546606064,0.019278615713119507,-0.0008805546094663441,0.03233689069747925
0.043055757880210876,0.00622168555855751,-0.023061301559209824,0.019337231293320656,-0.0008932738564908504,0.03420402854681015
0.04269026592373848,0.006159322801977396,-0.02253032848238945,0.019501501694321632,-0.0008946791640482843,0.03408418223261833
0.04214219003915787,0.006112182512879372,-0.02339918725192547,0.019450504332780838,-0.0010942603694275022,0.03383376821875572
0.042691443115472794,0.006213438231498003,-0.024101506918668747,0.019419467076659203,-0.001087347511202097,0.03363040089607239
0.04281976819038391,0.006777391768991947,-0.023716535419225693,0.019521649926900864,-0.001080581801943481,0.03316720575094223
0.042339008301496506,0.006127865053713322,-0.023590942844748497,0.019423095509409904,-0.0012133356649428606,0.03377625718712807
0.04230890050530434,0.0063164327293634415,-0.022990768775343895,0.019071944057941437,-0.0011809072457253933,0.033921629190444946
0.04304952919483185,0.0058651571162045,-0.023361029103398323,0.019575336948037148,-0.0010796601418405771,0.034244604408741
0.044220224022865295,0.006207104306668043,-0.023677807301282883,0.019396191462874413,-0.0011766277020797133,0.03385833650827408
0.042073484510183334,0.006700377445667982,-0.023737477138638496,0.019084474071860313,-0.001175935729406774,0.033832650631666183
0.042073484510183334,0.006700377445667982,-0.023737477138638496,0.019084474071860313,-0.001175935729406774,0.033832650631666183
0.04176586493849754,0.005679501220583916,-0.023591384291648865,0.01957133039832115,-0.001134296995587647,0.03410474956035614
0.041983067989349365,0.0052968766540288925,-0.023422222584486008,0.019786521792411804,-0.0010820372262969613,0.033955223858356476
0.04383431375026703,0.005206960253417492,-0.023292366415262222,0.019648853689432144,-0.0010261775460094213,0.034187156707048416
0.0443987175822258,0.006519397720694542,-0.023336702957749367,0.01960853859782219,-0.000929624424315989,0.034172095358371735
0.042423881590366364,0.006271069403737783,-0.023157568648457527,0.01934865675866604,-0.000797256245277822,0.03409617766737938
0.04206755757331848,0.005889121908694506,-0.023769546300172806,0.01958434097468853,-0.0008018381195142865,0.03407410532236099
0.04419375956058502,0.0056134178303182125,-0.024050801992416382,0.019912738353013992,-0.0007921539363451302,0.03433096781373024
0.043872199952602386,0.0058545758947730064,-0.02324654348194599,0.02038433589041233,-0.0007345934864133596,0.03340334817767143
0.04388343542814255,0.006596382241696119,-0.023305920884013176,0.019891057163476944,-0.0006392180803231895,0.034832216799259186
0.04366679862141609,0.006583406124264002,-0.023179946467280388,0.019594937562942505,-0.0006363025167956948,0.034823283553123474
0.04439110681414604,0.005932466592639685,-0.02348288893699646,0.01991707645356655,-0.0006630205316469073,0.0355842188000679
0.0438070148229599,0.0062905410304665565,-0.02351076528429985,0.019836124032735825,-0.0006978870369493961,0.03615458682179451
0.04389773681759834,0.005822283681482077,-0.023291872814297676,0.01980988122522831,-0.0010629291646182537,0.03478895500302315
0.043546341359615326,0.006056024692952633,-0.023228073492646217,0.020197931677103043,-0.0010796455899253488,0.03388698399066925
0.0438573993742466,0.006276051513850689,-0.023514119908213615,0.019977735355496407,-0.0010898986365646124,0.03488877788186073
0.045091453939676285,0.005899491254240274,-0.023427259176969528,0.019542504101991653,-0.0009776685619726777,0.03517167270183563
0.042620640248060226,0.0065549700520932674,-0.02359994873404503,0.020554613322019577,-0.0009287510765716434,0.036241497844457626
0.04349127411842346,0.006327515933662653,-0.02306782454252243,0.019897861406207085,-0.0009237345075234771,0.03537081554532051
0.04393407702445984,0.006261712871491909,-0.023108869791030884,0.020094556733965874,-0.0009205980459228158,0.03370573744177818
0.04534846916794777,0.005662329029291868,-0.02344147488474846,0.020726274698972702,-0.0008413997711613774,0.034368112683296204
0.04310908168554306,0.006079678423702717,-0.02373356558382511,0.02146853320300579,-0.0008075127843767405,0.03603819012641907
0.04287072271108627,0.006739550735801458,-0.023400582373142242,0.02136094495654106,-0.0008138828561641276,0.03633541241288185
0.04494248330593109,0.006993529852479696,-0.02336324006319046,0.02152646891772747,-0.0008248918456956744,0.03624391928315163
0.04488484188914299,0.006004282273352146,-0.023438189178705215,0.020664606243371964,-0.0008337218896485865,0.03601473942399025
0.04488484188914299,0.006004282273352146,-0.023438189178705215,0.020664606243371964,-0.0008337218896485865,0.03601473942399025
0.04457046091556549,0.005848719272762537,-0.024197082966566086,0.019824912771582603,-0.0009234831668436527,0.03602117672562599
0.04433375224471092,0.00593519164249301,-0.024140028282999992,0.02013806626200676,-0.0009272980969399214,0.03617151081562042
0.04483897238969803,0.006180427502840757,-0.023369435220956802,0.020824244245886803,-0.0009236831683665514,0.036160945892333984
0.04494057968258858,0.006782271899282932,-0.02339361421763897,0.020933113992214203,-0.0009205859387293458,0.03583477810025215
0.04454506188631058,0.006116236560046673,-0.023170704022049904,0.02009662799537182,-0.0011043823324143887,0.03616052120923996
0.044791463762521744,0.00578690180554986,-0.023651784285902977,0.020181821659207344,-0.0011126629542559385,0.03674669563770294
0.04525156691670418,0.00606899056583643,-0.02354614809155464,0.01992117241024971,-0.0010924224043264985,0.03570767864584923
0.04556380212306976,0.005834890063852072,-0.023885639384388924,0.02019786275923252,-0.00112413358874619,0.03742264211177826
0.04551628977060318,0.0065213767811656,-0.024528974667191505,0.020970089361071587,-0.001128239557147026,0.037287451326847076
0.04622812941670418,0.006410243455320597,-0.024433044716715813,0.02072587050497532,-0.0010911932913586497,0.037245042622089386
0.04531620815396309,0.005503646098077297,-0.023428980261087418,0.01929018460214138,-0.001062590628862381,0.036705248057842255
0.0457780659198761,0.006042604334652424,-0.023003075271844864,0.019276659935712814,-0.0010059024207293987,0.03754698857665062
