davideferrari95/blind_handover_controller/data/Test 268 - [2024-02-08 -- 12-52-24]/joint_states_data.csv
shoulder_pan_joint,shoulder_lift_joint,elbow_joint,wrist_1_joint,wrist_2_joint,wrist_3_joint
0.005500479601323605,0.007457708474248648,-0.009966175071895123,0.003427513176575303,0.0,0.005999761167913675
0.005782487336546183,0.008223979733884335,-0.010121338069438934,0.003235079348087311,0.0,0.0059060705825686455
0.005466144066303968,0.00772882578894496,-0.009211814031004906,0.003511479590088129,0.0,0.006121416110545397
0.005466144066303968,0.00772882578894496,-0.009211814031004906,0.003511479590088129,0.0,0.006121416110545397
0.005807594396173954,0.007583118975162506,-0.009229586459696293,0.003669438883662224,0.0,0.0060426113195717335
0.005668829195201397,0.007792143151164055,-0.009440028108656406,0.0037622605450451374,0.0,0.005985187832266092
0.005906509701162577,0.008093235082924366,-0.008929755538702011,0.0035251763183623552,0.0,0.006110143382102251
0.005442167166620493,0.007338974624872208,-0.00962972454726696,0.003260762896388769,0.0,0.0063781095668673515
0.005027818027883768,0.007346292492002249,-0.008984355255961418,0.0033771521411836147,0.0,0.006225186865776777
0.005160314030945301,0.008105182088911533,-0.009259033016860485,0.0031965672969818115,0.0,0.006193117238581181
0.0055961329489946365,0.007850906811654568,-0.009398283436894417,0.0035185778979212046,0.0,0.006004465743899345
0.006032261997461319,0.007641057018190622,-0.00978037528693676,0.0033481470309197903,0.0,0.006384150590747595
0.0054185641929507256,0.0075860414654016495,-0.008917522616684437,0.0034498111344873905,0.0,0.00582412164658308
0.005312141962349415,0.008304959163069725,-0.009715169668197632,0.003627668134868145,0.0,0.005722864996641874
0.005110784433782101,0.007759841158986092,-0.009450302459299564,0.003263515420258045,0.0,0.005493328906595707
0.005906789563596249,0.00704328715801239,-0.009322368539869785,0.0031360152643173933,0.0,0.005689415615051985
0.005906789563596249,0.00704328715801239,-0.009322368539869785,0.0031360152643173933,0.0,0.005689415615051985
0.005602031480520964,0.0072912899777293205,-0.009642736986279488,0.00293294177390635,0.0,0.006030418910086155
0.0058189150877296925,0.008097188547253609,-0.00925872940570116,0.00292874570004642,0.0,0.006125865038484335
0.005698846653103828,0.007643191609531641,-0.009035922586917877,0.003249402390792966,0.0,0.006030707620084286
0.0056136734783649445,0.007530194241553545,-0.009300976991653442,0.003159056883305311,0.0,0.006182661280035973
0.005282572470605373,0.007674077991396189,-0.009181348606944084,0.0032971324399113655,0.0,0.005985597614198923
0.0058986106887459755,0.007540129125118256,-0.009141283109784126,0.0032547451555728912,0.0,0.006277479697018862
0.005737377796322107,0.00727985380217433,-0.009384354576468468,0.003065616823732853,0.0,0.005766157992184162
0.005607707891613245,0.0074137537740170956,-0.009320019744336605,0.0032890166621655226,0.0,0.005410345271229744
0.005145304370671511,0.007605033461004496,-0.009492957964539528,0.0032210960052907467,0.0,0.005432165693491697
0.0058737862855196,0.007607476320117712,-0.00928486417979002,0.0030425437726080418,0.0,0.005516351666301489
0.0056006223894655704,0.007506762631237507,-0.009990286082029343,0.003022382501512766,0.0,0.005639621987938881
0.005946063902229071,0.007038793992251158,-0.009105458855628967,0.0033003732096403837,0.0,0.006087467074394226
0.005826039705425501,0.007343329023569822,-0.009519761428236961,0.0032271596137434244,0.0,0.006329816300421953
0.005617397837340832,0.00800616480410099,-0.009541475214064121,0.003120020730420947,0.0,0.0060570440255105495
0.005640427581965923,0.007119154091924429,-0.009336846880614758,0.0029981485567986965,0.0,0.005811691749840975
0.0061314343474805355,0.00678009819239378,-0.008735754527151585,0.003031544853001833,0.0,0.005699384957551956
0.005861814599484205,0.00698425155133009,-0.009832057170569897,0.0029884865507483482,0.0,0.0060744215734303
0.005860975477844477,0.007432588841766119,-0.009408146142959595,0.0031232580076903105,0.0,0.005691225174814463
0.005982966627925634,0.007092570420354605,-0.00932344701141119,0.0030771922320127487,0.0,0.005913251079618931
0.005702577065676451,0.006960934493690729,-0.009372315369546413,0.0028944332152605057,0.0,0.0056264447048306465
0.006486866157501936,0.007213197182863951,-0.00878368504345417,0.0031747594475746155,0.0,0.00628530140966177
0.005874031223356724,0.006888105068355799,-0.009567107073962688,0.0032193537335842848,0.0,0.005881837103515863
0.0058380295522511005,0.0071776132099330425,-0.009424605406820774,0.003134352620691061,0.0,0.005476800724864006
0.005246590822935104,0.007029159460216761,-0.009206750430166721,0.003032274078577757,0.0,0.005879536736756563
0.005828625988215208,0.00679443683475256,-0.008976487442851067,0.003028737148270011,0.0,0.006267909426242113
0.005867497064173222,0.006893417797982693,-0.009524128399789333,0.0029637052211910486,0.0,0.0060636382550001144
0.006146828178316355,0.006582801695913076,-0.009338485077023506,0.0031465806532651186,0.0,0.006144002079963684
0.0056016952730715275,0.006755860056728125,-0.00922140758484602,0.0031721810810267925,0.0,0.0058096908032894135
0.005361102521419525,0.0066617620177567005,-0.00954962708055973,0.0029995141085237265,0.0,0.005847630091011524
0.005635234527289867,0.007141580805182457,-0.008924715220928192,0.002912546508014202,0.0,0.0062749325297772884
0.005635234527289867,0.007141580805182457,-0.008924715220928192,0.002912546508014202,0.0,0.0062749325297772884
0.00637746462598443,0.006665243301540613,-0.00946764461696148,0.002616685116663575,0.0,0.006279203109443188
0.006369457580149174,0.00616742018610239,-0.010266219265758991,0.002486673416569829,0.0,0.00610331678763032
0.0055214776657521725,0.006664888467639685,-0.009431221522390842,0.0025803381577134132,0.0,0.00602454598993063
0.005938432179391384,0.007423824165016413,-0.008998324163258076,0.0027473492082208395,0.0,0.0061308108270168304
0.005653932690620422,0.0069677080027759075,-0.009729897603392601,0.0025852948892861605,0.0,0.0064400238916277885
0.006558758206665516,0.006063216365873814,-0.009822433814406395,0.0027110723312944174,0.0,0.006535813212394714
0.006017562001943588,0.006151168141514063,-0.009571549482643604,0.002799283480271697,0.0,0.006037597078830004
0.005860209930688143,0.0071145338006317616,-0.009925837628543377,0.002863948931917548,0.0,0.00641436455771327
0.005652556195855141,0.0070651681162416935,-0.00984508078545332,0.0028077641036361456,0.0,0.006339815445244312
0.0059629022143781185,0.006267182528972626,-0.009537775069475174,0.0028766561299562454,0.0,0.006167737767100334
0.006855939514935017,0.006272314116358757,-0.009805362671613693,0.002857369836419821,0.0,0.006242736242711544
0.0064845699816942215,0.005998979322612286,-0.009825650602579117,0.002736731432378292,0.0,0.0063639553263783455
0.005627746228128672,0.006398847792297602,-0.009539593942463398,0.0026281930040568113,0.0,0.006170917302370071
0.005916312336921692,0.00655666459351778,-0.009621325880289078,0.0027435629162937403,0.0,0.006213059648871422
0.006546161137521267,0.005930352956056595,-0.008773742243647575,0.002537105930969119,0.0,0.00609248224645853
0.006546161137521267,0.005930352956056595,-0.008773742243647575,0.002537105930969119,0.0,0.00609248224645853
0.006390653550624847,0.006250134669244289,-0.009298288263380527,0.0025689294561743736,0.0,0.006106148939579725
0.0059054940938949585,0.006490060593932867,-0.009734495542943478,0.0028996155597269535,0.0,0.006253098603338003
0.006288674660027027,0.006107633002102375,-0.009793629869818687,0.002854087622836232,0.0,0.006632471922785044
0.006288674660027027,0.006107633002102375,-0.009793629869818687,0.002854087622836232,0.0,0.006632471922785044
0.006077929865568876,0.006843474693596363,-0.00905788317322731,0.002970736240968108,0.0,0.005915268789976835
0.006146819796413183,0.006660297513008118,-0.009727183729410172,0.0030112385284155607,0.0,0.006272305268794298
0.00559987174347043,0.006505945697426796,-0.009110887534916401,0.0028232084587216377,0.0,0.006143834907561541
0.00559987174347043,0.006505945697426796,-0.009110887534916401,0.0028232084587216377,0.0,0.006143834907561541
0.006550047546625137,0.0065797059796750546,-0.00869345385581255,0.0026345006190240383,0.0,0.0064275250770151615
0.0068981400690972805,0.006719125900417566,-0.010296327993273735,0.002501802984625101,0.0,0.006301884539425373
0.006324328947812319,0.006548360921442509,-0.00934684183448553,0.002434471622109413,0.0,0.006007947493344545
0.006324328947812319,0.006548360921442509,-0.00934684183448553,0.002434471622109413,0.0,0.006007947493344545
0.005717405583709478,0.006740306969732046,-0.0094002028927207,0.0027361547108739614,0.0,0.00642456766217947
0.006118055433034897,0.006765467580407858,-0.009938770905137062,0.0031193671748042107,0.0,0.0065936073660850525
0.006755785550922155,0.0059776753187179565,-0.009425848722457886,0.003261301666498184,0.0,0.0060881394892930984
0.006248588673770428,0.006741271819919348,-0.008642568252980709,0.003189381444826722,0.0,0.005708056036382914
0.0058760265819728374,0.0070560527965426445,-0.009277931414544582,0.0028320131823420525,0.0,0.005616324953734875
0.005985580384731293,0.006910409778356552,-0.009329997934401035,0.002744091674685478,0.0,0.006023154594004154
0.006492482498288155,0.006486406549811363,-0.008955540135502815,0.002608384471386671,0.0,0.006374045740813017
0.006451787427067757,0.006675457116216421,-0.00928817130625248,0.0027601129841059446,0.0,0.0060562933795154095
0.006358286365866661,0.006869771517813206,-0.00922373402863741,0.002894874894991517,0.0,0.00623386912047863
0.006532450672239065,0.006843263749033213,-0.008970728144049644,0.0031905805226415396,0.0,0.006093477364629507
0.0061683449894189835,0.006849934346973896,-0.009940631687641144,0.003292424138635397,0.0,0.006114882417023182
0.006433721631765366,0.006344998721033335,-0.009399523958563805,0.0029684756882488728,0.0,0.0064441435970366
0.006592880934476852,0.006609337870031595,-0.008488663472235203,0.002692607929930091,0.0,0.006545174866914749
0.0060963742434978485,0.00679769366979599,-0.009887637570500374,0.002674473449587822,0.0,0.00638482253998518
0.006292204838246107,0.006517096422612667,-0.009102561511099339,0.0028131287544965744,0.0,0.006596432998776436
0.0063437242060899734,0.006984220817685127,-0.009922795929014683,0.002835291437804699,0.0,0.006394270807504654
0.006564492825418711,0.0068932934664189816,-0.00957490224391222,0.0028218121733516455,0.0,0.006224511191248894
0.006564492825418711,0.0068932934664189816,-0.00957490224391222,0.0028218121733516455,0.0,0.006224511191248894
0.005921582691371441,0.00703423609957099,-0.008666342124342918,0.0027781762182712555,0.0,0.006120636127889156
0.005921582691371441,0.00703423609957099,-0.008666342124342918,0.0027781762182712555,0.0,0.006120636127889156
0.006212953478097916,0.006847578100860119,-0.009952232241630554,0.0025514676235616207,0.0,0.006492517422884703
0.006655565463006496,0.0073593310080468655,-0.00907604768872261,0.002452201209962368,0.0,0.006550508551299572
0.006613983307033777,0.006587259471416473,-0.009765282273292542,0.0026538902893662453,0.0,0.005843250080943108
0.007075017783790827,0.006590327247977257,-0.009383806958794594,0.0029104354325681925,0.0,0.005677036941051483
0.006400162819772959,0.006785015109926462,-0.009487621486186981,0.0030080298893153667,0.0,0.006264180410653353
0.006669821683317423,0.007077994290739298,-0.008782293647527695,0.0029468187130987644,0.0,0.006253099534660578
0.0069203427992761135,0.007369835861027241,-0.00990804098546505,0.0030413009226322174,0.0,0.006181969307363033
0.006679350044578314,0.007000898476690054,-0.008801055140793324,0.002946244552731514,0.0,0.006466216407716274
0.00635570241138339,0.006518381182104349,-0.009258455596864223,0.0029639157000929117,0.0,0.006234915927052498
0.006658776663243771,0.006941250059753656,-0.00922092329710722,0.003138046944513917,0.0,0.006440879311412573
0.006772782653570175,0.006779509596526623,-0.008883962407708168,0.002971249632537365,0.0,0.006677677854895592
0.007050331216305494,0.006756103131920099,-0.008746202103793621,0.0030556917190551758,0.0,0.006022417917847633
0.006977475713938475,0.00676365289837122,-0.009155776351690292,0.002945610089227557,0.0,0.006117348093539476
0.006969152018427849,0.006518810521811247,-0.009018893353641033,0.002896815538406372,0.0,0.006584785878658295
0.007557250093668699,0.006877695210278034,-0.00858011469244957,0.0028456016443669796,0.0,0.00677090510725975
0.0069111608900129795,0.006670115515589714,-0.00884208083152771,0.002924548229202628,0.0,0.00635839207097888
0.00689281988888979,0.006651096045970917,-0.009061139076948166,0.0028726323507726192,0.0,0.006186014506965876
0.0069914222694933414,0.007414448540657759,-0.008616444654762745,0.002886104164645076,0.0,0.006305098533630371
0.007011926267296076,0.006869450677186251,-0.009172001853585243,0.002990687731653452,0.0,0.006797536741942167
0.0072370306588709354,0.006359514780342579,-0.009135200642049313,0.003177360165864229,0.0,0.006660730578005314
0.006974956952035427,0.006615464109927416,-0.00855106208473444,0.0033700678031891584,0.0,0.006577505264431238
0.007527288049459457,0.007252348121255636,-0.008584696799516678,0.003265401115640998,0.0,0.0073807332664728165
0.007718806620687246,0.007084144279360771,-0.008860924281179905,0.0031122148502618074,0.0,0.006710204295814037
0.007718806620687246,0.007084144279360771,-0.008860924281179905,0.0031122148502618074,0.0,0.006710204295814037
0.006927389185875654,0.006773003377020359,-0.00878127757459879,0.003299880074337125,0.0,0.005932929925620556
0.007026623468846083,0.0066636716946959496,-0.008638095110654831,0.002988856052979827,0.0,0.005609199404716492
0.007535469252616167,0.006567917298525572,-0.009058544412255287,0.0028296790551394224,0.0,0.006359354127198458
0.007302208803594112,0.0069221132434904575,-0.009115668945014477,0.0026892691385000944,0.0,0.0064607420936226845
0.007126273587346077,0.006636425852775574,-0.008590424433350563,0.0026741293258965015,0.0,0.006999561563134193
0.00671896617859602,0.007109914906322956,-0.008702565915882587,0.00295065063983202,0.0,0.006552245933562517
0.007114583160728216,0.006519458722323179,-0.008837144821882248,0.00286038382910192,0.0,0.006339152343571186
0.007288976572453976,0.006541347596794367,-0.00849906262010336,0.0027467538602650166,0.0,0.006220802199095488
0.0070594195276498795,0.006819283589720726,-0.008421900682151318,0.0026041853707283735,0.0,0.006211267784237862
0.007102153729647398,0.006649975664913654,-0.00953740905970335,0.0027833350468426943,0.0,0.00678717065602541
0.007138083688914776,0.006323681678622961,-0.008430135436356068,0.002667191671207547,0.0,0.006732346955686808
0.007273100782185793,0.006539090070873499,-0.008382719941437244,0.002664179541170597,0.0,0.0068318843841552734
0.007403072901070118,0.007071350701153278,-0.009330328553915024,0.0028380409348756075,0.0,0.006517606321722269
0.0073219300247728825,0.006440035067498684,-0.008805311284959316,0.0032128228340297937,0.0,0.007148850709199905
0.007403671275824308,0.0064215101301670074,-0.008401288650929928,0.0032053200993686914,0.0,0.006726735271513462
0.007509918883442879,0.0066879973746836185,-0.009178956039249897,0.0031916091684252024,0.0,0.006407106760889292
0.006958820857107639,0.007191977929323912,-0.008868039585649967,0.00279251835308969,0.0,0.006673736963421106
0.007191961165517569,0.006824661511927843,-0.009040677919983864,0.002822982845827937,0.0,0.0067634740844368935
0.006895774509757757,0.006746179889887571,-0.009015914052724838,0.0028550114948302507,0.0,0.0068825483322143555
0.0071119582280516624,0.006691513117402792,-0.009663448669016361,0.002839654451236129,0.0,0.006729568354785442
0.007957923226058483,0.007567753084003925,-0.009673750959336758,0.0029828029219061136,0.0,0.0063294917345047
0.006969972047954798,0.00668362295255065,-0.009730631485581398,0.003227820387110114,0.0,0.006917835678905249
0.007309861481189728,0.006387316156178713,-0.009276095777750015,0.0033028151374310255,0.0,0.006649401970207691
0.008059482090175152,0.006704568862915039,-0.008669526316225529,0.003112716833129525,0.0,0.006499272771179676
0.007189089898020029,0.00690449820831418,-0.009605835191905499,0.0029727525543421507,0.0,0.006550493650138378
0.007061757147312164,0.0065964460372924805,-0.009473629295825958,0.0033324165269732475,0.0,0.006640820298343897
0.008130759932100773,0.0065026902593672276,-0.008947827853262424,0.0033664966467767954,0.0,0.007273554801940918
0.008130759932100773,0.0065026902593672276,-0.008947827853262424,0.0033664966467767954,0.0,0.007273554801940918
0.007786051835864782,0.006543164141476154,-0.00955258496105671,0.0032675419934093952,0.0,0.00672942353412509
0.007624712307006121,0.006899753585457802,-0.00968974269926548,0.0031468519009649754,0.0,0.0065370602533221245
0.006969156209379435,0.007280444260686636,-0.009610197506844997,0.0030205787625163794,0.0,0.006582894362509251
0.007990310899913311,0.006697054952383041,-0.009986125864088535,0.0031966858077794313,0.0,0.006739422678947449
0.008196127600967884,0.007065303158015013,-0.00929567962884903,0.003286641323938966,0.0,0.00734885735437274
0.00781850516796112,0.006537802517414093,-0.009017661213874817,0.003246441250666976,0.0,0.006943839602172375
0.007026941981166601,0.006795685272663832,-0.010057699866592884,0.0031825974583625793,0.0,0.006775428541004658
0.007967269979417324,0.006841408088803291,-0.009606393054127693,0.0031297248788177967,0.0,0.006701573263853788
0.007769277784973383,0.006861774250864983,-0.009102954529225826,0.0034666615538299084,0.0,0.006943389307707548
0.007659886032342911,0.006701474543660879,-0.009905722923576832,0.003364368574693799,0.0,0.006898171734064817
0.008461079560220242,0.0072946203872561455,-0.01031307503581047,0.0032818857580423355,0.0,0.006597554311156273
0.007507602218538523,0.00756068853661418,-0.00996127724647522,0.00282183731906116,0.0,0.006529664155095816
0.00780099630355835,0.006621923763304949,-0.01004581619054079,0.0033496995456516743,0.0,0.007110284175723791
0.007514074444770813,0.0064471871592104435,-0.00944266002625227,0.003819257253780961,0.0,0.007146376650780439
0.007564317900687456,0.006779968738555908,-0.009163168258965015,0.003452237928286195,0.0,0.006728192791342735
0.007598377764225006,0.006686877459287643,-0.01045965775847435,0.003140991786494851,0.0,0.006464454345405102
0.008238662965595722,0.006466086488217115,-0.009805642999708652,0.0029085578862577677,0.0,0.006826983764767647
0.00796649232506752,0.006615673191845417,-0.008855528198182583,0.002888467162847519,0.0,0.006930295377969742
0.007873483002185822,0.006599180866032839,-0.009644433856010437,0.002807927317917347,0.0,0.00685591995716095
0.007820450700819492,0.006588885560631752,-0.009405191987752914,0.003435150720179081,0.0,0.0069359298795461655
0.007643879856914282,0.006506471894681454,-0.009805863723158836,0.0034649306908249855,0.0,0.007144611794501543
0.008242277428507805,0.00658010970801115,-0.009951616637408733,0.0033095283433794975,0.0,0.007350423373281956
0.008154386654496193,0.00679143238812685,-0.00957008171826601,0.003416338237002492,0.0,0.0074859666638076305
0.007451038341969252,0.00695183826610446,-0.009933088906109333,0.0032307032961398363,0.0,0.0068076965399086475
0.007451038341969252,0.00695183826610446,-0.009933088906109333,0.0032307032961398363,0.0,0.0068076965399086475
0.0081262132152915,0.00638366024941206,-0.009487517178058624,0.003045885358005762,0.0,0.007084657438099384
0.00850591529160738,0.006336282007396221,-0.010075384750962257,0.0029349327087402344,0.0,0.00716682942584157
0.008069855161011219,0.006298067979514599,-0.010427434928715229,0.0029954025521874428,0.0,0.007010744418948889
0.007712128106504679,0.006957277189940214,-0.009626522660255432,0.0032091462053358555,0.0,0.007079617585986853
0.007920361123979092,0.006981228943914175,-0.009016715921461582,0.00336059951223433,0.0,0.007412176113575697
0.007961017079651356,0.006360217463225126,-0.009725836105644703,0.003388418350368738,0.0,0.007287966553121805
0.007920079864561558,0.006128411274403334,-0.009870445355772972,0.0035785664804279804,0.0,0.007460629101842642
0.008101850748062134,0.006626122165471315,-0.009311338886618614,0.0036575619596987963,0.0,0.007345742546021938
0.008390231989324093,0.006611115764826536,-0.009652528911828995,0.0036738389171659946,0.0,0.007753507234156132
0.008353055454790592,0.0062496415339410305,-0.009655597619712353,0.0032204785384237766,0.0,0.007704528979957104
0.008038857020437717,0.006103506311774254,-0.00936637818813324,0.0031089228577911854,0.0,0.007568220607936382
0.008224413730204105,0.006090866401791573,-0.009534183889627457,0.003399684326723218,0.0,0.007300985511392355
0.008067149668931961,0.006329766009002924,-0.0094296270981431,0.003302993718534708,0.0,0.007324552629143
0.008305438794195652,0.006442132405936718,-0.008785763755440712,0.003523127641528845,0.0,0.007140939589589834
0.007734120357781649,0.006069065537303686,-0.009173013269901276,0.0037346461322158575,0.0,0.0071426513604819775
0.008332389406859875,0.005978316534310579,-0.009467191062867641,0.0038106320425868034,0.0,0.0072443499229848385
0.008477240800857544,0.005789720918983221,-0.009949524886906147,0.003412052523344755,0.0,0.00714488560333848
0.008215682581067085,0.006289668381214142,-0.009287811815738678,0.003466786118224263,0.0,0.0077628809958696365
0.008032219484448433,0.00677698478102684,-0.009606018662452698,0.0033427344169467688,0.0,0.007288629654794931
0.00826023519039154,0.005965688265860081,-0.009364837780594826,0.0033504727762192488,0.0,0.007439249195158482
0.007804464548826218,0.006281852722167969,-0.009622248820960522,0.003329817671328783,0.0,0.007730186451226473
0.008090835064649582,0.0065045710653066635,-0.009451248683035374,0.003582154167816043,0.0,0.007599744945764542
0.00830945186316967,0.006154267117381096,-0.009798496961593628,0.003731876378878951,0.0,0.007517160847783089
0.008169880136847496,0.006117572076618671,-0.0102292625233531,0.004039213061332703,0.0,0.007584678009152412
0.007998878136277199,0.005988544784486294,-0.009597914293408394,0.0037225396372377872,0.0,0.00800174567848444
0.00842859223484993,0.006399466656148434,-0.00970487855374813,0.0031681160908192396,0.0,0.008240544237196445
0.008356689475476742,0.00674683740362525,-0.009956613183021545,0.003229783847928047,0.0,0.007909364067018032
0.00814898032695055,0.005995194427669048,-0.00957001093775034,0.003190072486177087,0.0,0.008072045631706715
0.00824975036084652,0.0060174716636538506,-0.009770087897777557,0.003149090800434351,0.0,0.008280690759420395
0.00830051489174366,0.006178358569741249,-0.010013963095843792,0.0032039734069257975,0.0,0.00797996111214161
0.008981612510979176,0.006135160569101572,-0.009420659393072128,0.003537352429702878,0.0,0.008192178793251514
0.008981612510979176,0.006135160569101572,-0.009420659393072128,0.003537352429702878,0.0,0.008192178793251514
0.00803246721625328,0.006488661747425795,-0.009143644012510777,0.0038269832730293274,0.0,0.008087888360023499
0.008829504251480103,0.005597835872322321,-0.009735491126775742,0.0036299636121839285,0.0,0.008452859707176685
0.008829504251480103,0.005597835872322321,-0.009735491126775742,0.0036299636121839285,0.0,0.008452859707176685
0.008451669476926327,0.00582412164658308,-0.009652908891439438,0.0033857515081763268,0.0,0.008667785674333572
0.008371605537831783,0.006119540426880121,-0.010262436233460903,0.0032979787793010473,0.0,0.008452816866338253
0.008360140956938267,0.006030198186635971,-0.00962795875966549,0.003566663945093751,0.0,0.008159707300364971
0.00892435759305954,0.005387947894632816,-0.009074069559574127,0.0034772930666804314,0.0,0.008371619507670403
0.008076736703515053,0.005733178928494453,-0.010424397885799408,0.00372592406347394,0.0,0.008040613494813442
0.008490231819450855,0.005490525159984827,-0.009636529721319675,0.004161309450864792,0.0,0.007937110960483551
0.009457768872380257,0.006024042144417763,-0.009070373140275478,0.0041162921115756035,0.0,0.007691593375056982
0.008310442790389061,0.005614471156150103,-0.010555612854659557,0.0039464859291911125,0.0,0.008013577200472355
0.008522117510437965,0.005351563915610313,-0.009954148903489113,0.0038680233992636204,0.0,0.008311093784868717
0.00942776259034872,0.005316270049661398,-0.009898330084979534,0.003450389951467514,0.0,0.008493415080010891
0.008401905186474323,0.005510146263986826,-0.010065670125186443,0.0035332967527210712,0.0,0.008279741741716862
0.008035208098590374,0.005599942523986101,-0.009851567447185516,0.0036958628334105015,0.0,0.008583681657910347
0.00865001231431961,0.005888991057872772,-0.010541936382651329,0.0042583029717206955,0.0,0.007993350736796856
0.008370708674192429,0.005594000220298767,-0.009740890935063362,0.0041051460430026054,0.0,0.007920905016362667
0.008465700782835484,0.005364325828850269,-0.009734258987009525,0.0038809829857200384,0.0,0.007741409819573164
0.008923870511353016,0.005772779695689678,-0.010090543888509274,0.0037534572184085846,0.0,0.007914031855762005
0.008344211615622044,0.005910392850637436,-0.00965885166078806,0.003734635654836893,0.0,0.007761010900139809
0.008223719894886017,0.005745077971369028,-0.009554826654493809,0.003837204771116376,0.0,0.008658692240715027
0.00881599634885788,0.006006158422678709,-0.009952214546501637,0.0038662240840494633,0.0,0.008624905720353127
0.00881599634885788,0.006006158422678709,-0.009952214546501637,0.0038662240840494633,0.0,0.008624905720353127
0.009199251420795918,0.005457580089569092,-0.010545462369918823,0.0038227008190006018,0.0,0.008368444629013538
0.009087109006941319,0.00601068465039134,-0.010041790083050728,0.004220602102577686,0.0,0.007666642311960459
0.008836927823722363,0.0056211925111711025,-0.009941568598151207,0.005073957610875368,0.0,0.00808919407427311
0.009003524668514729,0.0059288437478244305,-0.009879553690552711,0.004644828382879496,-9.665678589954041e-06,0.008251226507127285
0.008686056360602379,0.0055216955952346325,-0.009939617477357388,0.004496307112276554,-0.00012263546523172408,0.00835062749683857
0.008888588286936283,0.005744239315390587,-0.010412449017167091,0.003982937894761562,-0.00012657258776016533,0.008778085932135582
0.009094108827412128,0.005540108773857355,-0.009641697630286217,0.0035730977542698383,-0.00012357892410364002,0.008786922320723534
0.008869902230799198,0.005671605002135038,-0.010203016921877861,0.003634335473179817,-0.00012030655489070341,0.008783070370554924
0.009030764922499657,0.005425292067229748,-0.009914425201714039,0.0038556421641260386,-0.00013903960643801838,0.008723529055714607
0.008866504766047001,0.005909995175898075,-0.009797327220439911,0.004432187881320715,-0.00013693982327822596,0.008597741834819317
0.0093816127628088,0.005804242100566626,-0.010340612381696701,0.004454298410564661,-0.00013364356709644198,0.00843332801014185
0.008657987229526043,0.005656041670590639,-0.010168747045099735,0.004154282156378031,-0.00013042186037637293,0.008216931484639645
0.009026645682752132,0.005549804773181677,-0.00979774072766304,0.004294108599424362,-0.00013777804269921035,0.008420342579483986
0.009004945866763592,0.006422517821192741,-0.010500678792595863,0.004200292751193047,-0.0001444428344257176,0.008553101681172848
0.008843387477099895,0.005972051527351141,-0.010132637806236744,0.003999738954007626,-0.00014183283201418817,0.00855871569365263
0.009159685112535954,0.005795943085104227,-0.009851709939539433,0.003872438333928585,-0.0001387508527841419,0.008606072515249252
0.008569584228098392,0.005701431073248386,-0.009828220121562481,0.00450944947078824,-0.00014698199811391532,0.008353355340659618
0.009004858322441578,0.005599661264568567,-0.00946787092834711,0.004439595155417919,-0.0001484271779190749,0.00832066684961319
0.00913106556981802,0.006071285344660282,-0.010753825306892395,0.004387394059449434,-0.0001457154139643535,0.008861616253852844
0.009181946516036987,0.005408925004303455,-0.009963493794202805,0.004180351737886667,-0.00014304234355222434,0.009133731946349144
0.009303538128733635,0.005556134972721338,-0.010704618878662586,0.0042722453363239765,-0.00024266149557661265,0.008746137842535973
0.009303538128733635,0.005556134972721338,-0.010704618878662586,0.0042722453363239765,-0.00024266149557661265,0.008746137842535973
0.009150133468210697,0.005864894017577171,-0.010108960792422295,0.0044121635146439075,-0.00022548798006027937,0.00952159147709608
0.008918526582419872,0.005909796338528395,-0.009560024365782738,0.004562738351523876,-0.00021475313405971974,0.008211593143641949
0.009458387270569801,0.005548355635255575,-0.010465781204402447,0.004351789131760597,-0.0002250027027912438,0.007955887354910374
0.009458387270569801,0.005548355635255575,-0.010465781204402447,0.004351789131760597,-0.0002250027027912438,0.007955887354910374
0.009281841106712818,0.005618889816105366,-0.009972719475626945,0.004021353553980589,-0.00023387822147924453,0.008774585090577602
0.009157002903521061,0.005637964233756065,-0.01060192659497261,0.00408642552793026,-0.00022533528681378812,0.00925528071820736
0.009266381151974201,0.0062055205926299095,-0.010824017226696014,0.004037706181406975,-0.0002163837052648887,0.009575831703841686
0.009558934718370438,0.006034288089722395,-0.009880432859063148,0.004005523398518562,-0.00023369057453237474,0.009230532683432102
0.009599451906979084,0.005670595448464155,-0.010286225005984306,0.0043256995268166065,-0.00023312943812925369,0.009452560916543007
0.00962382834404707,0.005321624223142862,-0.010559160262346268,0.004507716279476881,-0.00022531949798576534,0.008749323897063732
0.009197141043841839,0.005803479813039303,-0.00989100057631731,0.004556541331112385,-0.00024057054542936385,0.00927705131471157
0.009038844145834446,0.00642717070877552,-0.010892610996961594,0.004326344467699528,-0.0002398268843535334,0.00899326428771019
0.009372448548674583,0.005809526424854994,-0.010802429169416428,0.004248610697686672,-0.00023255446285475045,0.008841247297823429
0.009605197235941887,0.0057768733240664005,-0.010525605641305447,0.004065889399498701,-0.00022592200548388064,0.009200552478432655
0.009103793650865555,0.005290732719004154,-0.01098158210515976,0.004706151783466339,-0.0002784042153507471,0.009400096721947193
0.009222416207194328,0.006003787741065025,-0.010110900737345219,0.004869062919169664,-0.000266275746980682,0.008941054344177246
0.009441685862839222,0.005919960327446461,-0.010116267949342728,0.0045606642961502075,-0.0002761954674497247,0.009345554746687412
0.009105544537305832,0.0064117638394236565,-0.010813950560986996,0.004464183934032917,-0.0002843314432539046,0.009254436939954758
0.009457681328058243,0.00590883381664753,-0.01052312832325697,0.0042058853432536125,-0.0002715165028348565,0.009102066047489643
0.009676962159574032,0.0057146502658724785,-0.010922769084572792,0.004335983656346798,-0.0002586067421361804,0.008866386488080025
0.009457971900701523,0.006112346425652504,-0.010708180256187916,0.00457186670973897,-0.0002467909944243729,0.00927578192204237
0.010053273290395737,0.006397253833711147,-0.010861895978450775,0.004636749625205994,-0.00026123630232177675,0.00899956002831459
0.009604714810848236,0.005830017849802971,-0.0105079161003232,0.004820676054805517,-0.00025303236907348037,0.009243354201316833
0.009252574294805527,0.005684894509613514,-0.010049842298030853,0.004392644390463829,-0.00024340445816051215,0.009264009073376656
0.009252574294805527,0.005684894509613514,-0.010049842298030853,0.004392644390463829,-0.00024340445816051215,0.009264009073376656
0.009382236748933792,0.005212915595620871,-0.011274168267846107,0.004297199193388224,-0.0002343584201298654,0.008921733126044273
0.009598038159310818,0.005827365908771753,-0.011120463721454144,0.004236886743456125,-0.0002259524044347927,0.009316605515778065
0.009687756188213825,0.006103210151195526,-0.010402537882328033,0.004020344000309706,-0.0002333988668397069,0.008789644576609135
0.010094067081809044,0.0058999923057854176,-0.01040362287312746,0.004333230666816235,-0.00023990825866349041,0.008784196339547634
0.009434697218239307,0.005515227094292641,-0.009969944134354591,0.004486641846597195,-0.00023307459196075797,0.009086031466722488
0.009680488146841526,0.005729193799197674,-0.010534489527344704,0.0047589801251888275,-0.00022582500241696835,0.009293429553508759
0.009644662030041218,0.005368343088775873,-0.010867169126868248,0.004393419250845909,-0.00021896068938076496,0.009314526803791523
0.009274532087147236,0.0059460001066327095,-0.010275425389409065,0.0044986833818256855,-0.00023070866882335395,0.008927942253649235
0.009325074031949043,0.006241442169994116,-0.01086210273206234,0.004555026069283485,-0.00022548418201040477,0.009448135271668434
0.009805235080420971,0.0058509912341833115,-0.010715527459979057,0.004317062441259623,-0.00021511672821361572,0.009211084805428982
0.00977401714771986,0.0055791232734918594,-0.010203718207776546,0.0044891610741615295,-0.00020532574853859842,0.009522989392280579
0.009666192345321178,0.0052483705803751945,-0.010348792187869549,0.004927514120936394,-0.00022537866607308388,0.0104641392827034
0.009645216166973114,0.0057464661076664925,-0.009996550157666206,0.004893175791949034,-0.00022511411225423217,0.009804196655750275
0.008768807165324688,0.006046039052307606,-0.009591549634933472,0.004580673761665821,-0.00021667653345502913,0.009291575290262699
0.0096040740609169,0.005895860027521849,-0.011012176051735878,0.00457567535340786,-0.00022535468451678753,0.009456510655581951
0.011183995753526688,0.005224382970482111,-0.010992077179253101,0.004869504831731319,-0.0002328938280697912,0.009375427849590778
0.011115612462162971,0.005498841404914856,-0.010706155560910702,0.0054200757294893265,-0.00022559019271284342,0.009674901142716408
0.010844722390174866,0.005282221361994743,-0.010561486706137657,0.006097552832216024,-0.00023310865799430758,0.009819190949201584
0.010538970120251179,0.0064569078385829926,-0.01064684335142374,0.0057840184308588505,-0.0002396246127318591,0.009469373151659966
0.010516921058297157,0.00591408321633935,-0.010456408374011517,0.00545959547162056,-0.00023280840832740068,0.009590642526745796
0.010745123028755188,0.00533987395465374,-0.010767284780740738,0.004965655971318483,-0.0002780324430204928,0.010281982831656933
0.0108332559466362,0.005317976698279381,-0.010673284530639648,0.004665622022002935,-0.0003086923679802567,0.010135488584637642
0.011003080755472183,0.00569132762029767,-0.010118118487298489,0.0051062037236988544,-0.0002743271761573851,0.010128318332135677
0.010953126475214958,0.006276425905525684,-0.00997926015406847,0.005387984681874514,-0.00025857085711322725,0.00979235302656889
0.011039478704333305,0.00574847124516964,-0.01062827743589878,0.0057129645720124245,-0.00024451559875160456,0.009561336599290371
0.011229104362428188,0.0055993301793932915,-0.010598412714898586,0.005565212108194828,-0.000231910016736947,0.010366791859269142
0.010953606106340885,0.00541274668648839,-0.010225155390799046,0.005803823471069336,-0.00025873337290249765,0.010156737640500069
0.010953606106340885,0.00541274668648839,-0.010225155390799046,0.005803823471069336,-0.00025873337290249765,0.010156737640500069
0.011625034734606743,0.00580300809815526,-0.010957824997603893,0.005698824767023325,-0.0002518956025596708,0.009857618249952793
0.011983318254351616,0.005842316430062056,-0.010631008073687553,0.005773402750492096,-0.00026062718825414777,0.010735939256846905
0.011329337023198605,0.005724614020437002,-0.011039200238883495,0.006007677409797907,-0.0002678288728930056,0.010827797465026379
0.011458007618784904,0.005931873340159655,-0.010708257555961609,0.005956236273050308,-0.0002580522559583187,0.00929310917854309
0.011095182970166206,0.00538803543895483,-0.010409084148705006,0.0063161603175103664,-0.00024797095102258027,0.00950636900961399
0.011206142604351044,0.0059629459865391254,-0.011024175211787224,0.006332415621727705,-0.000268136354861781,0.009954691864550114
0.011164701543748379,0.005726007744669914,-0.010338902473449707,0.005592267028987408,-0.00026242135209031403,0.010336660780012608
0.011003782041370869,0.0058648716658353806,-0.010955647565424442,0.004544589668512344,-0.00025344773894175887,0.01021980307996273
0.011731963604688644,0.0056665213778615,-0.011182840913534164,0.004505921620875597,-0.0002448451123200357,0.009754212573170662
0.0117326769977808,0.006128573790192604,-0.010559603571891785,0.004885698202997446,-0.00023679343576077372,0.010611321777105331
0.01162280049175024,0.005623108707368374,-0.010915359482169151,0.005133843515068293,-0.00023812343715690076,0.011271631345152855
0.011362966150045395,0.005843096878379583,-0.010690952651202679,0.005113871768116951,-0.0002344099775655195,0.010624894872307777
0.010908740572631359,0.005825295113027096,-0.01031868252903223,0.005552607588469982,-0.00022334232926368713,0.010472949594259262
0.011369300074875355,0.0057748956605792046,-0.010961277410387993,0.005296507850289345,-0.000212814164115116,0.010608919896185398
0.011355984024703503,0.005540486425161362,-0.011030610650777817,0.005416697822511196,-0.00022306562459561974,0.010351482778787613
0.010974704287946224,0.0055904085747897625,-0.011005358770489693,0.005138855893164873,-0.00023195032554212958,0.010140351951122284
0.011252325028181076,0.006160937249660492,-0.011145541444420815,0.005488777998834848,-0.0002235542779089883,0.009638924151659012
0.011329028755426407,0.005877865944057703,-0.010513095185160637,0.005756662227213383,-0.00021474120148923248,0.010192962363362312
0.011962016113102436,0.00565267214551568,-0.010751764290034771,0.0059802597388625145,-0.00020653211686294526,0.01029693242162466
0.011519207619130611,0.006042174994945526,-0.01036508847028017,0.005783407483249903,-0.0002235425781691447,0.01006997562944889
0.011817780323326588,0.0066256169229745865,-0.011605484411120415,0.00539576169103384,-0.00021613104036077857,0.010516077280044556
0.011435755528509617,0.005865374580025673,-0.011355395428836346,0.0054517826065421104,-0.00023487707949243486,0.010975596494972706
0.011435755528509617,0.005865374580025673,-0.011355395428836346,0.0054517826065421104,-0.00023487707949243486,0.010975596494972706
0.011482088826596737,0.005802118685096502,-0.010843616910278797,0.005705621093511581,-0.00023090581817086786,0.010519677773118019
0.011525683104991913,0.005763386841863394,-0.011110243387520313,0.0056763626635074615,-0.0002679962490219623,0.010921994224190712
0.011445284821093082,0.006164087913930416,-0.010549120604991913,0.005881614051759243,-0.0002926957968156785,0.010810479521751404
0.011837256141006947,0.00606774864718318,-0.011088216677308083,0.006043242756277323,-0.0002774052263703197,0.010812248103320599
0.011763365007936954,0.0058052693493664265,-0.0114958630874753,0.006140026729553938,-0.00031012939871288836,0.010665204375982285
0.012208206579089165,0.00606174161657691,-0.01113402284681797,0.0059556299820542336,-0.00029629410710185766,0.010683380998671055
0.011425415985286236,0.005657683126628399,-0.011745828203856945,0.005596564617007971,-0.0003039269067812711,0.011476182378828526
0.01160935964435339,0.005817113909870386,-0.010957149788737297,0.005967880133539438,-0.00031014051637612283,0.011196811683475971
0.012266855686903,0.00581137090921402,-0.010999660938978195,0.00670717004686594,-0.00029690563678741455,0.010530362837016582
0.012102324515581131,0.00605355529114604,-0.010956964455544949,0.006301639135926962,-0.0003213747695554048,0.01061154156923294
0.012188756838440895,0.005819281097501516,-0.011033025570213795,0.005878923926502466,-0.0003100025642197579,0.010560235939919949
0.01228202786296606,0.005761719774454832,-0.0115007059648633,0.005997118540108204,-0.00040437118150293827,0.010401982814073563
0.012092030607163906,0.006064945366233587,-0.011212983168661594,0.005644561722874641,-0.00040364349843002856,0.010589409619569778
0.01215758454054594,0.005545723717659712,-0.011124484241008759,0.006270403973758221,-0.00042720354394987226,0.01047942228615284
0.011955919675529003,0.005959880072623491,-0.011276133358478546,0.006262056529521942,-0.00041171134216710925,0.01077712420374155
0.012184121645987034,0.005472310818731785,-0.010719327256083488,0.006072503514587879,-0.000438786024460569,0.01102316752076149
0.011791225522756577,0.005762141663581133,-0.011155365966260433,0.005975551437586546,-0.00041731278179213405,0.01085328683257103
0.012386718764901161,0.005709502846002579,-0.011003735475242138,0.0063027674332261086,-0.0004402382473926991,0.01078303623944521
0.012314333580434322,0.006220678333193064,-0.010743960738182068,0.006594604812562466,-0.0004211247432976961,0.01079640258103609
0.012200910598039627,0.0059159486554563046,-0.011918561533093452,0.006335016340017319,-0.0005186720518395305,0.010934877209365368
0.012319052591919899,0.005612988490611315,-0.011301781050860882,0.006386639084666967,-0.0004820479080080986,0.010898793116211891
0.013000832870602608,0.005885003134608269,-0.011635161004960537,0.006305517628788948,-0.0003979169996455312,0.011337301693856716
0.012447475455701351,0.005626550875604153,-0.010965813882648945,0.006168537773191929,-0.00036556361010298133,0.011107141152024269
0.01302926242351532,0.005892318673431873,-0.011467567645013332,0.006161277648061514,-0.00033807504223659635,0.010808967053890228
0.012944823130965233,0.006015707738697529,-0.011240805499255657,0.0064020464196801186,-0.0003606674144975841,0.011029441840946674
0.012944823130965233,0.006015707738697529,-0.011240805499255657,0.0064020464196801186,-0.0003606674144975841,0.011029441840946674
0.013197517953813076,0.005543556995689869,-0.012284794822335243,0.005980433896183968,-0.0003309622697997838,0.011612346395850182
0.012478257529437542,0.005534553434699774,-0.011264524422585964,0.0067056817933917046,-0.00035020377254113555,0.010787446051836014
0.012478257529437542,0.005534553434699774,-0.011264524422585964,0.0067056817933917046,-0.00035020377254113555,0.010787446051836014
0.012566615827381611,0.006141143850982189,-0.011867665685713291,0.0068799350410699844,-0.0003431160585023463,0.009963937103748322
0.012354257516562939,0.005559336859732866,-0.011819787323474884,0.006383991334587336,-0.0003261337406001985,0.010651811957359314
0.013279872015118599,0.005331642925739288,-0.01141994260251522,0.006117578595876694,-0.00034848644281737506,0.011157441884279251
0.012738784775137901,0.005361001472920179,-0.011280869133770466,0.0064453622326254845,-0.00033741112565621734,0.011160118505358696
0.013272130861878395,0.005454102531075478,-0.011812519282102585,0.006499488838016987,-0.0003226312401238829,0.011645803228020668
0.013184486888349056,0.0056788199581205845,-0.011945512145757675,0.006241416092962027,-0.0003088140510953963,0.011723753996193409
0.013206527568399906,0.005944728851318359,-0.01173973549157381,0.005993555299937725,-0.00028385253972373903,0.011443456634879112
0.013005667366087437,0.005386843346059322,-0.011392350308597088,0.005724169313907623,-0.00025736214593052864,0.011799758300185204
0.013201731257140636,0.005355842411518097,-0.012204860337078571,0.006422651931643486,-0.00026646998594515026,0.011578364297747612
0.013636894524097443,0.005521472077816725,-0.011246362701058388,0.006714330054819584,-0.00027476350078359246,0.011885699816048145
0.013333145529031754,0.006156752817332745,-0.012126773595809937,0.006458180956542492,-0.00026281632017344236,0.011937604285776615
0.013974251225590706,0.005814359989017248,-0.012303480878472328,0.006184821017086506,-0.00028962944634258747,0.012163233011960983
0.013294900767505169,0.005793422926217318,-0.01242950651794672,0.006114553194493055,-0.0002793296589516103,0.011676372028887272
0.0139501066878438,0.005372707266360521,-0.01250286865979433,0.006271280813962221,-0.0002863256377168,0.011554691940546036
0.013458729721605778,0.005358046852052212,-0.011031138710677624,0.007127190474420786,-0.0002921301347669214,0.011960924603044987
0.014238606207072735,0.005145370494574308,-0.011946664191782475,0.006995618809014559,-0.0002818327920977026,0.012085751630365849
0.013574402779340744,0.005849884357303381,-0.011543060652911663,0.0064820959232747555,-0.00035468567511998117,0.011976758018136024
0.013641071505844593,0.005307666026055813,-0.01222185231745243,0.006394552532583475,-0.0004017151950392872,0.011599231511354446
0.013426955789327621,0.005185275804251432,-0.012471335008740425,0.0072587332688272,-0.0004096951161045581,0.011727876029908657
0.013891784474253654,0.005588096100836992,-0.011951621621847153,0.006721422076225281,-0.0004117034550290555,0.012007071636617184
0.013900204561650753,0.005204970948398113,-0.011988086625933647,0.0064985561184585094,-0.00038454835885204375,0.011985448189079762
0.013866315595805645,0.005507136229425669,-0.012381591834127903,0.006783227901905775,-0.00038522324757650495,0.012100311927497387
0.014273956418037415,0.005538602825254202,-0.012295519933104515,0.006692950148135424,-0.0003692630853038281,0.011932686902582645
0.013999320566654205,0.005138706415891647,-0.012606928125023842,0.0061829788610339165,-0.0003923895419575274,0.012594601139426231
0.014153840951621532,0.005289840046316385,-0.012446858920156956,0.005948585923761129,-0.0003777314268518239,0.012081261724233627
0.014022923074662685,0.005466542672365904,-0.012393087148666382,0.006857668980956078,-0.00043272587936371565,0.012273087166249752
0.014022923074662685,0.005466542672365904,-0.012393087148666382,0.006857668980956078,-0.00043272587936371565,0.012273087166249752
0.014251094311475754,0.005570816341787577,-0.012523764744400978,0.006939318031072617,-0.00040547712706029415,0.012140321545302868
0.014555679634213448,0.0055932034738361835,-0.011960315518081188,0.006994366645812988,-0.0004418727767188102,0.012391312047839165
0.014578483067452908,0.005397360306233168,-0.012512128800153732,0.00680321641266346,-0.00041265293839387596,0.012805948033928871
0.014369290322065353,0.005600543227046728,-0.012500361539423466,0.0068624564446508884,-0.00038361645420081913,0.012721442617475986
0.01474470179527998,0.005144141614437103,-0.012781854718923569,0.007056768983602524,-0.00038718373980373144,0.012727591209113598
0.014380941167473793,0.005177118815481663,-0.012317215092480183,0.007103273645043373,-0.00038986216532066464,0.012341918423771858
0.014590498059988022,0.005547661799937487,-0.012307658791542053,0.007334149908274412,-0.0003687779826577753,0.01289792824536562
0.014447667635977268,0.00542392348870635,-0.012166297063231468,0.007488586474210024,-0.0003915589477401227,0.012655453756451607
0.014823861420154572,0.00500171072781086,-0.011914302594959736,0.007551996968686581,-0.0003769555187318474,0.013036626391112804
0.014697148464620113,0.005302246194332838,-0.012897655367851257,0.007716468535363674,-0.0003899805888067931,0.012943735346198082
0.014818694442510605,0.005578236188739538,-0.012555094435811043,0.007308352272957563,-0.0003867663617711514,0.012967202812433243
0.014603565447032452,0.006085773464292288,-0.012517992407083511,0.00704127736389637,-0.00042450829641893506,0.012836221605539322
0.014955775812268257,0.00566795002669096,-0.012122806161642075,0.00738383736461401,-0.0004298701824154705,0.01265681628137827
0.014828555285930634,0.005870154593139887,-0.011536473408341408,0.007519255392253399,-0.00046023036702536047,0.013020387850701809
0.01532377302646637,0.005311279557645321,-0.0124368192628026,0.007383848074823618,-0.0004602730041369796,0.012731965631246567
0.014850507490336895,0.005055943503975868,-0.012222210876643658,0.007247458677738905,-0.0006391653441824019,0.013365079648792744
0.015208151191473007,0.005659149959683418,-0.013031380251049995,0.007298980839550495,-0.0006193331209942698,0.014075997285544872
0.014997685328125954,0.005808219313621521,-0.012370393611490726,0.0072632161900401115,-0.0006498049478977919,0.013509813696146011
0.015524405054748058,0.005614490248262882,-0.012201448902487755,0.007250097580254078,-0.0005861065583303571,0.012730833142995834
0.015256762504577637,0.0051290616393089294,-0.012232547625899315,0.007255022879689932,-0.0005290550761856139,0.012775043025612831
0.015370474196970463,0.005241087172180414,-0.012561211362481117,0.007690856233239174,-0.000496386201120913,0.01317722536623478
0.015576613135635853,0.005680605303496122,-0.012435117736458778,0.00752580352127552,-0.00047564919805154204,0.013104645535349846
0.01552649773657322,0.0057565635070204735,-0.012891320511698723,0.007355608511716127,-0.0004432626301422715,0.012993392534554005
0.015355301089584827,0.005192985758185387,-0.01255839318037033,0.007167857605963945,-0.0004141740791965276,0.01351071149110794
0.015355301089584827,0.005192985758185387,-0.01255839318037033,0.007167857605963945,-0.0004141740791965276,0.01351071149110794
0.015607723966240883,0.005238574463874102,-0.012942137196660042,0.007573618553578854,-0.00038861759821884334,0.013632431626319885
0.015306654386222363,0.005315637681633234,-0.012421616353094578,0.007624112535268068,-0.00040455342968925834,0.01373582798987627
0.015507310628890991,0.0055437334813177586,-0.01208949089050293,0.007592298090457916,-0.00039443993591703475,0.013353576883673668
0.015182362869381905,0.00533972168341279,-0.012636713683605194,0.00783319491893053,-0.0003746946167666465,0.013687973842024803
0.015632959082722664,0.005185502115637064,-0.012487579137086868,0.008126694709062576,-0.00035620262497104704,0.01328392792493105
0.015226279385387897,0.005416723899543285,-0.0129209253937006,0.008207913488149643,-0.0003163781948387623,0.013435549102723598
0.015765570104122162,0.005076264962553978,-0.01265358179807663,0.007893569767475128,-0.0002763026859611273,0.013578656129539013
0.015008519403636456,0.005236364435404539,-0.012318562716245651,0.007330479100346565,-0.0002590373333077878,0.014106934890151024
0.015862232074141502,0.005210814531892538,-0.012310015968978405,0.008155704475939274,-0.0002687188098207116,0.013867941685020924
0.015730859711766243,0.005748867988586426,-0.011906607076525688,0.007908175699412823,-0.00027700484497472644,0.013597273267805576
0.015818173065781593,0.0053034997545182705,-0.012850760482251644,0.007603196892887354,-0.00026485853595659137,0.013826991431415081
0.016725098714232445,0.004875536076724529,-0.012243958190083504,0.007444840390235186,-0.00025256251683458686,0.014342598617076874
0.015939215198159218,0.005336776375770569,-0.012712025083601475,0.007567860186100006,-0.0002412805042695254,0.01359015516936779
0.01608830690383911,0.005214778706431389,-0.01260441169142723,0.007889962755143642,-0.00023095935466699302,0.013564454391598701
0.015516717918217182,0.006123533472418785,-0.012578011490404606,0.007965696044266224,-0.0002534784434828907,0.013679507188498974
0.015451598912477493,0.0055602905340492725,-0.01251104287803173,0.008114042691886425,-0.00024789487360976636,0.01372592244297266
0.013746872544288635,0.00534739950671792,-0.01197572611272335,0.007436247076839209,-0.00023878432693891227,0.01432290393859148
0.016959456726908684,0.0055159954354166985,-0.012404460459947586,0.007154872640967369,-0.00024618071620352566,0.014364710077643394
0.016721509397029877,0.005364677868783474,-0.012866050936281681,0.007948408834636211,-0.00025259004905819893,0.0143593093380332
0.016085190698504448,0.005284528713673353,-0.013243492692708969,0.008120371960103512,-0.0002449782332405448,0.014021031558513641
0.016245178878307343,0.005513329990208149,-0.012708425521850586,0.00794276874512434,-0.00028087725513614714,0.013877121731638908
0.015915827825665474,0.005488110240548849,-0.013008851557970047,0.00784279964864254,-0.0002782343071885407,0.013756055384874344
0.016549542546272278,0.005372447427362204,-0.012850414030253887,0.008410547859966755,-0.000301688676699996,0.014199776574969292
0.01689882017672062,0.005293710622936487,-0.01242782175540924,0.00863488670438528,-0.00032326814834959805,0.014439811930060387
0.016542814671993256,0.0051598395220935345,-0.012263208627700806,0.008819147944450378,-0.0003128443204332143,0.014823868870735168
0.016804184764623642,0.005647330079227686,-0.013130100443959236,0.008121954277157784,-0.0002983911836054176,0.014859129674732685
0.016634266823530197,0.005407015793025494,-0.013045784085988998,0.007974743843078613,-0.0003149787080474198,0.014639046974480152
0.016231339424848557,0.005341666750609875,-0.013365976512432098,0.008268991485238075,-0.0003108345263171941,0.014492032118141651
0.0169289018958807,0.005262567196041346,-0.012752091512084007,0.009027238935232162,-0.0003824419400189072,0.014375457540154457
0.016439499333500862,0.005544580053538084,-0.013246442191302776,0.008603397756814957,-0.00042584436596371233,0.014437557198107243
0.01701350510120392,0.005307137966156006,-0.013530286028981209,0.008149470202624798,-0.0003937841102015227,0.014288174919784069
0.01701350510120392,0.005307137966156006,-0.013530286028981209,0.008149470202624798,-0.0003937841102015227,0.014288174919784069
0.01726139895617962,0.005273209884762764,-0.013662829995155334,0.008517876267433167,-0.00039747022674418986,0.014490378089249134
0.01732751540839672,0.004920623265206814,-0.013089613988995552,0.008696339093148708,-0.0004000132030341774,0.014662716537714005
0.01724943518638611,0.0047265468165278435,-0.013010143302381039,0.008263182826340199,-0.00037436228012666106,0.0155448904260993
0.01707860827445984,0.00428863987326622,-0.013397471979260445,0.008230854757130146,-0.0003931596002075821,0.014238409698009491
0.017466988414525986,0.003973565064370632,-0.012857590802013874,0.0091349883005023,-0.00038268210482783616,0.014410770498216152
0.017097871750593185,0.00402451679110527,-0.014086166396737099,0.00899219885468483,-0.0003615871537476778,0.014729569666087627
0.01703898049890995,0.004835008643567562,-0.012921173125505447,0.008848505094647408,-0.0003420078137423843,0.014725545421242714
0.017414027824997902,0.004840485751628876,-0.013259859755635262,0.008759982883930206,-0.00032439499045722187,0.01436196081340313
0.017440015450119972,0.004425589926540852,-0.013579513877630234,0.008858174085617065,-0.00030850444454699755,0.01445700228214264
0.018035706132650375,0.004206924233585596,-0.01442614197731018,0.009250757284462452,-0.0002940990962088108,0.014718377031385899
0.017477290704846382,0.0041613345965743065,-0.013530966825783253,0.008669810369610786,-0.0002809789730235934,0.015113046392798424
0.01763794757425785,0.004503152798861265,-0.013774948194622993,0.00922219455242157,-0.00026897870702669024,0.01552725862711668
0.0179511196911335,0.004694898147135973,-0.01358233392238617,0.008753685280680656,-0.0002579629945103079,0.015437761321663857
0.017643241211771965,0.004719828721135855,-0.013731546700000763,0.008354391902685165,-0.00024781489628367126,0.0150679312646389
0.01762445643544197,0.004242385737597942,-0.01353586558252573,0.009362262673676014,-0.00023843348026275635,0.014981988817453384
0.017964201048016548,0.0041989223100245,-0.013656506314873695,0.009017661213874817,-0.00022973777959123254,0.014926090836524963
0.01835555210709572,0.004435225389897823,-0.01399280782788992,0.008896482177078724,-0.00023675555712543428,0.015037694945931435
0.01793552190065384,0.004644941072911024,-0.013841354288160801,0.009451240301132202,-0.000236144129303284,0.014880177564918995
0.018018972128629684,0.004902097396552563,-0.014049520716071129,0.009056535549461842,-0.00022909665131010115,0.015308595262467861
0.01822071522474289,0.004609874449670315,-0.013691925443708897,0.009183363057672977,-0.00022206125140655786,0.015002081170678139
0.017999762669205666,0.00436783442273736,-0.013888931833207607,0.009272385388612747,-0.00021541834576055408,0.015125957317650318
0.018191905692219734,0.004354475066065788,-0.014126564376056194,0.00931724812835455,-0.00020916010544169694,0.015117080882191658
0.018191905692219734,0.004354475066065788,-0.014126564376056194,0.00931724812835455,-0.00020916010544169694,0.015117080882191658
0.017961697652935982,0.004615967161953449,-0.014276223257184029,0.009182434529066086,-0.00019767438061535358,0.01522828359156847
0.017961697652935982,0.004615967161953449,-0.014276223257184029,0.009182434529066086,-0.00019767438061535358,0.01522828359156847
0.018515383824706078,0.004755018278956413,-0.013856896199285984,0.009075605310499668,-0.0001923921226989478,0.015683529898524284
0.018437806516885757,0.005109582096338272,-0.014035599306225777,0.008895657025277615,-0.00015918569988571107,0.01613263413310051
0.01802578754723072,0.004853627644479275,-0.013574295677244663,0.009947923012077808,-0.00015008407353889197,0.01592962257564068
0.018573304638266563,0.004598741885274649,-0.014233999885618687,0.009283612482249737,-0.00014499970711767673,0.015795398503541946
0.01866253837943077,0.004674434661865234,-0.013108170591294765,0.009558525867760181,-0.00014045723946765065,0.015684764832258224
0.018856192007660866,0.004753617569804192,-0.013866771943867207,0.009940540418028831,-0.00013620450044982135,0.01529022492468357
0.01904471032321453,0.004776892717927694,-0.013316432945430279,0.009903372265398502,-0.00013220252003520727,0.015352601185441017
0.018375486135482788,0.004729099106043577,-0.014031766913831234,0.009412952698767185,-0.00014103716239333153,0.015428852289915085
0.018411235883831978,0.0046279579401016235,-0.013626315630972385,0.009629596024751663,-0.0001489844435127452,0.015365052968263626
0.018903015181422234,0.0046522486954927444,-0.014416621066629887,0.010070174932479858,-0.00014573665976058692,0.016053562983870506
0.018978673964738846,0.004777512978762388,-0.01359759084880352,0.010164976119995117,-0.0001640292175579816,0.016382068395614624
0.01905551366508007,0.004366713110357523,-0.013844653032720089,0.010146424174308777,-0.0001612731721252203,0.015848126262426376
0.018937550485134125,0.0044526150450110435,-0.013371500186622143,0.010156123898923397,-0.00017831205332186073,0.015606192871928215
0.018676890060305595,0.00504190381616354,-0.014461202546954155,0.009482220746576786,-0.00017534347716718912,0.01568976230919361
0.017385100945830345,0.005059000104665756,-0.013430885970592499,0.009504010900855064,-0.0003055705747101456,0.015924928709864616
0.019423753023147583,0.00440951157361269,-0.013807611539959908,0.009510197676718235,-0.00034899907768703997,0.016519857570528984
0.019230464473366737,0.004392641596496105,-0.014158191159367561,0.009239460341632366,-0.0003421428264118731,0.016365226358175278
0.01929347589612007,0.004959810059517622,-0.013808375224471092,0.010049959644675255,-0.00035438008490018547,0.015837304294109344
0.018679510802030563,0.004967786837369204,-0.014049657620489597,0.009028783068060875,-0.0003717057697940618,0.015564882196485996
0.019474929198622704,0.004804032389074564,-0.014203324913978577,0.009047080762684345,-0.0003640669456217438,0.016388438642024994
0.01909974031150341,0.004676132462918758,-0.013759254477918148,0.009169546887278557,-0.00045706264791078866,0.015646982938051224
0.01830436661839485,0.004689847584813833,-0.013839240185916424,0.008880726993083954,-0.0005091524799354374,0.015407448634505272
0.019391488283872604,0.005263573955744505,-0.01368511002510786,0.009112975560128689,-0.0004634964279830456,0.01599983684718609
0.019483627751469612,0.004980740137398243,-0.01408628560602665,0.009631665423512459,-0.000493003346491605,0.016236700117588043
0.019483627751469612,0.004980740137398243,-0.01408628560602665,0.009631665423512459,-0.000493003346491605,0.016236700117588043
0.019170554354786873,0.004832092206925154,-0.014011604711413383,0.00932303722947836,-0.0004979638033546507,0.01635381206870079
0.019095461815595627,0.0050680022686719894,-0.014228356070816517,0.009307261556386948,-0.0004933785530738533,0.016121668741106987
0.019472060725092888,0.005003209225833416,-0.014040127396583557,0.010095564648509026,-0.000491481099743396,0.01629306934773922
0.020497923716902733,0.005161595996469259,-0.013684737496078014,0.009959540329873562,-0.00045938274706713855,0.01659688539803028
0.020497923716902733,0.005161595996469259,-0.013684737496078014,0.009959540329873562,-0.00045938274706713855,0.01659688539803028
0.01951138861477375,0.00529858935624361,-0.014306573197245598,0.010470976121723652,-0.0004929715651087463,0.01644962467253208
0.019110579043626785,0.004990322981029749,-0.013630134053528309,0.009872693568468094,-0.0005149708595126867,0.01686609908938408
0.019806448370218277,0.004935971461236477,-0.014141658321022987,0.010126996785402298,-0.0005487772868946195,0.016776811331510544
0.019679907709360123,0.0047437092289328575,-0.01376255787909031,0.010860447771847248,-0.0005876504583284259,0.016545206308364868
0.01943037286400795,0.004754399415105581,-0.014302961528301239,0.010255269706249237,-0.0008184757898561656,0.01665983535349369
0.019691716879606247,0.005205528344959021,-0.013628813438117504,0.010226263664662838,-0.0007690779748372734,0.016819363459944725
0.02046721987426281,0.0052955797873437405,-0.014507122337818146,0.010750246234238148,-0.0007839685422368348,0.01697608456015587
0.020380426198244095,0.005071119870990515,-0.013786780647933483,0.01055609155446291,-0.0006917237187735736,0.016975780948996544
0.01974138803780079,0.005296790972352028,-0.01481159869581461,0.010770891793072224,-0.0007082447991706431,0.016347864642739296
0.020390095189213753,0.00516546843573451,-0.01378669124096632,0.01020160410553217,-0.0006863647722639143,0.01706121489405632
0.02035231702029705,0.004961592145264149,-0.014132579788565636,0.010365760885179043,-0.0006632606382481754,0.01678694412112236
0.020246434956789017,0.005371089559048414,-0.01375776156783104,0.011170956306159496,-0.0006096846773289144,0.016994506120681763
0.0204123817384243,0.005198512226343155,-0.014397026039659977,0.010467718355357647,-0.0005672136321663857,0.01717511937022209
0.020455660298466682,0.0049897744320333,-0.014344042167067528,0.009946598671376705,-0.0004862970672547817,0.017496729269623756
0.0201730914413929,0.005173881072551012,-0.014896649867296219,0.010288087651133537,-0.0004376397409942001,0.01750740222632885
0.019946930930018425,0.005132193211466074,-0.014101971872150898,0.010205136612057686,-0.00046743237180635333,0.016709724441170692
0.0208329688757658,0.005768971983343363,-0.015046421438455582,0.00990879163146019,-0.0004387631779536605,0.017090793699026108
0.01977570168673992,0.0050046443939208984,-0.014797281473875046,0.00994958821684122,-0.0004386238579172641,0.01726158708333969
0.020619094371795654,0.005272459238767624,-0.014467805624008179,0.009695686399936676,-0.0004119003424420953,0.016979515552520752
0.0206945538520813,0.005032169166952372,-0.015071856789290905,0.009840348735451698,-0.000438137591117993,0.017203766852617264
0.020375249907374382,0.004817649722099304,-0.014441958628594875,0.010059677995741367,-0.00041616318048909307,0.017648939043283463
0.020375249907374382,0.004817649722099304,-0.014441958628594875,0.010059677995741367,-0.00041616318048909307,0.017648939043283463
0.020510442554950714,0.005113990977406502,-0.015230872668325901,0.009898041374981403,-0.00041957030771300197,0.017600074410438538
0.020803987979888916,0.00503120431676507,-0.014974688179790974,0.010047415271401405,-0.00040821294533088803,0.01756882108747959
0.01919741928577423,0.0059120128862559795,-0.014924261718988419,0.009734399616718292,-0.00044067497947253287,0.0177096426486969
0.020886516198515892,0.005529109854251146,-0.015181091614067554,0.00966914463788271,-0.00041567219886928797,0.017553839832544327
0.021611815318465233,0.0050360155291855335,-0.015548656694591045,0.010014578700065613,-0.0004421138437464833,0.01761891134083271
0.021142132580280304,0.005097914952784777,-0.01526070386171341,0.009995035827159882,-0.0004644554865080863,0.01782347448170185
0.020862964913249016,0.00540186557918787,-0.0155141307041049,0.010506778955459595,-0.0004529030993580818,0.01773318275809288
0.02067665010690689,0.005695952568203211,-0.015642140060663223,0.010746529325842857,-0.0007113646133802831,0.01779947429895401
0.02115735597908497,0.005668078549206257,-0.015768999233841896,0.010069888085126877,-0.0007478987099602818,0.01734369620680809
0.021022114902734756,0.005695128347724676,-0.01610863395035267,0.01033173967152834,-0.000740852381568402,0.01770228147506714
0.020904188975691795,0.005111199803650379,-0.0150300869718194,0.010522219352424145,-0.0007120869704522192,0.01819283701479435
0.021571848541498184,0.005291185807436705,-0.015725787729024887,0.01033202838152647,-0.0007623882847838104,0.017863290384411812
0.02218121849000454,0.005637479946017265,-0.015003450214862823,0.010557960718870163,-0.0007464921800419688,0.018096735700964928
0.021795567125082016,0.005213434342294931,-0.0156568493694067,0.010774921625852585,-0.0006463350728154182,0.018393635749816895
0.021450793370604515,0.005856630392372608,-0.01524005550891161,0.010534470900893211,-0.0005653913831338286,0.01817406713962555
0.020587638020515442,0.005469031631946564,-0.015805672854185104,0.010912935249507427,-0.0005021860124543309,0.018074065446853638
0.021472975611686707,0.005210141185671091,-0.015574953518807888,0.010711110197007656,-0.00045169671648181975,0.01803399808704853
0.021493548527359962,0.005168984644114971,-0.015792857855558395,0.010920079424977303,-0.00041043947567231953,0.017988210543990135
0.021596761420369148,0.00573203107342124,-0.015710311010479927,0.010891970247030258,-0.0004124812548980117,0.018714474514126778
0.021322349086403847,0.005798494443297386,-0.016051625832915306,0.010796718299388885,-0.0004139423544984311,0.017634958028793335
0.021787865087389946,0.005693910177797079,-0.01614593341946602,0.011024453677237034,-0.0003864699392579496,0.017856555059552193
0.021991491317749023,0.005134571809321642,-0.01573343388736248,0.010862588882446289,-0.0003607755643315613,0.01878134161233902
0.021778902038931847,0.005471407901495695,-0.015259147621691227,0.010917222127318382,-0.0003675985208246857,0.019156288355588913
0.02241438627243042,0.006129626650363207,-0.016411658376455307,0.010802913457155228,-0.00035036675399169326,0.01852295733988285
0.02168142981827259,0.005745072849094868,-0.015782242640852928,0.01112932525575161,-0.0003552445559762418,0.017679641023278236
0.021969052031636238,0.005801989231258631,-0.015496001578867435,0.011411162093281746,-0.0003589616680983454,0.01792004331946373
0.021969903260469437,0.00530344108119607,-0.015096204355359077,0.010359862819314003,-0.00034324656007811427,0.01834707520902157
0.021969903260469437,0.00530344108119607,-0.015096204355359077,0.010359862819314003,-0.00034324656007811427,0.01834707520902157
0.02257671020925045,0.005403278861194849,-0.015394210815429688,0.010545995086431503,-0.00029696637648157775,0.01913856714963913
0.022544657811522484,0.005651523359119892,-0.01597948744893074,0.01020899135619402,-0.00025168407591991127,0.019025752320885658
0.02234131284058094,0.005623364821076393,-0.015656108036637306,0.010377473197877407,-0.0002774947788566351,0.018429916352033615
0.02223079465329647,0.005624152719974518,-0.015523085370659828,0.01099162083119154,-0.00030803680419921875,0.018534868955612183
0.022603165358304977,0.005385741591453552,-0.015236254781484604,0.010562693700194359,-0.00033068368793465197,0.019164713099598885
0.022552359849214554,0.005600214470177889,-0.015782136470079422,0.010898797772824764,-0.0003271936730016023,0.019407372921705246
0.022484004497528076,0.005080642178654671,-0.01513712015002966,0.01146255899220705,-0.0006940133171156049,0.019121043384075165
0.022640813142061234,0.004670381546020508,-0.015425554476678371,0.011093956418335438,-0.0007161241373978555,0.018732333555817604
0.021411221474409103,0.004738916642963886,-0.015517424792051315,0.011318037286400795,-0.0006581650231964886,0.018411695957183838
0.023179393261671066,0.004913466516882181,-0.01613849774003029,0.011725005693733692,-0.0005882805562578142,0.018542053177952766
0.023530088365077972,0.004820649046450853,-0.01557658240199089,0.011463961564004421,-0.0006066099740564823,0.01918405294418335
0.02322913147509098,0.004617391154170036,-0.016091683879494667,0.011874469928443432,-0.0005627087084576488,0.01971745677292347
0.022817106917500496,0.005020745098590851,-0.015580412931740284,0.011660606600344181,-0.000552903104107827,0.02004546858370304
0.022937757894396782,0.00468492554500699,-0.01583593524992466,0.011728312820196152,-0.0005437146755866706,0.019873665645718575
0.023446133360266685,0.005076010711491108,-0.01680334471166134,0.01170603558421135,-0.0005050855106674135,0.01959129609167576
0.023644834756851196,0.004801569506525993,-0.016146095469594002,0.011342480778694153,-0.000454721855930984,0.01972394436597824
0.023402012884616852,0.004622431006282568,-0.016212906688451767,0.011336828581988811,-0.0004896426689811051,0.0193676445633173
0.023471331223845482,0.004500291310250759,-0.015623173676431179,0.011062645353376865,-0.0005187125643715262,0.01926157809793949
0.023825759068131447,0.004668637178838253,-0.016349000856280327,0.011407007463276386,-0.0005215352866798639,0.01958646811544895
0.023741262033581734,0.004836364649236202,-0.016304392367601395,0.011074326932430267,-0.0006946051144041121,0.01949550397694111
0.023978663608431816,0.0048734769225120544,-0.016138415783643723,0.011266443878412247,-0.0007387852529063821,0.0198078416287899
0.02430190145969391,0.00499357283115387,-0.015870871022343636,0.011385908350348473,-0.0006645339308306575,0.019684724509716034
0.023825496435165405,0.004881756845861673,-0.016483863815665245,0.011148103512823582,-0.0006646406254731119,0.019765617325901985
0.024087214842438698,0.004741032142192125,-0.016372770071029663,0.011796196922659874,-0.0006212106673046947,0.020148495212197304
0.024394072592258453,0.004906199406832457,-0.01661112904548645,0.011445803567767143,-0.0006058159633539617,0.020172620192170143
0.024394072592258453,0.004906199406832457,-0.01661112904548645,0.011445803567767143,-0.0006058159633539617,0.020172620192170143
0.02437209151685238,0.004919060971587896,-0.01592259854078293,0.011603444814682007,-0.0005915421061217785,0.020259302109479904
0.024699825793504715,0.004875643644481897,-0.01617906056344509,0.011629701592028141,-0.0005674489657394588,0.01990380696952343
0.024506116285920143,0.005072022322565317,-0.01632474735379219,0.011818506754934788,-0.0005712278070859611,0.020267385989427567
0.02469082549214363,0.004925178363919258,-0.01657453365623951,0.011832812801003456,-0.0005581913865171373,0.020469753071665764
0.024584682658314705,0.004815943073481321,-0.016870848834514618,0.011503051966428757,-0.0005872834590263665,0.02023632638156414
0.02449113130569458,0.004517627879977226,-0.01628510281443596,0.011812835931777954,-0.0006088351947255433,0.019928807392716408
0.024793285876512527,0.004676371347159147,-0.016484204679727554,0.012103565037250519,-0.0005700333276763558,0.020377494394779205
0.024893885478377342,0.004960530903190374,-0.015655923634767532,0.011861159466207027,-0.0006919923471286893,0.02047703042626381
0.025492291897535324,0.004820080474019051,-0.01656242460012436,0.011584497056901455,-0.0007135310443118215,0.020366022363305092
0.026169979944825172,0.004534522537142038,-0.0164486113935709,0.011170382611453533,-0.0006560210604220629,0.020548416301608086
0.026335423812270164,0.004677831660956144,-0.01645786687731743,0.011729991063475609,-0.000677188509143889,0.020022042095661163
0.024820582941174507,0.004833341110497713,-0.016608992591500282,0.011761653237044811,-0.0006927420618012547,0.019711585715413094
0.023766029626131058,0.004786440636962652,-0.0164312943816185,0.011635188944637775,-0.0007558671641163528,0.020086759701371193
0.025744806975126266,0.004746179096400738,-0.01704275980591774,0.011991954408586025,-0.0007841404294595122,0.020734315738081932
0.02614760212600231,0.004655362572520971,-0.016996614634990692,0.011896831914782524,-0.0007133607286959887,0.020647946745157242
0.025515396147966385,0.004567436873912811,-0.016964972019195557,0.012373079545795918,-0.0007223072461783886,0.020464373752474785
0.02622130885720253,0.004593385383486748,-0.016727179288864136,0.01176508143544197,-0.0006707352004013956,0.019857877865433693
0.026551567018032074,0.004563641268759966,-0.01735619455575943,0.011959590949118137,-0.000626863504294306,0.019737066701054573
0.026244992390275,0.004591293632984161,-0.016362885013222694,0.011641068384051323,-0.0006152983987703919,0.02054402604699135
0.02510852925479412,0.004732362926006317,-0.0170959010720253,0.012354484759271145,-0.0006465368787758052,0.020901769399642944
0.025253823027014732,0.00438565481454134,-0.01728910207748413,0.01252104714512825,-0.0005835072952322662,0.020508473739027977
0.026324685662984848,0.004327982664108276,-0.017727285623550415,0.012131385505199432,-0.0005269364337436855,0.020991092547774315
0.026324685662984848,0.004327982664108276,-0.017727285623550415,0.012131385505199432,-0.0005269364337436855,0.020991092547774315
0.026301251724362373,0.004694764968007803,-0.016875814646482468,0.012582371011376381,-0.0005139323184266686,0.02136940509080887
0.026301251724362373,0.004694764968007803,-0.016875814646482468,0.012582371011376381,-0.0005139323184266686,0.02136940509080887
0.02660812810063362,0.004391556140035391,-0.017566123977303505,0.013187363743782043,-0.0004754333640448749,0.021298326551914215
0.02650606445968151,0.004599607549607754,-0.017771294340491295,0.011809054762125015,-0.0004966101259924471,0.02132757566869259
0.026358958333730698,0.004606211092323065,-0.01779838837683201,0.0121456328779459,-0.00047151671606115997,0.020845066756010056
0.026456110179424286,0.004627520684152842,-0.0178548414260149,0.011942577548325062,-0.00044297685963101685,0.021011805161833763
0.026548968628048897,0.004745949525386095,-0.017037304118275642,0.012583804316818714,-0.0004125329724047333,0.02132103219628334
0.026659797877073288,0.004783031530678272,-0.017715344205498695,0.012777888216078281,-0.00037831347435712814,0.022217122837901115
0.026479508727788925,0.004345444031059742,-0.017516622319817543,0.012918953783810139,-0.0004002178320661187,0.022033682093024254
0.026374420151114464,0.004262765869498253,-0.01710982620716095,0.012317966669797897,-0.00038740699528716505,0.021836573258042336
0.026716269552707672,0.004718014970421791,-0.017749004065990448,0.01288557518273592,-0.0004146320279687643,0.021822061389684677
0.026696735993027687,0.004303463734686375,-0.018011953681707382,0.013304144144058228,-0.00039576730341650546,0.021997947245836258
0.026404421776533127,0.004442652687430382,-0.01772014982998371,0.013292895630002022,-0.00041887120460160077,0.022075751796364784
0.026647277176380157,0.004466128069907427,-0.017670225352048874,0.013827664777636528,-0.000401817262172699,0.02223834954202175
0.027115073055028915,0.004362691193819046,-0.017446961253881454,0.013623183593153954,-0.0004954879987053573,0.02207590825855732
0.026892973110079765,0.00439181225374341,-0.017860686406493187,0.014032968319952488,-0.0005485094734467566,0.02232051081955433
0.025962961837649345,0.004686927422881126,-0.01755302958190441,0.013691408559679985,-0.000576480058953166,0.022290360182523727
0.02746807225048542,0.004888929892331362,-0.01742669567465782,0.014261004514992237,-0.0005375350010581315,0.02265382930636406
0.02785377949476242,0.004629775416105986,-0.017954308539628983,0.013505960814654827,-0.0005478617968037724,0.022304436191916466
0.028290677815675735,0.004299982450902462,-0.01726732775568962,0.013582909479737282,-0.0005241392645984888,0.022172819823026657
0.028000202029943466,0.004048957023769617,-0.017829732969403267,0.013201666064560413,-0.0006282047834247351,0.022249698638916016
0.027063770219683647,0.004554594401270151,-0.017400970682501793,0.013425059616565704,-0.0006305505521595478,0.023600466549396515
0.028114719316363335,0.004622681997716427,-0.017762664705514908,0.013638810254633427,-0.0006537886220030487,0.02210761234164238
0.028697678819298744,0.00441388227045536,-0.017830943688750267,0.013499059714376926,-0.0005975508247502148,0.02229132503271103
0.02842073142528534,0.00450811767950654,-0.018158189952373505,0.01335087139159441,-0.0006133174756541848,0.023135563358664513
0.028905564919114113,0.004235360771417618,-0.018765386193990707,0.01358448714017868,-0.0005735884769819677,0.023153625428676605
0.028595685958862305,0.003982315771281719,-0.01764996536076069,0.013321303762495518,-0.0005922047421336174,0.02306351251900196
0.028973961248993874,0.0041310726664960384,-0.017941661179065704,0.013808578252792358,-0.0006233157473616302,0.023100262507796288
0.028080640360713005,0.0041667018085718155,-0.01811004802584648,0.013781802728772163,-0.0005818884237669408,0.02309139259159565
0.028080640360713005,0.0041667018085718155,-0.01811004802584648,0.013781802728772163,-0.0005818884237669408,0.02309139259159565
0.02812977321445942,0.004412613343447447,-0.017990494146943092,0.013993699103593826,-0.0006082059699110687,0.023069657385349274
0.028547221794724464,0.004502702038735151,-0.018289638683199883,0.01337884459644556,-0.0005981976282782853,0.02292926050722599
0.02871892973780632,0.004281735047698021,-0.01776275783777237,0.01384021621197462,-0.0005849632434546947,0.023006949573755264
0.02918189764022827,0.003995644394308329,-0.018193494528532028,0.01360324677079916,-0.0005471935728564858,0.02298051305115223
0.029375609010457993,0.003887787228450179,-0.01841031387448311,0.013868136331439018,-0.0006055083940736949,0.02313178777694702
0.02891581691801548,0.003926624543964863,-0.01775602623820305,0.013507179915904999,-0.0005412841564975679,0.023361720144748688
0.028353679925203323,0.003982245456427336,-0.018502127379179,0.013924190774559975,-0.0005732294521294534,0.023414606228470802
0.028765318915247917,0.0038886540569365025,-0.01857578195631504,0.013667212799191475,-0.0005655671120621264,0.02343827672302723
0.029062138870358467,0.004341286141425371,-0.017711210995912552,0.013943170197308064,-0.0005541686550714076,0.023007206618785858
0.029402397572994232,0.004245718941092491,-0.01821349374949932,0.01357973087579012,-0.0005652863183058798,0.0231477003544569
0.029314188286662102,0.003970955964177847,-0.01838770881295204,0.01398826576769352,-0.0005396861233748496,0.023266315460205078
0.029429534450173378,0.0037686116993427277,-0.01832185685634613,0.01403636485338211,-0.0005553319933824241,0.023379430174827576
0.029750928282737732,0.003785386448726058,-0.01919078268110752,0.01457795687019825,-0.0005963344592601061,0.024058697745203972
0.030195316299796104,0.004052864853292704,-0.018491461873054504,0.014630886726081371,-0.0006269614677876234,0.024195704609155655
0.027956072241067886,0.003981659188866615,-0.01862732693552971,0.014893078245222569,-0.0006519234157167375,0.023708146065473557
0.03010270558297634,0.0043329219333827496,-0.01883305236697197,0.014724158681929111,-0.0008519109687767923,0.022917378693819046
0.02991466224193573,0.004243547562509775,-0.018154505640268326,0.014879455789923668,-0.0007883798680268228,0.023081449791789055
0.02963135950267315,0.004485028330236673,-0.019198033958673477,0.014613748528063297,-0.0008003311813808978,0.023971661925315857
0.030122077092528343,0.004275168292224407,-0.019056549295783043,0.01494076568633318,-0.0007195776561275125,0.023929083719849586
0.030487773939967155,0.004274061415344477,-0.018556931987404823,0.015183087438344955,-0.0006513052503578365,0.02411317639052868
0.030194642022252083,0.004340040031820536,-0.018993262201547623,0.014556528069078922,-0.0006523422780446708,0.02526487223803997
0.03001249022781849,0.004266693256795406,-0.019168730825185776,0.015165204182267189,-0.0006155832088552415,0.024723228067159653
0.030321447178721428,0.004875865764915943,-0.019855758175253868,0.014186765067279339,-0.0005426009884104133,0.024440033361315727
0.030285092070698738,0.00482287397608161,-0.019055837765336037,0.014681483618915081,-0.000553628895431757,0.023543791845440865
0.03068160079419613,0.004415007308125496,-0.018674751743674278,0.014469803310930729,-0.0005636784480884671,0.02455577254295349
0.03049459308385849,0.004075975622981787,-0.01977984793484211,0.014786414802074432,-0.0005535911186598241,0.02496248669922352
0.03044235147535801,0.00417474377900362,-0.01927010342478752,0.014091297052800655,-0.0005647515063174069,0.024953966960310936
0.03044235147535801,0.00417474377900362,-0.01927010342478752,0.014091297052800655,-0.0005647515063174069,0.024953966960310936
0.03049192950129509,0.004201222211122513,-0.018241195008158684,0.014061292633414268,-0.0005392000311985612,0.024409323930740356
0.030523810535669327,0.004429149907082319,-0.019045840948820114,0.013651030138134956,-0.0005026987055316567,0.024153700098395348
0.031106390058994293,0.0046242461539804935,-0.01995733194053173,0.014639440923929214,-0.000525375478900969,0.024549713358283043
0.0322771891951561,0.004620885476469994,-0.019291801378130913,0.014496758580207825,-0.0005201996536925435,0.02476058527827263
0.03258398920297623,0.004224503878504038,-0.01933065429329872,0.015120770782232285,-0.00046953707351349294,0.02474351041018963
0.03093438781797886,0.004299636464565992,-0.019688861444592476,0.014812177047133446,-0.00048758421326056123,0.02471630834043026
0.03061729297041893,0.004601020831614733,-0.019164135679602623,0.014735326170921326,-0.0004647881432902068,0.02459356188774109
0.031635675579309464,0.004776861984282732,-0.01907286047935486,0.014314563944935799,-0.00048158300342038274,0.024560503661632538
0.031301822513341904,0.004775467328727245,-0.019380951300263405,0.015037654899060726,-0.0005112643702886999,0.024763206019997597
0.03175218403339386,0.004715180490165949,-0.019125787541270256,0.014155738055706024,-0.0004925268003717065,0.02469409815967083
0.03254329413175583,0.004501182120293379,-0.019320284947752953,0.014721023850142956,-0.000506608048453927,0.025074411183595657
0.0315767340362072,0.004501349292695522,-0.019613008946180344,0.014700138010084629,-0.0005430375458672643,0.025347258895635605
0.03143946826457977,0.004848025739192963,-0.01916918158531189,0.015476145781576633,-0.0005349694984033704,0.025206858292222023
0.03102644346654415,0.004455710761249065,-0.01943686045706272,0.015804369002580643,-0.0005651722894981503,0.02528185211122036
0.032232172787189484,0.004966437350958586,-0.01956629939377308,0.015920346602797508,-0.0005879078526049852,0.025157330557703972
0.03256777673959732,0.00505061075091362,-0.019320055842399597,0.015926804393529892,-0.0005559886340051889,0.02579159289598465
0.03175456449389458,0.004829734098166227,-0.019411394372582436,0.015975749120116234,-0.0007148180739022791,0.02559751644730568
0.0327899307012558,0.0043624998070299625,-0.019389037042856216,0.01603926345705986,-0.0006626376998610795,0.02595633827149868
0.03208580240607262,0.004996740724891424,-0.019063496962189674,0.016566043719649315,-0.0006765686557628214,0.02605806291103363
0.03265255317091942,0.00497658783569932,-0.019903482869267464,0.01633763127028942,-0.0006641733925789595,0.025785939767956734
0.03281841799616814,0.004903195891529322,-0.01962927356362343,0.016829902306199074,-0.0006441028672270477,0.02543637529015541
0.032660286873579025,0.0050277397967875,-0.01920994743704796,0.016866592690348625,-0.0006308498559519649,0.0259819645434618
0.03311213105916977,0.004927791655063629,-0.019625362008810043,0.016789814457297325,-0.0005667618243023753,0.026760965585708618
0.03314965218305588,0.004658097866922617,-0.019389517605304718,0.016897376626729965,-0.0005907838931307197,0.02648240700364113
0.032836299389600754,0.0043423776514828205,-0.019370000809431076,0.015836669132113457,-0.0006092654657550156,0.02550947479903698
0.03267926722764969,0.00435595354065299,-0.019882502034306526,0.01592191308736801,-0.0005748735275119543,0.025509143248200417
0.03267926722764969,0.00435595354065299,-0.019882502034306526,0.01592191308736801,-0.0005748735275119543,0.025509143248200417
0.03265604004263878,0.00503665441647172,-0.019318144768476486,0.015410026535391808,-0.0005930838524363935,0.026436926797032356
0.03423286974430084,0.00476375175639987,-0.018783973529934883,0.01609499566257,-0.0005607989151030779,0.026701506227254868
0.034418847411870956,0.005003779660910368,-0.019180454313755035,0.015727387741208076,-0.0005937613896094263,0.02625882253050804
0.03250392898917198,0.004856029991060495,-0.019193151965737343,0.015872221440076828,-0.0006217746413312852,0.026471462100744247
0.032775506377220154,0.004881542641669512,-0.019090289250016212,0.015746312215924263,-0.0006147273234091699,0.02749503217637539
0.03412246331572533,0.0046243248507380486,-0.019673800095915794,0.015927912667393684,-0.0005981954745948315,0.026554478332400322
0.03330446779727936,0.004933255258947611,-0.019822413101792336,0.01620285026729107,-0.0006062049651518464,0.02647114358842373
0.034577932208776474,0.0050453501753509045,-0.019252650439739227,0.016343826428055763,-0.0005766777903772891,0.026238389313220978
0.034712035208940506,0.004846115596592426,-0.01931670866906643,0.016606763005256653,-0.0006362730637192726,0.026254205033183098
0.03459279239177704,0.004595090635120869,-0.01943127065896988,0.016287656500935555,-0.0006626167451031506,0.02748405747115612
0.03260717913508415,0.004754215944558382,-0.01917511224746704,0.016328362748026848,-0.0006887219497002661,0.027802299708127975
0.03386580944061279,0.004826380405575037,-0.01957559771835804,0.016087602823972702,-0.000698142044711858,0.02696378156542778
0.03453696146607399,0.004766899161040783,-0.020139403641223907,0.016442561522126198,-0.0007800977909937501,0.02668481320142746
0.03440564498305321,0.004705861676484346,-0.019433744251728058,0.01629270426928997,-0.0008440358797088265,0.02705508843064308
0.03429766744375229,0.004549603909254074,-0.019587276503443718,0.016214121133089066,-0.0007922130171209574,0.026649612933397293
0.034228116273880005,0.004570703953504562,-0.020111843943595886,0.016819007694721222,-0.0008019543020054698,0.026867158710956573
0.03459096699953079,0.004675281699746847,-0.020891958847641945,0.016992155462503433,-0.000738361559342593,0.027684329077601433
0.03482915833592415,0.004739491734653711,-0.0208797175437212,0.01677986979484558,-0.000739706156309694,0.027532516047358513
0.0345807746052742,0.004812329541891813,-0.020064186304807663,0.016476064920425415,-0.0007519843056797981,0.027433376759290695
0.0346805602312088,0.004792793188244104,-0.019891491159796715,0.016564875841140747,-0.0006733873160555959,0.027251437306404114
0.03503219783306122,0.004640945699065924,-0.020418597385287285,0.01642436534166336,-0.0006722686812281609,0.027141135185956955
0.03545229136943817,0.004651043098419905,-0.020839424803853035,0.016932275146245956,-0.0006710020825266838,0.027851713821291924
0.035562120378017426,0.0047343336045742035,-0.020575856789946556,0.016980424523353577,-0.0006508230580948293,0.028016462922096252
0.03538191691040993,0.004385553300380707,-0.020223194733262062,0.01748913712799549,-0.0006468682549893856,0.02789178676903248
0.035240449011325836,0.00390335894189775,-0.021290989592671394,0.017367225140333176,-0.0006581717752851546,0.028065331280231476
0.03432741388678551,0.0042606256902217865,-0.021123645827174187,0.0169087965041399,-0.0006100145983509719,0.028541279956698418
0.03432741388678551,0.0042606256902217865,-0.021123645827174187,0.0169087965041399,-0.0006100145983509719,0.028541279956698418
0.03618307039141655,0.004232269246131182,-0.02104668878018856,0.017320621758699417,-0.0006345029687508941,0.028362436220049858
0.0363430455327034,0.004222665913403034,-0.020938217639923096,0.01724088378250599,-0.0006531501421704888,0.02856149710714817
0.03577480837702751,0.004119916819036007,-0.021029461175203323,0.017799191176891327,-0.0006080504972487688,0.028565963730216026
0.03572406992316246,0.0044608283787965775,-0.02000385709106922,0.01793592795729637,-0.0006182107608765364,0.028556445613503456
0.0364518016576767,0.004727053456008434,-0.020878810435533524,0.017491761595010757,-0.0005933681968599558,0.027888307347893715
0.036101143807172775,0.0044626276940107346,-0.020396118983626366,0.01729196310043335,-0.0006251481245271862,0.028583984822034836
0.036321185529232025,0.00461850268766284,-0.02130611427128315,0.017224004492163658,-0.0006115747382864356,0.028955280780792236
0.036476075649261475,0.004302384331822395,-0.021062279120087624,0.01751762069761753,-0.0005950364866293967,0.02848212793469429
0.0364273376762867,0.004254981409758329,-0.02077791467308998,0.018068421632051468,-0.0005838227225467563,0.029093528166413307
0.036398548632860184,0.00404381612315774,-0.021189188584685326,0.017364729195833206,-0.000571858196053654,0.02983795292675495
0.035777218639850616,0.004250098019838333,-0.021099155768752098,0.017779909074306488,-0.0005995791871100664,0.02900051511824131
0.037334144115448,0.00403939513489604,-0.020984359085559845,0.01722140423953533,-0.0006320411339402199,0.02803923562169075
0.03734269365668297,0.004378414247184992,-0.021147768944501877,0.016767507418990135,-0.0006366890738718212,0.028006747364997864
0.03566620498895645,0.004212299361824989,-0.021368900313973427,0.017624089494347572,-0.0006183506920933723,0.02932746335864067
0.03693924844264984,0.004206004552543163,-0.021050214767456055,0.018217366188764572,-0.0007991424645297229,0.029250195249915123
0.036855317652225494,0.003943213727325201,-0.021518001332879066,0.018422851338982582,-0.0008384276879951358,0.030036142095923424
0.038231536746025085,0.0038000259082764387,-0.021552754566073418,0.018030963838100433,-0.0008482221746817231,0.029965540394186974
0.03782881423830986,0.00408285902813077,-0.020954826846718788,0.01837202161550522,-0.0008544505690224469,0.029056847095489502
0.036225222051143646,0.004555791150778532,-0.0214794110506773,0.018328029662370682,-0.0009010844514705241,0.028309639543294907
0.036225222051143646,0.004555791150778532,-0.0214794110506773,0.018328029662370682,-0.0009010844514705241,0.028309639543294907
0.03614440932869911,0.004752435255795717,-0.021607277914881706,0.018666263669729233,-0.0009282518876716495,0.028992757201194763
0.03731338679790497,0.004084262065589428,-0.020999539643526077,0.018310651183128357,-0.0009231125004589558,0.030030181631445885
0.03731338679790497,0.004084262065589428,-0.020999539643526077,0.018310651183128357,-0.0009231125004589558,0.030030181631445885
0.037188101559877396,0.004247210919857025,-0.020864933729171753,0.018614068627357483,-0.0009638677584007382,0.029777172952890396
0.037414390593767166,0.004295733291655779,-0.021694784983992577,0.018601486459374428,-0.0009566242806613445,0.029838286340236664
0.03705301880836487,0.004343170206993818,-0.021672487258911133,0.017511660233139992,-0.000947883352637291,0.029607586562633514
0.03771846368908882,0.004159998614341021,-0.021344812586903572,0.017732640728354454,-0.0009111699182540178,0.0295216403901577
0.0372539684176445,0.004407490137964487,-0.021528730168938637,0.018624508753418922,-0.0008563848678022623,0.029940500855445862
0.03700195997953415,0.004167680628597736,-0.02141006477177143,0.01879279688000679,-0.0008096979581750929,0.02980169653892517
0.037592511624097824,0.003887420753017068,-0.021192418411374092,0.0188838429749012,-0.0008142858860082924,0.02980669029057026
0.03718769922852516,0.0036733581218868494,-0.02119845524430275,0.018660813570022583,-0.0008094426011666656,0.029746729880571365
0.03740474954247475,0.0036350011359900236,-0.021646272391080856,0.018077371641993523,-0.0008329141419380903,0.029857654124498367
0.038337722420692444,0.004253750201314688,-0.021740306168794632,0.01877738907933235,-0.0008964265580289066,0.030421752482652664
0.03717287629842758,0.004116787575185299,-0.02206597849726677,0.018728960305452347,-0.0009063821053132415,0.029548706486821175
0.03641483932733536,0.0039032818749547005,-0.02168872021138668,0.018955105915665627,-0.0009059429285116494,0.03019280545413494
0.03759780898690224,0.0043352642096579075,-0.021741151809692383,0.01924746483564377,-0.0008761344361118972,0.031200380995869637
0.03724834322929382,0.004469687584787607,-0.021730413660407066,0.018926674500107765,-0.0008272294071502984,0.03053015097975731
0.03852527216076851,0.004197087604552507,-0.021474704146385193,0.01847858540713787,-0.0008253647247329354,0.030630964785814285
0.03811816871166229,0.003913423046469688,-0.021169565618038177,0.018398238345980644,-0.0008331217686645687,0.03061719611287117
0.0369073785841465,0.004097538534551859,-0.022354664281010628,0.01820371486246586,-0.0008562782895751297,0.03043142706155777
0.038127243518829346,0.004506144672632217,-0.022272391244769096,0.018199387937784195,-0.0010194291826337576,0.030103391036391258
0.038224224001169205,0.004779743030667305,-0.02146151103079319,0.018583383411169052,-0.001021660165861249,0.031590089201927185
0.03773650899529457,0.004336646292358637,-0.021679533645510674,0.019379030913114548,-0.001005023019388318,0.03217390179634094
0.03775492683053017,0.003947265446186066,-0.022978467866778374,0.019123990088701248,-0.0009353754576295614,0.031236739829182625
0.03793523833155632,0.0038127191364765167,-0.02296779863536358,0.018426015973091125,-0.0009132210398092866,0.02996605634689331
0.03841010108590126,0.004027010407298803,-0.02240080013871193,0.018720656633377075,-0.0009212989825755358,0.030813943594694138
0.03855033963918686,0.004220218863338232,-0.022126974537968636,0.018813690170645714,-0.0009012185619212687,0.03142118826508522
0.03824717923998833,0.004367670509964228,-0.0221700519323349,0.018664227798581123,-0.0008151130750775337,0.03139558061957359
0.03824717923998833,0.004367670509964228,-0.0221700519323349,0.018664227798581123,-0.0008151130750775337,0.03139558061957359
0.03809179738163948,0.00408392446115613,-0.02226836420595646,0.018777571618556976,-0.000798685709014535,0.03241623565554619
0.038357507437467575,0.004510214552283287,-0.0225552748888731,0.01830010861158371,-0.0007397194858640432,0.031808361411094666
0.03922034427523613,0.0041903103701770306,-0.022542055696249008,0.01853502355515957,-0.0006838697008788586,0.03103705681860447
0.03890601173043251,0.004385598003864288,-0.022582819685339928,0.01892950013279915,-0.0006889820215292275,0.03052840754389763
0.03903496265411377,0.004212332423776388,-0.023158354684710503,0.01872914284467697,-0.0006859024870209396,0.031851932406425476
0.039738599210977554,0.004260994028300047,-0.022918783128261566,0.019099798053503036,-0.0006610910641029477,0.03234340250492096
0.03931709751486778,0.004095768090337515,-0.02254895120859146,0.019410748034715652,-0.0006749898311682045,0.030870158225297928
0.03948426991701126,0.00441732257604599,-0.022099319845438004,0.018706681206822395,-0.0008860352099873126,0.03241491690278053
0.03981758654117584,0.004201136529445648,-0.022694122046232224,0.018827859312295914,-0.00091412547044456,0.03256579488515854
0.03936255723237991,0.004448952618986368,-0.0226942989975214,0.019058655947446823,-0.0009140294860117137,0.032077282667160034
0.03910314664244652,0.004065148998051882,-0.022735632956027985,0.019617553800344467,-0.0008654307457618415,0.031958069652318954
0.03988760709762573,0.0038134236820042133,-0.022785281762480736,0.019666502252221107,-0.0010375726269558072,0.03208479657769203
0.03981539234519005,0.00420417869463563,-0.022388463839888573,0.019769035279750824,-0.00102457613684237,0.03215555474162102
0.040129538625478745,0.004108444321900606,-0.022435512393712997,0.01910194754600525,-0.0010066479444503784,0.03237837553024292
0.040377527475357056,0.0038580901455134153,-0.023032424971461296,0.01855180412530899,-0.0009398985421285033,0.03264329582452774
0.04021432250738144,0.0041304901242256165,-0.022751767188310623,0.019436290487647057,-0.0010077032493427396,0.0326404944062233
0.039753567427396774,0.004595329985022545,-0.02201036922633648,0.019494619220495224,-0.0009944919729605317,0.03234974294900894
0.04172913357615471,0.003907384816557169,-0.022863848134875298,0.01956271566450596,-0.000915837474167347,0.03229052573442459
0.039782166481018066,0.003813042538240552,-0.022843193262815475,0.0194186232984066,-0.0009153366554528475,0.03273942694067955
0.03960173577070236,0.004373367875814438,-0.02246318943798542,0.019960809499025345,-0.0009211539290845394,0.032646678388118744
0.040950775146484375,0.004140085075050592,-0.021897736936807632,0.02073059044778347,-0.0009092927793972194,0.032583676278591156
0.04094914346933365,0.004407941829413176,-0.022205431014299393,0.020493412390351295,-0.0008083634311333299,0.03273823857307434
0.04094914346933365,0.004407941829413176,-0.022205431014299393,0.020493412390351295,-0.0008083634311333299,0.03273823857307434
0.04206376522779465,0.004392712842673063,-0.02278117835521698,0.01948375441133976,-0.0008121085120365024,0.03341182321310043
0.04146444797515869,0.004279735032469034,-0.022885337471961975,0.019457390531897545,-0.0007353261462412775,0.03328733891248703
0.03978012874722481,0.004455828107893467,-0.02220316231250763,0.019475815817713737,-0.0007343140314333141,0.032438863068819046
0.041478704661130905,0.004143220372498035,-0.02192118391394615,0.019444821402430534,-0.0007551404414698482,0.03368983417749405
0.04157009720802307,0.004465227946639061,-0.022379809990525246,0.019932838156819344,-0.000771894003264606,0.03475291281938553
0.041840486228466034,0.00416618213057518,-0.022652076557278633,0.02029574103653431,-0.0007474475423805416,0.03383834287524223
0.041007451713085175,0.004269727505743504,-0.022467095404863358,0.020083032548427582,-0.00093359115999192,0.03186751529574394
0.041696641594171524,0.004295175429433584,-0.022553622722625732,0.020294293761253357,-0.000926793203689158,0.03298759460449219
0.0416070930659771,0.004030476789921522,-0.02248859405517578,0.020102892071008682,-0.0009050233638845384,0.03320153057575226
0.041719701141119,0.003790399758145213,-0.022556284442543983,0.01985800638794899,-0.0008740162593312562,0.03363116458058357
0.041179027408361435,0.004040705040097237,-0.022744985297322273,0.019832728430628777,-0.0008253648993559182,0.03456240892410278
0.04253770411014557,0.004099510610103607,-0.02313513308763504,0.019988451153039932,-0.0007537855417467654,0.03423333913087845
0.04287493973970413,0.00429276330396533,-0.022693878039717674,0.019802112132310867,-0.0008327208342961967,0.03320814669132233
0.04016062617301941,0.004473100416362286,-0.022912537679076195,0.01979086734354496,-0.000790859223343432,0.032548461109399796
0.041567813605070114,0.004271861165761948,-0.022892475128173828,0.019940853118896484,-0.000799704750534147,0.03405161201953888
0.04153228551149368,0.004417225252836943,-0.021937431767582893,0.019494405016303062,-0.0009223213419318199,0.034173861145973206
0.04285770654678345,0.004175048321485519,-0.02232985384762287,0.01869755983352661,-0.0009412678191438317,0.03430207073688507
0.04243377223610878,0.004344956483691931,-0.023137038573622704,0.01896517165005207,-0.0009363898425363004,0.03393828868865967
0.041541676968336105,0.004575152415782213,-0.02293994650244713,0.019296683371067047,-0.0009315895149484277,0.032383836805820465
0.04280434176325798,0.0042844959534704685,-0.022820889949798584,0.019724907353520393,-0.00092474085977301,0.034950993955135345
0.0419270358979702,0.004800197668373585,-0.02315453439950943,0.019903410226106644,-0.000886572350282222,0.03474081680178642
0.04205034673213959,0.00460805743932724,-0.022831715643405914,0.019892755895853043,-0.0008861474925652146,0.034503210335969925
0.04218687862157822,0.004335224162787199,-0.022971218451857567,0.019900524988770485,-0.0008438278455287218,0.03452929109334946
0.04222051054239273,0.004439968150109053,-0.02252534031867981,0.020222706720232964,-0.0008948204922489822,0.034806977957487106
0.04222051054239273,0.004439968150109053,-0.02252534031867981,0.020222706720232964,-0.0008948204922489822,0.034806977957487106
0.042422663420438766,0.0042241462506353855,-0.022522734478116035,0.019895771518349648,-0.0009333511698059738,0.03494558110833168
0.04219670221209526,0.003958475310355425,-0.02226625569164753,0.01991048827767372,-0.0009472141391597688,0.03470606729388237
0.04202510416507721,0.004411921836435795,-0.023176070302724838,0.0205013956874609,-0.0010577795328572392,0.03486131876707077
0.04215586930513382,0.004734245128929615,-0.023298755288124084,0.020552026107907295,-0.0010773356771096587,0.03473341092467308
0.04282074049115181,0.004325725603848696,-0.023093992844223976,0.02029946818947792,-0.0010503976373001933,0.03499620780348778
0.04268382862210274,0.003984958399087191,-0.023074006661772728,0.02033136785030365,-0.0010375843849033117,0.03505861759185791
0.042958665639162064,0.003984951879829168,-0.022848252207040787,0.020424559712409973,-0.0010232775239273906,0.034703146666288376
0.04281523823738098,0.004017142578959465,-0.022850127890706062,0.020285582169890404,-0.0010111116571351886,0.036058079451322556
0.042601026594638824,0.003955740015953779,-0.02303285337984562,0.020585253834724426,-0.0009938303846865892,0.03491498902440071
0.04293215274810791,0.004391840193420649,-0.02331087924540043,0.020326675847172737,-0.000980754615738988,0.035071585327386856
