davideferrari95/blind_handover_controller/data/Test 115 - [2024-02-07 -- 16-28-28]/joint_states_data.csv
shoulder_pan_joint,shoulder_lift_joint,elbow_joint,wrist_1_joint,wrist_2_joint,wrist_3_joint
0.004246179014444351,0.004088457208126783,-0.012660617008805275,0.00901748612523079,-0.0,0.00441683828830719
0.004246179014444351,0.004088457208126783,-0.012660617008805275,0.00901748612523079,-0.0,0.00441683828830719
0.004205506294965744,0.004349741153419018,-0.012053357437252998,0.008690929971635342,-0.0,0.004075947217643261
0.004392859060317278,0.004527197685092688,-0.011858729645609856,0.00939311645925045,-0.0,0.00427322369068861
0.0045242332853376865,0.004426346626132727,-0.01256576832383871,0.009045123122632504,-0.0,0.004311888944357634
0.004644187167286873,0.004362642765045166,-0.012174795381724834,0.00852481834590435,-0.0,0.004483504686504602
0.004370617214590311,0.004124971106648445,-0.012400391511619091,0.008024891838431358,-0.0,0.004511344712227583
0.0044102477841079235,0.00445121806114912,-0.012471643276512623,0.009208519011735916,-0.0,0.004313075449317694
0.00411209324374795,0.00428549200296402,-0.01210986077785492,0.008551106788218021,-0.0,0.004086178727447987
0.004061718937009573,0.00407147454097867,-0.011807361617684364,0.008810784667730331,-0.0,0.004352645482867956
0.004038449376821518,0.004438386764377356,-0.011867832392454147,0.00919418316334486,-0.0,0.004510457161813974
0.0039988113567233086,0.0042460160329937935,-0.012331768870353699,0.008833109401166439,-0.0,0.004214207176119089
0.004471236374229193,0.004176829010248184,-0.012459036894142628,0.008571822196245193,-0.0,0.0038574603386223316
0.004787553567439318,0.004140365868806839,-0.012244944460690022,0.009172579273581505,-0.0,0.0037386335898190737
0.004331042990088463,0.004451164044439793,-0.01229089591652155,0.00894298404455185,-0.0,0.00416299793869257
0.003986086696386337,0.004150954075157642,-0.012193307280540466,0.008765862323343754,-0.0,0.004047796130180359
0.003986086696386337,0.004150954075157642,-0.012193307280540466,0.008765862323343754,-0.0,0.004047796130180359
0.003991944249719381,0.0042493632063269615,-0.012430207803845406,0.008848833851516247,-0.0,0.003988891374319792
0.003991944249719381,0.0042493632063269615,-0.012430207803845406,0.008848833851516247,-0.0,0.003988891374319792
0.0040308148600161076,0.004471451509743929,-0.011838839389383793,0.008518562652170658,-0.0,0.004035569727420807
0.003963589668273926,0.004437808878719807,-0.012396559119224548,0.008779375813901424,-0.0,0.004288229625672102
0.004333616700023413,0.004708031192421913,-0.012014768086373806,0.008931204676628113,-0.0,0.004257668275386095
0.004529222846031189,0.00475293630734086,-0.011801047250628471,0.008583269082009792,-0.0,0.004016468301415443
0.004206500016152859,0.004386540036648512,-0.012307356111705303,0.008416148833930492,-0.0,0.003905409947037697
0.003887196071445942,0.004050896503031254,-0.011718865483999252,0.008832016959786415,-0.0,0.0038696008268743753
0.003796677803620696,0.004380669444799423,-0.012433656491339207,0.009093135595321655,-0.0,0.004253328312188387
0.004276795778423548,0.0043825553730130196,-0.012372675351798534,0.00889581348747015,-0.0,0.0042550102807581425
0.004228939302265644,0.004306912422180176,-0.012091412208974361,0.009466002695262432,-0.0,0.0043082451447844505
0.004352018237113953,0.004493780434131622,-0.012076091021299362,0.009687270037829876,-0.0,0.004120570607483387
0.0045408508740365505,0.004511510953307152,-0.011618012562394142,0.008934068493545055,-0.0,0.004269758239388466
0.004230848513543606,0.004247411619871855,-0.012014765292406082,0.008809731341898441,-0.0,0.0042076511308550835
0.004161830060184002,0.004394114017486572,-0.012165600433945656,0.008855774067342281,-0.0,0.0043548415414988995
0.004256497137248516,0.004295781720429659,-0.012409939430654049,0.008059166371822357,-0.0,0.004213348031044006
0.00428994745016098,0.004485944285988808,-0.011589298024773598,0.00861632451415062,-0.0,0.004375841468572617
0.0045355842448771,0.004733945243060589,-0.012050620280206203,0.008409583009779453,-0.0,0.004227034747600555
0.0044967965222895145,0.0047158836387097836,-0.011889931745827198,0.008154194802045822,-0.0,0.004003215581178665
0.004550421144813299,0.004344714805483818,-0.012368609197437763,0.008082831278443336,-0.0,0.00388298649340868
0.004491107072681189,0.004211245570331812,-0.011533554643392563,0.008375781588256359,-0.0,0.0038254137616604567
0.004329416900873184,0.004463851451873779,-0.011808941140770912,0.008067013695836067,-0.0,0.003910422325134277
0.004329416900873184,0.004463851451873779,-0.011808941140770912,0.008067013695836067,-0.0,0.003910422325134277
0.00410428736358881,0.004579139873385429,-0.012364551424980164,0.00814957357943058,-0.0,0.0038081249222159386
0.004380711354315281,0.004408182576298714,-0.011863872408866882,0.00874966662377119,-0.0,0.0040980251505970955
0.00493607297539711,0.004599327687174082,-0.012029508128762245,0.00873531773686409,-0.0,0.0036955466493964195
0.00477770809084177,0.0045572626404464245,-0.012046650983393192,0.00890293437987566,-0.0,0.0035365840885788202
0.00440304446965456,0.004665705841034651,-0.011834789998829365,0.008937030099332333,-0.0,0.003657813183963299
0.004333863500505686,0.004633415024727583,-0.011915051378309727,0.009032385423779488,-0.0,0.0038440986536443233
0.0041372585110366344,0.0048189060762524605,-0.011550027877092361,0.008559462614357471,-0.0,0.003919611684978008
0.004377308301627636,0.00436051283031702,-0.012257819063961506,0.008148719556629658,-0.0,0.003927998710423708
0.004531651269644499,0.004426227882504463,-0.011759856715798378,0.008761133998632431,-0.0,0.003823418403044343
0.0049463193863630295,0.0045959907583892345,-0.011958586052060127,0.008510026149451733,-0.0,0.004322899971157312
0.004451320506632328,0.0045518032275140285,-0.011936555616557598,0.008425205945968628,-0.0,0.004140122327953577
0.004468676634132862,0.004307041876018047,-0.011388726532459259,0.008466602303087711,-0.0,0.003980770707130432
0.004446225240826607,0.004526869393885136,-0.012063123285770416,0.008672330528497696,-0.0,0.00407586432993412
0.004559697583317757,0.004500697832554579,-0.011560484766960144,0.008041261695325375,-0.0,0.004004884511232376
0.00460647139698267,0.004794991109520197,-0.012259040959179401,0.008106249384582043,-0.0,0.0038108506705611944
0.004703442100435495,0.004823711700737476,-0.012384974397718906,0.008888240903615952,-0.0,0.0038008394185453653
0.004854951053857803,0.004372427240014076,-0.011563575826585293,0.008583617396652699,-0.0,0.0038120339158922434
0.004704034421592951,0.004521399736404419,-0.012058695778250694,0.00829820241779089,-0.0,0.003805919550359249
0.004835990257561207,0.004527619108557701,-0.011787165887653828,0.008461647666990757,-0.0,0.0037022873293608427
0.004403281025588512,0.004778788425028324,-0.011792088858783245,0.008438637480139732,-0.0,0.0036873556673526764
0.005013744346797466,0.004845799412578344,-0.011712780222296715,0.008212071843445301,-0.0,0.004171868786215782
0.005063266959041357,0.005071460735052824,-0.012111293151974678,0.008869658224284649,-0.0,0.004403284750878811
0.004834048915654421,0.0048350864090025425,-0.011733646504580975,0.008599502965807915,-0.0,0.004308014642447233
0.004881624132394791,0.004777793772518635,-0.012399259954690933,0.007822415791451931,-0.0,0.004483838565647602
0.0047723776660859585,0.004695761017501354,-0.012422057799994946,0.008090648800134659,-0.0,0.0041132462210953236
0.0046743424609303474,0.004899964202195406,-0.012287147343158722,0.0083355363458395,-0.0,0.0038747794460505247
0.004667004104703665,0.004960842430591583,-0.012249726802110672,0.00823662243783474,-0.0,0.00397901376709342
0.00507110171020031,0.004854623228311539,-0.011615007184445858,0.008245065808296204,-0.0,0.0038803834468126297
0.005035429261624813,0.004607354290783405,-0.012127917259931564,0.008229521103203297,-0.0,0.0036335475742816925
0.005035429261624813,0.004607354290783405,-0.012127917259931564,0.008229521103203297,-0.0,0.0036335475742816925
0.00509396567940712,0.004650216083973646,-0.011912398971617222,0.008352977223694324,-0.0,0.0035181997809559107
0.00492500327527523,0.00465393578633666,-0.012263471260666847,0.007880904711782932,-0.0,0.003931697458028793
0.004745307378470898,0.0049115801230072975,-0.012311982922255993,0.008642882108688354,-0.0,0.004119199234992266
0.004721729084849358,0.004880925174802542,-0.012460160069167614,0.0081943916156888,-0.0,0.0038479547947645187
0.005138854030519724,0.0051348828710615635,-0.012455993331968784,0.007945646531879902,-0.0,0.0035651533398777246
0.004947640933096409,0.004975916352123022,-0.012033604085445404,0.00768845621496439,-0.0,0.003346289973706007
0.004815687425434589,0.004383480176329613,-0.012419682927429676,0.008232477121055126,-0.0,0.003552338806912303
0.005121822934597731,0.003930858336389065,-0.012063127011060715,0.008236701600253582,-0.0,0.0037834213580936193
0.005024546291679144,0.003861338132992387,-0.013057373464107513,0.00762915750965476,-0.0,0.003936711698770523
0.004785484634339809,0.00400417810305953,-0.012511818669736385,0.007903303019702435,-0.0,0.00392610440030694
0.0053472635336220264,0.003989627584815025,-0.012407056987285614,0.007939085364341736,-0.0,0.003938734997063875
0.005227489862591028,0.004166088066995144,-0.01221561711281538,0.007644865196198225,-0.0,0.0034970685373991728
0.0049368515610694885,0.003991384524852037,-0.011669660918414593,0.00773311173543334,-0.0,0.0035340539179742336
0.005337735638022423,0.0037248688749969006,-0.012500121258199215,0.007653975393623114,-0.0,0.003668801626190543
0.005072731990367174,0.0035948886070400476,-0.011808947660028934,0.008079246617853642,-0.0,0.00382929015904665
0.004977815318852663,0.0036053580697625875,-0.012313534505665302,0.008250255137681961,-0.0,0.003862854791805148
0.00516272708773613,0.0035321975592523813,-0.012236617505550385,0.0077674207277596,-0.0,0.0038198421243578196
0.004921840503811836,0.003599066287279129,-0.012058676220476627,0.008111301809549332,-0.0,0.0034197603818029165
0.005264014471322298,0.0039333440363407135,-0.011510137468576431,0.00791377853602171,-0.0,0.003404660616070032
0.005095022730529308,0.0037707267329096794,-0.011810311116278172,0.008027942851185799,-0.0,0.00306748878210783
0.005294635891914368,0.003443896071985364,-0.01264443714171648,0.008236510679125786,-0.0,0.00312468851916492
0.005537786055356264,0.0035503485705703497,-0.011871748603880405,0.008638003841042519,-0.0,0.0033481139689683914
0.005062809679657221,0.0038402157370001078,-0.011736074462532997,0.008104383014142513,-0.0,0.003614755580201745
0.005277769174426794,0.003942853305488825,-0.011159463785588741,0.008136166259646416,-0.0,0.003297319868579507
0.005124102812260389,0.003940736874938011,-0.012302195653319359,0.007904442958533764,-0.0,0.0031841278541833162
0.005124102812260389,0.003940736874938011,-0.012302195653319359,0.007904442958533764,-0.0,0.0031841278541833162
0.005241395439952612,0.003865598700940609,-0.011992482468485832,0.007760178297758102,-0.0,0.003258638083934784
0.005424483213573694,0.003915423061698675,-0.01218415703624487,0.007440568413585424,-0.0,0.003192115342244506
0.005408883560448885,0.003851819783449173,-0.01192559115588665,0.0076020220294594765,-0.0,0.003272109432145953
0.005610399879515171,0.0037033832632005215,-0.01125366985797882,0.008155095390975475,-0.0,0.0032370963599532843
0.005104453302919865,0.0036844515707343817,-0.01151279266923666,0.008496761322021484,-0.0,0.0034206474665552378
0.005242485087364912,0.003718205261975527,-0.011406262405216694,0.008696581237018108,-0.0,0.0037111162673681974
0.005225182045251131,0.0037789049092680216,-0.01228233054280281,0.009167632088065147,-0.0,0.003470633877441287
0.0058391098864376545,0.003838985925540328,-0.012064957059919834,0.00937176775187254,-0.0,0.0035355514846742153
0.005322229117155075,0.0038123370613902807,-0.011998270638287067,0.00929227750748396,-0.0,0.0032559975516051054
0.005882461555302143,0.0037996391765773296,-0.012466938234865665,0.009441904723644257,-0.0,0.0030120399314910173
0.005421960260719061,0.003980738110840321,-0.011445845477283001,0.009257710538804531,-0.0,0.003023481694981456
0.005463822279125452,0.0036540657747536898,-0.01167644839733839,0.008741664700210094,-0.0,0.0030714028980582952
0.005802280735224485,0.0035109964665025473,-0.011509958654642105,0.008829143829643726,-0.0,0.003223411040380597
0.005605260841548443,0.0036896250676363707,-0.0118059441447258,0.008448034524917603,-0.0,0.003119321772828698
0.0056004305370152,0.003910189028829336,-0.012342233210802078,0.007631008047610521,-0.0,0.0029319371096789837
0.005981435999274254,0.004107619635760784,-0.012121968902647495,0.0073921578004956245,-0.0,0.003070186823606491
0.005470212083309889,0.004069909919053316,-0.012477247044444084,0.007653573527932167,-0.0,0.0033112785313278437
0.005800218787044287,0.004206313285976648,-0.012218337506055832,0.008261723443865776,-0.0,0.003539916593581438
0.0060034687630832195,0.003920523449778557,-0.012043865397572517,0.0077459197491407394,-0.0,0.003764290129765868
0.0055114710703492165,0.0038129566237330437,-0.011740409769117832,0.007701026275753975,-0.0,0.0034067323431372643
0.005732852499932051,0.0037844423204660416,-0.012119506485760212,0.008000348694622517,-0.0,0.0030775938648730516
0.005732852499932051,0.0037844423204660416,-0.012119506485760212,0.008000348694622517,-0.0,0.0030775938648730516
0.006226091645658016,0.004155758768320084,-0.012586147524416447,0.008209888823330402,-0.0,0.00283451727591455
0.0056463261134922504,0.004091521259397268,-0.011996370740234852,0.008159380406141281,-0.0,0.002937678014859557
0.005871730390936136,0.004062502179294825,-0.01203064899891615,0.007743777707219124,-0.0,0.003431477816775441
0.005871730390936136,0.004062502179294825,-0.01203064899891615,0.007743777707219124,-0.0,0.003431477816775441
0.005704395938664675,0.0040272800251841545,-0.012281541712582111,0.007496209349483252,-0.0,0.0037347886245697737
0.005792346782982349,0.003655064618214965,-0.011507149785757065,0.007995765656232834,-0.0,0.0033588663209229708
0.006214684806764126,0.0035363135393708944,-0.012025395408272743,0.008901771157979965,-0.0,0.00332808424718678
0.0058804405853152275,0.004235475789755583,-0.011663282290101051,0.008083786815404892,-0.0,0.0033169188536703587
0.006086471024900675,0.004139862023293972,-0.011995629407465458,0.007927057333290577,-0.0,0.0031439338345080614
0.00556654017418623,0.003961474634706974,-0.01215455774217844,0.008230278268456459,-0.0,0.0027171557303518057
0.005775780417025089,0.0038776586297899485,-0.011900394223630428,0.008365074172616005,-0.0,0.0025963119696825743
0.006490769330412149,0.003865882521495223,-0.012041736394166946,0.00793398730456829,-0.0,0.0025653045158833265
0.006228592246770859,0.004241684451699257,-0.01161156315356493,0.00826469250023365,-0.0,0.002434976166114211
0.006310443859547377,0.004193668719381094,-0.011783404275774956,0.008872481063008308,-0.0,0.002525337040424347
0.006277887150645256,0.0036695622839033604,-0.011944792233407497,0.00885316077619791,-0.0,0.0026667036581784487
0.005971264559775591,0.0034883455373346806,-0.011618890799582005,0.008492182940244675,-0.0,0.002706382889300585
0.006517812609672546,0.004089654888957739,-0.011804288253188133,0.008611435070633888,-0.0,0.002666463842615485
0.006302912253886461,0.004146129358559847,-0.011448492296040058,0.00879113283008337,-0.0,0.0028489551041275263
0.0060507673770189285,0.004279034677892923,-0.012277805246412754,0.008405699394643307,-0.0,0.0028695971705019474
0.006126482971012592,0.004196063615381718,-0.012095128186047077,0.007912100292742252,-0.0,0.002883465262129903
0.007206449285149574,0.004316824954003096,-0.011612256057560444,0.008590350858867168,-0.0,0.0027107615023851395
0.006058467552065849,0.0040639424696564674,-0.011951800435781479,0.0083460109308362,-0.0,0.0025491483975201845
0.006179897114634514,0.003935486078262329,-0.011944116093218327,0.008210154250264168,-0.0,0.0022770471405237913
0.006468346808105707,0.00430338503792882,-0.012218612246215343,0.008591294288635254,-0.0,0.0023358839098364115
0.006088146939873695,0.004231291823089123,-0.011709124781191349,0.008366902358829975,-0.0,0.0026386044919490814
0.0069101788103580475,0.004342849366366863,-0.01237183716148138,0.007942309603095055,-0.0,0.0027922356966882944
0.006951090879738331,0.0040600975044071674,-0.01151131559163332,0.008308928459882736,-0.0,0.0026101241819560528
0.006315844599157572,0.0038489478174597025,-0.012242128141224384,0.007995604537427425,-0.0,0.002351894276216626
0.006365768611431122,0.003777239006012678,-0.011580219492316246,0.007751266472041607,-0.0,0.002426870632916689
0.0066668326035141945,0.0037626936100423336,-0.011827145703136921,0.007739689201116562,-0.0,0.0027326401323080063
0.006518824957311153,0.004307614639401436,-0.011919663287699223,0.007799220737069845,-0.0,0.002879258943721652
0.006518824957311153,0.004307614639401436,-0.011919663287699223,0.007799220737069845,-0.0,0.002879258943721652
0.006452733185142279,0.004212172236293554,-0.011763659305870533,0.00787805113941431,-0.0,0.002786949509754777
0.006373456213623285,0.0045528351329267025,-0.012488525360822678,0.00766702089458704,-0.0,0.002658564830198884
0.007141172420233488,0.004178634379059076,-0.012093516066670418,0.007899248972535133,-0.0,0.00253889593295753
0.006991900037974119,0.0038524323608726263,-0.012218629941344261,0.008503158576786518,-0.0,0.002343821106478572
0.006549360696226358,0.004252604208886623,-0.011676594614982605,0.008013739250600338,-0.0,0.0024430090561509132
0.006228884216398001,0.004122027195990086,-0.01163434237241745,0.007900848984718323,-0.0,0.002673520240932703
0.006582234054803848,0.003668832825496793,-0.012389333918690681,0.008318662643432617,-0.0,0.002682165941223502
0.007317969109863043,0.003510481910780072,-0.011976225301623344,0.00801343098282814,-0.0,0.002646845066919923
0.00709520373493433,0.0040106456726789474,-0.013122603297233582,0.008086508139967918,-0.0,0.0022907168604433537
0.006543164607137442,0.004249325953423977,-0.012621981091797352,0.008363568224012852,-0.0,0.0022733446676284075
0.00647774850949645,0.004009155556559563,-0.012673626653850079,0.008925506845116615,-0.0,0.0023268922232091427
0.006702070124447346,0.0037915033753961325,-0.012475363910198212,0.008592434227466583,-0.0,0.0023310331162065268
0.007249858230352402,0.0034834418911486864,-0.012654919177293777,0.00798885989934206,-0.0,0.0026302423793822527
0.006970063783228397,0.00343944295309484,-0.012634091079235077,0.008500570431351662,-5.026899543736363e-06,0.0024223371874541044
0.006498541682958603,0.003666943870484829,-0.011893833987414837,0.008385191671550274,-3.2822060802573105e-07,0.0022426347713917494
0.006712513975799084,0.0038561576511710882,-0.012639068998396397,0.007796982768923044,-2.1430459185012296e-08,0.0020186780020594597
0.0069186994805932045,0.004019372630864382,-0.01237331423908472,0.008089140988886356,-1.3992560443654156e-09,0.0018292913446202874
0.006905436050146818,0.003481427440419793,-0.012721600010991096,0.008292140439152718,-5.965247393269202e-12,0.0019753428641706705
0.0068149506114423275,0.003564192447811365,-0.012333322316408157,0.008257812820374966,-3.894880566072262e-13,0.002378090750426054
0.007712786551564932,0.0034264421556144953,-0.012362979352474213,0.008499487303197384,-2.5430786965738132e-14,0.0023677602875977755
0.006914723664522171,0.003455957630649209,-0.012339476495981216,0.00836251862347126,-1.6604485332606168e-15,0.0023056359495967627
0.006774974521249533,0.0035140083637088537,-0.012578251771628857,0.007764792535454035,-1.0841541960099764e-16,0.0022717039100825787
0.006719973869621754,0.0034970862325280905,-0.0122956782579422,0.007508647162467241,-7.078751947516469e-18,0.0019806749187409878
0.007169430144131184,0.003515091259032488,-0.01259511336684227,0.008594628423452377,-4.621919235525264e-19,0.0020311553962528706
0.007087254896759987,0.00365063245408237,-0.012574602849781513,0.00850601028650999,-3.0177833186141774e-20,0.0020195154938846827
0.006910831667482853,0.003730073105543852,-0.01238996908068657,0.007965393364429474,-1.9703967256831634e-21,0.002215708838775754
0.007243690080940723,0.003752270946279168,-0.012450519017875195,0.007629047613590956,-1.2865282592114708e-22,0.0021897456608712673
0.006641868501901627,0.0037452802062034607,-0.011532286182045937,0.008112412877380848,-8.400110407459948e-24,0.0020875122863799334
0.0071524037048220634,0.003763844259083271,-0.012247067876160145,0.008134981617331505,-5.484671307494539e-25,0.00197008578106761
0.0071524037048220634,0.003763844259083271,-0.012247067876160145,0.008134981617331505,-5.484671307494539e-25,0.00197008578106761
0.0069745853543281555,0.003718989435583353,-0.012038248591125011,0.00751072820276022,-3.5810984823481234e-26,0.0017399268690496683
0.006887947209179401,0.0035847725812345743,-0.012447308748960495,0.008157165721058846,-2.3382016342235618e-27,0.001732252654619515
0.006915323901921511,0.0034157775808125734,-0.012050610035657883,0.008614343591034412,-1.5266785280140641e-28,0.001818107906728983
0.007323675788938999,0.0035202582366764545,-0.01165639329701662,0.007923053577542305,-0.00011442756658652797,0.0019201172981411219
0.007588968612253666,0.003862163284793496,-0.012290062382817268,0.00799091812223196,-0.00020505941938608885,0.002415675902739167
0.007022429723292589,0.003806826425716281,-0.011614438146352768,0.008246871642768383,-0.00020211012451909482,0.0023128006141632795
0.0074129002168774605,0.0035179590340703726,-0.01221410371363163,0.008277430199086666,-0.00019381333549972624,0.0021131655666977167
0.007894131354987621,0.0035720975138247013,-0.012458870187401772,0.008154045790433884,-0.00018583481141831726,0.0018033295636996627
0.007935485802590847,0.003784534288570285,-0.012296847999095917,0.007990662939846516,-0.00021173089044168591,0.0015236168401315808
0.006978902500122786,0.0036018830724060535,-0.012343288399279118,0.008708035573363304,-0.00020582870638463646,0.0012112029362469912
0.006988553795963526,0.003478915197774768,-0.012060263194143772,0.008587615564465523,-0.00019840718596242368,0.001182741136290133
0.007482336368411779,0.0036520459689199924,-0.012267663143575191,0.008251127786934376,-0.00020701150060631335,0.0011771928984671831
0.007344075944274664,0.0037949876859784126,-0.011895653791725636,0.008036076091229916,-0.00021457576076500118,0.0016837347066029906
0.007255925796926022,0.0037570749409496784,-0.012252905406057835,0.008181970566511154,-0.0002084310253849253,0.0023223573807626963
0.006897939369082451,0.004233424086123705,-0.01204926148056984,0.008038674481213093,-0.00020181578292977065,0.002422332065179944
0.007374072913080454,0.004203048534691334,-0.011864411644637585,0.008193728514015675,-0.00019555469043552876,0.0023546849843114614
0.0075344182550907135,0.003965042531490326,-0.012150056660175323,0.008319302462041378,-0.000184123549843207,0.001669405959546566
0.007207935210317373,0.0034896323923021555,-0.012589008547365665,0.007596826646476984,-0.0002010779280681163,0.0012803266290575266
0.007499670144170523,0.004088805057108402,-0.011866321787238121,0.0075834388844668865,-0.0001985853014048189,0.0012344885617494583
0.007435975596308708,0.004184855613857508,-0.012344849295914173,0.008587317541241646,-0.00019344905740581453,0.0013338907156139612
0.007586297579109669,0.003909842111170292,-0.011982740834355354,0.00853241328150034,-0.00018839958647731692,0.0015170349506661296
0.008056027814745903,0.003695912891998887,-0.011568227782845497,0.007976049557328224,-0.00018359636305831373,0.0014826160622760653
0.008616467006504536,0.003620325354859233,-0.012313717976212502,0.007944468408823013,-0.00021833139180671424,0.0018242989899590611
0.008010325953364372,0.003870348446071148,-0.011863346211612225,0.008345982991158962,-0.00021376708173193038,0.0017391686560586095
0.007766908500343561,0.003831129288300872,-0.0122804194688797,0.008713439106941223,-0.00020443294488359243,0.0016335066175088286
0.00725169014185667,0.0035757948644459248,-0.011988809332251549,0.008516267873346806,-0.00019557183259166777,0.0014587508048862219
0.007918457500636578,0.003535955213010311,-0.01176705677062273,0.008904012851417065,-0.00018742558313533664,0.0012614388251677155
0.008050261996686459,0.003886748105287552,-0.01180828083306551,0.008698197081685066,-0.00021346856374293566,0.001055471715517342
0.008050261996686459,0.003886748105287552,-0.01180828083306551,0.008698197081685066,-0.00021346856374293566,0.001055471715517342
0.007718565873801708,0.003967767581343651,-0.01111606601625681,0.007881763391196728,-0.00020745355868712068,0.0009974248241633177
0.008154364302754402,0.003801206825301051,-0.01179773174226284,0.008637591265141964,-0.00019991541921626776,0.0009007452172227204
0.008334195241332054,0.003722682362422347,-0.01214643381536007,0.00855069700628519,-0.00019278647960163653,0.0007024280494078994
0.007950631901621819,0.0038235748652368784,-0.012118784710764885,0.008364813402295113,-0.0001861406199168414,0.0006821145070716739
0.007637283764779568,0.004377579316496849,-0.01193285919725895,0.008192225359380245,-0.00020213348034303635,0.0007602060213685036
0.0077422442846000195,0.004160360433161259,-0.011426294222474098,0.008796721696853638,-0.000202647628611885,0.0011130727361887693
0.008049488998949528,0.004511270206421614,-0.012050097808241844,0.008789860643446445,-0.00019677595992106944,0.0013286707689985633
0.008217087015509605,0.004226761404424906,-0.011687807738780975,0.00825685914605856,-0.0001908444392029196,0.0013297105906531215
0.007813172414898872,0.004434148781001568,-0.011832165531814098,0.008567232638597488,-0.00018523515609558672,0.001575237838551402
0.008379586040973663,0.004138501361012459,-0.011557156220078468,0.008893153630197048,-0.0001925611577462405,0.001456821570172906
0.007972515188157558,0.004183194134384394,-0.011541678570210934,0.008281848393380642,-0.0001990843447856605,0.0013406286016106606
0.007911276072263718,0.004094731528311968,-0.012115400284528732,0.008317376486957073,-0.00019448048260528594,0.0011272119591012597
0.00791209191083908,0.004347526002675295,-0.011754927225410938,0.008390302769839764,-0.00018941445159725845,0.0009058883297257125
0.008332985453307629,0.004105633590370417,-0.012386253103613853,0.008267701603472233,-0.00018456207180861384,0.0008926363079808652
0.008292999118566513,0.003976549953222275,-0.01176233496516943,0.008051303215324879,-0.00017994943482335657,0.0008838703506626189
0.008238538168370724,0.0039361207745969296,-0.01175833959132433,0.008754914626479149,-0.00019840059394482523,0.0008633769466541708
0.008356738835573196,0.003880638862028718,-0.011604701168835163,0.008111020550131798,-0.00019027997041121125,0.0008770349668338895
0.008323196321725845,0.004352053161710501,-0.012175521813333035,0.008433261886239052,-0.0001825761137297377,0.0008896325016394258
0.008153779432177544,0.004166058264672756,-0.011605832725763321,0.008633646182715893,-0.00019263326248619705,0.0008914457284845412
0.008406721986830235,0.003998670727014542,-0.011830340139567852,0.008538499474525452,-0.00020147598115727305,0.000963059370405972
0.008821253664791584,0.0038403281942009926,-0.01230174396187067,0.008662604726850986,-0.00019523888477124274,0.0009240270592272282
0.008006368763744831,0.004194308537989855,-0.011485285125672817,0.008572912774980068,-0.00018849105981644243,0.0008509081671945751
0.008318469859659672,0.004177622497081757,-0.01226324588060379,0.008516399189829826,-0.00018213744624517858,0.0008283702773042023
0.008318469859659672,0.004177622497081757,-0.01226324588060379,0.008516399189829826,-0.00018213744624517858,0.0008283702773042023
0.008389758877456188,0.0035806805826723576,-0.012513892725110054,0.008393785916268826,-0.00019793141109403223,0.0008081004489213228
0.008947884663939476,0.00394346471875906,-0.012047724798321724,0.008647951297461987,-0.00019856583094224334,0.0007696766988374293
0.008154848590493202,0.004229929763823748,-0.012104752473533154,0.008675508201122284,-0.00019293352670501918,0.00070122693432495
0.008436894975602627,0.004359746351838112,-0.01182696595788002,0.008844400756061077,-0.00018722873937804252,0.000613073178101331
0.00855195615440607,0.004195323679596186,-0.012424253858625889,0.00901812594383955,-0.00018182636995334178,0.0006398030673153698
0.008450167253613472,0.0038720692973583937,-0.012031616643071175,0.009159713983535767,-0.00019864054047502577,0.0006481704185716808
0.008249742910265923,0.0041806637309491634,-0.012579459697008133,0.009210465475916862,-0.00019624298147391528,0.0006076252902857959
0.00866171345114708,0.004166425671428442,-0.012396945618093014,0.00840265117585659,-0.0001912278967211023,0.0006238314090296626
0.008832676336169243,0.004000977147370577,-0.01198710035532713,0.008913738653063774,-0.00018629284750204533,0.0005827005952596664
0.008556353859603405,0.004410632885992527,-0.012827607803046703,0.009111570194363594,-0.00022454175632447004,0.0006055932026356459
0.008876336738467216,0.004615901503711939,-0.012218417599797249,0.008883770555257797,-0.00022738501138519496,0.000623764586634934
0.008543039672076702,0.004325876943767071,-0.012270092964172363,0.009012329392135143,-0.00021732896857429296,0.0005815636832267046
0.008227774873375893,0.004320539068430662,-0.012142634950578213,0.009375562891364098,-0.00020737285376526415,0.0006078481092117727
0.009297532960772514,0.0040893713012337685,-0.013013445772230625,0.009020893834531307,-0.0001982382673304528,0.0005592595553025603
0.008769084699451923,0.004368033725768328,-0.012739972211420536,0.008744559250772,-0.0002179341681767255,0.0005821535014547408
0.008230739273130894,0.004586647730320692,-0.01258083339780569,0.009507249109447002,-0.00021797300723847002,0.000542712165042758
0.008797986432909966,0.004388721194118261,-0.012629828415811062,0.009058147668838501,-0.00021007034229114652,0.0005088041070848703
0.00859113410115242,0.004493102431297302,-0.012423300184309483,0.00843646377325058,-0.00020223903993610293,0.0005152951925992966
0.008900447748601437,0.004422275815159082,-0.012691556476056576,0.00912682618945837,-0.0001949396391864866,0.0004661229904741049
0.008791862986981869,0.004361170344054699,-0.012625039555132389,0.008930953219532967,-0.00021006568567827344,0.0003862768644466996
0.008994308300316334,0.0041942656971514225,-0.012576689943671227,0.00948264915496111,-0.0002050697075901553,0.000355712283635512
0.00865484494715929,0.0035557092633098364,-0.012879690155386925,0.009498623199760914,-0.00019872133270837367,0.00032963589183054864
0.008373197168111801,0.003244509221985936,-0.012404936365783215,0.009083208627998829,-0.00019265136506874114,0.00030712169245816767
0.008423324674367905,0.0031640040688216686,-0.012049993500113487,0.009000195190310478,-0.00018693543097469956,0.0002874908968806267
0.008759808726608753,0.0031369724310934544,-0.012491296976804733,0.008917320519685745,-0.00018154778808820993,0.00027021774440072477
0.008490856736898422,0.0036040341947227716,-0.011804557405412197,0.008905146270990372,-0.00017646212654653937,0.0002549036289565265
0.008490856736898422,0.0036040341947227716,-0.011804557405412197,0.008905146270990372,-0.00017646212654653937,0.0002549036289565265
0.009030687622725964,0.004238393157720566,-0.012463228777050972,0.008530795574188232,-0.0001716541883070022,0.0002412346948403865
0.008666855283081532,0.0036500804126262665,-0.012067676521837711,0.008807661943137646,-0.0001671006320975721,0.0002289558033226058
0.008405795320868492,0.003246854990720749,-0.012507738545536995,0.00853636022657156,-0.00016278286057058722,0.00021786797151435167
0.009723726660013199,0.0033161232713609934,-0.013093922287225723,0.008273854851722717,-0.00015868239279370755,0.00020780447812285274
0.009066449478268623,0.0030364335980266333,-0.01239484827965498,0.008740580640733242,-0.00015478367276955396,0.0001986295246751979
0.008575012907385826,0.0033404009882360697,-0.012816653586924076,0.008800134062767029,-0.0001510718575445935,0.00019023117783945054
0.008771924301981926,0.0035061638336628675,-0.01244496088474989,0.00871959887444973,-0.00014753379218745977,0.00018251404981128871
0.008860455825924873,0.003388770390301943,-0.012895557098090649,0.008757985197007656,-0.00014415770419873297,0.0001753985125105828
0.009580215439200401,0.003518050303682685,-0.011861801147460938,0.00882264506071806,-0.0001409328542649746,0.00016881758347153664
0.00830073468387127,0.003333461470901966,-0.012476545758545399,0.008715635165572166,-0.00015622716455254704,0.0001627124729566276
0.008936839178204536,0.003499241778627038,-0.012645398266613483,0.008593297563493252,-0.00015408256149385124,0.00015703390818089247
0.00904527772217989,0.0032108197920024395,-0.012610898353159428,0.008803237229585648,-0.00015093074762262404,0.00015173808787949383
0.009080171585083008,0.0030477491673082113,-0.01255157869309187,0.008874194696545601,-0.00014783679216634482,0.00014678809384349734
0.00927573163062334,0.003061593510210514,-0.012360225431621075,0.009031765162944794,-0.0001448626717319712,0.00014215060218703002
0.00951518677175045,0.003289198037236929,-0.012634594924747944,0.009305463172495365,-0.00014200540317688137,0.0001377972512273118
0.008998394012451172,0.003430931596085429,-0.012092377990484238,0.008710213005542755,-0.00013925896200817078,0.00013370279339142144
0.009196207858622074,0.0032341843470931053,-0.01276147086173296,0.008334754966199398,-0.0001366164069622755,0.0001298444258281961
0.009444138966500759,0.003468265989795327,-0.012476489879190922,0.008296622894704342,-0.00013407242659013718,0.00012620298366528004
0.009486827068030834,0.003779855789616704,-0.012867286801338196,0.008670887909829617,-0.00013162136019673198,0.00012275985500309616
0.0099927494302392,0.003536919830366969,-0.011996056884527206,0.008177992887794971,-0.00011744353105314076,0.00011640820594038814
0.009112664498388767,0.003734079422429204,-0.012959922663867474,0.008600161410868168,-0.00011433254258008674,0.00011347288818797097
0.009489086456596851,0.0033391453325748444,-0.012577524408698082,0.00846017524600029,-0.0001114914266509004,0.00011068171443184838
0.009629619307816029,0.003358282847329974,-0.01286796759814024,0.008708151057362556,-0.0001087952041416429,0.00010802465840242803
0.008413031697273254,0.00349640310741961,-0.012444164603948593,0.008730640634894371,-0.00010622679837979376,0.00010549207217991352
0.010182902216911316,0.003664928488433361,-0.012668135575950146,0.009019124321639538,-0.0001191668925457634,8.778921619523317e-05
0.010376445017755032,0.003738578874617815,-0.012765751220285892,0.008384855464100838,-0.00012137481826357543,8.096182864392176e-05
0.009521237574517727,0.003634797176346183,-0.012295437045395374,0.008239044807851315,-0.00011901871039299294,7.887101673986763e-05
0.009425442665815353,0.0034361800644546747,-0.012680752202868462,0.008623701520264149,-0.00011647234350675717,7.715984975220636e-05
0.010502881370484829,0.003521539969369769,-0.012068873271346092,0.00854579173028469,-0.00011401450319681317,7.553931209258735e-05
0.010502881370484829,0.003521539969369769,-0.012068873271346092,0.00854579173028469,-0.00011401450319681317,7.553931209258735e-05
0.009402657859027386,0.0034152923617511988,-0.012595712207257748,0.008631267584860325,-0.00012902576418127865,6.488851795438677e-05
0.009569313377141953,0.0034474642015993595,-0.011996281333267689,0.009332598187029362,-0.00012754647468682379,5.498619793797843e-05
0.009828775189816952,0.0036135746631771326,-0.012326337397098541,0.009185119532048702,-0.0001250881323358044,5.3377636504592374e-05
0.00981832854449749,0.003674139501526952,-0.012213103473186493,0.008535094559192657,-0.00012265746772754937,-3.472136813797988e-05
0.009770607575774193,0.004067983012646437,-0.012398282997310162,0.008500499650835991,-0.0001330686645815149,-4.946613989886828e-05
0.010554944165050983,0.004223772324621677,-0.012901474721729755,0.008857977576553822,-0.00013463676441460848,-5.804977990919724e-05
0.00977497547864914,0.0035643100272864103,-0.012137019075453281,0.00963100790977478,-0.00013269945338834077,-7.409272075165063e-05
0.009460626170039177,0.0035455545876175165,-0.013152830302715302,0.008285397663712502,-0.00023797497851774096,-7.488781557185575e-05
0.010819919407367706,0.003305993275716901,-0.012345674447715282,0.008737215772271156,-0.00023299256281461567,-8.948070899350569e-05
0.009990847669541836,0.0035710143856704235,-0.013221916742622852,0.009295319207012653,-0.0002547451003920287,-0.0003601984935812652
0.009412508457899094,0.0038309667725116014,-0.012537374161183834,0.009121132083237171,-0.00025312378420494497,-0.0006412002258002758
0.010746131651103497,0.003929354250431061,-0.012803849764168262,0.009468276053667068,-0.00024243176449090242,-0.0006102345651015639
0.010067161172628403,0.003959598019719124,-0.01282690092921257,0.00958741270005703,-0.00026063123368658125,-0.0005948315374553204
0.009765480645000935,0.003918010741472244,-0.01226644217967987,0.00907182414084673,-0.00025891876430250704,-0.0005799951613880694
0.010177216492593288,0.004218059591948986,-0.01290812436491251,0.009385798126459122,-0.00028013449627906084,-0.0005334629095159471
0.009705993346869946,0.004238170105963945,-0.012917089276015759,0.009553096257150173,-0.00027375956415198743,-0.000543528760317713
0.00981389731168747,0.00409381790086627,-0.013337326236069202,0.008868907578289509,-0.0004238644032739103,-0.0005246191867627203
0.01121064554899931,0.004028812982141972,-0.012852718122303486,0.008955100551247597,-0.000446038757218048,-0.0007274046656675637
0.01169687882065773,0.004069553688168526,-0.01287840399891138,0.00909480731934309,-0.0004672774230130017,-0.0010582583490759134
0.011629004031419754,0.004040606319904327,-0.01314848754554987,0.00884557981044054,-0.00045002123806625605,-0.001424353918991983
0.010950806550681591,0.00442489143460989,-0.013219082728028297,0.009084983728826046,-0.0004769319493789226,-0.0013915005838498473
0.011577476747334003,0.004168453626334667,-0.0132927680388093,0.009036904200911522,-0.0006190707208588719,-0.0012835931265726686
0.011344296857714653,0.004069570451974869,-0.013519760221242905,0.008941725827753544,-0.0006969667156226933,-0.0012183955404907465
0.011474733240902424,0.003976338542997837,-0.012657330371439457,0.009150530211627483,-0.0007813340052962303,-0.001115672173909843
0.011788802221417427,0.0037678945809602737,-0.01345068123191595,0.009030738845467567,-0.0011553497752174735,-0.0010780991287901998
0.011475780047476292,0.0036415832582861185,-0.01305885799229145,0.009405625984072685,-0.001371193677186966,-0.0010204360587522388
0.011631360277533531,0.0036542853340506554,-0.013191400095820427,0.009753272868692875,-0.001323449774645269,-0.0010135374031960964
0.011208085343241692,0.003930050879716873,-0.013037808239459991,0.0096470071002841,-0.0012721939710900187,-0.0011113400105386972
0.01148630678653717,0.004001811146736145,-0.013444812968373299,0.009125426411628723,-0.0013776321429759264,-0.0015713755274191499
0.01194717176258564,0.004290497396141291,-0.013341226615011692,0.009507325477898121,-0.001352566061541438,-0.0016767480410635471
0.01194717176258564,0.004290497396141291,-0.013341226615011692,0.009507325477898121,-0.001352566061541438,-0.0016767480410635471
0.011714753694832325,0.004198791459202766,-0.013677161186933517,0.009753458201885223,-0.0015181434573605657,-0.0019417513394728303
0.012152023613452911,0.003965222742408514,-0.013621271587908268,0.009102425538003445,-0.0013971045846119523,-0.0019438999006524682
0.01179890614002943,0.003791144583374262,-0.013598061166703701,0.009520348161458969,-0.0013268508482724428,-0.0018302021780982614
0.011843856424093246,0.0037951990962028503,-0.013490131124854088,0.009730605408549309,-0.0013163030380383134,-0.0018295727204531431
0.011896589770913124,0.003964586183428764,-0.013274828903377056,0.009281191043555737,-0.0013480171328410506,-0.0017305341316387057
0.0114957420155406,0.003995758015662432,-0.01387325394898653,0.009753933176398277,-0.0014556023525074124,-0.0019039313774555922
0.011607917957007885,0.004402455873787403,-0.01343554351478815,0.009558836929500103,-0.001503983628936112,-0.0021362737752497196
0.011582869105041027,0.004140325356274843,-0.014107762835919857,0.009132744744420052,-0.0013034651055932045,-0.0021711806766688824
0.011723038740456104,0.004032209049910307,-0.01366773433983326,0.00949541013687849,-0.0012281204108148813,-0.002291659591719508
0.012304320000112057,0.004030720330774784,-0.014370913617312908,0.009577758610248566,-0.0010476253228262067,-0.0020465729758143425
0.011728869751095772,0.0034854707773774862,-0.01371221523731947,0.009078636765480042,-0.0009279525256715715,-0.0018412524368613958
0.012062867172062397,0.003497289028018713,-0.01452576369047165,0.009313292801380157,-0.0008499252726323903,-0.001822619466111064
0.011892057955265045,0.004094869829714298,-0.013416246511042118,0.009402746334671974,-0.0007379736052826047,-0.002052006544545293
0.011970127932727337,0.004655555821955204,-0.01412725169211626,0.008828695863485336,-0.0006493072723969817,-0.0021487518679350615
0.011812533251941204,0.004420025739818811,-0.013231919147074223,0.008797057904303074,-0.0006625178502872586,-0.002414231188595295
0.01181790605187416,0.00405454495921731,-0.014045018702745438,0.009792545810341835,-0.000609588751103729,-0.002473189728334546
0.011887550354003906,0.0036075273528695107,-0.014620705507695675,0.008807349018752575,-0.0005112711805850267,-0.0022394575644284487
0.012347941286861897,0.004320943262428045,-0.013690955936908722,0.009736591018736362,-0.0004728646599687636,-0.0021370965987443924
0.012065868824720383,0.004116763360798359,-0.01373363845050335,0.00965291541069746,-0.00043982884380966425,-0.0020900052040815353
0.01231900043785572,0.0041564032435417175,-0.01328379474580288,0.009293590672314167,-0.00041110831080004573,-0.0018984146881848574
0.012730157002806664,0.004022848326712847,-0.014081799425184727,0.009529993869364262,-0.00038591219345107675,-0.00186197180300951
0.012038951739668846,0.003788700792938471,-0.014017889276146889,0.009255736134946346,-0.0003636274195741862,-0.001778757548891008
0.012177779339253902,0.0037427335046231747,-0.013833881355822086,0.009186427108943462,-0.00034377590054646134,-0.0021491223014891148
0.01165563054382801,0.004240111447870731,-0.013594655320048332,0.009297188371419907,-0.0003259822551626712,-0.003140415996313095
0.01224511582404375,0.004555332940071821,-0.01401671301573515,0.009517543017864227,-0.0003099394671153277,-0.0036956360563635826
0.012410261668264866,0.0035996290389448404,-0.013786849565804005,0.009133842773735523,-0.00029540230752900243,-0.0035191650968044996
0.012471688911318779,0.003494447795674205,-0.013689430430531502,0.009237106889486313,-0.00028216763166710734,-0.003000628901645541
0.012471688911318779,0.003494447795674205,-0.013689430430531502,0.009237106889486313,-0.00028216763166710734,-0.003000628901645541
0.012635508552193642,0.003717699320986867,-0.014070749282836914,0.0098867267370224,-0.00027006908203475177,-0.002558415289968252
0.012509802356362343,0.0038533639162778854,-0.013572865165770054,0.009931767359375954,-0.00025896518491208553,-0.0022940263152122498
0.012792665511369705,0.003832597052678466,-0.013677760027348995,0.010274511761963367,-0.0002487388555891812,-0.0022590362932533026
0.012440347112715244,0.004323368426412344,-0.013658234849572182,0.010001059621572495,-0.00023928961309138685,-0.002860459266230464
0.012127053923904896,0.004154702182859182,-0.01412737276405096,0.00944735947996378,-0.00023053173208609223,-0.003518561599776149
0.012610197067260742,0.0039750696159899235,-0.013380872085690498,0.009906897321343422,-0.00022239293321035802,-0.0035551830660551786
0.012569856829941273,0.003901951014995575,-0.014064096845686436,0.009938242845237255,-0.00021480878058355302,-0.003358843270689249
0.01273833867162466,0.0034529101103544235,-0.013467542827129364,0.009628254920244217,-0.00020772528660017997,-0.0032897302880883217
0.012622215785086155,0.00355088640935719,-0.014162854291498661,0.009753665886819363,-0.0002010939351748675,-0.003057254943996668
0.013423225842416286,0.00423691188916564,-0.01370236650109291,0.00971622858196497,-0.00019487270037643611,-0.002798815257847309
0.01276953611522913,0.004103206098079681,-0.014113434590399265,0.009288059547543526,-0.00018902528972830623,-0.0027771261520683765
0.012882412411272526,0.003955749794840813,-0.013343810103833675,0.009090659208595753,-0.00018351871403865516,-0.0031746237073093653
0.012576493434607983,0.003996135201305151,-0.014251275919377804,0.009338031522929668,-0.00017832350567914546,-0.0036449874751269817
0.013403845019638538,0.004050408490002155,-0.01416420191526413,0.009327531792223454,-0.00017341476632282138,-0.0038488702848553658
0.013132292777299881,0.0040318951942026615,-0.014697270467877388,0.009265531785786152,-0.0001687687763478607,-0.003795360680669546
0.012998937629163265,0.003958514891564846,-0.013888388872146606,0.009863905608654022,-0.00016436526493635029,-0.0036753187887370586
0.013208698481321335,0.004240559879690409,-0.013723889365792274,0.009660531766712666,-0.00016018596943467855,-0.003320930292829871
0.013787862844765186,0.0035819506738334894,-0.014417655766010284,0.010122145526111126,-0.00015243371308315545,-0.0032078742515295744
0.012987031601369381,0.0035734684206545353,-0.014141174964606762,0.009146111086010933,-0.00014883256517350674,-0.003104810370132327
0.013824276626110077,0.003762471256777644,-0.014744432643055916,0.009146740660071373,-0.00014539739640895277,-0.0032430016435682774
0.013266697525978088,0.0038406276144087315,-0.014018037356436253,0.009939576499164104,-0.00014211739471647888,-0.0036078644916415215
0.01364401075989008,0.004293931182473898,-0.014057998545467854,0.009801332838833332,-0.00013898202450945973,-0.004328251350671053
0.013208482414484024,0.004144078120589256,-0.013656389899551868,0.00954999029636383,-0.00013598211808130145,-0.004176600836217403
0.013562510721385479,0.003947860561311245,-0.01424234826117754,0.009678390808403492,-0.0001331089879386127,-0.003938816487789154
0.013447508215904236,0.0038210933562368155,-0.014143582433462143,0.009475627914071083,-0.00013035460142418742,-0.0038385512307286263
0.013849045149981976,0.0037963963113725185,-0.014226592145860195,0.009505683556199074,-0.00012771210458595306,-0.0034057379234582186
0.013378558680415154,0.0039817942306399345,-0.013778232038021088,0.00993252545595169,-0.00012517459981609136,-0.00328576797619462
0.0135630052536726,0.003940551076084375,-0.01366444118320942,0.009667189791798592,-0.0001227358152391389,-0.003284448990598321
0.0135630052536726,0.003940551076084375,-0.01366444118320942,0.009667189791798592,-0.0001227358152391389,-0.003284448990598321
0.013598796911537647,0.003784141968935728,-0.013480132445693016,0.009512556716799736,-0.00012039033754263073,-0.0035797457676380873
0.014134211465716362,0.0037273250054568052,-0.013601502403616905,0.010108943097293377,-0.00011813292076112702,-0.004252656828612089
0.013743218965828419,0.0038155540823936462,-0.01393210794776678,0.01030140183866024,-0.00011595843534450978,-0.004329246934503317
0.013815385289490223,0.0043215565383434296,-0.013520433567464352,0.009818746708333492,-0.00011386263940948993,-0.004315983038395643
0.014310572296380997,0.004157157614827156,-0.013820820488035679,0.009990599937736988,-0.0001118412910727784,-0.004012334626168013
0.014491076581180096,0.003962784539908171,-0.01362655870616436,0.010032976977527142,-0.00010989038128172979,-0.004142455756664276
0.014263944700360298,0.00391854764893651,-0.013770084828138351,0.009934570640325546,-0.00010800638847285882,-0.004212548024952412
0.01443048007786274,0.003971382975578308,-0.013248816132545471,0.010198704898357391,-0.00010618597298162058,-0.004053753800690174
0.014502971433103085,0.003955700434744358,-0.014046760275959969,0.009933250956237316,-0.00010442582424730062,-0.003962225746363401
0.014454826712608337,0.00397993391379714,-0.013479148037731647,0.01053536869585514,-0.00010272312647430226,-0.004277281928807497
0.014304065145552158,0.004350664559751749,-0.014154707081615925,0.011149231344461441,-0.00010107507114298642,-0.004205061122775078
0.014435681514441967,0.0043150270357728004,-0.013386955484747887,0.009609969332814217,-9.947906073648483e-05,-0.00436827540397644
0.01424260064959526,0.004018829669803381,-0.014166930690407753,0.009428213350474834,-9.793267236091197e-05,-0.004480040166527033
0.014555166475474834,0.003885940182954073,-0.013813500292599201,0.009594091214239597,-9.643358498578891e-05,-0.004144629463553429
0.014665855094790459,0.0039833951741456985,-0.014580107294023037,0.009309688583016396,-9.497971768723801e-05,-0.003947759512811899
0.01458138506859541,0.004043572582304478,-0.014344681985676289,0.009356857277452946,-9.219969797413796e-05,-0.004691989626735449
0.014596165157854557,0.003970492165535688,-0.013905951753258705,0.009053659625351429,-9.086986392503604e-05,-0.004825927317142487
0.01495995931327343,0.0038597802631556988,-0.014301366172730923,0.008982009254395962,-8.95777702680789e-05,-0.004879327490925789
0.014923643320798874,0.0037228388246148825,-0.013956640847027302,0.009798080660402775,-8.832198363961652e-05,-0.004725359845906496
0.014823516830801964,0.00370910856872797,-0.014680876396596432,0.009235911071300507,-8.71009033289738e-05,-0.004625942558050156
0.015172150917351246,0.00419990811496973,-0.014075025916099548,0.00943827722221613,-8.591313235228881e-05,-0.004717170726507902
0.014786101877689362,0.0041803899221122265,-0.015023753046989441,0.010094678029417992,-8.475722279399633e-05,-0.0051411655731499195
0.014993342570960522,0.004035186022520065,-0.01409133244305849,0.0098348967730999,-8.363214874407277e-05,-0.004935481585562229
0.014897521585226059,0.0034993221051990986,-0.01491587795317173,0.010135844349861145,-8.253646228695288e-05,-0.004819086287170649
0.015321577899158001,0.004081520717591047,-0.014321103692054749,0.0101555734872818,-8.146916661644354e-05,-0.004904607310891151
0.015321577899158001,0.004081520717591047,-0.014321103692054749,0.0101555734872818,-8.146916661644354e-05,-0.004904607310891151
0.015124497003853321,0.004266904667019844,-0.014826400205492973,0.009863602928817272,-8.042907575145364e-05,-0.00470744539052248
0.01568087749183178,0.003978712949901819,-0.014072151854634285,0.010257513262331486,-7.941524381749332e-05,-0.004815062507987022
0.015035921707749367,0.0037518043536692858,-0.014787906780838966,0.010316620580852032,-7.842660852475092e-05,-0.004937476012855768
0.015485185198485851,0.003762580920010805,-0.0144994230940938,0.009731975384056568,-7.74623331381008e-05,-0.005110670812427998
0.015498541295528412,0.003856119466945529,-0.015132424421608448,0.010406265035271645,-7.652144267922267e-05,-0.005108037032186985
0.015528612770140171,0.004020022694021463,-0.01466839574277401,0.011137962341308594,-7.560312951682135e-05,-0.005074315704405308
0.015290958806872368,0.003936968743801117,-0.014426766894757748,0.010436728596687317,-7.470666605513543e-05,-0.004852621350437403
0.01567566953599453,0.0037707730662077665,-0.014044895768165588,0.010665478184819221,-7.383117190329358e-05,-0.0048969583585858345
0.015964346006512642,0.0035219271667301655,-0.01491039339452982,0.010206561535596848,-7.297593401744962e-05,-0.005777939222753048
0.015381839126348495,0.0035459932405501604,-0.014149625785648823,0.009809340350329876,-7.214034121716395e-05,-0.00554874399676919
0.015520041808485985,0.003723881673067808,-0.014954649843275547,0.010753952898085117,-7.132361497497186e-05,-0.00583573617041111
0.015608852729201317,0.003803506027907133,-0.01440329011529684,0.010420918464660645,-7.052518776617944e-05,-0.0053834677673876286
0.01595688983798027,0.0037918805610388517,-0.015248317271471024,0.009760245680809021,-6.97444484103471e-05,-0.004966954234987497
0.016137536615133286,0.0037404156755656004,-0.014622855931520462,0.010344342328608036,-8.983918633020949e-06,-0.005151631776243448
0.01656772568821907,0.003733309218659997,-0.014970174990594387,0.010167401283979416,-5.865857133358077e-07,-0.005450204946100712
0.015939578413963318,0.0037940817419439554,-0.013751423917710781,0.010701743885874748,-3.829985217862486e-08,-0.005621634423732758
0.016475999727845192,0.0038458150811493397,-0.014496149495244026,0.010968765243887901,-2.500706974828404e-09,-0.005331171676516533
0.01591702736914158,0.0037686878349632025,-0.014266346581280231,0.010783223435282707,-1.6327829366336033e-10,-0.00569476094096899
0.014308162033557892,0.0036443392746150494,-0.015187337063252926,0.010286902077496052,-1.0660905318260472e-11,-0.0054483129642903805
0.016623102128505707,0.003820913378149271,-0.014598743990063667,0.01045038178563118,-6.960810508722937e-13,-0.005847436375916004
0.01693468540906906,0.0038949663285166025,-0.014493118040263653,0.010371576063334942,-4.544911471368422e-14,-0.0057907369919121265
0.016490910202264786,0.003500944236293435,-0.014935996383428574,0.0108248395845294,-1.9375670880672247e-16,-0.005700314417481422
0.01610342040657997,0.0038164022844284773,-0.014957260340452194,0.010051257908344269,-1.2650930066888057e-17,-0.006229627411812544
0.016671456396579742,0.004008078947663307,-0.015102023258805275,0.010707363486289978,-8.260152701663053e-19,-0.006357151549309492
0.016650578007102013,0.0038523401599377394,-0.014458290301263332,0.010997378267347813,-5.393289649031912e-20,-0.00604481203481555
0.016649968922138214,0.003657482098788023,-0.014680187217891216,0.011094952933490276,-3.521432671744332e-21,-0.0064256698824465275
0.016474394127726555,0.0036066428292542696,-0.014715423807501793,0.011168783530592918,-2.299244034180432e-22,-0.006367089692503214
0.017125969752669334,0.0037022929172962904,-0.015362082049250603,0.010961582884192467,-1.5012419034530276e-23,-0.005708043929189444
0.01664767414331436,0.003716405015438795,-0.015199651941657066,0.010399243794381618,-9.802036537325732e-25,-0.005863906815648079
0.016559025272727013,0.003726555500179529,-0.014841634780168533,0.010828289203345776,-6.400029756653233e-26,-0.006134740076959133
0.016721801832318306,0.003807623405009508,-0.015341228805482388,0.010637382045388222,-4.178762230116906e-27,-0.0062308222986757755
0.016721801832318306,0.003807623405009508,-0.015341228805482388,0.010637382045388222,-4.178762230116906e-27,-0.0062308222986757755
0.016916969791054726,0.00376984104514122,-0.015220418572425842,0.011022324673831463,-1.7814718073265486e-29,-0.006171408109366894
0.016916969791054726,0.00376984104514122,-0.015220418572425842,0.011022324673831463,-1.7814718073265486e-29,-0.006171408109366894
0.017155075445771217,0.0036403716076165438,-0.014674706384539604,0.010690093971788883,-1.603685632289853e-05,-0.00628359941765666
0.017316874116659164,0.003535608761012554,-0.01484895683825016,0.010971304960548878,-1.0470921552041546e-06,-0.0065269507467746735
0.017207002267241478,0.003496958874166012,-0.014634114690124989,0.010894613340497017,-6.836764754325486e-08,-0.006462347228080034
0.016849607229232788,0.0035069980658590794,-0.015353159047663212,0.011621776968240738,-4.463918568120562e-09,-0.0058729387819767
0.017421092838048935,0.0034475820139050484,-0.014391143806278706,0.011293526738882065,-2.9146202118468523e-10,-0.0063032470643520355
0.017235402017831802,0.0035856207832694054,-0.014971820637583733,0.010989604517817497,-1.9030384906804088e-11,-0.006557278335094452
0.017106596380472183,0.0037494332063943148,-0.014618954621255398,0.010705468244850636,-1.2425481650535364e-12,-0.006761063821613789
0.017310472205281258,0.0037539012264460325,-0.015229692682623863,0.010840834118425846,-8.1129520419429e-14,-0.006756043527275324
0.017104526981711388,0.003471956355497241,-0.014743906445801258,0.010720831342041492,-5.297177610154259e-15,-0.006677282974123955
0.017780903726816177,0.0033925867173820734,-0.015180815942585468,0.011576366610825062,-3.458678780913848e-16,-0.007046279963105917
0.017344525083899498,0.0032015666365623474,-0.014341073110699654,0.010640748776495457,-2.2582699084632598e-17,-0.006938606034964323
0.01743105985224247,0.003533477196469903,-0.015119078569114208,0.010727651417255402,-1.4744888363524447e-18,-0.006742635741829872
0.0179185401648283,0.003675967687740922,-0.014643829315900803,0.011615918017923832,-0.0002805688127409667,-0.0066821682266891
0.017888054251670837,0.0037257650401443243,-0.015378237701952457,0.011333462782204151,-0.00033774683834053576,-0.007078356109559536
0.01820625737309456,0.0037990312557667494,-0.014947911724448204,0.010723419487476349,-0.000374078459572047,-0.007270870264619589
0.018402865156531334,0.003293599234893918,-0.015049039386212826,0.010821539908647537,-0.0003766704467125237,-0.007955540902912617
0.018612464889883995,0.0033019210677593946,-0.015324920415878296,0.011630966328084469,-0.00036758126225322485,-0.007870064117014408
0.018311014398932457,0.003436432685703039,-0.01466485857963562,0.011219864711165428,-0.0003944087366107851,-0.007772187236696482
0.01829596236348152,0.003647682722657919,-0.015372291207313538,0.011337456293404102,-0.0004845147195737809,-0.007637618109583855
0.01815771497786045,0.0033547040075063705,-0.015535817481577396,0.011384407989680767,-0.0005295948940329254,-0.007984455674886703
0.018157394602894783,0.003523474559187889,-0.015395570546388626,0.01057822909206152,-0.0005623626639135182,-0.007763426285237074
0.01866915635764599,0.0037873145192861557,-0.016099894419312477,0.011665111407637596,-0.0005198134458623827,-0.007636947091668844
0.018545571714639664,0.003912998363375664,-0.015123644843697548,0.01140807569026947,-0.0004748186911456287,-0.007808133959770203
0.018440330401062965,0.00340026686899364,-0.015728678554296494,0.011077571660280228,-0.0005040245596319437,-0.008034304715692997
0.018883943557739258,0.0034636976197361946,-0.01489250734448433,0.011358154937624931,-0.0004707523330580443,-0.007875927723944187
0.019046904519200325,0.0031136812176555395,-0.015394225716590881,0.010893920436501503,-0.0004964886466041207,-0.00811320636421442
0.018412457779049873,0.003163524204865098,-0.014811956323683262,0.010682723484933376,-0.0004688474000431597,-0.007650436367839575
0.018412457779049873,0.003163524204865098,-0.014811956323683262,0.010682723484933376,-0.0004688474000431597,-0.007650436367839575
0.018714509904384613,0.003292475361377001,-0.015581432729959488,0.010923344641923904,-0.0004911425639875233,-0.007602493278682232
0.019071320071816444,0.0033238930627703667,-0.015283310785889626,0.010672157630324364,-0.0004902209620922804,-0.007025427184998989
0.01900775358080864,0.003403451992198825,-0.01622358150780201,0.01133869681507349,-0.00048532491200603545,-0.00787489116191864
0.01932443492114544,0.0032132393680512905,-0.016062788665294647,0.011520239524543285,-0.0004837351443711668,-0.007789762690663338
0.018873924389481544,0.0034933004062622786,-0.015776321291923523,0.01217406615614891,-0.0004799003654625267,-0.00806818064302206
0.018890781328082085,0.0037149800918996334,-0.01584521122276783,0.012179962359368801,-0.0004949737340211868,-0.007746749557554722
0.019551871344447136,0.0033792315516620874,-0.016114626079797745,0.011665417812764645,-0.00047695855027996004,-0.007629956118762493
0.019315576180815697,0.0032529407180845737,-0.016370780766010284,0.0122537137940526,-0.0005072454805485904,-0.007496699225157499
0.019194329157471657,0.003167251357808709,-0.01585707813501358,0.011832688935101032,-0.0005077024106867611,-0.006991936359554529
0.01952863670885563,0.0034235811326652765,-0.016022592782974243,0.011409133672714233,-0.0005267896340228617,-0.007145291659981012
0.01927679218351841,0.003326593665406108,-0.015717683359980583,0.011361740529537201,-0.0004989965236745775,-0.007682171184569597
0.018573760986328125,0.003593134693801403,-0.016789676621556282,0.011035834439098835,-0.0005238194717094302,-0.007272963412106037
0.019718246534466743,0.003791930852457881,-0.01564483344554901,0.01130715198814869,-0.0005131814396008849,-0.00730440067127347
0.019406810402870178,0.003704388625919819,-0.01600126549601555,0.011211073957383633,-0.0004862319037783891,-0.0080103799700737
0.0199773870408535,0.0036718661431223154,-0.015945658087730408,0.011944872327148914,-0.0005006172577850521,-0.0077811540104448795
0.020376820117235184,0.0037098622415214777,-0.01622876152396202,0.011762425303459167,-0.0004904672387056053,-0.007437328342348337
0.019935740157961845,0.003760518506169319,-0.015730077400803566,0.012092635966837406,-0.0005214415141381323,-0.00797570776194334
0.01943540759384632,0.0038205638993531466,-0.016270549967885017,0.011965971440076828,-0.0005444599082693458,-0.007841979153454304
0.019102996215224266,0.0034124827943742275,-0.01551167480647564,0.012005641125142574,-0.0005731274140998721,-0.007423959206789732
0.019102996215224266,0.0034124827943742275,-0.01551167480647564,0.012005641125142574,-0.0005731274140998721,-0.007423959206789732
0.020392144098877907,0.004278586711734533,-0.015978282317519188,0.011617608368396759,-0.0007157378131523728,-0.007607470266520977
0.019878363236784935,0.00401202030479908,-0.016131525859236717,0.011971392668783665,-0.0007489108829759061,-0.007892622612416744
0.019429607316851616,0.0038398075848817825,-0.015778038650751114,0.012077833525836468,-0.0007604435668326914,-0.00799830723553896
0.019429607316851616,0.0038398075848817825,-0.015778038650751114,0.012077833525836468,-0.0007604435668326914,-0.00799830723553896
0.020081819966435432,0.0034007884096354246,-0.015970267355442047,0.012231803499162197,-0.000762497482355684,-0.007906291633844376
0.020632382482290268,0.003529679263010621,-0.01624080166220665,0.012422757223248482,-0.0007101951050572097,-0.007915315218269825
0.020286809653043747,0.0043272110633552074,-0.01558942161500454,0.011839103884994984,-0.0006477394490502775,-0.007614633999764919
0.019733648747205734,0.004195353947579861,-0.016106316819787025,0.012127396650612354,-0.0006235173786990345,-0.007410670164972544
0.02030048333108425,0.004061983432620764,-0.015416598878800869,0.011295044794678688,-0.0005732777644880116,-0.007876666262745857
0.02000867761671543,0.0035355722066015005,-0.01611795462667942,0.012002597562968731,-0.0005101013230159879,-0.007905027829110622
0.019480615854263306,0.004184560384601355,-0.01561824418604374,0.011706450954079628,-0.0004582007823046297,-0.008173256181180477
0.02000686526298523,0.00414599385112524,-0.01586001180112362,0.011940873228013515,-0.00047668791376054287,-0.008179742842912674
0.020578376948833466,0.003902599448338151,-0.01567956432700157,0.012663349509239197,-0.0004552669997792691,-0.008252187632024288
0.02053576149046421,0.004268326796591282,-0.015875983983278275,0.011575944721698761,-0.00042097942787222564,-0.008401373401284218
0.020394129678606987,0.003655913518741727,-0.016371233388781548,0.01235839631408453,-0.00039058562833815813,-0.008325398899614811
0.020640119910240173,0.0035550228785723448,-0.015892909839749336,0.011984629556536674,-0.0003937161818612367,-0.008052535355091095
0.02046617865562439,0.0040354360826313496,-0.016083233058452606,0.012099570594727993,-0.00039603165350854397,-0.008214399218559265
0.020854057744145393,0.0041877650655806065,-0.01646207831799984,0.01168983057141304,-0.0003970562538597733,-0.008498107083141804
0.020672541111707687,0.003977466840296984,-0.015859853476285934,0.012107249349355698,-0.00038196900277398527,-0.008397710509598255
0.02064047008752823,0.0037191694136708975,-0.015962956473231316,0.011863098479807377,-0.0003648383426479995,-0.008215771988034248
0.020239368081092834,0.003482928965240717,-0.015579924918711185,0.012287887744605541,-0.00031794095411896706,-0.008069287054240704
0.021065877750515938,0.0036077529657632113,-0.01612052507698536,0.012407725676894188,-0.0003243778191972524,-0.008148368448019028
0.020700814202427864,0.004036808852106333,-0.016376590356230736,0.012191304005682468,-0.00033080967841669917,-0.00820179097354412
0.02024667151272297,0.004514844156801701,-0.01608971506357193,0.012381263077259064,-0.00036195371649228036,-0.008835181593894958
0.02024667151272297,0.004514844156801701,-0.01608971506357193,0.012381263077259064,-0.00036195371649228036,-0.008835181593894958
0.02051905170083046,0.004212780389934778,-0.016527779400348663,0.01215407159179449,-0.00038178981048986316,-0.008526700548827648
0.02061297371983528,0.003989880438894033,-0.015710555016994476,0.012823387049138546,-0.00037399117718450725,-0.0084413206204772
0.02045702002942562,0.0040138522163033485,-0.01621115766465664,0.012414469383656979,-0.0006252587772905827,-0.008391319774091244
0.02102859504520893,0.004003493580967188,-0.0158182755112648,0.01296047680079937,-0.00062079809140414,-0.00891309604048729
0.019945329055190086,0.00423999410122633,-0.016115790233016014,0.012405372224748135,-0.0005438540829345584,-0.008687825873494148
0.019945329055190086,0.00423999410122633,-0.016115790233016014,0.012405372224748135,-0.0005438540829345584,-0.008687825873494148
0.021622836589813232,0.004454377107322216,-0.016055839136242867,0.012897328473627567,-0.0004942286177538335,-0.008982877247035503
0.021806690841913223,0.004182905424386263,-0.016467560082674026,0.012772045098245144,-0.0005178138380870223,-0.008916805498301983
0.02163681946694851,0.004161972086876631,-0.016045399010181427,0.01308584213256836,-0.00048664043424651027,-0.00902692973613739
0.021567178890109062,0.004003820475190878,-0.016327135264873505,0.012270032428205013,-0.00045226296060718596,-0.009309111163020134
0.021007953211665154,0.004399909172207117,-0.01574232615530491,0.012562181800603867,-0.00047805183567106724,-0.009192811325192451
0.02196863293647766,0.00467755226418376,-0.016387028619647026,0.012003622017800808,-0.00045170672819949687,-0.008914846926927567
0.02198086678981781,0.004369618371129036,-0.015943510457873344,0.012238427065312862,-0.0004179223906248808,-0.00941823236644268
0.021898765116930008,0.0043947151862084866,-0.01640002615749836,0.012512436136603355,-0.0003822424332611263,-0.008968970738351345
0.022534996271133423,0.004325454588979483,-0.01648939959704876,0.01213681697845459,-0.0003522819315548986,-0.008840556256473064
0.022343788295984268,0.004323950503021479,-0.016059167683124542,0.012534507550299168,-0.0003874228277709335,-0.008570120669901371
0.022870618849992752,0.004194449167698622,-0.01680375449359417,0.012088763527572155,-0.0004177943046670407,-0.008805086836218834
0.021782241761684418,0.00440656254068017,-0.016432644799351692,0.012052146717905998,-0.0004407731757964939,-0.008628424257040024
0.02219289354979992,0.003924233373254538,-0.016501858830451965,0.012202871032059193,-0.000698360672686249,-0.009280884638428688
0.022707974538207054,0.003970185294747353,-0.016644377261400223,0.012378574348986149,-0.0007431115955114365,-0.008858246728777885
0.022761555388569832,0.0040265824645757675,-0.017746608704328537,0.011839739978313446,-0.0007488227565772831,-0.008854120038449764
0.02249971218407154,0.004447462037205696,-0.017061717808246613,0.012398174032568932,-0.000878034858033061,-0.009359830990433693
0.0226555485278368,0.004133958835154772,-0.017296696081757545,0.0120383370667696,-0.0009641308570280671,-0.009297188371419907
0.023166948929429054,0.003855841001495719,-0.016646401956677437,0.01244930736720562,-0.0009591973503120244,-0.00918474979698658
0.023083211854100227,0.004277266561985016,-0.01676015742123127,0.01216601300984621,-0.000951244670432061,-0.009960641153156757
0.023083211854100227,0.004277266561985016,-0.01676015742123127,0.01216601300984621,-0.000951244670432061,-0.009960641153156757
0.023630617186427116,0.004123430233448744,-0.01704971119761467,0.012051790952682495,-0.0009021450532600284,-0.009392273612320423
0.022473372519016266,0.0039501190185546875,-0.016744066029787064,0.012569814920425415,-0.000971257162746042,-0.009411588311195374
0.02275433950126171,0.003465077141299844,-0.017404787242412567,0.012160182930529118,-0.0009642491349950433,-0.00962047278881073
0.022973891347646713,0.003925561439245939,-0.01641104370355606,0.0130661241710186,-0.0008943499997258186,-0.009549513459205627
0.023479396477341652,0.004214384127408266,-0.01668909564614296,0.012569691054522991,-0.0008832573075778782,-0.009212658740580082
0.023792190477252007,0.004103320185095072,-0.01678543910384178,0.013028334826231003,-0.0007984971744008362,-0.009449473582208157
0.02358105778694153,0.003971622791141272,-0.017076140269637108,0.012925426475703716,-0.0007194363279268146,-0.009574328549206257
0.023493289947509766,0.0034876028075814247,-0.01695437729358673,0.012699137441813946,-0.0006474159308709204,-0.010685006156563759
0.02315356396138668,0.0035803792998194695,-0.017193550243973732,0.012518182396888733,-0.0006648406852036715,-0.010304187424480915
0.023519888520240784,0.0036532715894281864,-0.017458980903029442,0.01227313932031393,-0.0006036865524947643,-0.009691142477095127
0.023899342864751816,0.004153336398303509,-0.016851011663675308,0.012781077064573765,-0.0006099133170209825,-0.009500835090875626
0.023710886016488075,0.004140270873904228,-0.01698283851146698,0.012842435389757156,-0.000574687379412353,-0.009584352374076843
0.023103825747966766,0.003925524652004242,-0.01697371155023575,0.01282715518027544,-0.0005831235903315246,-0.010146550834178925
0.024390870705246925,0.0037692042533308268,-0.01695108227431774,0.012725131586194038,-0.0005580423166975379,-0.00989115796983242
0.02398385852575302,0.0037441737949848175,-0.01638835482299328,0.012991760857403278,-0.0005758969346061349,-0.009949256666004658
0.024183819070458412,0.0039034150540828705,-0.016347872093319893,0.013172926381230354,-0.0005651638493873179,-0.00975862331688404
0.024702945724129677,0.003954044543206692,-0.017736272886395454,0.013103886507451534,-0.0005520222475752234,-0.010294719599187374
0.02435438707470894,0.0038666243199259043,-0.017759205773472786,0.013338147662580013,-0.0005034393980167806,-0.009908071719110012
0.024396507069468498,0.0038676869589835405,-0.01707017421722412,0.013017209246754646,-0.0005268148379400373,-0.00954041350632906
0.024446308612823486,0.004383370280265808,-0.017314307391643524,0.013623432256281376,-0.0004944567335769534,-0.00974800530821085
0.02503388747572899,0.00441271485760808,-0.01712682656943798,0.013500872068107128,-0.00048781605437397957,-0.010473675094544888
0.024665124714374542,0.00417714286595583,-0.017002593725919724,0.013331349939107895,-0.0004986068815924227,-0.010887141339480877
0.025014901533722878,0.003944655880331993,-0.01704840548336506,0.013819999061524868,-0.00045581767335534096,-0.010692504234611988
0.025261277332901955,0.0038536235224455595,-0.01763744093477726,0.012908737175166607,-0.00048567060730420053,-0.010505251586437225
0.025370262563228607,0.004368451423943043,-0.0170074962079525,0.012907483614981174,-0.0004544938856270164,-0.010250280611217022
0.024659324437379837,0.0044375015422701836,-0.017130263149738312,0.012595984153449535,-0.00047114293556660414,-0.010006413795053959
0.025152098387479782,0.004174476955085993,-0.017004890367388725,0.012877929024398327,-0.0005009285523556173,-0.0102242361754179
0.025480400770902634,0.004338668193668127,-0.017154298722743988,0.013369347900152206,-0.00048554997192695737,-0.010338181629776955
0.025480400770902634,0.004338668193668127,-0.017154298722743988,0.013369347900152206,-0.00048554997192695737,-0.010338181629776955
0.02557365410029888,0.004208970814943314,-0.017574047669768333,0.013206728734076023,-0.0005796169862151146,-0.010726133361458778
0.025662237778306007,0.0040156180039048195,-0.016668353229761124,0.014048710465431213,-0.0006195111782290041,-0.01013856939971447
0.025789774954319,0.003835780546069145,-0.017618929967284203,0.013875935226678848,-0.0006425849860534072,-0.010098143480718136
0.02580229565501213,0.0043338690884411335,-0.017339151352643967,0.013966215774416924,-0.0005933942156843841,-0.010366391390562057
0.02588558755815029,0.00417195213958621,-0.01709967851638794,0.013484635390341282,-0.0006098004523664713,-0.010640728287398815
0.026153502985835075,0.004343079403042793,-0.017219431698322296,0.014063535258173943,-0.000570586184039712,-0.011054446920752525
0.025704098865389824,0.004194699227809906,-0.016775330528616905,0.01308437529951334,-0.0005850088782608509,-0.010231200605630875
0.026001887395977974,0.004009956959635019,-0.017406458035111427,0.01460179127752781,-0.0005668877274729311,-0.010051913559436798
0.02662000246345997,0.004227621015161276,-0.017407648265361786,0.012881831265985966,-0.0005937000969424844,-0.010367599315941334
0.02715950831770897,0.004456242546439171,-0.017565036192536354,0.012994945980608463,-0.0006240303628146648,-0.010016849264502525
0.026665281504392624,0.004152648616582155,-0.017366774380207062,0.013436291366815567,-0.0006493799155578017,-0.010683758184313774
0.024431046098470688,0.003990883938968182,-0.016456805169582367,0.014261431992053986,-0.0006111704860813916,-0.01059024129062891
0.026890762150287628,0.0038916138000786304,-0.017404168844223022,0.014353983104228973,-0.0007199147948995233,-0.010752014815807343
0.027425777167081833,0.0038698220159858465,-0.01764187030494213,0.013746795244514942,-0.0007406458607874811,-0.011707707308232784
0.027078885585069656,0.004383625462651253,-0.017603430896997452,0.013844908215105534,-0.0007600178942084312,-0.01131740864366293
0.02668839693069458,0.004610707052052021,-0.017551466822624207,0.01418350450694561,-0.0007625800790265203,-0.010995552875101566
0.028250709176063538,0.00392053322866559,-0.017724335193634033,0.014113985933363438,-0.0006928318762220442,-0.010773901827633381
0.027434570714831352,0.003824467770755291,-0.017092924565076828,0.014018464833498001,-0.000642044993583113,-0.01089459378272295
0.026063943281769753,0.003982102498412132,-0.01708441600203514,0.014204386621713638,-0.0006466525373980403,-0.01107444241642952
0.025920508429408073,0.003954083193093538,-0.017874393612146378,0.014212969690561295,-0.0005999684799462557,-0.010874823667109013
0.02729814127087593,0.0038429745472967625,-0.017442386597394943,0.013694146648049355,-0.0006190302083268762,-0.011030820198357105
0.027216849848628044,0.003821186488494277,-0.018023064360022545,0.013726272620260715,-0.000612856587395072,-0.010932110249996185
0.027050433680415154,0.0038697144482284784,-0.018143177032470703,0.013310224749147892,-0.000598460785113275,-0.010868743062019348
0.026962118223309517,0.004289837088435888,-0.01774492859840393,0.013536655344069004,-0.0006207681144587696,-0.010787439532577991
0.026962118223309517,0.004289837088435888,-0.01774492859840393,0.013536655344069004,-0.0006207681144587696,-0.010787439532577991
0.02714834176003933,0.004019152373075485,-0.016697270795702934,0.013839184306561947,-0.0006790781044401228,-0.01066597830504179
0.02714834176003933,0.004019152373075485,-0.016697270795702934,0.013839184306561947,-0.0006790781044401228,-0.01066597830504179
0.027324439957737923,0.003977704327553511,-0.017539191991090775,0.013743308372795582,-0.0007010074332356453,-0.01102879922837019
0.026752693578600883,0.003966710064560175,-0.018124116584658623,0.014049360528588295,-0.0010046203387901187,-0.011200427077710629
0.027265259996056557,0.003984191454946995,-0.01799040473997593,0.013822264969348907,-0.0010643219575285912,-0.011411013081669807
0.027592413127422333,0.003961842507123947,-0.017932014539837837,0.014757730066776276,-0.0009466152987442911,-0.011365890502929688
0.02779221348464489,0.004399821162223816,-0.017461292445659637,0.014479260891675949,-0.0009341532131657004,-0.011407516896724701
0.027493540197610855,0.004162302240729332,-0.017855091020464897,0.014732401818037033,-0.0008368204580619931,-0.011520162224769592
0.027764325961470604,0.004288035910576582,-0.018573081120848656,0.014102527871727943,-0.0007831677794456482,-0.010702109895646572
0.027425365522503853,0.004270802717655897,-0.01821889728307724,0.014357324689626694,-0.0006719731609337032,-0.010566243901848793
0.027832873165607452,0.0037212695460766554,-0.017974920570850372,0.014140482991933823,-0.0006929656374268234,-0.011154107749462128
0.02779867686331272,0.0034695491194725037,-0.018703335896134377,0.014923679642379284,-0.0006203262601047754,-0.01113726757466793
0.027784500271081924,0.003652620129287243,-0.01814340427517891,0.013977885246276855,-0.0006365259760059416,-0.011585832573473454
0.02718951925635338,0.004407372325658798,-0.01819724217057228,0.014134611003100872,-0.0005879153031855822,-0.01143360510468483
0.028799764811992645,0.004319433122873306,-0.01781032606959343,0.013836373575031757,-0.000575512065552175,-0.011251220479607582
0.02877609059214592,0.003981493413448334,-0.017737317830324173,0.014638039283454418,-0.0005642204196192324,-0.011137086898088455
0.028728226199746132,0.0040895696729421616,-0.018651846796274185,0.013875647448003292,-0.0005252516712062061,-0.011227980256080627
0.027767037972807884,0.003938071895390749,-0.017950497567653656,0.014283400028944016,-0.00047462829388678074,-0.011199170723557472
0.027340587228536606,0.0037406436167657375,-0.01790878362953663,0.013979434967041016,-0.0004172985500190407,-0.011687220074236393
0.028072522953152657,0.003775651566684246,-0.018026774749159813,0.014358626678586006,-0.0004178858653176576,-0.011586727574467659
0.028919801115989685,0.0042845080606639385,-0.017755765467882156,0.014220506884157658,-0.0004188949824310839,-0.01177065446972847
0.028300834819674492,0.004203211050480604,-0.018053269013762474,0.013817262835800648,-0.00042413268238306046,-0.011216392740607262
0.029009759426116943,0.0040052649565041065,-0.017816772684454918,0.013882354833185673,-0.000440183182945475,-0.011650359258055687
0.0288865827023983,0.003976623527705669,-0.018367791548371315,0.013875896111130714,-0.0004271988000255078,-0.01199926994740963
0.02800995670258999,0.003887599566951394,-0.017959831282496452,0.014494051225483418,-0.0005050678737461567,-0.012911761179566383
0.028334088623523712,0.003790038637816906,-0.01803411915898323,0.014231509529054165,-0.0005562528385780752,-0.012045216746628284
0.028942609205842018,0.004099174868315458,-0.018149694427847862,0.014338222332298756,-0.0005685279611498117,-0.011919802986085415
0.02903079055249691,0.004213151056319475,-0.017692487686872482,0.013968396931886673,-0.0005580046563409269,-0.011695800349116325
0.02905919775366783,0.004288478754460812,-0.01827334612607956,0.014752754010260105,-0.0005784344393759966,-0.011691165156662464
0.028964819386601448,0.004057233687490225,-0.018150608986616135,0.01430357526987791,-0.000545760674867779,-0.012156699784100056
0.028964819386601448,0.004057233687490225,-0.018150608986616135,0.01430357526987791,-0.000545760674867779,-0.012156699784100056
0.02914254181087017,0.0039233313873410225,-0.018036626279354095,0.01471687387675047,-0.000684080645442009,-0.011958878487348557
0.028892986476421356,0.004368598107248545,-0.018790315836668015,0.014298548921942711,-0.0007187527953647077,-0.012155183590948582
0.029191793873906136,0.004186037927865982,-0.018121253699064255,0.014832360669970512,-0.000740635150577873,-0.012147868052124977
0.029336266219615936,0.004328369628638029,-0.017958909273147583,0.014963852241635323,-0.0007575676427222788,-0.012264931574463844
0.029628459364175797,0.0042535047978162766,-0.018251297995448112,0.015318628400564194,-0.0008864873670972884,-0.01252525020390749
0.029655039310455322,0.0041030701249837875,-0.017861513420939445,0.014766857959330082,-0.0009004410239867866,-0.012557940557599068
0.029841739684343338,0.00444194208830595,-0.01853029802441597,0.015087991952896118,-0.0009011207730509341,-0.012828185223042965
0.030406810343265533,0.004520270507782698,-0.01864437945187092,0.014646319672465324,-0.0008574232924729586,-0.012719612568616867
0.030721621587872505,0.0041991653852164745,-0.018161354586482048,0.015611669979989529,-0.0008105881861411035,-0.012715939432382584
0.028969688341021538,0.00379569036886096,-0.01846362091600895,0.015733161941170692,-0.0007871505804359913,-0.012514329515397549
0.03073403425514698,0.003653409657999873,-0.0182780884206295,0.016112912446260452,-0.0006813219515606761,-0.01263829879462719
0.03044329211115837,0.004168724175542593,-0.01797524094581604,0.015746742486953735,-0.0007018393953330815,-0.013043814338743687
0.03068551979959011,0.004075079690665007,-0.018507162109017372,0.015669820830225945,-0.000677530886605382,-0.013108598068356514
0.03062324784696102,0.004421771038323641,-0.018210867419838905,0.015194959007203579,-0.0006525777862407267,-0.013149386271834373
0.030599944293498993,0.004624896217137575,-0.018521113321185112,0.014777103438973427,-0.0005939650000073016,-0.01279223058372736
0.030800441280007362,0.004422379191964865,-0.018584681674838066,0.01482503954321146,-0.0005997595144435763,-0.012929484248161316
0.030836373567581177,0.00416595209389925,-0.01769719272851944,0.015025731176137924,-0.0005698601016774774,-0.012418845668435097
0.03123445063829422,0.0039110626094043255,-0.018255705013871193,0.015542205423116684,-0.0005273399874567986,-0.012471659108996391
0.03105274587869644,0.0037647320423275232,-0.01859029196202755,0.016624245792627335,-0.0004731332592200488,-0.012680021114647388
0.03161092847585678,0.004757996182888746,-0.018705736845731735,0.015045229345560074,-0.0005060859839431942,-0.012892263010144234
0.03174840658903122,0.005127111449837685,-0.018644189462065697,0.01539977453649044,-0.0005008007283322513,-0.013067937456071377
0.03197696805000305,0.004501509014517069,-0.018139122053980827,0.014919859357178211,-0.0005149528151378036,-0.013322575017809868
0.031574852764606476,0.004228285513818264,-0.018532920628786087,0.01578330248594284,-0.0004949003923684359,-0.012933161109685898
0.0315011590719223,0.003923709504306316,-0.01857142709195614,0.01541729923337698,-0.0006035678670741618,-0.01333098579198122
0.03207216039299965,0.0037687697913497686,-0.018710684031248093,0.015506300143897533,-0.0006467975908890367,-0.013590323738753796
0.0327591598033905,0.003836186835542321,-0.019497370347380638,0.014936402440071106,-0.000662237114738673,-0.01369022112339735
0.03269057348370552,0.004273966420441866,-0.0185378510504961,0.01545606181025505,-0.0006200073403306305,-0.013730310834944248
0.030897358432412148,0.004575078375637531,-0.018746040761470795,0.015023025684058666,-0.0006408144836314023,-0.013616429641842842
0.030897358432412148,0.004575078375637531,-0.018746040761470795,0.015023025684058666,-0.0006408144836314023,-0.013616429641842842
0.03220542520284653,0.00463606184348464,-0.01899814046919346,0.014793320558965206,-0.0006858331616967916,-0.013359825126826763
0.033310312777757645,0.004130177199840546,-0.018392466008663177,0.0147653017193079,-0.0006722226389683783,-0.013377931900322437
0.03298833966255188,0.0038327875081449747,-0.01958702877163887,0.015164755284786224,-0.0006909428047947586,-0.013253454118967056
0.033514782786369324,0.0038071617018431425,-0.020329808816313744,0.016076572239398956,-0.0006249008001759648,-0.013577175326645374
0.03233978524804115,0.00387773010879755,-0.01965097337961197,0.016666259616613388,-0.0006057679420337081,-0.013185378164052963
0.031610388308763504,0.00413662800565362,-0.018865060061216354,0.016807254403829575,-0.0005895463400520384,-0.01305041927844286
0.031616583466529846,0.004141939338296652,-0.019831642508506775,0.016131959855556488,-0.0006133418646641076,-0.013415065594017506
0.03249794989824295,0.0043365247547626495,-0.01943597011268139,0.01616840250790119,-0.0005938858375884593,-0.013413021340966225
0.03329833596944809,0.004487145692110062,-0.01994158700108528,0.015575496479868889,-0.0005468864692375064,-0.013985426165163517
0.03138202801346779,0.004071029834449291,-0.019817102700471878,0.01573670469224453,-0.0004890196141786873,-0.014109448529779911
0.03338349983096123,0.003955502528697252,-0.019715305417776108,0.01595868170261383,-0.0005229513626545668,-0.014145820401608944
0.03314559906721115,0.004012166988104582,-0.01910003274679184,0.01611260697245598,-0.000520409899763763,-0.013899252749979496
0.03207067772746086,0.004076184239238501,-0.01961548812687397,0.01619195006787777,-0.0005135021056048572,-0.014257765375077724
0.032725460827350616,0.004077158402651548,-0.020169707015156746,0.015910034999251366,-0.0005357576883397996,-0.01434711180627346
0.033289484679698944,0.0045264605432748795,-0.01960277557373047,0.016178792342543602,-0.0005062349955551326,-0.014501008205115795
0.03279387205839157,0.004452465567737818,-0.02031380869448185,0.015671759843826294,-0.000473462714580819,-0.014106144197285175
0.03360947594046593,0.0038998888339847326,-0.019193217158317566,0.01616399735212326,-0.00048326110118068755,-0.013622740283608437
0.03347299247980118,0.00356915220618248,-0.019722044467926025,0.01643458940088749,-0.000479184091091156,-0.013625187799334526
0.03321833536028862,0.0037443097680807114,-0.02033875323832035,0.015879323706030846,-0.0005109678604640067,-0.013793857768177986
0.03291291743516922,0.003974364139139652,-0.01967877335846424,0.01617605797946453,-0.0005357384798116982,-0.013936426490545273
0.03436504676938057,0.003917464055120945,-0.019525805488228798,0.016488730907440186,-0.0007096352055668831,-0.014213833026587963
0.03508278727531433,0.004447027109563351,-0.01985623873770237,0.01609811745584011,-0.0007885192753747106,-0.014518680050969124
0.032945696264505386,0.004743840545415878,-0.019784780219197273,0.016277601942420006,-0.0008145234314724803,-0.014638343825936317
0.03319210186600685,0.004233528394252062,-0.019724931567907333,0.016084538772702217,-0.0008251180406659842,-0.014837455935776234
0.03438888490200043,0.0038669370114803314,-0.019946027547121048,0.016109464690089226,-0.0009350230684503913,-0.014597589150071144
0.033586349338293076,0.004238510970026255,-0.01976548135280609,0.015999864786863327,-0.0009512233082205057,-0.01495353039354086
0.033586349338293076,0.004238510970026255,-0.01976548135280609,0.015999864786863327,-0.0009512233082205057,-0.01495353039354086
0.034867748618125916,0.0042235106229782104,-0.019389932975172997,0.016064289957284927,-0.0009096877765841782,-0.014815428294241428
0.03504093736410141,0.003976947162300348,-0.019715938717126846,0.01625709980726242,-0.0008481434779241681,-0.014998461119830608
0.03488541767001152,0.004245468880981207,-0.0196277666836977,0.016224302351474762,-0.0008429656154476106,-0.015158681198954582
0.03297672048211098,0.004525442142039537,-0.01973549835383892,0.01650555245578289,-0.0007658878457732499,-0.015300028026103973
0.03457585349678993,0.00466578034684062,-0.020011184737086296,0.016141360625624657,-0.0007003744831308722,-0.01538336556404829
0.03537226840853691,0.00418925192207098,-0.019949238747358322,0.016518333926796913,-0.0006988601526245475,-0.015393792651593685
0.03462401032447815,0.004363889340311289,-0.019322039559483528,0.016340112313628197,-0.0006428026244975626,-0.0152515210211277
0.03485433757305145,0.004193390719592571,-0.0198670681566,0.01647753268480301,-0.0006649191491305828,-0.01512114517390728
0.034845270216464996,0.003990905359387398,-0.02001722902059555,0.016367893666028976,-0.000670184672344476,-0.015166937373578548
0.03521556779742241,0.004207424819469452,-0.019687553867697716,0.016308985650539398,-0.0007458899635821581,-0.01542707346379757
0.03513317182660103,0.004673313815146685,-0.019811876118183136,0.016570430248975754,-0.0007939999923110008,-0.015560241416096687
0.03513796254992485,0.004673005547374487,-0.020126167684793472,0.016555512323975563,-0.000817669031675905,-0.015476786531507969
0.034800056368112564,0.004333350341767073,-0.019751299172639847,0.017234718427062035,-0.0008278164314106107,-0.015288769267499447
0.03516949713230133,0.004028155468404293,-0.019982999190688133,0.016655080020427704,-0.000999517273157835,-0.015237818472087383
0.035359546542167664,0.00391869992017746,-0.019976677373051643,0.01659289188683033,-0.0010106220142915845,-0.015695173293352127
0.03558516129851341,0.0038887362461537123,-0.02009492553770542,0.0173714067786932,-0.0009300723322667181,-0.015695758163928986
0.03555002808570862,0.004196341149508953,-0.020178213715553284,0.016224823892116547,-0.0008555997628718615,-0.015121004544198513
0.0354965403676033,0.004267659038305283,-0.019812097772955894,0.01601393148303032,-0.000782264512963593,-0.015231928788125515
0.03457145020365715,0.004031917080283165,-0.019725479185581207,0.01723150908946991,-0.000737558351829648,-0.015284701250493526
0.036567069590091705,0.0042771087028086185,-0.02035345695912838,0.017563579604029655,-0.000754702603444457,-0.01550085749477148
0.03645852580666542,0.004177813418209553,-0.02105484902858734,0.01694212108850479,-0.0007712740916758776,-0.01541644986718893
0.03601309657096863,0.003996578045189381,-0.020606502890586853,0.017491016536951065,-0.0007453270372934639,-0.015485052019357681
0.03640223667025566,0.003970777150243521,-0.020481377840042114,0.016994386911392212,-0.0009837911929935217,-0.01547000091522932
0.036467764526605606,0.004368945490568876,-0.02032219059765339,0.018223337829113007,-0.0009114828426390886,-0.015685852617025375
0.036452312022447586,0.004305788315832615,-0.020678099244832993,0.017829416319727898,-0.000847037008497864,-0.015890026465058327
0.03657086193561554,0.004469632636755705,-0.020419996231794357,0.01668001338839531,-0.0007950974977575243,-0.015557636506855488
0.03647366166114807,0.004249658435583115,-0.0211834404617548,0.01722148060798645,-0.0007576964562758803,-0.016100652515888214
0.03640998154878616,0.003996014129370451,-0.020940512418746948,0.01684308610856533,-0.0007250802591443062,-0.016107628121972084
0.03633582219481468,0.004201320931315422,-0.020718343555927277,0.017430929467082024,-0.0006555462023243308,-0.01614716649055481
0.03633582219481468,0.004201320931315422,-0.020718343555927277,0.017430929467082024,-0.0006555462023243308,-0.01614716649055481
0.03673825040459633,0.0046455590054392815,-0.02107476256787777,0.017634892836213112,-0.000626244000159204,-0.016171254217624664
0.03802600875496864,0.004279627464711666,-0.0216728076338768,0.017084436491131783,-0.0006532093393616378,-0.01635027304291725
0.037405867129564285,0.004323398694396019,-0.021160777658224106,0.017648570239543915,-0.0006341642001643777,-0.016613949090242386
0.035833410918712616,0.004283735062927008,-0.020162371918559074,0.017192887142300606,-0.0006501572788693011,-0.016490908339619637
0.03691767156124115,0.00452480698004365,-0.020477093756198883,0.01738821156322956,-0.0008304827497340739,-0.016505850479006767
0.03684739023447037,0.004258360248059034,-0.02137785777449608,0.01675228774547577,-0.0008685869979672134,-0.01622270792722702
0.03713439777493477,0.003979655914008617,-0.020628293976187706,0.016616318374872208,-0.0008746556704863906,-0.015738336369395256
0.03898405283689499,0.0038776390720158815,-0.020631341263651848,0.017221402376890182,-0.0008702803170308471,-0.01568339765071869
0.037680309265851974,0.004185298457741737,-0.021566618233919144,0.017010090872645378,-0.0008747481624595821,-0.01630338281393051
0.03631376847624779,0.004104571882635355,-0.021294454112648964,0.017637843266129494,-0.0008855817723087966,-0.01650557667016983
0.03778000548481941,0.0042485436424613,-0.02144857496023178,0.017769820988178253,-0.0008228768710978329,-0.01702556572854519
0.03834898769855499,0.004445982631295919,-0.020951639860868454,0.01772851124405861,-0.0008286922238767147,-0.01697605289518833
0.037898704409599304,0.004366498440504074,-0.021310584619641304,0.017894446849822998,-0.0008158288546837866,-0.016655605286359787
0.0382775142788887,0.004067830741405487,-0.021483728662133217,0.017345037311315536,-0.000754442298784852,-0.017001794651150703
0.03808468580245972,0.004413821268826723,-0.021154772490262985,0.017683357000350952,-0.000737111025955528,-0.01722106710076332
0.03769465908408165,0.004308395553380251,-0.021216770634055138,0.01830759458243847,-0.0008182661258615553,-0.017720432952046394
0.038586102426052094,0.004416523966938257,-0.02156447432935238,0.01798119582235813,-0.0008324135560542345,-0.017311910167336464
0.037796273827552795,0.004591359291225672,-0.0213423240929842,0.017577124759554863,-0.0010161712998524308,-0.01649167761206627
0.03791049122810364,0.0047301035374403,-0.021592658013105392,0.018105797469615936,-0.0009355474030598998,-0.016412658616900444
0.03830496594309807,0.004438344389200211,-0.02151193469762802,0.01840529963374138,-0.0009259870857931674,-0.01694369874894619
0.03882864862680435,0.004206962883472443,-0.022133279591798782,0.01783049665391445,-0.0008991195354610682,-0.016942432150244713
0.03861313685774803,0.0041915541514754295,-0.021502306684851646,0.018231971189379692,-0.0008225724450312555,-0.018479954451322556
0.0370432510972023,0.004475085064768791,-0.021444031968712807,0.01820678822696209,-0.0007690279744565487,-0.01685512252151966
0.03815026953816414,0.004095812793821096,-0.021935615688562393,0.018217571079730988,-0.0007783395703881979,-0.016451802104711533
0.03764157369732857,0.004438402596861124,-0.02203277125954628,0.01856396533548832,-0.0007782635511830449,-0.016870366409420967
0.03901837766170502,0.004622581414878368,-0.021271545439958572,0.017894014716148376,-0.0007655669469386339,-0.017276352271437645
0.03911009058356285,0.0045567830093204975,-0.021536994725465775,0.018011147156357765,-0.0007350357482209802,-0.017627520486712456
0.037226732820272446,0.004298144951462746,-0.021864688023924828,0.018525511026382446,-0.0008740539196878672,-0.01739531010389328
0.03733045607805252,0.004824943374842405,-0.022080078721046448,0.01855219155550003,-0.0009199003106914461,-0.01729365438222885
0.03733045607805252,0.004824943374842405,-0.022080078721046448,0.01855219155550003,-0.0009199003106914461,-0.01729365438222885
0.03878557309508324,0.004815043415874243,-0.021893763914704323,0.020408323034644127,-0.0009420515852980316,-0.017210084944963455
0.038741692900657654,0.004437096416950226,-0.02133323810994625,0.018384581431746483,-0.0013243623543530703,-0.016884656623005867
0.03883218765258789,0.004489820916205645,-0.021931186318397522,0.01754017174243927,-0.0013008051319047809,-0.017127230763435364
0.03842220455408096,0.004570492543280125,-0.02223808690905571,0.018398631364107132,-0.0012373183853924274,-0.01755397394299507
0.038148123770952225,0.004586949944496155,-0.021839862689375877,0.018910137936472893,-0.0011577843688428402,-0.017562909051775932
0.0390104204416275,0.004687258042395115,-0.021595865488052368,0.018609780818223953,-0.0011038795346394181,-0.01753336191177368
0.039032258093357086,0.0047133308835327625,-0.022033214569091797,0.018793564289808273,-0.0010373278055340052,-0.01740429177880287
0.03863842785358429,0.0044628931209445,-0.022293897345662117,0.01869344711303711,-0.000919668294955045,-0.017786351963877678
0.03902776539325714,0.004574615973979235,-0.02199525572359562,0.018577544018626213,-0.0009026971529237926,-0.017977720126509666
0.039288781583309174,0.004764700308442116,-0.021729495376348495,0.019062863662838936,-0.0008139312267303467,-0.017598677426576614
0.03971393406391144,0.004726744722574949,-0.02207941561937332,0.018711980432271957,-0.0006807305035181344,-0.0178512055426836
0.039476945996284485,0.004734037443995476,-0.023069515824317932,0.018627764657139778,-0.0006372047937475145,-0.01781030371785164
0.039291273802518845,0.004828033037483692,-0.02304505743086338,0.019232746213674545,-0.0006132749258540571,-0.017557503655552864
0.04004988446831703,0.004644969943910837,-0.022586099803447723,0.019029196351766586,-0.0006390927592292428,-0.017678529024124146
0.039621900767087936,0.00435921223834157,-0.021794602274894714,0.018652794882655144,-0.0006680713850073516,-0.018141478300094604
0.039784252643585205,0.004270900506526232,-0.022239668294787407,0.01876578852534294,-0.0009491480304859579,-0.018088074401021004
0.04014110192656517,0.004777818452566862,-0.024290340021252632,0.018726816400885582,-0.0009575093863531947,-0.017988311126828194
0.04056374728679657,0.00478660874068737,-0.02283601090312004,0.0192155372351408,-0.0009199912892654538,-0.01814979314804077
0.040409792214632034,0.0052077798172831535,-0.02277672104537487,0.019341452047228813,-0.0010428521782159805,-0.018017373979091644
0.04057068005204201,0.0048833186738193035,-0.024244308471679688,0.019002245739102364,-0.0009857423137873411,-0.01765543222427368
0.04040779545903206,0.004757792688906193,-0.02304094471037388,0.018998228013515472,-0.0009711628081277013,-0.018199048936367035
0.040635883808135986,0.004453352186828852,-0.02196701243519783,0.019012313336133957,-0.0009075822308659554,-0.018307527527213097
0.04066500440239906,0.004407189320772886,-0.022395672276616096,0.01940210536122322,-0.0008745191735215485,-0.01810094341635704
0.04000457003712654,0.004707817453891039,-0.022315070033073425,0.02009454183280468,-0.0008829699363559484,-0.01794799603521824
0.041571833193302155,0.004767812322825193,-0.022648971527814865,0.019595302641391754,-0.0008855287451297045,-0.01805511862039566
0.04191784933209419,0.004703978076577187,-0.023610109463334084,0.018567271530628204,-0.0008927940507419407,-0.018104970455169678
0.04191784933209419,0.004703978076577187,-0.023610109463334084,0.018567271530628204,-0.0008927940507419407,-0.018104970455169678
0.039394259452819824,0.004350737202912569,-0.022509194910526276,0.019088923931121826,-0.0010574894258752465,-0.01819443516433239
0.0404251292347908,0.004081401042640209,-0.02234211005270481,0.019354047253727913,-0.00096418138127774,-0.01843217760324478
0.041137583553791046,0.004314797930419445,-0.022790495306253433,0.0201118104159832,-0.0008881582180038095,-0.01849048212170601
0.04146411269903183,0.0049218530766665936,-0.023056674748659134,0.019852742552757263,-0.0008286121301352978,-0.0181803610175848
0.0427694208920002,0.005014726892113686,-0.022740034386515617,0.01902848482131958,-0.000825700641144067,-0.017915118485689163
0.04124407097697258,0.004610427189618349,-0.022398244589567184,0.01884884014725685,-0.0007603036938235164,-0.018212033435702324
0.040032558143138885,0.004343710839748383,-0.022293126210570335,0.01929047517478466,-0.0007709592464379966,-0.018169216811656952
0.04197954013943672,0.004486895631998777,-0.023029591888189316,0.019828608259558678,-0.0007946243276819587,-0.018317215144634247
0.0420578196644783,0.0045893220230937,-0.023215603083372116,0.019770748913288116,-0.0008092483622021973,-0.01855919137597084
0.041350141167640686,0.004877111874520779,-0.022648340091109276,0.020305447280406952,-0.0011436812346801162,-0.018267888575792313
0.04124557971954346,0.00446645263582468,-0.022395100444555283,0.02022598125040531,-0.0011198712745681405,-0.018513387069106102
0.04161384329199791,0.0049882507883012295,-0.022493064403533936,0.01993144303560257,-0.001105288160033524,-0.01816754788160324
0.04161151871085167,0.004837895277887583,-0.022718779742717743,0.020837698131799698,-0.001254528877325356,-0.019393257796764374
0.04162580147385597,0.004677667282521725,-0.02300202287733555,0.019437985494732857,-0.0012568363454192877,-0.018663320690393448
0.0414881557226181,0.004409647546708584,-0.02299826219677925,0.018776830285787582,-0.0012205415405333042,-0.018658708781003952
0.04292787238955498,0.004415840841829777,-0.02234404720366001,0.019698522984981537,-0.0011934776557609439,-0.018975932151079178
0.0420767180621624,0.004710126668214798,-0.022513872012495995,0.020402487367391586,-0.0011307192035019398,-0.018986817449331284
0.04032338038086891,0.004857674706727266,-0.022614585235714912,0.020245861262083054,-0.0010486029786989093,-0.0188099704682827
0.04195602238178253,0.004838503897190094,-0.02304818667471409,0.02019311487674713,-0.001023202552460134,-0.01821497082710266
0.04254664108157158,0.004572914447635412,-0.022603735327720642,0.02059834823012352,-0.0009498063009232283,-0.019084906205534935
0.04349131137132645,0.0045644124038517475,-0.022204691544175148,0.02075171284377575,-0.0008332764846272767,-0.019591595977544785
0.04073372483253479,0.004799935966730118,-0.022806061431765556,0.020474495366215706,-0.0007889744592830539,-0.01948270946741104
0.04232379049062729,0.004525734111666679,-0.02270418033003807,0.020675022155046463,-0.0008001700625754893,-0.018895883113145828
0.043027009814977646,0.0050624036230146885,-0.021963652223348618,0.020968252792954445,-0.000861531007103622,-0.019394150003790855
0.042467307299375534,0.004844027105718851,-0.022183319553732872,0.020921088755130768,-0.0009258551872335374,-0.0198706965893507
0.04194992780685425,0.004363316111266613,-0.02253696508705616,0.020818956196308136,-0.0008914379286579788,-0.019991647452116013
0.04194992780685425,0.004363316111266613,-0.02253696508705616,0.020818956196308136,-0.0008914379286579788,-0.019991647452116013
0.042386140674352646,0.004699499346315861,-0.02294345013797283,0.020822685211896896,-0.0008489421452395618,-0.01933831162750721
0.042436666786670685,0.005105637013912201,-0.021872539073228836,0.020645497366786003,-0.0010020008776336908,-0.01848604343831539
