davideferrari95/blind_handover_controller/data/Test 289 - [2024-02-08 -- 13-58-26]/joint_states_data.csv
shoulder_pan_joint,shoulder_lift_joint,elbow_joint,wrist_1_joint,wrist_2_joint,wrist_3_joint
0.005706282332539558,0.008485144004225731,-0.010636811144649982,0.002231049118563533,0.00013280792336445302,0.005587165243923664
0.005706282332539558,0.008485144004225731,-0.010636811144649982,0.002231049118563533,0.00013280792336445302,0.005587165243923664
0.005467040929943323,0.008431757800281048,-0.010363482870161533,0.002150207292288542,0.00013233399658929557,0.005615607835352421
0.005467040929943323,0.008431757800281048,-0.010363482870161533,0.002150207292288542,0.00013233399658929557,0.005615607835352421
0.005034702830016613,0.007740078493952751,-0.010720610618591309,0.00227741664275527,0.00012975960271432996,0.00595002481713891
0.004903396125882864,0.008225638419389725,-0.010667170397937298,0.00207017594948411,0.00012715041521005332,0.0056274207308888435
0.005599189084023237,0.008499112911522388,-0.011177984066307545,0.0019341441802680492,0.0001246356696356088,0.00579421129077673
0.005844129715114832,0.00866626761853695,-0.010918832384049892,0.001792409922927618,0.00012221773795317858,0.0056334189139306545
0.005486359819769859,0.008825020864605904,-0.010618062689900398,0.001686112955212593,0.00011765267117880285,0.00604958925396204
0.0054822019301354885,0.008148355409502983,-0.01049833744764328,0.0017738010501489043,0.00011549587361514568,0.005504990462213755
0.005200887098908424,0.008543985895812511,-0.01004016026854515,0.0017978781834244728,0.00012854165106546134,0.005722545087337494
0.0053641218692064285,0.009663067758083344,-0.010790828615427017,0.001877511152997613,0.00012725625128950924,0.005717689637094736
0.005560132674872875,0.008374380879104137,-0.010326975956559181,0.0018170359544456005,0.00012510953820310533,0.0057096281088888645
0.005578742828220129,0.008026093244552612,-0.010162468068301678,0.0018105340423062444,0.00012297680950723588,0.005275768227875233
0.005263046361505985,0.007945353165268898,-0.009952263906598091,0.001892569474875927,0.00012091192184016109,0.005220617167651653
0.005702394060790539,0.008372548036277294,-0.010720975697040558,0.002262427005916834,0.0001321067538810894,0.005540251731872559
0.005405426491051912,0.008257041685283184,-0.011086275801062584,0.002135442104190588,0.0001302566670347005,0.005529300309717655
0.006020456086844206,0.00826674047857523,-0.010727702639997005,0.002189359860494733,0.0001267173938686028,0.005621828604489565
0.005368111189454794,0.008810361847281456,-0.009363705292344093,0.002119647106155753,0.00012325476564001292,0.005270472262054682
0.00482169259339571,0.00850176252424717,-0.010266238823533058,0.0020764698274433613,0.00011996911780443043,0.005247736815363169
0.004722638987004757,0.00856726337224245,-0.010262013413012028,0.0019363987958058715,0.00011685363278957084,0.0053030140697956085
0.004691539332270622,0.008647381328046322,-0.010510418564081192,0.001842109253630042,0.00011389586143195629,0.005580146797001362
0.004880745895206928,0.008655075915157795,-0.01130465604364872,0.0017386497929692268,0.00011108421313110739,0.005191648378968239
0.004880745895206928,0.008655075915157795,-0.01130465604364872,0.0017386497929692268,0.00011108421313110739,0.005191648378968239
0.0051723141223192215,0.00914382841438055,-0.010073441080749035,0.001770723843947053,0.00012693452299572527,0.00550012057647109
0.0051723141223192215,0.00914382841438055,-0.010073441080749035,0.001770723843947053,0.00012693452299572527,0.00550012057647109
0.004920606501400471,0.009056862443685532,-0.010711484588682652,0.0020807653199881315,0.00012410333147272468,0.005399536341428757
0.005070091690868139,0.008945653215050697,-0.010208251886069775,0.0020702253095805645,0.00012132061965530738,0.005312811117619276
0.004944011103361845,0.00859211664646864,-0.00991105753928423,0.0020894797053188086,0.00011865515261888504,0.005136289168149233
0.004915841855108738,0.008613254874944687,-0.010815217159688473,0.0019375703996047378,0.00011610391084104776,0.006026384420692921
0.00582220871001482,0.008656509220600128,-0.011113849468529224,0.001841450692154467,0.00011366001126589254,0.00540368165820837
0.00531728332862258,0.00851273350417614,-0.010427726432681084,0.0017199668800458312,0.00012044219329254702,0.004675818141549826
0.005116175394505262,0.008636793121695518,-0.010390798561275005,0.0018079463625326753,0.00012663111556321383,0.004963437560945749
0.004882709123194218,0.008423836901783943,-0.010210170410573483,0.002113120397552848,0.00012230323045514524,0.00551347341388464
0.005487497430294752,0.008320488967001438,-0.010722063481807709,0.002028894843533635,0.00011997648834949359,0.00551545200869441
0.005249954294413328,0.009072707034647465,-0.010039628483355045,0.002019130392000079,0.0001177344165625982,0.005314416252076626
0.005297558847814798,0.008553547784686089,-0.010594821535050869,0.001801511738449335,0.00011557458492461592,0.005248548462986946
0.005405615083873272,0.008369702845811844,-0.010113750584423542,0.0016304904129356146,0.00011349247506586835,0.0056960866786539555
0.00495675066486001,0.009051389060914516,-0.00990742351859808,0.0016593465115875006,0.00012532551772892475,0.006193074863404036
0.004888192284852266,0.009076970629394054,-0.010587797500193119,0.001974418992176652,0.00012505879567470402,0.006098863668739796
0.0054229493252933025,0.008597573265433311,-0.010430451482534409,0.002129026921465993,0.00012304633855819702,0.005540966987609863
0.005187916103750467,0.008562860079109669,-0.009666770696640015,0.0021869137417525053,0.00012098686420358717,0.005770753137767315
0.0051680272445082664,0.008976581506431103,-0.010624165646731853,0.0019995816983282566,0.00011898788943653926,0.005726545583456755
0.005025002174079418,0.008596392348408699,-0.010055344551801682,0.0019375812262296677,0.000117053474241402,0.005710784811526537
0.005207313224673271,0.008470196276903152,-0.009771795012056828,0.0018550216918811202,0.00011518093378981575,0.005192920565605164
0.005311585962772369,0.007969960570335388,-0.010741166770458221,0.0020449948497116566,0.00011336732131894678,0.0050439490005373955
0.00507366843521595,0.008519078604876995,-0.011034456081688404,0.0024856601376086473,0.00011160997382830828,0.005341317970305681
0.005384361371397972,0.008509128354489803,-0.010182627476751804,0.002302244771271944,0.00012368251918815076,0.0053578754886984825
0.005419907160103321,0.008419337682425976,-0.009973361156880856,0.0023114352952688932,0.00013319679419510067,0.0058783008717000484
0.005419907160103321,0.008419337682425976,-0.009973361156880856,0.0023114352952688932,0.00013319679419510067,0.0058783008717000484
0.005624547600746155,0.008745236322283745,-0.009772200137376785,0.0023384219966828823,0.00013020349433645606,0.005743593908846378
0.0052595180459320545,0.008216509595513344,-0.009942249394953251,0.0022537207696586847,0.00012659659842029214,0.005727346520870924
0.004997383803129196,0.008175970986485481,-0.010646381415426731,0.0019275655504316092,0.00012313583283685148,0.0055060540325939655
0.005825069732964039,0.008394697681069374,-0.009966148063540459,0.0018584651406854391,0.00011985610763076693,0.005343940574675798
0.0053013586439192295,0.008763676509261131,-0.01049993559718132,0.001782769919373095,0.000116746399726253,0.005447214003652334
0.005451352801173925,0.00831111241132021,-0.010037360712885857,0.0018229068955406547,0.00011379395436961204,0.005587196443229914
0.005160734988749027,0.008333500474691391,-0.009825199842453003,0.0020416551269590855,0.00011098732647951692,0.005513252690434456
0.0049391924403607845,0.008534902706742287,-0.010740643367171288,0.002117730211466551,0.00010831567487912253,0.005526723340153694
0.0054552857764065266,0.007546179462224245,-0.00962828192859888,0.002171463565900922,0.00011866593558806926,0.005654358770698309
0.00542635889723897,0.008181383833289146,-0.010211402550339699,0.0019232685444876552,0.00012087589857401326,0.005473927594721317
0.005279121454805136,0.008508443832397461,-0.00991759542375803,0.001878530834801495,0.00011854025069624186,0.005952112376689911
0.005773020908236504,0.007940331473946571,-0.009792628698050976,0.0019111010478809476,0.00011601411824813113,0.005559851415455341
0.005311674438416958,0.007975742220878601,-0.010528470389544964,0.0017606772016733885,0.00011357534094713628,0.005892585031688213
0.006017534993588924,0.009149827063083649,-0.00988094974309206,0.001732987235300243,0.00011123588046757504,0.005449771415442228
0.005472845397889614,0.008754420094192028,-0.009662236087024212,0.0018033154774457216,0.00010899061453528702,0.005481133237481117
0.006069940980523825,0.008150987327098846,-0.01073814369738102,0.0018221064237877727,0.00010683436994440854,0.005875692702829838
0.00551170390099287,0.00782228447496891,-0.010543277487158775,0.0019089104607701302,0.00010476163879502565,0.006087548565119505
0.00502416118979454,0.008855074644088745,-0.010078305378556252,0.002150272950530052,0.00010276789544150233,0.005528028588742018
0.005762065760791302,0.008367765694856644,-0.010345466434955597,0.0021148917730897665,0.00010084856330649927,0.005777334328740835
0.005667394492775202,0.007737644948065281,-0.01021373737603426,0.0020514163188636303,9.899962606141344e-05,0.005525547079741955
0.00567617267370224,0.00802544318139553,-0.010094997473061085,0.00206970633007586,9.721731476020068e-05,0.005856610834598541
0.00567617267370224,0.00802544318139553,-0.010094997473061085,0.00206970633007586,9.721731476020068e-05,0.005856610834598541
0.005794011056423187,0.007908569648861885,-0.009881413541734219,0.0020206160843372345,9.383849828736857e-05,0.0055481563322246075
0.005794011056423187,0.007908569648861885,-0.009881413541734219,0.0020206160843372345,9.383849828736857e-05,0.0055481563322246075
0.005474521778523922,0.007688360754400492,-0.01019963901489973,0.002006991533562541,9.22356266528368e-05,0.005250714719295502
0.0056578922085464,0.008420449681580067,-0.010671655647456646,0.001989545999094844,9.068664076039568e-05,0.0053477599285542965
0.006137674208730459,0.007923553697764874,-0.01105746440589428,0.0023037779610604048,8.918876847019419e-05,0.005507260095328093
0.005591966677457094,0.007824386470019817,-0.011583706364035606,0.0026102804113179445,8.77396814757958e-05,0.006036954466253519
0.005703215021640062,0.007549677975475788,-0.010359622538089752,0.0025636772625148296,9.977145964512601e-05,0.005877894815057516
0.0055130962282419205,0.007744462229311466,-0.00985159631818533,0.00248978054150939,9.907886851578951e-05,0.005591377150267363
0.006460975855588913,0.007888861000537872,-0.010828527621924877,0.00218074768781662,9.760115062817931e-05,0.005216998513787985
0.006017734296619892,0.00820764247328043,-0.010261422023177147,0.0020457401406019926,9.611580026103184e-05,0.005620289593935013
0.0058501847088336945,0.008486363105475903,-0.010500707663595676,0.0020951498299837112,9.467170457355678e-05,0.0053586335852742195
0.0056165242567658424,0.008026634342968464,-0.010738818906247616,0.0020667791832238436,9.327015141025186e-05,0.00501647125929594
0.006332949735224247,0.007966773584485054,-0.011357475072145462,0.00212518940679729,9.058786235982552e-05,0.005481166299432516
0.0059793503023684025,0.0085432855412364,-0.011455031111836433,0.0025070521514862776,8.930379408411682e-05,0.005940788891166449
0.005739997606724501,0.008427788503468037,-0.010482116602361202,0.002300520893186331,8.805555262370035e-05,0.0057092467322945595
0.005600383970886469,0.008232101798057556,-0.011278769001364708,0.0023777333553880453,8.684171916684136e-05,0.0053557842038571835
0.006207656115293503,0.00822538509964943,-0.010683290660381317,0.001990651246160269,8.566096948925406e-05,0.005092353094369173
0.006232328247278929,0.00899550411850214,-0.010404184460639954,0.0019034366123378277,8.451187750324607e-05,0.005191543139517307
0.005884064361453056,0.00807576160877943,-0.010900183580815792,0.002011432545259595,8.339320629602298e-05,0.005565570201724768
0.006100543774664402,0.008082748390734196,-0.010370548814535141,0.0020960590336471796,8.230376261053607e-05,0.0060384562239050865
0.005683262832462788,0.008440584875643253,-0.010658596642315388,0.0024000266566872597,8.124238229356706e-05,0.005971940234303474
0.005923852324485779,0.008967417292296886,-0.010896274819970131,0.0022293548099696636,8.020807581488043e-05,0.005688142031431198
0.006110304035246372,0.008243120275437832,-0.010308636352419853,0.0022661739494651556,7.919976633274928e-05,0.00560382753610611
0.005952345672994852,0.008327396586537361,-0.010498701594769955,0.002395757706835866,7.82164788688533e-05,0.005473191384226084
0.005587045103311539,0.00859691109508276,-0.01065053790807724,0.002346722176298499,7.725727482466027e-05,0.00544756231829524
0.0057425652630627155,0.008435172960162163,-0.010408078320324421,0.0024780486710369587,7.632136112079024e-05,0.005939618684351444
0.006237983703613281,0.007802864070981741,-0.011005367152392864,0.002584892325103283,7.540782098658383e-05,0.005693495273590088
0.006210113409906626,0.00833113957196474,-0.010698172263801098,0.002517013344913721,7.451595593011007e-05,0.00536289531737566
0.006210113409906626,0.00833113957196474,-0.010698172263801098,0.002517013344913721,7.451595593011007e-05,0.00536289531737566
0.006175457965582609,0.008773361332714558,-0.01037596445530653,0.0025468370877206326,7.364488556049764e-05,0.005167002789676189
0.005565246567130089,0.008446361869573593,-0.010769699700176716,0.002276286017149687,7.279393321368843e-05,0.005664465483278036
0.005858880467712879,0.007938914000988007,-0.010158725082874298,0.0021220219787210226,8.1563790445216e-05,0.00594753073528409
0.005495777353644371,0.008670438081026077,-0.01032016146928072,0.0019778027199208736,8.126966713462025e-05,0.006052037235349417
0.005977879744023085,0.008204055018723011,-0.010638508014380932,0.002033769618719816,8.04030496510677e-05,0.005696696694940329
0.0056991903111338615,0.00820306595414877,-0.00997942965477705,0.0021903468295931816,7.951774750836194e-05,0.005922582000494003
0.005689128767699003,0.007825220935046673,-0.011126325465738773,0.002203230746090412,5.191941454540938e-06,0.005481569562107325
0.005404980853199959,0.008160077966749668,-0.011180298402905464,0.0022713157813996077,3.389966707345593e-07,0.005865803454071283
0.005400887690484524,0.00827328022569418,-0.010452809743583202,0.002202612115070224,1.4451958518790775e-09,0.0060849497094750404
0.006048207636922598,0.008618890307843685,-0.010216769762337208,0.0021322844550013542,9.4360963487361e-11,0.006033348385244608
0.005647497717291117,0.008183409459888935,-0.010275873355567455,0.0022702678106725216,6.161096372664376e-12,0.005813026335090399
0.005884563084691763,0.007751591503620148,-0.010852844454348087,0.0022562500089406967,4.022755707103892e-13,0.005840566009283066
0.005629617255181074,0.007893084548413754,-0.010136030614376068,0.0022379762958735228,2.6265720894373852e-14,0.006095473188906908
0.005800686310976744,0.0083396527916193,-0.00967464316636324,0.0023759009782224894,1.7149637855041404e-15,0.005513897631317377
0.006298466119915247,0.008364757522940636,-0.010485678911209106,0.002590525196865201,1.1197488365593172e-16,0.0057455748319625854
0.0056575583294034,0.007700304966419935,-0.009961928240954876,0.002590209012851119,7.311159093961206e-18,0.005770407151430845
0.005891830660402775,0.008211095817387104,-0.009836518205702305,0.0025810268707573414,4.773664484922351e-19,0.005700164474546909
0.005454436410218477,0.008343523368239403,-0.010604488663375378,0.0023961197584867477,3.116861784539557e-20,0.006329824216663837
0.005914331879466772,0.00820986833423376,-0.009628960862755775,0.0024662467185407877,2.0350880656984922e-21,0.0058860802091658115
0.006032614037394524,0.008313299156725407,-0.009777544997632504,0.0026290183886885643,1.3287670275206246e-22,0.005105643067508936
0.006190289277583361,0.00835447944700718,-0.010242332704365253,0.0025242166593670845,8.67589854650793e-24,0.005250445567071438
0.005717895925045013,0.008347790688276291,-0.009949327446520329,0.0025617305655032396,5.664741628100945e-25,0.005670386832207441
0.005701563321053982,0.00832328386604786,-0.010359659790992737,0.0023654696997255087,3.698671729146702e-26,0.0056528933346271515
0.006144803483039141,0.008485550992190838,-0.010339124128222466,0.0022045299410820007,2.4149682388418648e-27,0.005824115127325058
0.006144803483039141,0.008485550992190838,-0.010339124128222466,0.0022045299410820007,2.4149682388418648e-27,0.005824115127325058
0.0060257939621806145,0.008219136856496334,-0.009842497296631336,0.002243885537609458,1.576801577040471e-28,0.005988259334117174
0.006299307569861412,0.007966077886521816,-0.01045409869402647,0.0022212634794414043,1.0295388032298392e-29,0.005998189095407724
0.006585060153156519,0.007834040559828281,-0.010059366002678871,0.0024152309633791447,4.979368532076478e-05,0.006040234584361315
0.006182942073792219,0.008386301808059216,-0.009834776632487774,0.0026164355222135782,5.501793930307031e-05,0.006225290708243847
0.006256698165088892,0.008415629155933857,-0.010177921503782272,0.002728138118982315,5.4729669500375167e-05,0.0059837456792593
0.006074018310755491,0.00808622594922781,-0.01021492201834917,0.0025592304300516844,5.409664663602598e-05,0.006226464174687862
0.006028307601809502,0.008063121698796749,-0.010711955837905407,0.00256393663585186,5.345560930436477e-05,0.006355771794915199
0.006469030398875475,0.008491202257573605,-0.010482707992196083,0.002438472118228674,5.2828203479293734e-05,0.006026166956871748
0.006048679351806641,0.008484842255711555,-0.00993998721241951,0.0025479078758507967,5.221522587817162e-05,0.006102368235588074
0.0066506993025541306,0.007853175513446331,-0.010691573843359947,0.002769825980067253,5.103098737890832e-05,0.0057909199967980385
0.006694379262626171,0.00848251674324274,-0.010032884776592255,0.0026424138341099024,5.045878060627729e-05,0.005625278688967228
0.006333529483526945,0.00833941251039505,-0.009564483538269997,0.0026488008443266153,4.989925218978897e-05,0.005801116116344929
0.0062384335324168205,0.008414531126618385,-0.010066983290016651,0.0025756224058568478,6.427575954148779e-06,0.006490955129265785
0.006895577069371939,0.008170343935489655,-0.00976520124822855,0.0024712036829441786,4.19674790919089e-07,0.006153708789497614
0.006288360338658094,0.008049246855080128,-0.009471738710999489,0.002623539650812745,2.740176263671401e-08,0.006042315158993006
0.006066826172173023,0.007899382151663303,-0.010116924531757832,0.002621076302602887,1.7891393921942722e-09,0.006430811248719692
0.006518947426229715,0.007594613824039698,-0.009419654496014118,0.002564219292253256,1.1681801359575417e-10,0.006080335937440395
0.006174074485898018,0.008141273632645607,-0.009103060699999332,0.0027772770263254642,7.62738136539376e-12,0.0060266065411269665
0.006467938423156738,0.008107880130410194,-0.010154865682125092,0.00262852874584496,4.980135227816707e-13,0.006050887517631054
0.006496428977698088,0.007604849059134722,-0.010499156080186367,0.002500558737665415,3.251672409522281e-14,0.005982588045299053
0.006329940166324377,0.008009321987628937,-0.009323921985924244,0.002425604499876499,2.1231096816330588e-15,0.006281901150941849
0.006329940166324377,0.008009321987628937,-0.009323921985924244,0.002425604499876499,2.1231096816330588e-15,0.006281901150941849
0.00632087467238307,0.007627725601196289,-0.010298672132194042,0.0026833699084818363,9.05115005607875e-18,0.006270451005548239
0.0068390085361897945,0.008160682395100594,-0.009539748542010784,0.002943960716947913,5.9097541462696585e-19,0.005886034574359655
0.0068390085361897945,0.008160682395100594,-0.009539748542010784,0.002943960716947913,5.9097541462696585e-19,0.005886034574359655
0.006957182195037603,0.00852213241159916,-0.009842082858085632,0.003207108238711953,3.858647307956422e-20,0.005557442549616098
0.006310176104307175,0.007796271238476038,-0.010180252604186535,0.0030107980128377676,2.519420691651938e-21,0.005760896950960159
0.006123377941548824,0.0078239431604743,-0.009324955753982067,0.002522540045902133,1.645001674455534e-22,0.0060216933488845825
0.006803394760936499,0.007695600390434265,-0.010104682296514511,0.002442788565531373,1.0740685167938752e-23,0.006097707431763411
0.007001431193202734,0.008805673569440842,-0.010067090392112732,0.002675429917871952,7.0128994917049305e-25,0.005875033792108297
0.006766044069081545,0.008525198325514793,-0.009145894087851048,0.002935976954177022,4.578922478386359e-26,0.005872931331396103
0.006249239668250084,0.00791972130537033,-0.00998932495713234,0.002959253266453743,2.9897090676707647e-27,0.005859005730599165
0.006486892234534025,0.0076254867017269135,-0.010328899137675762,0.0029741942416876554,1.952066498921272e-28,0.0060876100324094296
0.0073033529333770275,0.007975628599524498,-0.009684152901172638,0.002818458480760455,1.2745599741898136e-29,0.006136993411928415
0.00660702446475625,0.007327738218009472,-0.00981990434229374,0.0026635427493602037,5.433648580531922e-32,0.005761376582086086
0.0061980425380170345,0.007885408587753773,-0.009868713095784187,0.0028010979294776917,3.547784479471701e-33,0.006001215893775225
0.00689748115837574,0.0077376957051455975,-0.010432063601911068,0.002811412326991558,2.316449601128295e-34,0.006268750876188278
0.006757013499736786,0.00811607576906681,-0.00953269749879837,0.0029109963215887547,1.5124760943962714e-35,0.006394487805664539
0.006836894899606705,0.007790409494191408,-0.010028067044913769,0.0029724957421422005,9.875388380048872e-37,0.006233689840883017
0.006637111306190491,0.008327917195856571,-0.010090764611959457,0.003023885888978839,6.447922982837113e-38,0.006213800515979528
0.00643141707405448,0.0078056189231574535,-0.009622076526284218,0.0028697606176137924,4.210033080248194e-39,0.005745426751673222
0.006921975873410702,0.007558297831565142,-0.009797842241823673,0.002781432121992111,2.7488571325427774e-40,0.00585486413910985
0.0068543171510100365,0.007657225243747234,-0.010053664445877075,0.002680172910913825,1.7947830731072257e-41,0.006387326400727034
0.006704774219542742,0.00795058999210596,-0.010047855786979198,0.002935603493824601,1.171485516175547e-42,0.0066593969240784645
0.006967837456613779,0.007149703335016966,-0.00966500211507082,0.0033001212868839502,7.707141553786494e-44,0.006541733630001545
0.006967677269130945,0.00716096768155694,-0.010377290658652782,0.0033572246320545673,5.605193857299268e-45,0.006323228590190411
0.00740452017635107,0.007491047494113445,-0.009961810894310474,0.0034580782521516085,0.0,0.006446097046136856
0.006867068819701672,0.0076728565618395805,-0.009934288449585438,0.003211105242371559,0.0,0.006191227585077286
0.006428448483347893,0.007521073333919048,-0.010036296211183071,0.0030303143430501223,0.0,0.006321463268250227
0.006846427917480469,0.00693965470418334,-0.01008208654820919,0.0030017283279448748,0.0,0.006112666334956884
0.006950828246772289,0.007001218385994434,-0.010080172680318356,0.003109525889158249,0.0,0.006383661646395922
0.007222604472190142,0.008234088309109211,-0.010107937268912792,0.00308883935213089,0.0,0.006805150769650936
0.007401554379612207,0.007828306406736374,-0.009915904141962528,0.003287764498963952,0.0,0.006951270624995232
0.006941715255379677,0.006937077268958092,-0.010427477769553661,0.0034069411922246218,0.0,0.0065008532255887985
0.007411829195916653,0.006794079672545195,-0.010703503154218197,0.0034094362054020166,0.0,0.006117347627878189
0.007680069655179977,0.007309269160032272,-0.01086718961596489,0.00324483634904027,0.0,0.0065292781218886375
0.007680069655179977,0.007309269160032272,-0.01086718961596489,0.00324483634904027,0.0,0.0065292781218886375
0.006954469718039036,0.007457471918314695,-0.01069107186049223,0.00320987356826663,0.0,0.007004658691585064
0.006827933248132467,0.006738380994647741,-0.010315203107893467,0.003353231819346547,0.0,0.0069129508920013905
0.007225548382848501,0.006846203003078699,-0.010019414126873016,0.0034270351752638817,0.0,0.006623456254601479
0.007297971285879612,0.007054419722408056,-0.01075769867748022,0.003262727288529277,0.0,0.0069687021896243095
0.006915935315191746,0.007300146855413914,-0.010092458687722683,0.00324674928560853,0.0,0.006670378148555756
0.007076027803122997,0.006928455550223589,-0.010574372485280037,0.003392093349248171,0.0,0.006612472236156464
0.007769776973873377,0.0073199705220758915,-0.010236368514597416,0.00312516069971025,0.0,0.006694713607430458
0.007357815746217966,0.007030887994915247,-0.010001108981668949,0.003127905074506998,0.0,0.00667650206014514
0.006961462553590536,0.006787897553294897,-0.010439875535666943,0.003348655067384243,0.0,0.00684107281267643
0.007480630651116371,0.006754093803465366,-0.01030589360743761,0.0032546650618314743,0.0,0.006578783970326185
0.007555278018116951,0.0070822653360664845,-0.011051328852772713,0.0031927404925227165,0.0,0.006399554666131735
0.007569500710815191,0.007377455942332745,-0.009161676280200481,0.0029681597370654345,0.0,0.007012852933257818
0.007085438817739487,0.0070183053612709045,-0.010587718337774277,0.002984689548611641,0.0,0.007515903562307358
0.007890877313911915,0.006933923810720444,-0.011069930158555508,0.003118091030046344,0.0,0.006742643192410469
0.007784679532051086,0.006769391708076,-0.010279590263962746,0.003438874613493681,0.0,0.0065972693264484406
0.0075072296895086765,0.00741524389013648,-0.009917201474308968,0.003379277652129531,0.0,0.007859132252633572
0.007700740825384855,0.0072863162495195866,-0.010487314313650131,0.0034651532769203186,0.0,0.0067064655013382435
0.0076038530096411705,0.0073193819262087345,-0.010534529574215412,0.0031993724405765533,0.0,0.006128266453742981
0.007589336484670639,0.006540424656122923,-0.00992667581886053,0.003040270647034049,0.0,0.005930453073233366
0.00797601044178009,0.006690680980682373,-0.010712960734963417,0.003103420836851001,0.0,0.006416408345103264
0.007768761832267046,0.0069487448781728745,-0.010060151107609272,0.003211430972442031,0.0,0.0070551917888224125
0.007504046428948641,0.006909734569489956,-0.009955563582479954,0.003167741931974888,0.0,0.006905780173838139
0.008125405758619308,0.006811986677348614,-0.010439768433570862,0.003252009628340602,0.0,0.006590524688363075
0.008125405758619308,0.006811986677348614,-0.010439768433570862,0.003252009628340602,0.0,0.006590524688363075
0.008175945840775967,0.0074073076248168945,-0.010096068494021893,0.0035057321656495333,0.0,0.0069504487328231335
0.008175945840775967,0.0074073076248168945,-0.010096068494021893,0.0035057321656495333,0.0,0.0069504487328231335
0.007988492026925087,0.007375258021056652,-0.010077740997076035,0.003648273414000869,0.0,0.007058529648929834
0.007558767218142748,0.006772113498300314,-0.00990402139723301,0.003279802855104208,0.0,0.007259681820869446
0.007413901854306459,0.006768202409148216,-0.010733149014413357,0.0033380300737917423,0.0,0.006739264819771051
0.007920650765299797,0.007356374990195036,-0.0109621686860919,0.003575223032385111,0.0,0.006606126669794321
0.008050462231040001,0.007144380360841751,-0.010445041581988335,0.0035668688360601664,0.0,0.007311809342354536
0.007718013133853674,0.0069429343566298485,-0.010478194802999496,0.0036776058841496706,0.0,0.0071097020991146564
0.007948365993797779,0.00735313817858696,-0.009946385398507118,0.003334677079692483,0.0,0.006996226962655783
0.007713101804256439,0.007271657697856426,-0.010604212991893291,0.0034813634119927883,0.0,0.006844882387667894
0.007793572265654802,0.007010072935372591,-0.010674956254661083,0.00380123034119606,0.0,0.007713146507740021
0.0075128269381821156,0.00710964435711503,-0.009841686114668846,0.0035017298068851233,0.0,0.007904098369181156
0.007727041840553284,0.007190449628978968,-0.01095413789153099,0.0035182840656489134,0.0,0.007289970759302378
0.008052765391767025,0.007220880128443241,-0.010090366005897522,0.003131178906187415,0.0,0.007180382497608662
0.007537861820310354,0.007023151498287916,-0.009774545207619667,0.0030532560776919127,0.0,0.00740810064598918
0.008156726136803627,0.006713320501148701,-0.010756495408713818,0.0033631459809839725,0.0,0.00793185643851757
0.008011185564100742,0.0070673273876309395,-0.010079486295580864,0.003688390599563718,0.0,0.00730043463408947
0.00801669992506504,0.007219038438051939,-0.010005608201026917,0.0038137766532599926,0.0,0.007284100633114576
0.007807782385498285,0.006724894512444735,-0.01050620712339878,0.0034781782887876034,0.0,0.007697112858295441
0.00864228792488575,0.0069000921212136745,-0.010203552432358265,0.0038027314003556967,0.0,0.007246212102472782
0.00849221646785736,0.007223398890346289,-0.010346353985369205,0.004155580885708332,0.0,0.006973701063543558
0.00849221646785736,0.007223398890346289,-0.010346353985369205,0.004155580885708332,0.0,0.006973701063543558
0.007780984975397587,0.007139824330806732,-0.010965346358716488,0.003677839646115899,0.0,0.007011488080024719
0.007926484569907188,0.006758572068065405,-0.010139170102775097,0.003473961725831032,0.0,0.007071712985634804
0.008451353758573532,0.007281725760549307,-0.010776006616652012,0.003235301235690713,0.0,0.007223492953926325
0.008117207325994968,0.0077092754654586315,-0.00970703735947609,0.0036280255299061537,0.0,0.007159181870520115
0.008117207325994968,0.0077092754654586315,-0.00970703735947609,0.0036280255299061537,0.0,0.007159181870520115
0.007970505394041538,0.006681404076516628,-0.010854770429432392,0.0037701071705669165,0.0,0.007311813998967409
0.008606945164501667,0.006501145660877228,-0.0108803641051054,0.004247135482728481,0.0,0.007680186536163092
0.009017925709486008,0.006971672177314758,-0.010078078135848045,0.003662729635834694,0.0,0.007506349124014378
0.007944594137370586,0.007365133613348007,-0.010837113484740257,0.003505575004965067,0.0,0.007429025135934353
0.008300784975290298,0.006903244182467461,-0.010867228731513023,0.0034184532705694437,0.0,0.007638938259333372
0.008767460472881794,0.006630323827266693,-0.010787717998027802,0.0034461168106645346,0.0,0.007379202637821436
0.008473653346300125,0.0072230384685099125,-0.010764913633465767,0.003521961160004139,0.0,0.007401677779853344
0.008332275785505772,0.006906867492944002,-0.01119418628513813,0.003654054133221507,0.0,0.008095324039459229
0.008848068304359913,0.006598764564841986,-0.010931642726063728,0.003746156580746174,0.0,0.007620400283485651
0.008273911662399769,0.006770515348762274,-0.010056296363472939,0.004185230005532503,0.0,0.007909799925982952
0.008855650201439857,0.00714075518772006,-0.010661346837878227,0.0037967904936522245,0.0,0.007932404056191444
0.00889595691114664,0.007565070874989033,-0.010318825021386147,0.003495456650853157,0.0,0.007730144541710615
0.008460265584290028,0.006921965163201094,-0.010631700977683067,0.0035210426431149244,0.0,0.007846586406230927
0.00916601438075304,0.006511487998068333,-0.010948150418698788,0.003746606409549713,0.0,0.007837873883545399
0.008763236925005913,0.006580321118235588,-0.010428246110677719,0.003771783784031868,0.0,0.008073678240180016
0.00870453380048275,0.007239283993840218,-0.011148001998662949,0.004123288206756115,0.0,0.008107486180961132
0.009300186298787594,0.006673586089164019,-0.011252536438405514,0.0041643111035227776,0.0,0.008191866800189018
0.008999206125736237,0.006740581709891558,-0.011184144765138626,0.0039751227013766766,0.0,0.007697347551584244
0.008872969076037407,0.006138763856142759,-0.01154034212231636,0.003472458105534315,0.0,0.007516541052609682
0.008695478551089764,0.006641109939664602,-0.010493738576769829,0.0034116918686777353,0.0,0.007872185669839382
0.009248035028576851,0.007085670251399279,-0.010035557672381401,0.003642680821940303,0.0,0.008038217201828957
0.009191500954329967,0.006476901937276125,-0.010701431892812252,0.004245160613209009,0.0,0.007838328368961811
0.008626055903732777,0.0061783199198544025,-0.010403985157608986,0.004099223297089338,0.0,0.008040583692491055
0.008900285698473454,0.006116136442869902,-0.010231584310531616,0.003952569793909788,0.0,0.008175602182745934
0.008900285698473454,0.006116136442869902,-0.010231584310531616,0.003952569793909788,0.0,0.008175602182745934
0.008947296999394894,0.0067643700167536736,-0.010367071256041527,0.004183427430689335,0.0,0.007741161622107029
0.009000064805150032,0.006775820627808571,-0.010924996808171272,0.0044130971655249596,3.1694050903752213e-06,0.008394429460167885
0.009000064805150032,0.006775820627808571,-0.010924996808171272,0.0044130971655249596,3.1694050903752213e-06,0.008394429460167885
0.008994488045573235,0.006441469304263592,-0.0108622582629323,0.004156139213591814,2.0693948954431107e-07,0.008385869674384594
0.00912829115986824,0.007149901241064072,-0.010761123150587082,0.004022692330181599,1.3511670893251448e-08,0.008313188329339027
0.00908348336815834,0.007548067718744278,-0.011482961475849152,0.003938337322324514,8.822155783683172e-10,0.008039037697017193
0.009143071249127388,0.006399171892553568,-0.010260368697345257,0.003913556225597858,3.761022743242748e-12,0.007952557876706123
0.009143071249127388,0.006399171892553568,-0.010260368697345257,0.003913556225597858,3.761022743242748e-12,0.007952557876706123
0.009066754020750523,0.00691195810213685,-0.010996521450579166,0.003936455585062504,2.4556794315025443e-13,0.007348501589149237
0.009249169379472733,0.006894667632877827,-0.010889222845435143,0.004157830495387316,1.6033830553953236e-14,0.007820185273885727
0.009333308786153793,0.006215997040271759,-0.011006435379385948,0.004325965419411659,6.835473166280948e-17,0.0086940573528409
0.00912847463041544,0.006587988696992397,-0.010766364634037018,0.004109813831746578,4.463075742496706e-18,0.008662770502269268
0.00957034807652235,0.0069527472369372845,-0.011853834614157677,0.004213335923850536,2.9140699270721156e-19,0.008556822314858437
0.00881615374237299,0.006714497692883015,-0.011359268799424171,0.0042496961541473866,1.9026792294073404e-20,0.008737216703593731
0.009945609606802464,0.006582931149750948,-0.011396818794310093,0.004321833606809378,1.2423136025940172e-21,0.008627519011497498
0.009418981149792671,0.006437378935515881,-0.011508958414196968,0.004250568803399801,8.111419974990534e-23,0.008882716298103333
0.009486913681030273,0.006572472397238016,-0.011023321188986301,0.004041864536702633,5.2961770371041174e-24,0.008670037612318993
0.008789226412773132,0.006624089553952217,-0.01127309538424015,0.003940974362194538,3.4580252726664405e-25,0.008701527491211891
0.009083203040063381,0.0065024299547076225,-0.011325662955641747,0.004285081289708614,2.257843324333372e-26,0.00913276057690382
0.008834653533995152,0.006455305963754654,-0.010779015719890594,0.004409586079418659,1.4742102981685011e-27,0.008697758428752422
0.009231568314135075,0.006561923306435347,-0.011500649154186249,0.0042342557571828365,9.625540268917343e-29,0.008472937159240246
0.009044473059475422,0.006376111414283514,-0.011432933621108532,0.004404099192470312,6.284789386388878e-30,0.008605346083641052
0.009336362592875957,0.006528973579406738,-0.01115587167441845,0.00417479919269681,4.103518653155573e-31,0.009249486960470676
0.008778895251452923,0.006562979891896248,-0.01121582742780447,0.004434572067111731,2.67930427382924e-32,0.009269479662179947
0.009148062206804752,0.006096274591982365,-0.0116307707503438,0.004282154608517885,1.7493942027807447e-33,0.008800948970019817
0.009238684549927711,0.006001623347401619,-0.011498349718749523,0.004289719741791487,1.1422293530208293e-34,0.008893881924450397
0.009238684549927711,0.006001623347401619,-0.011498349718749523,0.004289719741791487,1.1422293530208293e-34,0.008893881924450397
0.00898492056876421,0.006847593933343887,-0.011215544305741787,0.004501793067902327,7.457941271440495e-36,0.008664151653647423
0.009234285913407803,0.006479477975517511,-0.011410601437091827,0.004667631816118956,4.869502746803059e-37,0.008351150900125504
0.009254070930182934,0.0061783320270478725,-0.011719577014446259,0.004882395267486572,3.1794374747921783e-38,0.00862780399620533
0.008796253241598606,0.006156309973448515,-0.01145502645522356,0.004511433653533459,-0.00012150775728514418,0.00869479775428772
0.009354195557534695,0.006749131716787815,-0.012187136337161064,0.0041526616550982,-0.00015151785919442773,0.009137905202805996
0.0092194564640522,0.006916207727044821,-0.011586212553083897,0.004470556043088436,-0.0001487379486206919,0.009279593825340271
0.00895077083259821,0.006348607130348682,-0.011175847612321377,0.004729261621832848,-0.00016913010040298104,0.008941027335822582
0.009223378263413906,0.006417620461434126,-0.011656620539724827,0.004753302317112684,-0.0001673379447311163,0.008928361348807812
0.009291375987231731,0.0064833941869437695,-0.01146329939365387,0.0048477742820978165,-0.0001577917137183249,0.008950024843215942
0.008990606293082237,0.006454050540924072,-0.011748626828193665,0.004768813494592905,-0.0001722411543596536,0.008989171124994755
0.009854230098426342,0.006316988728940487,-0.010245726443827152,0.0048512667417526245,-0.00017349359404761344,0.008745105937123299
0.00934408325701952,0.006551796104758978,-0.010965722613036633,0.004708884749561548,-0.00016922496433835477,0.009598702192306519
0.00990197341889143,0.0073443567380309105,-0.010988954454660416,0.004767852369695902,-0.00018227251712232828,0.009249561466276646
0.00938341859728098,0.006780647207051516,-0.010905919596552849,0.0042215147987008095,-0.00018317038484383374,0.008845285512506962
0.009513971395790577,0.006291660945862532,-0.011049139313399792,0.005054274573922157,-0.0001789783564163372,0.008796945214271545
0.008983955718576908,0.0066883256658911705,-0.010409965179860592,0.005024580750614405,-0.00017502129776403308,0.009951325133442879
0.009468578733503819,0.006153452675789595,-0.009606645442545414,0.004791149869561195,-0.0003032057429663837,0.009407300502061844
0.009866075590252876,0.006461086682975292,-0.011626128107309341,0.004650989081710577,-0.0002926441957242787,0.00946163572371006
0.00897666160017252,0.006645177956670523,-0.010295760817825794,0.004683115053921938,-0.00027533111278899014,0.009135914035141468
0.00897666160017252,0.006645177956670523,-0.010295760817825794,0.004683115053921938,-0.00027533111278899014,0.009135914035141468
0.009694283828139305,0.006173750385642052,-0.011421137489378452,0.005298908334225416,-0.00029266614001244307,0.008697276934981346
0.009428085759282112,0.006130370311439037,-0.011089647188782692,0.005149620119482279,-0.0002790645230561495,0.008963598869740963
0.009519129991531372,0.006728384643793106,-0.011091511696577072,0.0047107296995818615,-0.00026544250431470573,0.009301112033426762
0.009605336003005505,0.006442451849579811,-0.010679943487048149,0.004316135309636593,-0.0002530088531784713,0.008901696652173996
0.009915516711771488,0.0059695178642869,-0.01128454227000475,0.0044698454439640045,-0.000276579667115584,0.009353747591376305
0.009915516711771488,0.0059695178642869,-0.01128454227000475,0.0044698454439640045,-0.000276579667115584,0.009353747591376305
0.009427296929061413,0.006254037842154503,-0.011251999996602535,0.004583029076457024,-0.00029801580240018666,0.009141216054558754
0.009555676020681858,0.006608737166970968,-0.010626877658069134,0.005077160429209471,-0.00029508271836675704,0.009051787666976452
0.009391234256327152,0.006376932375133038,-0.011327434331178665,0.004934598691761494,-0.0002840467495843768,0.009314841590821743
0.009894909337162971,0.006358138285577297,-0.011667998507618904,0.004524311050772667,-0.00033723717206157744,0.009546414017677307
0.009823814034461975,0.006397423334419727,-0.010783322155475616,0.004540830384939909,-0.00032279721926897764,0.009067893959581852
0.009580597281455994,0.005869521759450436,-0.011636490933597088,0.004999566823244095,-0.0003017775889020413,0.009352043271064758
0.010128620080649853,0.006437831558287144,-0.011384911835193634,0.005113802384585142,-0.0002828411525115371,0.009480688720941544
0.009673435240983963,0.006701854057610035,-0.011576463468372822,0.005682680290192366,-0.00029202346922829747,0.009166575036942959
0.009639368392527103,0.006285364739596844,-0.010832754895091057,0.004641544073820114,-0.0002854294434655458,0.010858560912311077
0.009820382110774517,0.006159609649330378,-0.011181208305060863,0.004613379016518593,-0.00030454524676315486,0.009746869094669819
0.009445118717849255,0.00624298769980669,-0.01100461557507515,0.004834078252315521,-0.0003004913160111755,0.008736682124435902
0.009922727942466736,0.006151980254799128,-0.01156829297542572,0.004999543074518442,-0.0002874632191378623,0.009919658303260803
0.009828058071434498,0.006028180476278067,-0.011502310633659363,0.005034701433032751,-0.0003039766161236912,0.009424122050404549
0.00953697320073843,0.005861592013388872,-0.011126847937703133,0.005217944271862507,-0.00030042853904888034,0.009417273104190826
0.009730681777000427,0.006172936875373125,-0.011666318401694298,0.0049759079702198505,-0.00028896541334688663,0.009748696349561214
0.00964516494423151,0.006582540459930897,-0.010987687855958939,0.00509831914678216,-0.00027785173733718693,0.009929988533258438
0.009483815170824528,0.00626305490732193,-0.011616207659244537,0.004926895722746849,-0.0002675277355592698,0.010049551725387573
0.009661965072154999,0.006123572122305632,-0.011601278558373451,0.00480778981000185,-0.00025794311659410596,0.010173500515520573
0.0098185483366251,0.005680812522768974,-0.010982966981828213,0.005618216469883919,-0.0002642971812747419,0.009813048876821995
0.009469404816627502,0.005863009486347437,-0.011900682002305984,0.005404777359217405,-0.0002550912322476506,0.009738782420754433
0.009577196091413498,0.006789474748075008,-0.011734267696738243,0.004943439736962318,-0.0002417596842860803,0.009796008467674255
0.009796500205993652,0.006436389405280352,-0.011526879854500294,0.004706799518316984,-0.0002633105614222586,0.009719275869429111
0.009947908110916615,0.005935101304203272,-0.011335071176290512,0.005109573248773813,-0.0002611976524349302,0.009685869328677654
0.009919417090713978,0.006062833592295647,-0.010987799614667892,0.005210133269429207,-0.00024980661692097783,0.010007523000240326
0.010111801326274872,0.006613395642489195,-0.011790411546826363,0.005767857655882835,-0.00023880272055976093,0.009552545845508575
0.010111801326274872,0.006613395642489195,-0.011790411546826363,0.005767857655882835,-0.00023880272055976093,0.009552545845508575
0.009928892366588116,0.006156947463750839,-0.011273262090981007,0.005755719728767872,-0.0002546914911363274,0.009702280163764954
0.009655357338488102,0.005582437850534916,-0.011937343515455723,0.005352316424250603,-0.0002458849339745939,0.009903471916913986
0.009655357338488102,0.005582437850534916,-0.011937343515455723,0.005352316424250603,-0.0002458849339745939,0.009903471916913986
0.00948715303093195,0.005972694139927626,-0.011539720930159092,0.004857151303440332,-0.0002617290010675788,0.010227061808109283
0.009721423499286175,0.006277219858020544,-0.01156681403517723,0.005315406713634729,-0.0002601671149022877,0.010276331566274166
0.009831411764025688,0.0060761165805161,-0.011506743729114532,0.005508709698915482,-0.00025159178767353296,0.009862836450338364
0.010463870130479336,0.006266893818974495,-0.011365286074578762,0.005634966306388378,-0.00024312795721925795,0.010402170941233635
0.010169410146772861,0.0055984677746891975,-0.012189376167953014,0.005202723201364279,-0.0003040650044567883,0.010232774540781975
0.011498448438942432,0.006044361274689436,-0.011188913136720657,0.005013827700167894,-0.0002944425796158612,0.009853819385170937
0.011898360215127468,0.006094337906688452,-0.011711475439369678,0.005095058120787144,-0.0003177794278599322,0.0100114606320858
0.011544173583388329,0.006394949741661549,-0.011300253681838512,0.005670294165611267,-0.0003121943154837936,0.010385637171566486
0.011514111422002316,0.0064024548046290874,-0.011290296912193298,0.005693203303962946,-0.00029591788188554347,0.009964416734874249
0.01176745630800724,0.005912849213927984,-0.011733460240066051,0.0055834511294960976,-0.0003241372178308666,0.010120212100446224
0.011214206926524639,0.006540137808769941,-0.01219851803034544,0.005605688318610191,-0.0003359799738973379,0.010082460008561611
0.011561481282114983,0.006782169453799725,-0.011652969755232334,0.005509652197360992,-0.00041791482362896204,0.01042864564806223
0.011506280861794949,0.005703872535377741,-0.011360053904354572,0.005986782722175121,-0.00046335242222994566,0.009859624318778515
0.0121998880058527,0.006004357244819403,-0.011765364557504654,0.005867757834494114,-0.0004253371153026819,0.009731684811413288
0.011832735501229763,0.005625128746032715,-0.011609652079641819,0.005571705289185047,-0.0003889203944709152,0.010142435319721699
0.011648006737232208,0.00647377735003829,-0.012343652546405792,0.005286518484354019,-0.00041973506449721754,0.010470555163919926
0.01211293414235115,0.006919787731021643,-0.011685251258313656,0.005636428948491812,-0.00039725142414681613,0.010088811628520489
0.011820635758340359,0.005995606072247028,-0.011557959020137787,0.005947854835540056,-0.0003705278504639864,0.010685245506465435
0.01264035701751709,0.00640602083876729,-0.01191950123757124,0.0062583815306425095,-0.00034675622009672225,0.010547451674938202
0.012217116542160511,0.005922280251979828,-0.011209369637072086,0.006213919725269079,-0.00037635574699379504,0.010158396326005459
0.012073871679604053,0.006200128700584173,-0.011974118649959564,0.005563577637076378,-0.0003582440549507737,0.01018818560987711
0.012037488631904125,0.006640245206654072,-0.012064424343407154,0.005849654786288738,-0.00033916562097147107,0.010480228811502457
0.011873549781739712,0.006133195944130421,-0.01220750343054533,0.006196422036737204,-0.0003218470374122262,0.010116985067725182
0.011873549781739712,0.006133195944130421,-0.01220750343054533,0.006196422036737204,-0.0003218470374122262,0.010116985067725182
0.011965947225689888,0.006029109004884958,-0.011339285410940647,0.006634479854255915,-0.0003123838978353888,0.010747578926384449
0.012236746028065681,0.007071022875607014,-0.012171152979135513,0.0060525620356202126,-0.00031753923394717276,0.010508178733289242
0.012236746028065681,0.007071022875607014,-0.012171152979135513,0.0060525620356202126,-0.00031753923394717276,0.010508178733289242
0.012339186854660511,0.006480749696493149,-0.011919969692826271,0.006181123200803995,-0.00030531041556969285,0.01050155982375145
0.012311704456806183,0.006106911227107048,-0.012088838033378124,0.00674803089350462,-0.00028474038117565215,0.01022152416408062
0.012632512487471104,0.006571831647306681,-0.011915910057723522,0.006031380966305733,-0.00026196465478278697,0.010854567401111126
0.012188920751214027,0.006190881133079529,-0.011416052468121052,0.005879326723515987,-0.00024716401821933687,0.011385810561478138
0.01262018270790577,0.0064034173265099525,-0.011949926614761353,0.006360961589962244,-0.00023426595726050436,0.010644329711794853
0.011865757405757904,0.006511209532618523,-0.011696100234985352,0.006768885999917984,-0.0002641431347001344,0.010332820005714893
0.01242047268897295,0.005954694468528032,-0.012601833790540695,0.006607521325349808,-0.00025440059835091233,0.010789248161017895
0.012414613738656044,0.006195456255227327,-0.012936631217598915,0.006217510439455509,-0.00024312052119057626,0.010993114672601223
0.012560619041323662,0.006223226431757212,-0.012057785876095295,0.005639439914375544,-0.00026878464268520474,0.011718991212546825
0.012563920579850674,0.006535669323056936,-0.01240430399775505,0.005736097227782011,-0.0002782327064778656,0.011455205269157887
0.012899257242679596,0.006409042980521917,-0.012630563229322433,0.0061770412139594555,-0.0002746136160567403,0.01126005407422781
0.012269584462046623,0.005859203636646271,-0.01176730077713728,0.006001131143420935,-0.0002645938366185874,0.011131751351058483
0.012609670870006084,0.006415448617190123,-0.012333988212049007,0.005605931393802166,-0.0003118213207926601,0.011340065859258175
0.012556999921798706,0.006745622958987951,-0.012506058439612389,0.005767606198787689,-0.00034221206442452967,0.011516743339598179
0.012624556198716164,0.00594879686832428,-0.012378022074699402,0.006359306164085865,-0.00032131196348927915,0.011285632848739624
0.012896521016955376,0.005826872307807207,-0.012669200077652931,0.006560917943716049,-0.00030010342015884817,0.011388644576072693
0.012955119833350182,0.005928505677729845,-0.012209405191242695,0.006373489275574684,-0.0003227715496905148,0.011317812837660313
0.013031947426497936,0.006333604920655489,-0.012594484724104404,0.0060418713837862015,-0.0003167714748997241,0.011920786462724209
0.012471141293644905,0.006470920983701944,-0.01224803552031517,0.006139905191957951,-0.00034656867501325905,0.011531520634889603
0.01277055125683546,0.006459682248532772,-0.012998884543776512,0.006727847270667553,-0.0003663657116703689,0.011297120712697506
0.012596765533089638,0.005978872068226337,-0.0129412105306983,0.006901451852172613,-0.00035924254916608334,0.011173013597726822
0.012926901690661907,0.005773188080638647,-0.012793614529073238,0.006744581740349531,-0.0004535701882559806,0.011360433883965015
0.012876873835921288,0.006305701564997435,-0.012539788149297237,0.0063987658359110355,-0.0004455723101273179,0.01202616561204195
0.013033314608037472,0.006087327376008034,-0.012355774641036987,0.007142764516174793,-0.0004075994365848601,0.011948691681027412
0.013003760948777199,0.005927065387368202,-0.012657234445214272,0.0071882884949445724,-0.0003738542727660388,0.011744256131350994
0.012946834787726402,0.005726344417780638,-0.012559880502521992,0.006894840858876705,-0.00040473369881510735,0.012075093574821949
0.01342476811259985,0.005626923870295286,-0.012893798761069775,0.006437006406486034,-0.0003840505378320813,0.011882989667356014
0.012983462773263454,0.0063043031841516495,-0.01262127049267292,0.006239127367734909,-0.000359032885171473,0.012170161120593548
0.013427503407001495,0.006196936592459679,-0.012751429341733456,0.007123237941414118,-0.0003366746532265097,0.012089915573596954
0.013427503407001495,0.006196936592459679,-0.012751429341733456,0.007123237941414118,-0.0003366746532265097,0.012089915573596954
0.013076006434857845,0.0063972496427595615,-0.012780471704900265,0.007118093315511942,-0.00036258765612728894,0.012489314191043377
0.013549253344535828,0.005891484208405018,-0.012247283011674881,0.00686477217823267,-0.00034875411074608564,0.012061532586812973
0.013564052991569042,0.005936300847679377,-0.012853383086621761,0.006600270047783852,-0.0003308452432975173,0.011868703179061413
0.013687501661479473,0.006347073707729578,-0.01222053449600935,0.006888174917548895,-0.0003143591748084873,0.012465927749872208
0.013761229813098907,0.006139697972685099,-0.013010891154408455,0.007263767067342997,-0.00029941380489617586,0.012361382134258747
0.01374862715601921,0.006345395464450121,-0.012510753236711025,0.007182207889854908,-0.00031212385511025786,0.012472039088606834
0.013832500204443932,0.006091354414820671,-0.012374497950077057,0.007426529657095671,-0.0002994556853082031,0.012186059728264809
0.013499511405825615,0.006516056600958109,-0.012302556075155735,0.0075219497084617615,-0.0002880870015360415,0.012106564827263355
0.014068983495235443,0.005737958941608667,-0.012583727017045021,0.007441748399287462,-0.00025905086658895016,0.012104572728276253
0.014234611764550209,0.0056931693106889725,-0.012206975370645523,0.006959655322134495,-0.000244172231759876,0.01224746834486723
0.013641026802361012,0.005965705960988998,-0.012806195765733719,0.006682998035103083,-0.00023155121016316116,0.012042720802128315
0.014050010591745377,0.006033225450664759,-0.012135248631238937,0.0070571438409388065,-0.0002202126051997766,0.012228085659444332
0.014319085516035557,0.006203425582498312,-0.013074393384158611,0.007292801979929209,-0.00023044689442031085,0.012532992288470268
0.014562223106622696,0.006034215912222862,-0.012871763668954372,0.006993125658482313,-0.00023928935115691274,0.012626503594219685
0.014233773574233055,0.0059119476936757565,-0.013245264068245888,0.007174643687903881,-0.00023032784520182759,0.012630144134163857
0.014598002657294273,0.006215717643499374,-0.012990888208150864,0.007556019350886345,-0.00022098104818724096,0.012710786424577236
0.014412700198590755,0.006900765001773834,-0.012525051832199097,0.007864744402468204,-0.0002122971200151369,0.012882898561656475
0.014597619883716106,0.006876393221318722,-0.012881580740213394,0.007519459817558527,-0.0002042660053120926,0.012125624343752861
0.014119469560682774,0.006132625043392181,-0.012271045707166195,0.0073419432155787945,-0.0002252660196973011,0.012449793517589569
0.014521527104079723,0.006344669498503208,-0.012956437654793262,0.007470881566405296,-0.0002212623949162662,0.01262388564646244
0.014420313760638237,0.005969593301415443,-0.012095755897462368,0.007047593593597412,-0.00021400093100965023,0.012905257754027843
0.014823926612734795,0.00629457738250494,-0.012615162879228592,0.007021537981927395,-0.00020698588923551142,0.012975744903087616
0.014471526257693768,0.0064383200369775295,-0.012801839970052242,0.007810742594301701,-0.00020040193339809775,0.012842932716012001
0.015078232623636723,0.005952538922429085,-0.012561037205159664,0.007908334024250507,-0.00019422330660745502,0.013053704053163528
0.015078232623636723,0.005952538922429085,-0.012561037205159664,0.007908334024250507,-0.00019422330660745502,0.013053704053163528
0.014850474894046783,0.0059800478629767895,-0.012829908169806004,0.00800388678908348,-0.0002016212383750826,0.012891540303826332
0.014838801696896553,0.006433563772588968,-0.012215984985232353,0.00793157983571291,-0.00020818189659621567,0.013272622600197792
0.014988960698246956,0.0067544314078986645,-0.012550757266581059,0.008322381414473057,-0.0002031185431405902,0.01276418473571539
0.014903879724442959,0.006263145245611668,-0.01193376537412405,0.007754235994070768,-0.00019759658607654274,0.012807951308786869
0.014998488128185272,0.006108531728386879,-0.012914612889289856,0.007361128926277161,-0.00019283931760583073,0.012889012694358826
0.015159937553107738,0.005627842154353857,-0.012622347101569176,0.007757795974612236,-0.00020453505567274988,0.0129576176404953
0.015216350555419922,0.006311745848506689,-0.012313038110733032,0.007966069504618645,-0.00018874755187425762,0.013108624145388603
0.015216350555419922,0.006311745848506689,-0.012313038110733032,0.007966069504618645,-0.00018874755187425762,0.013108624145388603
0.014984929002821445,0.006189730949699879,-0.012687643058598042,0.00802819523960352,-0.00020776272867806256,0.01287242490798235
0.015074444003403187,0.006699065212160349,-0.012446879409253597,0.008205948397517204,-0.00020110503828618675,0.01305399090051651
0.014927753247320652,0.006327104289084673,-0.01293120626360178,0.007972712628543377,-0.00019395173876546323,0.013182073831558228
0.015373597852885723,0.006349193397909403,-0.012516678310930729,0.007691449485719204,-0.0001872306311270222,0.01316040474921465
0.01544539537280798,0.005913827568292618,-0.012535189278423786,0.0076644569635391235,-0.00020327558740973473,0.012970388866961002
0.015795528888702393,0.0058396123349666595,-0.012251499108970165,0.008166501298546791,-0.0002037579833995551,0.013380678370594978
0.015438264235854149,0.006040091626346111,-0.011841949075460434,0.008206550031900406,-0.0001978201762540266,0.012971973977982998
0.015804514288902283,0.0059923348017036915,-0.01264913473278284,0.007648646365851164,-0.00020527123706415296,0.013043852522969246
0.015671875327825546,0.006186231970787048,-0.01262795552611351,0.007498202845454216,-0.00021184206707403064,0.013053293339908123
0.015624403022229671,0.00613841786980629,-0.012885386124253273,0.008577059954404831,-0.000206587792490609,0.013053668662905693
0.015655850991606712,0.0056192693300545216,-0.01290848944336176,0.008081472478806973,-0.00027369041345082223,0.012912736274302006
0.01584845967590809,0.0058513786643743515,-0.013177897781133652,0.0075845313258469105,-0.00028048953390680254,0.013128138147294521
0.015807388350367546,0.006359459832310677,-0.013064990751445293,0.00802688766270876,-0.0002913659845944494,0.013489658012986183
0.015427907928824425,0.006108453497290611,-0.01273053977638483,0.007937904447317123,-0.00029917637584730983,0.013168814592063427
0.016326861456036568,0.005119517911225557,-0.013245704583823681,0.007827972061932087,-0.00028495475999079645,0.013379494659602642
0.016326861456036568,0.005119517911225557,-0.013245704583823681,0.007827972061932087,-0.00028495475999079645,0.013379494659602642
0.01596473716199398,0.0047591994516551495,-0.012480492703616619,0.007693402469158173,-0.00029278986039571464,0.013302303850650787
0.016160529106855392,0.004999660421162844,-0.013475829735398293,0.008556416258215904,-0.00029930417076684535,0.01367331575602293
0.015905221924185753,0.005100645590573549,-0.012969552539288998,0.00803298782557249,-0.00028700174880214036,0.013433104380965233
0.01619240641593933,0.0058588082902133465,-0.013283216394484043,0.007880193181335926,-0.0002745787787716836,0.013821092434227467
0.01613057218492031,0.0051348209381103516,-0.013336747884750366,0.008637613616883755,-0.0002525638265069574,0.013983435928821564
0.01613057218492031,0.0051348209381103516,-0.013336747884750366,0.008637613616883755,-0.0002525638265069574,0.013983435928821564
0.016399236395955086,0.0050289505161345005,-0.01231634896248579,0.008494708687067032,-0.0002751612919382751,0.013681231997907162
0.016070978716015816,0.004730368964374065,-0.01349915936589241,0.007854532450437546,-0.0002670616959221661,0.013958198949694633
0.01632200926542282,0.004910170566290617,-0.014028400182723999,0.007608350366353989,-0.0002576421247795224,0.014132282696664333
0.016700876876711845,0.005164684262126684,-0.0132895577698946,0.007925513200461864,-0.00029270569211803377,0.013243630528450012
0.016635116189718246,0.00517691345885396,-0.013956911861896515,0.007800672203302383,-0.00031589713762514293,0.013067134656012058
0.016400063410401344,0.0051218057051301,-0.014158417470753193,0.007912641391158104,-0.0003104439238086343,0.013660550117492676
0.01638893410563469,0.004848188254982233,-0.013447686098515987,0.008133353665471077,-0.00031826653867028654,0.0138475326821208
0.016248784959316254,0.005402053706347942,-0.013728339225053787,0.007744431030005217,-0.0003240677178837359,0.01399625651538372
0.016944488510489464,0.005329430103302002,-0.013440406881272793,0.007002046797424555,-0.00033118686405941844,0.0139301847666502
0.01659892499446869,0.00544635159894824,-0.013906151987612247,0.007961904630064964,-0.00033586539211682975,0.014385641552507877
0.01664474979043007,0.004985047969967127,-0.013345293700695038,0.008168076165020466,-0.00046892365207895637,0.014458798803389072
0.01688186265528202,0.004845051094889641,-0.013780424371361732,0.007641293574124575,-0.00046867612400092185,0.014462324790656567
0.016636015847325325,0.004714388865977526,-0.013487815856933594,0.007955733686685562,-0.0005009397282265127,0.014473915100097656
0.017049703747034073,0.0053822919726371765,-0.014263267628848553,0.00899794977158308,-0.00046772617497481406,0.01473351288586855
0.016452262178063393,0.005311198066920042,-0.013422294519841671,0.008752907626330853,-0.0004310268850531429,0.014107602648437023
0.01692129485309124,0.005484576802700758,-0.013856533914804459,0.008417651057243347,-0.0004610204487107694,0.013844811357557774
0.016868311911821365,0.005106270778924227,-0.013180173002183437,0.008598857559263706,-0.00043333193752914667,0.013851904310286045
0.0171564519405365,0.00493263266980648,-0.013917840085923672,0.008644327521324158,-0.00040567800169810653,0.014432121999561787
0.0171564519405365,0.00493263266980648,-0.013917840085923672,0.008644327521324158,-0.00040567800169810653,0.014432121999561787
0.01664283685386181,0.005662985146045685,-0.013250810094177723,0.00853615254163742,-0.0003811391652561724,0.01424326840788126
0.01667669229209423,0.005375318229198456,-0.013716927729547024,0.008962450549006462,-0.0004038001352455467,0.014556660316884518
0.017712319269776344,0.005490356590598822,-0.013883247971534729,0.00841960683465004,-0.0003686240816023201,0.014896763488650322
0.017182184383273125,0.005394307896494865,-0.013477730564773083,0.009380167350172997,-0.0003579868352971971,0.014454198069870472
0.01730448193848133,0.005524869076907635,-0.01375296339392662,0.009086454287171364,-0.0003385251038707793,0.014814579859375954
0.01730448193848133,0.005524869076907635,-0.01375296339392662,0.009086454287171364,-0.0003385251038707793,0.014814579859375954
0.01713818870484829,0.005325363017618656,-0.013776117004454136,0.008496955968439579,-0.00031528164981864393,0.014938557520508766
0.016548071056604385,0.005811402108520269,-0.013065055944025517,0.008205932565033436,-0.00034947111271321774,0.015045421198010445
0.015327218919992447,0.005846725776791573,-0.013650435023009777,0.008557364344596863,-0.00033158145379275084,0.014721292071044445
0.018145371228456497,0.005679249297827482,-0.013453729450702667,0.008909166790544987,-0.00035768054658547044,0.014631933532655239
0.017137151211500168,0.005546992179006338,-0.013250446878373623,0.009232299402356148,-0.0003703210095409304,0.014345020055770874
0.01708006113767624,0.005863686092197895,-0.013913583941757679,0.009618508629500866,-0.00035492287133820355,0.014326999895274639
0.017287123948335648,0.005854037590324879,-0.013279015198349953,0.009200993925333023,-0.00046514070709235966,0.014774220995604992
0.017885718494653702,0.006072110030800104,-0.013808275572955608,0.008855781517922878,-0.0005206472706049681,0.015044462867081165
0.01734771579504013,0.00545567087829113,-0.013356576673686504,0.009288784116506577,-0.0005553218652494252,0.014788379892706871
0.017424779012799263,0.005453933496028185,-0.013890583999454975,0.008785831741988659,-0.0005786910769529641,0.01515103317797184
0.017773786559700966,0.005655866581946611,-0.01344587653875351,0.008641482330858707,-0.0005439370288513601,0.015423981472849846
0.01723264530301094,0.00605506869032979,-0.014107916504144669,0.008166158571839333,-0.0005062565323896706,0.01538993138819933
0.017109930515289307,0.005948229227215052,-0.013820518739521503,0.008857738226652145,-0.0006426371401175857,0.015259728766977787
0.017350520938634872,0.005939966533333063,-0.014138160273432732,0.009368370287120342,-0.0005856474163010716,0.015334110707044601
0.01725904457271099,0.005602851510047913,-0.01380438357591629,0.009111334569752216,-0.0006089057424105704,0.015052227303385735
0.017518097534775734,0.00597013533115387,-0.013830768875777721,0.008965197950601578,-0.000558090687263757,0.015145263634622097
0.017518097534775734,0.00597013533115387,-0.013830768875777721,0.008965197950601578,-0.000558090687263757,0.015145263634622097
0.01773306168615818,0.006332494784146547,-0.014083487913012505,0.008572157472372055,-0.0005064790602773428,0.014909687452018261
0.017747903242707253,0.0056314063258469105,-0.014323580078780651,0.008915913291275501,-0.0005196184501983225,0.016251463443040848
0.017530009150505066,0.005584533326327801,-0.014263921417295933,0.00906222965568304,-0.0004929405986331403,0.014873980544507504
0.017530009150505066,0.005584533326327801,-0.014263921417295933,0.00906222965568304,-0.0004929405986331403,0.014873980544507504
0.017993509769439697,0.005784063600003719,-0.013830420561134815,0.009284167550504208,-0.000488772988319397,0.015117602422833443
0.017558226361870766,0.005966158118098974,-0.013890286907553673,0.00940032210201025,-0.0004633083299268037,0.015278615988790989
0.017154593020677567,0.006064942572265863,-0.013800382614135742,0.009447610937058926,-0.0005002755206078291,0.014892679639160633
0.017926517874002457,0.005568163003772497,-0.013784043490886688,0.008805613964796066,-0.0005291542620398104,0.015295903198421001
0.017950264737010002,0.005747954361140728,-0.014037189073860645,0.009420040063560009,-0.0005581058212555945,0.015252859331667423
0.017974574118852615,0.0056058852933347225,-0.01380822341889143,0.009097175672650337,-0.0007173808990046382,0.015260410495102406
0.01805390976369381,0.005762822926044464,-0.014002030715346336,0.009407109580934048,-0.0007732973317615688,0.014993339776992798
0.018044358119368553,0.0062148235738277435,-0.013850828632712364,0.00942759495228529,-0.0007844760548323393,0.01526056881994009
0.018577301874756813,0.005501720122992992,-0.014086741954088211,0.00949926394969225,-0.0006989508983679116,0.015216846019029617
0.018323957920074463,0.005583758465945721,-0.01419324241578579,0.009430155158042908,-0.0006354861543513834,0.015666890889406204
0.018865099176764488,0.00541079742833972,-0.013630283065140247,0.010288846679031849,-0.0005870190216228366,0.015610902570188046
0.018521828576922417,0.005896101705729961,-0.014417353086173534,0.00995690654963255,-0.0005747131654061377,0.015362301841378212
0.018412813544273376,0.005572356749325991,-0.013647858053445816,0.009401790797710419,-0.000563497596886009,0.015033732168376446
0.018847282975912094,0.005574818700551987,-0.014369359239935875,0.009468051604926586,-0.0005246274522505701,0.015727560967206955
0.018381817266345024,0.005462296307086945,-0.013419350609183311,0.009121382609009743,-0.00045880977995693684,0.015559559687972069
0.018755527213215828,0.005538685712963343,-0.014133436605334282,0.009128706529736519,-0.00040906568756327033,0.016013532876968384
0.01859789900481701,0.006113715469837189,-0.014060217887163162,0.009566211141645908,-0.00037446204805746675,0.015752971172332764
0.018501041457057,0.00556981423869729,-0.01468037348240614,0.009565204381942749,-0.0004098762874491513,0.015673141926527023
0.018758246675133705,0.005848180036991835,-0.014211918227374554,0.009428171440958977,-0.00038483820389956236,0.01563468761742115
0.018913358449935913,0.005499009042978287,-0.014781221747398376,0.009306632913649082,-0.00035947965807281435,0.01629081554710865
0.01879880391061306,0.005791102536022663,-0.013908060267567635,0.009413846768438816,-0.0003856079711113125,0.017013415694236755
0.019059348851442337,0.005481912288814783,-0.015060290694236755,0.00951165147125721,-0.0003696121566463262,0.016314541921019554
0.018858257681131363,0.0057631670497357845,-0.014384136535227299,0.009841019287705421,-0.0003495333658065647,0.016377346590161324
0.018939228728413582,0.005355584900826216,-0.014655247330665588,0.009804964996874332,-0.0003311806940473616,0.01585203967988491
0.018939228728413582,0.005355584900826216,-0.014655247330665588,0.009804964996874332,-0.0003311806940473616,0.01585203967988491
0.01936613768339157,0.005795108154416084,-0.013981763273477554,0.010471947491168976,-0.0003365742159076035,0.015855612233281136
0.01935410499572754,0.005388917401432991,-0.014774569310247898,0.010411592200398445,-0.0003409743367228657,0.0157773494720459
0.018826255574822426,0.005454917438328266,-0.01458272710442543,0.01006137765944004,-0.0003268228902015835,0.015852073207497597
0.019261378794908524,0.00565192149952054,-0.0153570044785738,0.010337957181036472,-0.00031271332409232855,0.015999270603060722
0.01960604265332222,0.0053949193097651005,-0.014760514721274376,0.010344230569899082,-0.00030701092327944934,0.0166913028806448
0.01938796229660511,0.005428409203886986,-0.014704312197864056,0.009943665005266666,-0.00029072011238895357,0.016853397712111473
0.01991216279566288,0.005242327228188515,-0.014941035769879818,0.009956111200153828,-0.0002732881112024188,0.016263512894511223
0.019668351858854294,0.005313843954354525,-0.01531992107629776,0.01041053980588913,-0.0002576492552179843,0.0163374375551939
0.0194473247975111,0.0056006223894655704,-0.014714522287249565,0.010674436576664448,-0.0002858677471522242,0.016535283997654915
0.01839430443942547,0.006098764482885599,-0.015572822652757168,0.010455908253788948,-0.0002769744605757296,0.016968434676527977
0.02005932293832302,0.005450782831758261,-0.015451024286448956,0.010680776089429855,-0.00028528532129712403,0.017028508707880974
0.019988972693681717,0.004591523203998804,-0.01568491943180561,0.01023543905466795,-0.00028031383408233523,0.016093142330646515
0.020418699830770493,0.004538916051387787,-0.015053815208375454,0.010477897711098194,-0.0003041875024791807,0.015670007094740868
0.02029922418296337,0.00468849902972579,-0.01559489220380783,0.009805192239582539,-0.00029409618582576513,0.01600809581577778
0.019866129383444786,0.004991003777831793,-0.014999959617853165,0.009965799748897552,-0.00028269915492273867,0.01632300391793251
0.019502097740769386,0.00485905259847641,-0.015881313011050224,0.00987864937633276,-0.00034045593929477036,0.01564766652882099
0.019458092749118805,0.004751541186124086,-0.015385203063488007,0.010372638702392578,-0.0003377891262061894,0.016567474231123924
0.019838256761431694,0.004648340400308371,-0.015902597457170486,0.011087505146861076,-0.00037429251824505627,0.01702355407178402
0.020548226311802864,0.004658849909901619,-0.01537991315126419,0.0104827294126153,-0.0003823695005849004,0.017096441239118576
0.020079588517546654,0.00475369393825531,-0.015670981258153915,0.010497817769646645,-0.00038557001971639693,0.016832666471600533
0.019861169159412384,0.00480989832431078,-0.015377053059637547,0.01142309233546257,-0.00036496733082458377,0.016969449818134308
0.02044854685664177,0.004726644139736891,-0.015913842245936394,0.010824088007211685,-0.00036911340430378914,0.01705685630440712
0.02125636115670204,0.004981369245797396,-0.015823327004909515,0.01013653352856636,-0.00037225059350021183,0.01713612489402294
0.020767049863934517,0.005060573574155569,-0.015144215896725655,0.009893749840557575,-0.00035532951005734503,0.01720256172120571
0.01981612667441368,0.004748569801449776,-0.015499557368457317,0.009843661449849606,-0.00043963934876956046,0.016849227249622345
0.01981612667441368,0.004748569801449776,-0.015499557368457317,0.009843661449849606,-0.00043963934876956046,0.016849227249622345
0.021021796390414238,0.004875606391578913,-0.0154004767537117,0.010588133707642555,-0.00043151708086952567,0.01690797507762909
0.02060513384640217,0.004938004072755575,-0.01582086831331253,0.010754073038697243,-0.0004340206505730748,0.016779502853751183
0.020325878635048866,0.004807089455425739,-0.015106824226677418,0.009587246924638748,-0.00043398613343015313,0.017018519341945648
0.020245259627699852,0.0046606226824223995,-0.015818975865840912,0.010024135932326317,-0.0004038001352455467,0.017474962398409843
0.020639542490243912,0.0045687551610171795,-0.015194918029010296,0.0107404924929142,-0.0004340694285929203,0.01752690225839615
0.020878050476312637,0.004629557020962238,-0.015659580007195473,0.010158427059650421,-0.00040964214713312685,0.017750322818756104
0.02078446000814438,0.004666747059673071,-0.015010918490588665,0.010337498039007187,-0.0003848544438369572,0.01723387837409973
0.020942386239767075,0.004867987707257271,-0.0156005984172225,0.010386762209236622,-0.0004109277797397226,0.017435522750020027
0.020730670541524887,0.0050409091636538506,-0.015269980765879154,0.010292534716427326,-0.00039171092794276774,0.01754250004887581
0.02071821503341198,0.004883940797299147,-0.015674352645874023,0.010685483925044537,-0.00037168845301494,0.017197629436850548
0.02095935307443142,0.004626431502401829,-0.015619645826518536,0.010674838908016682,-0.0003534494317136705,0.017583908513188362
0.02128242701292038,0.00486835278570652,-0.015532911755144596,0.011100167408585548,-0.00033785655978135765,0.017991753295063972
0.0206432044506073,0.005033254157751799,-0.015524975024163723,0.01091025024652481,-0.0003690760931931436,0.017816798761487007
0.021098608151078224,0.005637593101710081,-0.015684058889746666,0.011093749664723873,-0.0003524284693412483,0.017580006271600723
0.02095096744596958,0.0051850127056241035,-0.014912187121808529,0.010807356797158718,-0.0003581532509997487,0.018045170232653618
0.02080109715461731,0.004805539734661579,-0.015534991398453712,0.010616108775138855,-0.0003623327356763184,0.017750348895788193
0.020959317684173584,0.004844116512686014,-0.015401178039610386,0.01099443156272173,-0.0003681292000692338,0.017982924357056618
0.02115597389638424,0.004928546492010355,-0.015864433720707893,0.011143962852656841,-0.00037141062784940004,0.01819096878170967
0.020899074152112007,0.004987232852727175,-0.015196972526609898,0.010650399141013622,-0.00035457254853099585,0.017714066430926323
0.02129952795803547,0.005117607768625021,-0.015579051338136196,0.010879119858145714,-0.00045443244744092226,0.017463602125644684
0.02129635401070118,0.004872159566730261,-0.01541284378618002,0.010663983412086964,-0.00042884951108135283,0.017929643392562866
0.02087111584842205,0.004727242514491081,-0.015897203236818314,0.011042268946766853,-0.00043050575186498463,0.017979532480239868
0.02224183827638626,0.004706262145191431,-0.015859946608543396,0.010931111872196198,-0.0004306797927711159,0.01799296773970127
0.021671120077371597,0.005195014178752899,-0.0156802199780941,0.010460691526532173,-0.0004333639517426491,0.01817435957491398
0.021415837109088898,0.0051964097656309605,-0.016005191951990128,0.010972105897963047,-0.000433333741966635,0.018262572586536407
0.021537724882364273,0.005364150740206242,-0.01569177582859993,0.011339075863361359,-0.0004072599404025823,0.01843245141208172
0.02182093635201454,0.0053552258759737015,-0.01592465676367283,0.011296479031443596,-0.0004228964971844107,0.0183574166148901
0.02154712937772274,0.005113131832331419,-0.015304912813007832,0.011291359551250935,-0.00041132213664241135,0.018524879589676857
0.02154712937772274,0.005113131832331419,-0.015304912813007832,0.011291359551250935,-0.00041132213664241135,0.018524879589676857
0.021396318450570107,0.005334825254976749,-0.01588314212858677,0.010736782103776932,-0.00038986431900411844,0.01882149651646614
0.02238534204661846,0.005087549798190594,-0.015264315530657768,0.01089845784008503,-0.0003698834334500134,0.018292665481567383
0.022876128554344177,0.005327852442860603,-0.015853505581617355,0.01089616771787405,-0.00035378235043026507,0.01854737475514412
0.02216821350157261,0.005626125726848841,-0.015577585436403751,0.010647516697645187,-0.00035454664612188935,0.01890893466770649
0.02192864939570427,0.005138244479894638,-0.015857994556427002,0.011010496877133846,-0.00033037911634892225,0.018448157235980034
0.02110491320490837,0.005169264040887356,-0.015590487979352474,0.010839688591659069,-0.00036514512612484396,0.018471360206604004
0.021870622411370277,0.005140111781656742,-0.015357128344476223,0.010950411669909954,-0.00034551380667835474,0.01885797455906868
0.022268187254667282,0.004994709976017475,-0.016020556911826134,0.011195194907486439,-0.0003717936633620411,0.01965300366282463
0.022416232153773308,0.005258896388113499,-0.015868647024035454,0.011103705503046513,-0.0003571278357412666,0.018535632640123367
0.022343730553984642,0.005502729211002588,-0.015054035931825638,0.011259779334068298,-0.0003653935855254531,0.017760736867785454
0.02274581976234913,0.005110044963657856,-0.015437215566635132,0.010947968810796738,-0.000420084863435477,0.018931526690721512
0.023247916251420975,0.004900400992482901,-0.015249502845108509,0.01155682373791933,-0.0004896663594990969,0.019525300711393356
0.022887637838721275,0.005108253099024296,-0.01614166423678398,0.011357833631336689,-0.0004889696720056236,0.019559521228075027
0.023017434403300285,0.005464234389364719,-0.015717975795269012,0.011644188314676285,-0.0005208051879890263,0.018925568088889122
0.022229449823498726,0.0053877211175858974,-0.015636246651411057,0.011694897897541523,-0.0005363493110053241,0.017913568764925003
0.02264661341905594,0.005042660981416702,-0.015785817056894302,0.011346953921020031,-0.000514160143211484,0.018574142828583717
0.023065896704792976,0.005313577596098185,-0.016153793781995773,0.01197358500212431,-0.0005979154375381768,0.019581492990255356
0.02343275025486946,0.005446590483188629,-0.016611753031611443,0.011361723765730858,-0.0006245498661883175,0.019820766523480415
0.02329234778881073,0.005798654165118933,-0.015657344833016396,0.011452258564531803,-0.000554683618247509,0.018997658044099808
0.023566899821162224,0.005832545924931765,-0.016418183222413063,0.011364198289811611,-0.0005790503928437829,0.01883682608604431
0.023701630532741547,0.005556727293878794,-0.01579473912715912,0.011263393796980381,-0.0005333315930329263,0.018801704049110413
0.023277029395103455,0.005570549052208662,-0.01656564697623253,0.011808665469288826,-0.0004860275366809219,0.020246462896466255
0.0231973584741354,0.005122569389641285,-0.01599908620119095,0.011851138435304165,-0.00044590028119273484,0.019993633031845093
0.023400289937853813,0.005517508834600449,-0.016253629699349403,0.011548960581421852,-0.0004756555426865816,0.01934897154569626
0.023693736642599106,0.0054298522882163525,-0.01674743928015232,0.011392607353627682,-0.0004461154749151319,0.01901891455054283
0.023375054821372032,0.00568260345607996,-0.01677100732922554,0.011169089004397392,-0.00047224259469658136,0.018820734694600105
0.023375054821372032,0.00568260345607996,-0.01677100732922554,0.011169089004397392,-0.00047224259469658136,0.018820734694600105
0.024033095687627792,0.005236925557255745,-0.01700001023709774,0.011513907462358475,-0.0004465683887246996,0.01917954720556736
0.023765098303556442,0.005401666276156902,-0.016160354018211365,0.01180092990398407,-0.0004033026343677193,0.020007899031043053
0.023672377690672874,0.005495977122336626,-0.016706250607967377,0.011519772000610828,-0.0003688432043418288,0.020313331857323647
0.024142688140273094,0.005821354687213898,-0.016173630952835083,0.011606370098888874,-0.0003908486687578261,0.020191768184304237
0.024198323488235474,0.005846770480275154,-0.017367281019687653,0.01143129263073206,-0.0003789546899497509,0.019810553640127182
0.024284591898322105,0.005122129339724779,-0.017277134582400322,0.012000234797596931,-0.00038380862679332495,0.020110422745347023
0.024059774354100227,0.0046663894318044186,-0.016735704615712166,0.011984786950051785,-0.00039146936614997685,0.020183157175779343
0.024606410413980484,0.0048291427083313465,-0.016052253544330597,0.012018858455121517,-0.00039368236321024597,0.020273467525839806
0.024391798302531242,0.004975334275513887,-0.016616858541965485,0.011885258369147778,-0.00037642443203367293,0.020005138590931892
0.02462931163609028,0.005124618299305439,-0.016318384557962418,0.01206105574965477,-0.00045380659867078066,0.02013256959617138
0.024660995230078697,0.004823845345526934,-0.016709832474589348,0.012152149342000484,-0.00045958219561725855,0.020359491929411888
0.02514706924557686,0.004587522707879543,-0.01720263622701168,0.01257222518324852,-0.0004577429499477148,0.020095650106668472
0.024556439369916916,0.004652768839150667,-0.016545545309782028,0.012277176603674889,-0.0004241958959028125,0.020436853170394897
0.025082562118768692,0.005095486994832754,-0.01704164780676365,0.012302649207413197,-0.0004543827672023326,0.020668085664510727
0.024847375229001045,0.00505339028313756,-0.016583945602178574,0.012834182940423489,-0.0004275180690456182,0.020778503268957138
0.025042137131094933,0.005475296638906002,-0.01664051227271557,0.01240843627601862,-0.00045381952077150345,0.020814253017306328
0.025472279638051987,0.0050766682252287865,-0.016907209530472755,0.012697885744273663,-0.00043128017568960786,0.020758887752890587
0.025650881230831146,0.004517761059105396,-0.016737956553697586,0.012267029844224453,-0.000496199878398329,0.020994072780013084
0.02575499936938286,0.004483990836888552,-0.01707729697227478,0.01270644273608923,-0.0005199272418394685,0.02090173214673996
0.02587934210896492,0.0046470193192362785,-0.01637144386768341,0.012670446187257767,-0.000493313476908952,0.020781228318810463
0.02555539831519127,0.005166833754628897,-0.01725117117166519,0.012487751431763172,-0.000518379732966423,0.020552318543195724
0.02555539831519127,0.005166833754628897,-0.01725117117166519,0.012487751431763172,-0.000518379732966423,0.020552318543195724
0.025877075269818306,0.004522240255028009,-0.016750400885939598,0.012489491142332554,-0.0005168764037080109,0.020874259993433952
0.025877075269818306,0.004522240255028009,-0.016750400885939598,0.012489491142332554,-0.0005168764037080109,0.020874259993433952
0.025770407170057297,0.004412646405398846,-0.016917243599891663,0.012459455989301205,-0.0006437944830395281,0.0208397526293993
0.026882482692599297,0.0045757233165204525,-0.016335071995854378,0.012492846697568893,-0.0006812758510932326,0.0211908221244812
0.026399005204439163,0.004611198790371418,-0.017393862828612328,0.012711279094219208,-0.0006862329901196063,0.021050939336419106
0.02429981902241707,0.00461463863030076,-0.0173052828758955,0.012534081004559994,-0.0006397824618034065,0.02108023874461651
0.026177166029810905,0.004761442542076111,-0.017105871811509132,0.0125130545347929,-0.0006537550943903625,0.0216135922819376
0.02691778726875782,0.004677617456763983,-0.016928358003497124,0.012764873914420605,-0.0006083112093620002,0.021703002974390984
0.026826493442058563,0.00412703026086092,-0.016590964049100876,0.01222584955394268,-0.0006048317300155759,0.02168256975710392
0.025943705812096596,0.004399545025080442,-0.01728590950369835,0.012878051958978176,-0.0005714782164432108,0.020893871784210205
0.026199568063020706,0.004549817647784948,-0.017137952148914337,0.01251894049346447,-0.0005095293163321912,0.02030043490231037
0.026275521144270897,0.004711287561804056,-0.01703117974102497,0.012347268871963024,-0.000498141220305115,0.0211208313703537
0.0260135717689991,0.004721266683191061,-0.01657330058515072,0.012406997382640839,-0.000526999298017472,0.021710889413952827
0.025428401306271553,0.0046503799967467785,-0.017090002074837685,0.01281803660094738,-0.0004905699170194566,0.021289877593517303
0.026385271921753883,0.0045216572470963,-0.017014410346746445,0.012535221874713898,-0.0005158658605068922,0.021450500935316086
0.02704167179763317,0.004523123148828745,-0.017427243292331696,0.013216910883784294,-0.00048506009625270963,0.021868735551834106
0.026829063892364502,0.00438013207167387,-0.01735719107091427,0.012417099438607693,-0.0004563030379358679,0.02191433124244213
0.027028825134038925,0.004605052527040243,-0.0166588444262743,0.012591454200446606,-0.00044087806600145996,0.021700337529182434
0.026927968487143517,0.0047358619049191475,-0.01718277670443058,0.012258538976311684,-0.00047275994438678026,0.02158011868596077
0.027020111680030823,0.0047687022015452385,-0.016928546130657196,0.012801925651729107,-0.0004977850476279855,0.02104736492037773
0.026981400325894356,0.004765406250953674,-0.01757270097732544,0.012701121158897877,-0.0005277270684018731,0.0213242806494236
0.027063598856329918,0.004741322714835405,-0.018270790576934814,0.012362690642476082,-0.0007995794876478612,0.02174425683915615
0.02684769220650196,0.004523126408457756,-0.01707957498729229,0.013402190990746021,-0.0008936811937019229,0.02231024019420147
0.02645769529044628,0.0047978973016142845,-0.017834821715950966,0.012717329896986485,-0.0008825681870803237,0.02207154780626297
0.026912255212664604,0.0048308949917554855,-0.017667679116129875,0.013216155581176281,-0.0008006427669897676,0.021986741572618484
0.027006708085536957,0.004905402194708586,-0.01763918064534664,0.012205453589558601,-0.0007861692574806511,0.021523158997297287
0.02704235352575779,0.004726487677544355,-0.01767069287598133,0.01295172143727541,-0.0007292865193448961,0.021944424137473106
0.026930266991257668,0.004652931354939938,-0.017802566289901733,0.01237449049949646,-0.0006652696174569428,0.02229292131960392
0.027126435190439224,0.004726172890514135,-0.01831182837486267,0.012442156672477722,-0.0006140818004496396,0.02265707403421402
0.027126435190439224,0.004726172890514135,-0.01831182837486267,0.012442156672477722,-0.0006140818004496396,0.02265707403421402
0.027540912851691246,0.00473914435133338,-0.017945632338523865,0.013133362866938114,-0.000621532613877207,0.02234341762959957
0.027413086965680122,0.004586763214319944,-0.01751287281513214,0.01333843357861042,-0.0005791134317405522,0.02218630723655224
0.026455895975232124,0.0047287545166909695,-0.01832118071615696,0.013925458304584026,-0.000605492212343961,0.02226819097995758
0.02785107120871544,0.004648216068744659,-0.01830115355551243,0.013750487007200718,-0.000595766119658947,0.022711031138896942
0.027709385380148888,0.0045640901662409306,-0.018893279135227203,0.013261712156236172,-0.0005827760905958712,0.02256520837545395
0.028551314026117325,0.004459565971046686,-0.01817072555422783,0.014057070016860962,-0.000623896426986903,0.02253328450024128
0.028594477102160454,0.0047438316978514194,-0.017869139090180397,0.014174416661262512,-0.0005753142759203911,0.022797193378210068
0.027570554986596107,0.0047776163555681705,-0.019263366237282753,0.013904158025979996,-0.0006066684145480394,0.022780781611800194
0.02780490554869175,0.004903529770672321,-0.01845664158463478,0.014049861580133438,-0.0006181849166750908,0.023289766162633896
0.028632402420043945,0.005101365502923727,-0.017299314960837364,0.013636612333357334,-0.0005820872611366212,0.0221071969717741
0.028457224369049072,0.004269678611308336,-0.01854991354048252,0.013371679931879044,-0.0005601549637503922,0.022841406986117363
0.02930956520140171,0.004410302732139826,-0.018526596948504448,0.013768434524536133,-0.0005653338739648461,0.02297292836010456
0.029313143342733383,0.0044289338402450085,-0.01850932464003563,0.013414262793958187,-0.0005429687444120646,0.023246677592396736
0.029666706919670105,0.004214101936668158,-0.017642710357904434,0.01397415716201067,-0.0005708960234187543,0.02345471829175949
0.028646770864725113,0.00435912748798728,-0.01811034046113491,0.013534761033952236,-0.0006023758323863149,0.023018889129161835
0.028400395065546036,0.004475859925150871,-0.01861892268061638,0.013816156424582005,-0.0005985124153085053,0.022878656163811684
0.029229870066046715,0.00423796521499753,-0.017938558012247086,0.01359995361417532,-0.0005856111529283226,0.02297542430460453
0.029401656240224838,0.004342263098806143,-0.01819385588169098,0.013990097679197788,-0.0006867696065455675,0.023148396983742714
0.029374420642852783,0.00428705383092165,-0.018186232075095177,0.014170227572321892,-0.00069984927540645,0.02312699891626835
0.029559409245848656,0.004085063934326172,-0.01813928596675396,0.014465230517089367,-0.0006700819940306246,0.0232058335095644
0.0294230617582798,0.004285306204110384,-0.0186292827129364,0.014158512465655804,-0.0006852151709608734,0.023300500586628914
0.029543329030275345,0.004965056665241718,-0.018049929291009903,0.014640199951827526,-0.0006719363736920059,0.02352152019739151
0.02987915463745594,0.004993803333491087,-0.018431374803185463,0.014066982083022594,-0.0006509570521302521,0.023435719311237335
0.02977822721004486,0.004307190887629986,-0.018574880436062813,0.01416699681431055,-0.0006012546364217997,0.023346632719039917
0.029794981703162193,0.004216880537569523,-0.017917977645993233,0.014442142099142075,-0.0005966274184174836,0.023290950804948807
0.029794981703162193,0.004216880537569523,-0.017917977645993233,0.014442142099142075,-0.0005966274184174836,0.023290950804948807
0.029876602813601494,0.004748291801661253,-0.01849989779293537,0.014339765533804893,-0.0005683650961145759,0.023775959387421608
0.029876602813601494,0.004748291801661253,-0.01849989779293537,0.014339765533804893,-0.0005683650961145759,0.023775959387421608
0.030216703191399574,0.004945402033627033,-0.018180053681135178,0.014672033488750458,-0.0005895958165638149,0.024341752752661705
0.02994377724826336,0.004620086867362261,-0.018469825387001038,0.014354859478771687,-0.0005483842687681317,0.02441704086959362
0.029916824772953987,0.004345006309449673,-0.01822233572602272,0.014867301099002361,-0.000567281327676028,0.02365793101489544
0.030546238645911217,0.004891394171863794,-0.018443021923303604,0.01500930916517973,-0.0005369654973037541,0.02287960983812809
0.03016148880124092,0.0051216017454862595,-0.018773682415485382,0.01519570592790842,-0.0005683074705302715,0.02341696247458458
0.03001314587891102,0.004486914724111557,-0.01837530918419361,0.014900807291269302,-0.0006049519288353622,0.024029163643717766
0.03056188113987446,0.004362204577773809,-0.018447846174240112,0.015280669555068016,-0.0006287928554229438,0.02443331480026245
0.03072124347090721,0.004542716778814793,-0.018504727631807327,0.014817374758422375,-0.0006219641654752195,0.024062713608145714
0.030999645590782166,0.004554816521704197,-0.01774139143526554,0.015115907415747643,-0.0006066131172701716,0.024354591965675354
0.03130197897553444,0.0041705286130309105,-0.01873631216585636,0.015427395701408386,-0.0007125410484150052,0.02475365810096264
0.031370051205158234,0.004116208758205175,-0.018017077818512917,0.015303668566048145,-0.0006792611675336957,0.023586222901940346
0.031445350497961044,0.003962289541959763,-0.018472222611308098,0.01561247743666172,-0.0006550821126438677,0.023939788341522217
0.03129721060395241,0.0044196960516273975,-0.01867217756807804,0.015729108825325966,-0.0006329057505354285,0.025076299905776978
0.03133772686123848,0.0046913535334169865,-0.018426096066832542,0.01574675366282463,-0.0006487813661806285,0.025385068729519844
0.03124079294502735,0.004374015610665083,-0.01865931786596775,0.015293421223759651,-0.0006041518645361066,0.0251013170927763
0.03122529573738575,0.004511703737080097,-0.018087660893797874,0.015144264325499535,-0.0005804403335787356,0.024292584508657455
0.031079353764653206,0.004264813382178545,-0.018155161291360855,0.015259199775755405,-0.000524189556017518,0.024360522627830505
0.032014068216085434,0.004432422108948231,-0.018907632678747177,0.015316672623157501,-0.0004700936551671475,0.024818288162350655
0.03260543569922447,0.004504500422626734,-0.018338758498430252,0.015347925946116447,-0.0005045980215072632,0.024611135944724083
0.0316770114004612,0.004687965847551823,-0.018534747883677483,0.015118010342121124,-0.00046615928295068443,0.024795597419142723
0.03085886687040329,0.004609043709933758,-0.01886795461177826,0.015538379549980164,-0.0004958891659043729,0.024754293262958527
0.0320102795958519,0.004315468482673168,-0.018231570720672607,0.014942551963031292,-0.0005124284070916474,0.024837682023644447
0.031901877373456955,0.0040790243074297905,-0.01874629408121109,0.01492336206138134,-0.0004927738918922842,0.025098659098148346
0.031977053731679916,0.004293578211218119,-0.01867995783686638,0.014606508426368237,-0.000518607790581882,0.025169767439365387
0.03297664597630501,0.004460204392671585,-0.018442392349243164,0.015396326780319214,-0.0005673362757079303,0.02520258165895939
0.03204580396413803,0.004550711717456579,-0.018925709649920464,0.015127108432352543,-0.0006002726731821895,0.02550005353987217
0.03204580396413803,0.004550711717456579,-0.018925709649920464,0.015127108432352543,-0.0006002726731821895,0.02550005353987217
0.03161529079079628,0.00450281472876668,-0.019918983802199364,0.01577281579375267,-0.0006269257864914834,0.025376124307513237
0.031495869159698486,0.004325428977608681,-0.018999008461833,0.015323917381465435,-0.0009645322570577264,0.025460045784711838
0.032638050615787506,0.004040301777422428,-0.019186431542038918,0.015407000668346882,-0.0009881585137918591,0.02530621737241745
0.03270307555794716,0.004158906172960997,-0.019139079377055168,0.014876525849103928,-0.0009577925084158778,0.025356663390994072
0.03136182203888893,0.004556969739496708,-0.018831022083759308,0.015309841372072697,-0.0008594621904194355,0.025386899709701538
0.03258544206619263,0.004745320416986942,-0.019403712823987007,0.014896114356815815,-0.0008368216804228723,0.025458097457885742
0.03211376816034317,0.0042368327267467976,-0.019683368504047394,0.01528884842991829,-0.0007712896913290024,0.025825519114732742
0.03170354291796684,0.0044436329044401646,-0.01938667707145214,0.015684621408581734,-0.0006903920439071953,0.02574756368994713
0.03208382800221443,0.004497186746448278,-0.019193904474377632,0.01605265587568283,-0.000657196156680584,0.025795284658670425
0.03263658285140991,0.004587116651237011,-0.019566435366868973,0.016587408259510994,-0.0006311074830591679,0.025429366156458855
0.03274998068809509,0.004538101144134998,-0.019970277324318886,0.016266044229269028,-0.0005992719670757651,0.026633650064468384
0.03277113288640976,0.004783565178513527,-0.02026977576315403,0.01581178419291973,-0.0006048436625860631,0.026728110387921333
0.03261533007025719,0.004338101018220186,-0.019166529178619385,0.016032852232456207,-0.0005743216024711728,0.026288216933608055
0.03247396647930145,0.004004985559731722,-0.01932203397154808,0.01628265716135502,-0.0005805993569083512,0.025136347860097885
0.03247232362627983,0.0040121544152498245,-0.018993763253092766,0.016493428498506546,-0.0006083603366278112,0.02528444677591324
0.03349269554018974,0.00395009433850646,-0.01843920908868313,0.01646173931658268,-0.000638623780105263,0.02619737945497036
0.034153878688812256,0.00383803341537714,-0.018522722646594048,0.01624900847673416,-0.0006421627476811409,0.02614351361989975
0.03250594809651375,0.003827281529083848,-0.020168382674455643,0.016665643081068993,-0.0006253556930460036,0.02578558772802353
0.032550979405641556,0.004379573743790388,-0.01926293782889843,0.016493720933794975,-0.0007569420849904418,0.026701893657445908
0.03385339304804802,0.004180940333753824,-0.019040361046791077,0.016737891361117363,-0.0008040007669478655,0.027320843189954758
0.03312769532203674,0.004371272400021553,-0.019495021551847458,0.016841238364577293,-0.0007301243022084236,0.026451243087649345
0.03358825296163559,0.004290249198675156,-0.019131820648908615,0.016973715275526047,-0.0007445950759574771,0.026292551308870316
0.03413979709148407,0.003973387181758881,-0.01972443051636219,0.017130384221673012,-0.0007418507593683898,0.025980042293667793
0.03422553092241287,0.004240248817950487,-0.019824042916297913,0.01631523109972477,-0.0006924006156623363,0.02653578296303749
0.03274772688746452,0.004136582370847464,-0.019510921090841293,0.016532300040125847,-0.0006895394762977958,0.027331450954079628
0.03341291472315788,0.003991579636931419,-0.020040838047862053,0.016281435266137123,-0.0006173629080876708,0.027008146047592163
0.03459877893328667,0.00391135411337018,-0.019859489053487778,0.01668897457420826,-0.0006374074728228152,0.026810549199581146
0.034172944724559784,0.0038714581169188023,-0.019382650032639503,0.016762450337409973,-0.000581410713493824,0.026889236643910408
0.03392311930656433,0.004103133454918861,-0.019681807607412338,0.01660788804292679,-0.0006009733187966049,0.026657193899154663
0.03392311930656433,0.004103133454918861,-0.019681807607412338,0.01660788804292679,-0.0006009733187966049,0.026657193899154663
0.03440926969051361,0.004211964085698128,-0.019832249730825424,0.01665952242910862,-0.0005579814896918833,0.026205113157629967
0.03446682542562485,0.003969938959926367,-0.01997258886694908,0.01599014922976494,-0.0005812697345390916,0.026661774143576622
0.034288305789232254,0.004210457671433687,-0.019908351823687553,0.01658114790916443,-0.0005923489225097001,0.027188802137970924
0.034557029604911804,0.004094116389751434,-0.019834086298942566,0.01660814881324768,-0.0006102361949160695,0.027182480320334435
0.03444942459464073,0.00401082681491971,-0.01980024017393589,0.016911234706640244,-0.0006397973629646003,0.027170643210411072
0.034763775765895844,0.003935959655791521,-0.019623996689915657,0.016795234754681587,-0.0006647029076702893,0.02750329300761223
0.0345921628177166,0.003867717692628503,-0.019798334687948227,0.01654496230185032,-0.0006333942292258143,0.027696607634425163
0.03517145663499832,0.0038696976844221354,-0.020155854523181915,0.016913259401917458,-0.000870601215865463,0.02726351097226143
0.03491460159420967,0.00386940804310143,-0.019672377035021782,0.016407540068030357,-0.0008224928169511259,0.027600828558206558
0.035347942262887955,0.003901852760463953,-0.019885249435901642,0.016728481277823448,-0.0008300507324747741,0.027560755610466003
0.03500804677605629,0.003437167266383767,-0.019655948504805565,0.016800591722130775,-0.0007555953343398869,0.02763523906469345
0.0350802019238472,0.0033693313598632812,-0.020083380863070488,0.016991738229990005,-0.0007420855690725148,0.027634400874376297
0.036030542105436325,0.0034071418922394514,-0.02016519382596016,0.016716768965125084,-0.000647402775939554,0.027640266343951225
0.03609513118863106,0.003412792691960931,-0.020232468843460083,0.017133554443717003,-0.0006488998187705874,0.02813384123146534
0.03567509353160858,0.003602503566071391,-0.01984146237373352,0.017101360484957695,-0.0006016799598000944,0.028125295415520668
0.035439010709524155,0.003757776925340295,-0.0198452677577734,0.017694711685180664,-0.0006089031812734902,0.028288720175623894
0.03579789400100708,0.0037975299637764692,-0.020074905827641487,0.017319630831480026,-0.0005738512263633311,0.027788039296865463
0.03561607748270035,0.003378763562068343,-0.020202074199914932,0.016810685396194458,-0.0005823640385642648,0.028549930080771446
0.035895176231861115,0.0035410227719694376,-0.02082527056336403,0.017435001209378242,-0.0005546672036871314,0.02909727580845356
0.03590928018093109,0.003796922042965889,-0.020747017115354538,0.017254257574677467,-0.0005154159152880311,0.02859310992062092
0.03573659062385559,0.003893831977620721,-0.0201397817581892,0.017601143568754196,-0.0004645228909794241,0.02913176268339157
0.03567778319120407,0.003880803007632494,-0.019930511713027954,0.01752455160021782,-0.0004617715021595359,0.029532890766859055
0.03559769690036774,0.003979927394539118,-0.020196523517370224,0.01694236882030964,-0.0004592456971295178,0.028553558513522148
0.0368628054857254,0.0035216009709984064,-0.02016311138868332,0.01693793758749962,-0.00048665027134120464,0.027656158432364464
0.036221325397491455,0.0036000562831759453,-0.02076566591858864,0.01714777946472168,-0.000520738132763654,0.027663152664899826
0.03533001244068146,0.0040346053428947926,-0.020743563771247864,0.017747284844517708,-0.0007261104765348136,0.028888575732707977
0.035961221903562546,0.004228406120091677,-0.020481251180171967,0.01870507374405861,-0.0007726493058726192,0.028901349753141403
0.03573683276772499,0.004098162986338139,-0.020391101017594337,0.017647843807935715,-0.0007384734926745296,0.028715044260025024
0.03573683276772499,0.004098162986338139,-0.020391101017594337,0.017647843807935715,-0.0007384734926745296,0.028715044260025024
0.0364101342856884,0.0036707331892102957,-0.02134261280298233,0.0180671326816082,-0.0007458342588506639,0.029637152329087257
0.03761580213904381,0.0035105592105537653,-0.020920777693390846,0.017917219549417496,-0.0006859994609840214,0.029340460896492004
0.03653457760810852,0.0036736761685460806,-0.020771540701389313,0.016881795600056648,-0.0007759364088997245,0.028730032965540886
0.03522598370909691,0.004363812040537596,-0.02059253118932247,0.017124203965067863,-0.0008009327575564384,0.027969378978013992
0.036451272666454315,0.00411194795742631,-0.020752113312482834,0.016932278871536255,-0.0007125260308384895,0.027912195771932602
0.037306997925043106,0.003882765071466565,-0.02111201174557209,0.017840499058365822,-0.0007205103756859899,0.029383763670921326
0.03653351217508316,0.0033711963333189487,-0.020913727581501007,0.018269969150424004,-0.0006574948783963919,0.02960808016359806
0.03637489303946495,0.003897678339853883,-0.020808475092053413,0.01787657104432583,-0.0005960113485343754,0.029076991602778435
0.0367044135928154,0.004240522626787424,-0.021186351776123047,0.018427779898047447,-0.0006167151150293648,0.028813716024160385
0.03649681806564331,0.0034574654418975115,-0.020993981510400772,0.018771501258015633,-0.0005236468859948218,0.028600886464118958
0.03618704527616501,0.0039064595475792885,-0.021310929208993912,0.01832001656293869,-0.0005387625424191356,0.029327578842639923
0.036713603883981705,0.004212469328194857,-0.021146712824702263,0.01768060401082039,-0.0005501627456396818,0.029369406402111053
0.0364508219063282,0.004103943705558777,-0.020666655153036118,0.018470562994480133,-0.0005413660546764731,0.029474491253495216
0.036395128816366196,0.003936870954930782,-0.020614005625247955,0.01840708777308464,-0.0005673184059560299,0.029295530170202255
0.03723421320319176,0.0038988792803138494,-0.02095920965075493,0.01765015348792076,-0.0005334864254109561,0.029623178765177727
0.037699028849601746,0.003922183532267809,-0.02135550230741501,0.017710275948047638,-0.0006648810231126845,0.02979998104274273
0.035729993134737015,0.003867704188451171,-0.021320490166544914,0.018012676388025284,-0.0006773629575036466,0.029913825914263725
0.03529459238052368,0.00414948258548975,-0.020965833216905594,0.018361618742346764,-0.0006258642533794045,0.029284585267305374
