davideferrari95/blind_handover_controller/data/Test 80 - [2024-02-07 -- 16-05-06]/joint_states_data.csv
shoulder_pan_joint,shoulder_lift_joint,elbow_joint,wrist_1_joint,wrist_2_joint,wrist_3_joint
0.003908636514097452,0.005202913656830788,-0.006829586811363697,0.0030241047497838736,-0.00011821773659903556,0.0033416971564292908
0.003908636514097452,0.005202913656830788,-0.006829586811363697,0.0030241047497838736,-0.00011821773659903556,0.0033416971564292908
0.003413827158510685,0.005394272971898317,-0.006567632779479027,0.0030690799467265606,-0.0001172010088339448,0.0035197576507925987
0.003413827158510685,0.005394272971898317,-0.006567632779479027,0.0030690799467265606,-0.0001172010088339448,0.0035197576507925987
0.0034450103994458914,0.005451292265206575,-0.006872417870908976,0.0027869585901498795,-0.00011538207036210224,0.0037576090544462204
0.0035835783928632736,0.005027554463595152,-0.006931598298251629,0.00257147871889174,-0.0001135660131694749,0.0037924302741885185
0.003644146490842104,0.004796974826604128,-0.0076671987771987915,0.002375943586230278,-0.0001118028158089146,0.00417814077809453
0.0035654117818921804,0.005191280040889978,-0.006834426894783974,0.0021970048546791077,-0.00011009326408384368,0.00413292134180665
0.003591360989958048,0.005132845137268305,-0.006409731227904558,0.0024545229971408844,-0.00010843521158676594,0.0035151897463947535
0.0036319205537438393,0.005160726141184568,-0.006618460640311241,0.002774891909211874,-0.00010682635911507532,0.003236177610233426
0.0034382042940706015,0.005220015533268452,-0.0068491073325276375,0.0029373886063694954,-0.00010526449477765709,0.0033533871173858643
0.003540756879374385,0.004849625285714865,-0.006924554705619812,0.002815650776028633,-0.00010374774865340441,0.0036287461407482624
0.0033082820009440184,0.004990521818399429,-0.006669668946415186,0.0027729319408535957,-9.549582318868488e-05,0.003957553766667843
0.0034391765948385,0.005271362606436014,-0.006520295049995184,0.0027920084539800882,-9.26606371649541e-05,0.003651657374575734
0.003476618556305766,0.005359827075153589,-0.007201998494565487,0.0027560845483094454,-8.89384318725206e-05,0.0039868406020104885
0.003476618556305766,0.005359827075153589,-0.007201998494565487,0.0027560845483094454,-8.89384318725206e-05,0.0039868406020104885
0.003881086129695177,0.004541579633951187,-0.0062911054119467735,0.0026426268741488457,-8.555616659577936e-05,0.003890661522746086
0.003451776457950473,0.005174919962882996,-0.00649581104516983,0.0025094449520111084,-8.395990153076127e-05,0.003587092738598585
0.003249997738748789,0.00554709741845727,-0.006651185918599367,0.002552888123318553,-8.242206968134269e-05,0.0033658123575150967
0.003377879038453102,0.005190106108784676,-0.007269481662660837,0.002726655686274171,-9.500786836724728e-05,0.003495109034702182
0.003377879038453102,0.005190106108784676,-0.007269481662660837,0.002726655686274171,-9.500786836724728e-05,0.003495109034702182
0.0036349166184663773,0.00505889393389225,-0.006619857624173164,0.0026540160179138184,-9.374579531140625e-05,0.003122517140582204
0.0036349166184663773,0.00505889393389225,-0.006619857624173164,0.0026540160179138184,-9.374579531140625e-05,0.003122517140582204
0.0032998500391840935,0.004692202899605036,-0.006300315260887146,0.0027455214876681566,-9.215415047947317e-05,0.003358655609190464
0.003485423978418112,0.005030269268900156,-0.006862929556518793,0.0029780908953398466,-9.060846787178889e-05,0.0036848168820142746
0.0037920132745057344,0.005339730530977249,-0.006654714699834585,0.0031863762997090816,-9.642620716476813e-05,0.0038032904267311096
0.003460667561739683,0.004911445081233978,-0.006501376628875732,0.002989519387483597,-0.00010178524098591879,0.003768996801227331
0.003510835813358426,0.004968327470123768,-0.0062285833992064,0.0028087031096220016,-0.0001006114762276411,0.0033111516386270523
0.003102147951722145,0.005165182054042816,-0.006871236488223076,0.0025777416303753853,-9.90590633591637e-05,0.0033948698546737432
0.0032752281986176968,0.004568802192807198,-0.007332046516239643,0.00244455155916512,-9.752746700542048e-05,0.003649315098300576
0.0033646479714661837,0.004588084761053324,-0.006933845579624176,0.0023984205909073353,-9.60407851380296e-05,0.003695867257192731
0.0035579511895775795,0.005024249199777842,-0.00670460844412446,0.002488108351826668,-0.00010463333455845714,0.0034716513473540545
0.0033079131972044706,0.004940141458064318,-0.006377797108143568,0.0024481855798512697,-0.00010628621384967119,0.0035655463580042124
0.0034649549052119255,0.0052527813240885735,-0.006696308497339487,0.002659591380506754,-0.00010494585148990154,0.0036763472016900778
0.0037352838553488255,0.005263621918857098,-0.006491753738373518,0.0026571224443614483,-0.00010345160990254954,0.0037060261238366365
0.0034711805637925863,0.004577646031975746,-0.006298921070992947,0.0025698854587972164,-0.00010211604967480525,0.0036113380920141935
0.003503320273011923,0.00456651858985424,-0.006156443152576685,0.0027051193173974752,-0.00017740386829245836,0.003637297311797738
0.003677681554108858,0.005053255707025528,-0.006746707484126091,0.002647670218721032,-0.000175659210071899,0.00374368648044765
0.003822783939540386,0.00509530259296298,-0.006841715425252914,0.002643840154632926,-0.00016938496264629066,0.0038102089893072844
0.0034102878998965025,0.005752283148467541,-0.0066155134700238705,0.0026822828222066164,-0.00016326073091477156,0.003431663615629077
0.003255660180002451,0.005317156668752432,-0.006541934795677662,0.002756164874881506,-0.00015754550986457616,0.0035347798839211464
0.0032726682256907225,0.004686320666223764,-0.007095376029610634,0.002741923788562417,-0.00017474577180109918,0.0033411518670618534
0.003425645874813199,0.004948497284203768,-0.0069058542139828205,0.0025882995687425137,-0.00017616529657971114,0.003490227973088622
0.003425645874813199,0.004948497284203768,-0.0069058542139828205,0.0025882995687425137,-0.00017616529657971114,0.003490227973088622
0.0036215311847627163,0.004764996934682131,-0.006877561565488577,0.00244396785274148,-0.00016088795382529497,0.0036777984350919724
0.003677574684843421,0.004053668584674597,-0.007780398242175579,0.0023758835159242153,-0.00015623282524757087,0.0032826268579810858
0.0036969936918467283,0.0038466365076601505,-0.006984684616327286,0.0022684833966195583,-0.0001518393837613985,0.0030974240507930517
0.0036969936918467283,0.0038466365076601505,-0.006984684616327286,0.0022684833966195583,-0.0001518393837613985,0.0030974240507930517
0.003431857330724597,0.00432013301178813,-0.006883382797241211,0.002555747516453266,-0.0001476865290896967,0.003272579051554203
0.0033623557537794113,0.004870905075222254,-0.006688870955258608,0.0029134443029761314,-0.00015552031982224435,0.0036233190912753344
0.003344041295349598,0.004573950078338385,-0.007018635980784893,0.002928430214524269,-0.0001625683653401211,0.0034321604762226343
0.003414906095713377,0.0042641060426831245,-0.007099383510649204,0.002798112342134118,-0.0001591831969562918,0.0035684420727193356
0.0036552180536091328,0.004486769903451204,-0.006082059815526009,0.002679326105862856,-0.00015530589735135436,0.003324847901239991
0.003667145036160946,0.004149764310568571,-0.0060459282249212265,0.0024946366902440786,-0.00015157231246121228,0.0034687742590904236
0.0036594339180737734,0.0042762174271047115,-0.0067712231539189816,0.0023610193748027086,-0.0001480112987337634,0.0036466168239712715
0.003659083740785718,0.00422768946737051,-0.0071687218733131886,0.0020732558332383633,-0.00014461360115092248,0.003802492516115308
0.0036882522981613874,0.004038614686578512,-0.006756731774657965,0.001976757077500224,-0.00014136836398392916,0.003471966367214918
0.00372170377522707,0.003936696797609329,-0.006472637876868248,0.0018865051679313183,-0.00015291459567379206,0.003357705194503069
0.003698886139318347,0.004347489681094885,-0.006516929250210524,0.0019658461678773165,-0.00015429113409481943,0.003417814616113901
0.0036881761625409126,0.004391548689454794,-0.006700377445667982,0.002539473818615079,-0.00015135166177060455,0.003355838358402252
0.004282931797206402,0.004244467709213495,-0.00687541114166379,0.0026540609542280436,-0.00014825510152149945,0.00319662899710238
0.003610746469348669,0.0039002352859824896,-0.006549614015966654,0.002700473414734006,-0.00014553358778357506,0.003396095708012581
0.003626542631536722,0.003675356274470687,-0.006047718692570925,0.002735997550189495,-0.0001653359504416585,0.003653930500149727
0.003736811224371195,0.0036454980727285147,-0.006476261653006077,0.002486797049641609,-0.0001610614126548171,0.003732281969860196
0.0038337574806064367,0.004206669982522726,-0.00712745962664485,0.002407925669103861,-0.00015559887106064707,0.0037187407724559307
0.00380941154435277,0.004128114320337772,-0.00693920161575079,0.0026601417921483517,-0.0001504047540947795,0.00347822904586792
0.0035203967709094286,0.004043255932629108,-0.00643931096419692,0.0027597479056566954,-0.00014554039807990193,0.0033503524027764797
0.003300549928098917,0.003999997861683369,-0.006390880793333054,0.0028792726807296276,-0.0001409802061971277,0.0030029923655092716
0.003300549928098917,0.003999997861683369,-0.006390880793333054,0.0028792726807296276,-0.0001409802061971277,0.0030029923655092716
0.0033892523497343063,0.004285348113626242,-0.006641832180321217,0.002776854205876589,-0.0001366971555398777,0.0030423300340771675
0.0035562876146286726,0.00423015421256423,-0.007015782408416271,0.002594306832179427,-0.00013266656605992466,0.003218450117856264
0.003637321526184678,0.0038872326258569956,-0.006207098253071308,0.0025504780933260918,-0.00015022204024717212,0.003583597717806697
0.003653525607660413,0.004206787329167128,-0.006675203796476126,0.0028513174038380384,-0.00014240499876905233,0.003706566756591201
0.0035399352200329304,0.0042163291946053505,-0.007393428590148687,0.0027693852316588163,-0.0001387461816193536,0.003473801538348198
0.003640867071226239,0.0042539332062006,-0.006843390874564648,0.002643086016178131,-0.00013527050032280385,0.00336677604354918
0.003728562965989113,0.004380484577268362,-0.00635317899286747,0.0027776414062827826,-0.00013196463987696916,0.0030357164796441793
0.003728562965989113,0.004380484577268362,-0.00635317899286747,0.0027776414062827826,-0.00013196463987696916,0.0030357164796441793
0.004278670530766249,0.004038369283080101,-0.00682136369869113,0.0029385953675955534,-0.0001288163912249729,0.0030788849107921124
0.004117097705602646,0.004267790354788303,-0.0070112040266394615,0.0028762079309672117,-0.00014402712986338884,0.002987577812746167
0.0035541546531021595,0.004304307978600264,-0.00653428491204977,0.0028049142565578222,-0.00014326190284918994,0.003078315407037735
0.0035311661195009947,0.004523852840065956,-0.006231723818928003,0.002777012763544917,-0.00014023680705577135,0.0032453667372465134
0.0036905209999531507,0.004275090992450714,-0.006472731940448284,0.0027685905806720257,-0.00013719349226448685,0.0036065017338842154
0.004222117830067873,0.004358337260782719,-0.0071944138035178185,0.0025637380313128233,-0.000134270143462345,0.0034306233283132315
0.004204916302114725,0.004474729765206575,-0.007038394920527935,0.0027009390760213137,-0.00013146823039278388,0.0031582489609718323
0.003551156260073185,0.004617275670170784,-0.006724421866238117,0.0028288064058870077,-0.0001378296728944406,0.0029021159280091524
0.003581965109333396,0.004355798941105604,-0.006373089738190174,0.002720009069889784,-0.0001436191232642159,0.0027506800834089518
0.0036654130090028048,0.0040540932677686214,-0.006885009352117777,0.002595196245238185,-0.00014135721721686423,0.002563167829066515
0.004298255778849125,0.004233159124851227,-0.006933428812772036,0.0025628197472542524,-0.00013867110828869045,0.0026960561517626047
0.004126315470784903,0.004341266583651304,-0.0066796038299798965,0.002519547939300537,-0.00013605295680463314,0.0026792206335812807
0.0035180370323359966,0.0044189440086483955,-0.006516772322356701,0.0024014057125896215,-0.00013352991663850844,0.0026117386296391487
0.0035184957087039948,0.004218540620058775,-0.00626345444470644,0.002434690482914448,-0.00013109856809023768,0.002826447831466794
0.0038070236332714558,0.00392524991184473,-0.007292008027434349,0.0019538754131644964,-0.00012890389189124107,0.002910539275035262
0.00438444409519434,0.004168317653238773,-0.008083740249276161,0.00207249796949327,-0.00014411352458409965,0.003031159983947873
0.004279692191630602,0.0036547500640153885,-0.007081510964781046,0.0025853978004306555,-0.00014086566807236522,0.002842875197529793
0.003939965274184942,0.003499765880405903,-0.006642231252044439,0.00318624428473413,-0.0001366694486932829,0.0027544170152395964
0.0038374431896954775,0.0035651137586683035,-0.006960515398532152,0.003175410907715559,-0.00013264584413263947,0.002529189921915531
0.003988625947386026,0.004068409092724323,-0.006403590086847544,0.0028672826010733843,-0.00012526108184829354,0.0027849096804857254
0.003912247717380524,0.003899182425811887,-0.005607306957244873,0.0025646048597991467,-0.00012186855747131631,0.003101916052401066
0.00378601741977036,0.003935220185667276,-0.0065390910021960735,0.0025596930645406246,-0.00011865497071994469,0.003043705364689231
0.0038312836550176144,0.003960953094065189,-0.007410056423395872,0.002731703920289874,-0.00011560638813534752,0.0028975310269743204
0.003919142764061689,0.0035280422307550907,-0.006987078581005335,0.002882121130824089,-0.00011271062976447865,0.002768873469904065
0.004359288606792688,0.003525059437379241,-0.006306176073849201,0.002710401313379407,-0.00010995642514899373,0.002741616452112794
0.00414337869733572,0.004199160262942314,-0.006408541463315487,0.002567985327914357,-0.000125976832350716,0.002855879720300436
0.00414337869733572,0.004199160262942314,-0.006408541463315487,0.002567985327914357,-0.000125976832350716,0.002855879720300436
0.003923999611288309,0.004111474845558405,-0.007009339984506369,0.002522322814911604,-0.00012561531912069768,0.0028919323813170195
0.004194056615233421,0.0039603086188435555,-0.00671018473803997,0.0025239528622478247,-0.00012292363680899143,0.0027905991300940514
0.004230612423270941,0.0034938298631459475,-0.006198651622980833,0.002735063899308443,-0.00012019829591736197,0.0029151320923119783
0.004373873583972454,0.0033613916020840406,-0.006140981800854206,0.0028085310477763414,-0.00011758161417674273,0.002890232717618346
0.004363746382296085,0.0035336294677108526,-0.0063981893472373486,0.002733243629336357,-0.00011507587623782456,0.0029405388049781322
0.004079735372215509,0.003772009164094925,-0.007285292726010084,0.0025104188825935125,-0.00011267472291365266,0.0027507219929248095
0.003976022358983755,0.00374464294873178,-0.0065429555252194405,0.002590867457911372,-0.00011037159129045904,0.002597138984128833
0.003948295954614878,0.004173838999122381,-0.006463958416134119,0.0025588185526430607,-0.00012153456918895245,0.0023059274535626173
0.004145278129726648,0.004103429615497589,-0.0068505448289215565,0.0024073091335594654,-0.00012340587272774428,0.00221635471098125
0.0040153213776648045,0.003925160504877567,-0.007520847953855991,0.002501897281035781,-0.00012130735558457673,0.0023247720673680305
0.004330539610236883,0.003828848246484995,-0.006982200313359499,0.002459982642903924,-0.00011903355334652588,0.002376698423177004
0.004573144018650055,0.0038015316240489483,-0.006127503700554371,0.002397039905190468,-0.00011682728654704988,0.002798781031742692
0.0046966345980763435,0.004165373742580414,-0.006366388406604528,0.0025490226689726114,-0.0001147003858932294,0.0028997294139117002
0.0044214497320353985,0.004209286533296108,-0.0072484090924263,0.002714171539992094,-0.0001126494025811553,0.0028289237525314093
0.004209759645164013,0.004066735040396452,-0.007150769233703613,0.002596004167571664,-0.00011067040759371594,0.0026274200063198805
0.004159974399954081,0.004111898597329855,-0.006509923841804266,0.00274643418379128,-0.00010875987936742604,0.002479428658261895
0.004500049632042646,0.004109113477170467,-0.006148603279143572,0.00282170157879591,-0.00010691417992347851,0.002603081753477454
0.004653493873775005,0.004000027198344469,-0.006405351217836142,0.0028258664533495903,-0.00010513002780498937,0.0025777649134397507
0.004422455560415983,0.004238612484186888,-0.007303380873054266,0.002838043263182044,-0.00011436778004281223,0.002805494936183095
0.00435755867511034,0.004150680731981993,-0.006691972259432077,0.0028168559074401855,-0.00011429638834670186,0.002635928336530924
0.00467098131775856,0.0038876330945640802,-0.006579072214663029,0.0026373721193522215,-0.00011262246698606759,0.002501289825886488
0.004312480799853802,0.0039041107520461082,-0.006948824971914291,0.0024775743950158358,-0.00011089524195995182,0.002403430175036192
0.00451665511354804,0.003976479172706604,-0.0071441554464399815,0.002616650890558958,-0.00010921361536020413,0.002335003111511469
0.00451665511354804,0.003976479172706604,-0.0071441554464399815,0.002616650890558958,-0.00010921361536020413,0.002335003111511469
0.004186875652521849,0.0039036497473716736,-0.006443162448704243,0.0029749751556664705,-0.0001075818290701136,0.002639712067320943
0.00445210887119174,0.0037873759865760803,-0.0063790627755224705,0.0027455200906842947,-0.00010599800589261577,0.0026372892316430807
0.004299466963857412,0.004278181120753288,-0.006708217319101095,0.002720537828281522,-0.0001044601813191548,0.0026060710661113262
0.004288158379495144,0.00407781358808279,-0.007509154733270407,0.0026377937756478786,-0.00010296620894223452,0.002518886001780629
0.0044053397141397,0.004295068327337503,-0.007263737265020609,0.0027060084976255894,-0.00010151451715501025,0.002238356275483966
0.004544464405626059,0.004219941794872284,-0.006786849349737167,0.002722040517255664,-0.00010366117930971086,0.0022863128688186407
0.004644259810447693,0.004517581779509783,-0.006521846167743206,0.003017488634213805,-0.0001047166224452667,0.0021584019996225834
0.0053433580324053764,0.00430716248229146,-0.007001286838203669,0.0032687815837562084,-0.00010255639062961563,0.0021613838616758585
0.005030310247093439,0.004270762670785189,-0.007388700731098652,0.002945167012512684,-0.00010028554243035614,0.002312575001269579
0.004751110915094614,0.004595391917973757,-0.006967809051275253,0.0027403004933148623,-9.810017218114808e-05,0.0025442903861403465
0.0046060821041464806,0.004758045077323914,-0.007384777069091797,0.0027838919777423143,-9.600725024938583e-05,0.002555401064455509
0.004601971711963415,0.004444353748112917,-0.007075927220284939,0.002768882317468524,-9.400160342920572e-05,0.0025698556564748287
0.005089221056550741,0.004086354747414589,-0.0068140653893351555,0.002900670049712062,-0.00010926631512120366,0.0023206020705401897
0.004899281542748213,0.00437557976692915,-0.006621870677918196,0.003118927823379636,-0.0001081980299204588,0.0020681254100054502
0.004983501974493265,0.004471333231776953,-0.006646648049354553,0.0029256981797516346,-0.00010614445636747405,0.0019277074607089162
0.005279927980154753,0.004616882652044296,-0.007265829015523195,0.0030188094824552536,-0.00010410290269646794,0.0019970808643847704
0.004746492952108383,0.004281309898942709,-0.007699795067310333,0.0030187834054231644,-0.0001021341813611798,0.001978488638997078
0.00501954834908247,0.004522401839494705,-0.007525140885263681,0.002995486371219158,-0.00010023824870586395,0.0020273844711482525
0.005427080672234297,0.004699770361185074,-0.00688133854418993,0.002946370979771018,-0.00011372258450137451,0.0019212057814002037
0.005218335893005133,0.0046492828987538815,-0.007201489061117172,0.0029208725318312645,-0.00011268723028479144,0.0020917397923767567
0.0052375271916389465,0.004681495018303394,-0.007660981267690659,0.003139155451208353,-0.00011077099043177441,0.0021365152206271887
0.005142178386449814,0.0046533155255019665,-0.006733102258294821,0.003159862942993641,-0.00010886128438869491,0.0019166084239259362
0.004855783190578222,0.004706920590251684,-0.006902521010488272,0.003236908232793212,-0.00010701240535126999,0.0017188799101859331
0.004855783190578222,0.004706920590251684,-0.006902521010488272,0.003236908232793212,-0.00010701240535126999,0.0017188799101859331
0.00484809186309576,0.004709077998995781,-0.00770113430917263,0.0028066665399819613,-0.00011077648377977312,0.0014126900350674987
0.004937596619129181,0.004653812386095524,-0.007029421161860228,0.0028295062948018312,-0.0001158798040705733,0.0014402872184291482
0.005156585946679115,0.004790787119418383,-0.006614719983190298,0.0032614818774163723,-0.00011448690929682925,0.0016823018668219447
0.005290090572088957,0.0044975923374295235,-0.006539618130773306,0.003208714537322521,-0.0001127238356275484,0.0020076751243323088
0.004897684324532747,0.004590350203216076,-0.007224834058433771,0.002924143336713314,-0.0001093033715733327,0.0018420544220134616
0.004897684324532747,0.004590350203216076,-0.007224834058433771,0.002924143336713314,-0.0001093033715733327,0.0018420544220134616
0.004849530290812254,0.004747931845486164,-0.007256421726197004,0.0028454477433115244,-0.00016903254436329007,0.001813868759199977
0.0047897654585540295,0.004458017181605101,-0.007380929309874773,0.0029678933788090944,-0.00017127758474089205,0.0016692794160917401
0.005188420880585909,0.00453300541266799,-0.007723302114754915,0.0033209046814590693,-0.00016554312605876476,0.0015599207254126668
0.0054540871642529964,0.004594731610268354,-0.00704797962680459,0.00363542721606791,-0.0001597043446963653,0.0015534702688455582
0.005025066900998354,0.004577734041959047,-0.006680934224277735,0.0037505037616938353,-0.00015423231525346637,0.0014345725066959858
0.0049270507879555225,0.00422411784529686,-0.005853403825312853,0.003376610577106476,-0.0001491209550295025,0.001465455163270235
0.00486948573961854,0.004367033950984478,-0.0067586228251457214,0.0032667163759469986,-0.00016938392946030945,0.0014442774700000882
0.005258470308035612,0.004648265428841114,-0.008431614376604557,0.0030535594560205936,-0.00016757170669734478,0.0015993221895769238
0.005468820687383413,0.004424356389790773,-0.007613287772983313,0.0031534982845187187,-0.00016274616064038128,0.001666943309828639
0.0050935326144099236,0.0043873898684978485,-0.006726590916514397,0.003113620448857546,-0.00015799867105670273,0.001837134943343699
0.0052802423015236855,0.00467275595292449,-0.006995571311563253,0.003481986466795206,-0.0001535077899461612,0.0017950047040358186
0.0055024162866175175,0.004195799119770527,-0.007336238864809275,0.0032802370842546225,-0.00014926436415407807,0.0017905494896695018
0.005269900429993868,0.004417180549353361,-0.00688670901581645,0.0032529530581086874,-0.0001678330299910158,0.0016642394475638866
0.005794885102659464,0.004206402692943811,-0.006696335971355438,0.0030530679505318403,-0.00016491225687786937,0.0015412084758281708
0.005440270062536001,0.004426466766744852,-0.007549777626991272,0.0031551180873066187,-0.0001607992162462324,0.0015037130797281861
0.0057912771590054035,0.004532174672931433,-0.008366480469703674,0.0031274226494133472,-0.00015680298383813351,0.0014025949640199542
0.005470375530421734,0.004628166556358337,-0.007233384996652603,0.003428855212405324,-0.00015299522783607244,0.0014283243799582124
0.005849453620612621,0.004690949339419603,-0.007126176729798317,0.003699117572978139,-0.00014936766820028424,0.0014912191545590758
0.005619908217340708,0.0041707479394972324,-0.007632431574165821,0.0034305762965232134,-0.0001653588842600584,0.0014664276968687773
0.005733328405767679,0.004386163782328367,-0.007979409769177437,0.0033953143283724785,-0.00016288651386275887,0.0015993858687579632
0.005733328405767679,0.004386163782328367,-0.007979409769177437,0.0033953143283724785,-0.00016288651386275887,0.0015993858687579632
0.0056820884346961975,0.0044105397537350655,-0.00694189453497529,0.0033873384818434715,-0.00015591818373650312,0.001512907212600112
0.0054930998012423515,0.004864753223955631,-0.007268196437507868,0.0035777061711996794,-0.00015261357475537807,0.0016245382139459252
0.0057002222165465355,0.004917788784950972,-0.007723532617092133,0.0033271596767008305,-0.00014944569556973875,0.0017069141613319516
0.006209149025380611,0.004614901263266802,-0.007278077770024538,0.0034874912817031145,-0.00014640679000876844,0.0017626495100557804
0.005658463109284639,0.004432426765561104,-0.007106666918843985,0.0033008602913469076,-0.00014374690363183618,0.0016460124170407653
0.005836096592247486,0.004456671886146069,-0.006950476206839085,0.0035254843533039093,-0.00016637214866932482,0.00144740822724998
0.005849859677255154,0.0045799496583640575,-0.007713404018431902,0.00367172434926033,-0.00016220087127294391,0.0013328177155926824
0.006128673907369375,0.004909293260425329,-0.007483018562197685,0.0032864620443433523,-0.00015667210391256958,0.001233731978572905
0.0061658951453864574,0.004930193070322275,-0.007203443441540003,0.003453123616054654,-0.0001464792585466057,0.0011528765317052603
0.0061658951453864574,0.004930193070322275,-0.007203443441540003,0.003453123616054654,-0.0001464792585466057,0.0011528765317052603
0.0057541485875844955,0.004835277330130339,-0.008339735679328442,0.0034842018503695726,-0.0001418612664565444,0.0012189637636765838
0.005616491194814444,0.004695167765021324,-0.008030364289879799,0.0032659568823873997,-0.00016139373474288732,0.0015624103834852576
0.006239178124815226,0.004294810816645622,-0.007584404665976763,0.003390106838196516,-0.00015989845269359648,0.0015965005150064826
0.006557895336300135,0.004424079786986113,-0.006711745169013739,0.00321840588003397,-0.0001555080380057916,0.0016503384103998542
0.006050390657037497,0.004982572514563799,-0.007334585301578045,0.0034918494056910276,-0.00015116814756765962,0.0015828553587198257
0.006174617446959019,0.004974845796823502,-0.007329985033720732,0.0032607221510261297,-0.0001470522693125531,0.0014479534002020955
0.0056243157014250755,0.00450766971334815,-0.007110116071999073,0.0031354150269180536,-0.00014315366570372134,0.0013449924299493432
0.0060818986967206,0.0035116984508931637,-0.007269726134836674,0.0032645040191709995,-0.00013945644604973495,0.0010991310700774193
0.006283988244831562,0.003403367707505822,-0.008185277692973614,0.0032315850257873535,-0.00015708542196080089,0.0010374955600127578
0.0061660283245146275,0.003775644348934293,-0.007435157895088196,0.003487048204988241,-0.00015460888971574605,0.0010131888557225466
0.006021595094352961,0.00401731813326478,-0.007220875937491655,0.003727281466126442,-0.00015099339361768216,0.0009969881502911448
0.006290352437645197,0.003977617248892784,-0.007474420592188835,0.003540442790836096,-0.000147464859765023,0.0009735908824950457
0.006300770211964846,0.004305071197450161,-0.00755956070497632,0.003400556044653058,-0.00014409229333978146,0.001086343778297305
0.006365236826241016,0.00420039938762784,-0.007989208213984966,0.0031187268905341625,-0.00014087013551034033,0.0010843159398064017
0.006700087338685989,0.003970511257648468,-0.007245393469929695,0.003110411111265421,-0.0001377891021547839,0.0014047174481675029
0.0061578890308737755,0.003760239342227578,-0.007324596866965294,0.003284008242189884,-0.0001348398654954508,0.001339598442427814
0.0061578890308737755,0.003760239342227578,-0.007324596866965294,0.003284008242189884,-0.0001348398654954508,0.001339598442427814
0.006726064253598452,0.0036253612488508224,-0.007913080044090748,0.003495981451123953,-0.00014300752081908286,0.0011261289473623037
0.007238101214170456,0.003731928765773773,-0.007308566942811012,0.003697378560900688,-0.00014449315494857728,0.0009592424612492323
0.0070046670734882355,0.003808092325925827,-0.007229789160192013,0.003818983444944024,-0.00014192936941981316,0.000929204688873142
0.005976484622806311,0.003808818757534027,-0.007137753069400787,0.003488878021016717,-0.00013920373748987913,0.0009234445751644671
0.006400322075933218,0.004066599998623133,-0.0072119589895009995,0.003561669960618019,-0.0001365645875921473,0.000920256890822202
0.007229450158774853,0.003988048993051052,-0.007554725278168917,0.003312843618914485,-0.00013402251352090389,0.0009715923224575818
0.005965060088783503,0.0034670995082706213,-0.007782156113535166,0.003172650234773755,-0.00012921213055960834,0.0009945719502866268
0.005965060088783503,0.0034670995082706213,-0.007782156113535166,0.003172650234773755,-0.00012921213055960834,0.0009945719502866268
0.006482351571321487,0.0035340136382728815,-0.007406489457935095,0.0034593590535223484,-0.00012693410099018365,0.0012821892742067575
0.00766528258100152,0.003980709705501795,-0.0074842688627541065,0.003772465279325843,-0.000124735088320449,0.0012929374352097511
0.006682978011667728,0.003963834140449762,-0.007170633412897587,0.0038537192158401012,-0.00012261087249498814,0.001250308589078486
0.006538005080074072,0.003811458358541131,-0.007751439698040485,0.0038154167123138905,-0.0001205578664666973,0.001215440919622779
0.00646994449198246,0.004323944449424744,-0.007614879868924618,0.0038216905668377876,-0.00011857237404910848,0.0011730102123692632
0.006917368154972792,0.00416171969845891,-0.007300063967704773,0.004019350279122591,-0.00011665141937555745,0.0011029975721612573
0.006960304453969002,0.003952778875827789,-0.007515862584114075,0.003972208127379417,-0.00011479157547000796,0.0009697849745862186
0.007281911093741655,0.003925487399101257,-0.0079769566655159,0.0038664175663143396,-0.00011299012112431228,0.0009534709970466793
0.006524072494357824,0.0039036215748637915,-0.007373714353889227,0.003788579721003771,-0.00011124440788989887,0.0008359414059668779
0.006382770836353302,0.0038988622836768627,-0.006952423136681318,0.003546384861692786,-0.00010962473606923595,0.0007729820790700614
0.006964672822505236,0.004263718146830797,-0.007286689709872007,0.003519118996337056,-0.00010976225166814402,0.0007854733848944306
0.00751134380698204,0.004286708310246468,-0.0074452729895710945,0.003654077183455229,-0.00010732791997725144,0.0007989256992004812
0.0070661441422998905,0.004485536366701126,-0.006823042873293161,0.0037997434847056866,-0.00010483936785021797,0.0009159187320619822
0.006342839915305376,0.004090817179530859,-0.006911090575158596,0.003628809005022049,-0.00010245317389490083,0.0010410737013444304
0.0067827762104570866,0.0038047567941248417,-0.007542657200247049,0.0036158165894448757,-0.00010017243766924366,0.0010261171264573932
0.007132156286388636,0.003950225654989481,-0.007956340909004211,0.0036878904793411493,-9.799104736885056e-05,0.0008985949098132551
0.007166001014411449,0.003900146810337901,-0.007322857156395912,0.003817774821072817,-9.590260015102103e-05,0.000891360454261303
0.00650683743879199,0.0037850900553166866,-0.006877868436276913,0.0038581497501581907,-9.390132618136704e-05,0.000799145142082125
0.0071088820695877075,0.003792306175455451,-0.0071799419820308685,0.004064643289893866,-9.198193583870307e-05,0.0007353267283178866
0.007546181790530682,0.004394975025206804,-0.007427328731864691,0.00400354340672493,-9.013935778057203e-05,0.0006407356704585254
0.0066740065813064575,0.003849578322842717,-0.0069728391245007515,0.0037309585604816675,-8.66672198753804e-05,0.0006709964945912361
0.0066740065813064575,0.003849578322842717,-0.0069728391245007515,0.0037309585604816675,-8.66672198753804e-05,0.0006709964945912361
0.00664973258972168,0.004120859317481518,-0.007324498612433672,0.00363409286364913,-8.502959099132568e-05,0.0006701632519252598
0.007072041742503643,0.004196976311504841,-0.0076203192584216595,0.003677378175780177,-8.345267997356132e-05,0.0006500973831862211
0.007499704137444496,0.004059316590428352,-0.007311281748116016,0.003999508451670408,-8.193321991711855e-05,0.0006826536846347153
0.007666155695915222,0.004007234238088131,-0.00718279741704464,0.0039478568360209465,-8.046803850447759e-05,0.0007103201933205128
0.007128177210688591,0.004140160977840424,-0.007053561508655548,0.003765967907384038,-7.905440725153312e-05,0.0007400579052045941
0.007605328224599361,0.004439609590917826,-0.007277655880898237,0.00373260211199522,-7.768952491460368e-05,0.0007574922638013959
0.006870519835501909,0.004379111807793379,-0.007322127465158701,0.0037682494148612022,-7.637101225554943e-05,0.0008853208273649216
0.007069595158100128,0.004069741815328598,-0.007395230233669281,0.0038691137451678514,-7.509658462367952e-05,0.0007986081182025373
0.00705324113368988,0.003922627307474613,-0.007486919406801462,0.004296169616281986,-7.386384822893888e-05,0.0006818633992224932
0.007276931777596474,0.004008183255791664,-0.007531053852289915,0.004463619086891413,-7.267104228958488e-05,0.0006486667552962899
0.006815026514232159,0.003994078375399113,-0.00725193414837122,0.0046290261670947075,-7.151609315769747e-05,0.0006237641791813076
0.00713358074426651,0.0038755577988922596,-0.007246007211506367,0.004446049686521292,-7.039729098323733e-05,0.0005620481679216027
0.007352288346737623,0.0038617474492639303,-0.0074255759827792645,0.0043905857019126415,-6.931299139978364e-05,0.000509194447658956
0.00742980046197772,0.004357955884188414,-0.007614740636199713,0.004175133071839809,-6.826157186878845e-05,0.00046527828089892864
0.007314295973628759,0.004147741477936506,-0.007471423130482435,0.004302700981497765,-6.72415699227713e-05,0.0004629042814485729
0.007019756827503443,0.004360048566013575,-0.007548981346189976,0.004389582201838493,-6.625156674999744e-05,0.00046056980499997735
0.007162418216466904,0.004303255118429661,-0.007746146060526371,0.004330236930400133,-6.529033998958766e-05,0.00043110246770083904
0.007564970292150974,0.0040031480602920055,-0.007712048944085836,0.004572714678943157,-6.435657996917143e-05,0.00040360470302402973
0.007929480634629726,0.0038011937867850065,-0.007359753828495741,0.004164975602179766,-6.344921712297946e-05,0.00042972227674908936
0.007594242691993713,0.004324173554778099,-0.007378582376986742,0.0040802364237606525,-6.256703636609018e-05,0.00040861466550268233
0.00702510355040431,0.00446311803534627,-0.007090382277965546,0.003909923601895571,-6.170901178847998e-05,0.0003868651401717216
0.007467634975910187,0.0042201438918709755,-0.008205718360841274,0.003912946209311485,-6.087421206757426e-05,0.0003040858427993953
0.007761273067444563,0.004310426767915487,-0.007796033751219511,0.0038384299259632826,-6.00617568125017e-05,0.00027719512581825256
0.007585399318486452,0.0044901990331709385,-0.007541566155850887,0.00393883790820837,-5.9270692872814834e-05,0.0002606016641948372
0.00808577612042427,0.004504648968577385,-0.007833338342607021,0.005082027055323124,-5.774941382696852e-05,0.0002335097233299166
0.008196644484996796,0.004265841096639633,-0.007546559441834688,0.0045163980685174465,-5.701768532162532e-05,0.00022198683291208
0.008196644484996796,0.004265841096639633,-0.007546559441834688,0.0045163980685174465,-5.701768532162532e-05,0.00022198683291208
0.007890446111559868,0.0044364468194544315,-0.006992743816226721,0.004004120826721191,-5.630428495351225e-05,0.00023221284209284931
0.007530034054070711,0.004509140737354755,-0.008112146519124508,0.004002976231276989,-5.560856152442284e-05,0.00024104324984364212
0.007939075119793415,0.00452066445723176,-0.008115782402455807,0.0040149204432964325,-5.4929765610722825e-05,0.00023194358800537884
0.007836439646780491,0.004332150332629681,-0.007614356931298971,0.004490766674280167,-5.4267315135803074e-05,0.00022246813750825822
0.0081156762316823,0.004560140427201986,-0.007014391478151083,0.004648552276194096,-5.362070078263059e-05,0.0002136696712113917
0.00793298240751028,0.004259530454874039,-0.007312142755836248,0.00487904716283083,-5.298928590491414e-05,0.00020553544163703918
0.008348633535206318,0.004416508134454489,-0.00795089639723301,0.004638823680579662,-5.237258301349357e-05,0.00019799840811174363
0.00786690041422844,0.004489260260015726,-0.00736223952844739,0.004387584514915943,-5.177008279133588e-05,0.000190994338481687
0.007965314202010632,0.004554141778498888,-0.006939806509763002,0.0044203391298651695,-5.11812831973657e-05,0.000184468794032
0.008291558362543583,0.004398777149617672,-0.007380156312137842,0.0045594749972224236,-5.0605700380401686e-05,0.00017837451014202088
0.008858807384967804,0.004573641810566187,-0.008259495720267296,0.004647467751055956,-5.004294871469028e-05,0.00017267049406655133
0.008093932643532753,0.004552039317786694,-0.007979491725564003,0.004800282418727875,-1.2716503988485783e-05,0.0001673201913945377
0.007984339259564877,0.004683509934693575,-0.007125084288418293,0.0051173316314816475,-8.302968126372434e-07,0.00016229083121288568
0.008211055770516396,0.004954459611326456,-0.00689559243619442,0.004858225118368864,-5.4212449640544946e-08,0.00015755555068608373
0.008301040157675743,0.004841492511332035,-0.007357411552220583,0.00465773418545723,-3.5396852116065247e-09,0.00015308809815905988
0.00827731378376484,0.004423440899699926,-0.007164990529417992,0.004217973910272121,-2.3111615399251662e-10,0.0001488678390160203
0.00796862319111824,0.00429490813985467,-0.0070347716100513935,0.004357647616416216,-1.5090234617431975e-11,0.00014487362932413816
0.008652854710817337,0.004457022529095411,-0.007143573369830847,0.005024466197937727,-9.852844451777032e-13,0.00014108807954471558
0.009043354541063309,0.004026195965707302,-0.007676320616155863,0.004963548853993416,-6.433202359495613e-14,0.00013749585195910186
0.008151714690029621,0.0038790858816355467,-0.007180788554251194,0.004540729336440563,-4.2004215623574984e-15,0.00013408133236225694
0.008329716511070728,0.004326323047280312,-0.007042815908789635,0.004452254623174667,-2.742575157387993e-16,0.00013083283556625247
0.00825518649071455,0.004062044434249401,-0.007778177969157696,0.004649327136576176,-1.1692029420387239e-18,0.00011456254287622869
0.008409278467297554,0.0038560316897928715,-0.007017863914370537,0.004577768500894308,-7.634059566774696e-20,0.00010232983186142519
0.008409278467297554,0.0038560316897928715,-0.007017863914370537,0.004577768500894308,-7.634059566774696e-20,0.00010232983186142519
0.008650657720863819,0.003781651146709919,-0.00727158272638917,0.004638195037841797,-4.984495051603645e-21,9.943951590685174e-05
0.008847540244460106,0.004301840905100107,-0.00760551355779171,0.005041537340730429,-3.2545189969990335e-22,9.724935807753354e-05
0.008472160436213017,0.004114113282412291,-0.008420382626354694,0.005087199155241251,-2.1249683465735903e-23,9.518945444142446e-05
0.008598807267844677,0.003906239988282323,-0.008254819549620152,0.005397645756602287,-1.3874526030148548e-24,9.321736433776096e-05
0.008504694327712059,0.003787218825891614,-0.007885750383138657,0.0052821459248661995,-9.059073408463226e-26,9.132567356573418e-05
0.00887247547507286,0.0038925190456211567,-0.008412821218371391,0.005084912292659283,-5.914927215595756e-27,8.950897608883679e-05
0.00810709223151207,0.003988789860159159,-0.008559208363294601,0.005150884855538607,-3.8620251877621906e-28,8.776336471782997e-05
0.008223673328757286,0.0038562645204365253,-0.007473165635019541,0.005108801648020744,-2.5216265461071148e-29,8.608442294644192e-05
0.008892372250556946,0.003721268381923437,-0.0082973288372159,0.00479084113612771,-1.646441962507479e-30,6.86989733367227e-05
0.008498619310557842,0.003669862635433674,-0.009217637591063976,0.004734411835670471,-1.0750088619343354e-31,6.640310311922804e-05
0.008393489755690098,0.003739564912393689,-0.008427172899246216,0.004354115109890699,-7.019039868601055e-33,6.513451808132231e-05
0.00902093667536974,0.0044000400230288506,-0.007943431846797466,0.004442091099917889,-4.582931508797027e-34,6.397270772140473e-05
0.008720235899090767,0.0042113871313631535,-0.009140506386756897,0.0046868883073329926,-2.9923264808387145e-35,5.511983181349933e-05
0.008559215813875198,0.003910587634891272,-0.00899529829621315,0.004647283349186182,-1.9537754282251892e-36,4.68534926767461e-05
0.008963426575064659,0.004140522330999374,-0.008933724835515022,0.00446335831657052,-1.275675756426043e-37,4.558492946671322e-05
0.00861755944788456,0.004207445774227381,-0.008615734986960888,0.004169181454926729,-8.329250809620425e-39,-2.8443997507565655e-05
0.008626572787761688,0.004058920778334141,-0.009139477275311947,0.004459293559193611,-5.4384113140753286e-40,-3.792623829212971e-05
0.009171697311103344,0.003915822599083185,-0.009074775502085686,0.004658848978579044,-3.5508903085990865e-41,-5.1820701628457755e-05
0.008712724782526493,0.003843613201752305,-0.008831411600112915,0.004844853188842535,-2.3191489584575723e-42,-5.5262666137423366e-05
0.008994136936962605,0.004240917041897774,-0.009387629106640816,0.005177502986043692,-1.5134023414708024e-43,-7.138717774068937e-05
0.009166156873106956,0.0036145581398159266,-0.00871314574033022,0.005032678134739399,-9.80908925027372e-45,-7.110174192348495e-05
0.009285863488912582,0.0035813774447888136,-0.008805951103568077,0.0047293491661548615,-0.0,-7.83826326369308e-05
0.00898238830268383,0.00393768260255456,-0.009455847553908825,0.004805975127965212,-5.102426803205162e-05,-8.40969369164668e-05
0.00965599063783884,0.003961639944463968,-0.009071151725947857,0.005387983750551939,-5.1183931645937264e-05,-0.0004873202706221491
0.00965599063783884,0.003961639944463968,-0.009071151725947857,0.005387983750551939,-5.1183931645937264e-05,-0.0004873202706221491
0.009748981334269047,0.0039996556006371975,-0.009322514757514,0.005532432347536087,-5.8184345107292756e-05,-0.0005063980352133512
0.009582600556313992,0.004010342061519623,-0.009353804402053356,0.005437064450234175,-5.994442108203657e-05,-0.0005391362356022
0.009273621253669262,0.004038011655211449,-0.008916392922401428,0.005554374307394028,-3.012532579305116e-05,-0.0005359018687158823
0.009346086531877518,0.003943204879760742,-0.009169687516987324,0.00525076687335968,-1.9669685116241453e-06,-0.0005285057704895735
0.009221138432621956,0.0038745650090277195,-0.00970520917326212,0.004989294335246086,-1.2842897945120058e-07,-0.0007172581972554326
0.010767750442028046,0.004302948247641325,-0.009925766848027706,0.0056771342642605305,-8.385494965068574e-09,-0.0007603931007906795
0.009737896732985973,0.004244702868163586,-0.008930959738790989,0.005707007832825184,-5.475128683762875e-10,-0.0007791903335601091
0.009527675807476044,0.004052913282066584,-0.009780344553291798,0.005848606117069721,-0.000337926612701267,-0.0007928378763608634
0.010621967725455761,0.003928568679839373,-0.009633364155888557,0.005592377856373787,-0.000401125755161047,-0.0009017111733555794
0.009299485012888908,0.004203080665320158,-0.009210256859660149,0.005273182410746813,-0.0003739041858352721,-0.0010298921260982752
0.009500173851847649,0.004261866211891174,-0.009715638123452663,0.005016576964408159,-0.0004052122822031379,-0.0010530240833759308
0.010785680264234543,0.004339300561696291,-0.009456507861614227,0.005267361644655466,-0.00038449911517091095,-0.001106003881432116
0.009939577430486679,0.004055391531437635,-0.009543415158987045,0.005525440443307161,-0.00035942604881711304,-0.0011828647693619132
0.009774659760296345,0.003973437938839197,-0.009891473688185215,0.005132721271365881,-0.00033701537176966667,-0.0011385863181203604
0.010072757489979267,0.004000442568212748,-0.009491845965385437,0.0051923939026892185,-0.0003664115793071687,-0.0011016791686415672
0.009713118895888329,0.00397880282253027,-0.009836380369961262,0.005531680304557085,-0.0003492982650641352,-0.0011442709947004914
0.00981331430375576,0.004326520953327417,-0.00934041477739811,0.006180396303534508,-0.00035421320353634655,-0.001154890633188188
0.010028466582298279,0.004317131824791431,-0.009474514983594418,0.005876644514501095,-0.0003579751355573535,-0.001148881041444838
0.010366584174335003,0.004025512840598822,-0.008897298946976662,0.005513827782124281,-0.0003423489397391677,-0.0014562439173460007
0.009910186752676964,0.003846719628199935,-0.009558018296957016,0.005142496433109045,-0.000342654442647472,-0.00151469511911273
0.009897294454276562,0.003838558215647936,-0.009303491562604904,0.005365413147956133,-0.0003338806563988328,-0.0016089838463813066
0.009831910021603107,0.003937265835702419,-0.00897541269659996,0.005289596039801836,-0.0003576903836801648,-0.00155168236233294
0.010885242372751236,0.003967540804296732,-0.009464181959629059,0.005829345900565386,-0.00034892818075604737,-0.0014847716083750129
0.01024086307734251,0.003954361192882061,-0.009263052605092525,0.005464528687298298,-0.00032862540683709085,-0.0015055715339258313
0.010500404983758926,0.00395871652290225,-0.00965164601802826,0.0056772916577756405,-0.00034011490060947835,-0.0017181169241666794
0.01020179782062769,0.004330749623477459,-0.009228204376995564,0.00561738945543766,-0.00032413078588433564,-0.0017657781718298793
0.010362026281654835,0.0041950964368879795,-0.008676115423440933,0.005847330205142498,-0.0003465050249360502,-0.0019668720196932554
0.010362026281654835,0.0041950964368879795,-0.008676115423440933,0.005847330205142498,-0.0003465050249360502,-0.0019668720196932554
0.010144279338419437,0.003682996379211545,-0.009217683225870132,0.00559450127184391,-0.00033558448194526136,-0.0019576854538172483
0.009999336674809456,0.0035142945125699043,-0.00940126832574606,0.00571722025051713,-0.0004286847834009677,-0.0019714513327926397
0.01000919472426176,0.0036762412637472153,-0.009068289771676064,0.0053970967419445515,-0.0004660682752728462,-0.0019526310497894883
0.010486776009202003,0.003885305253788829,-0.008894752711057663,0.005654856096953154,-0.00044699260615743697,-0.0021745271515101194
0.010512280277907848,0.003979288041591644,-0.009326938539743423,0.005945819430053234,-0.00047353163245134056,-0.002408698434010148
0.010829220525920391,0.0039452011696994305,-0.008886757306754589,0.0060511864721775055,-0.00044803565833717585,-0.0024404923897236586
0.011238395236432552,0.0038000622298568487,-0.008750606328248978,0.005979587323963642,-0.00041877423063851893,-0.0024552710819989443
0.011223845183849335,0.0037223577965050936,-0.009463491849601269,0.0058427006006240845,-0.00039269114495255053,-0.0022262586280703545
0.010410983115434647,0.0036479600239545107,-0.009157048538327217,0.005636979825794697,-0.0003696423373185098,-0.0021697308402508497
0.010722734034061432,0.004172795917838812,-0.008683419786393642,0.0061967261135578156,-0.00038591455086134374,-0.0019990275613963604
0.009961464442312717,0.004113218747079372,-0.009461183100938797,0.006130489986389875,-0.0003772093914449215,-0.001992667792364955
0.010427089408040047,0.003940958995372057,-0.009111053310334682,0.005921583157032728,-0.00035914170439355075,-0.0018384403083473444
0.010823320597410202,0.0034550440032035112,-0.009239527396857738,0.005857392679899931,-0.0003421198925934732,-0.0017598988488316536
0.010383982211351395,0.003581221681088209,-0.009374270215630531,0.005961795803159475,-0.00032660062424838543,-0.001844158978201449
0.010720894671976566,0.0036499418783932924,-0.00980385672301054,0.006489700637757778,-0.00032510055461898446,-0.0024672970175743103
0.010938053950667381,0.003637655870988965,-0.00887746550142765,0.0063318475149571896,-0.0003080306632909924,-0.0034803906455636024
0.01035232562571764,0.0036582727916538715,-0.009199816733598709,0.00626490730792284,-0.0002886045549530536,-0.0037487305235117674
0.010662741959095001,0.003331019077450037,-0.0088970847427845,0.005793155636638403,-0.00027122406754642725,-0.0031641244422644377
0.010743444785475731,0.0036248830147087574,-0.009244822897017002,0.0053751543164253235,-0.00025580020155757666,-0.002657304983586073
0.010963311418890953,0.003262987593188882,-0.008863802999258041,0.00637808395549655,-0.00024203651992138475,-0.0024970450904220343
0.011939785443246365,0.003418532432988286,-0.009629957377910614,0.006988830864429474,-0.00027245323872193694,-0.002785325050354004
0.011012091301381588,0.0035141187254339457,-0.008614523336291313,0.006057910621166229,-0.0002500650007277727,-0.003641778603196144
0.011012091301381588,0.0035141187254339457,-0.008614523336291313,0.006057910621166229,-0.0002500650007277727,-0.003641778603196144
0.01059526577591896,0.0035648546181619167,-0.00923982821404934,0.006462796125560999,-0.0002619305450934917,-0.0029902569949626923
0.011134169064462185,0.00338064506649971,-0.008894054219126701,0.0064202663488686085,-0.0002558286942075938,-0.002960238605737686
0.011624317616224289,0.0036250974517315626,-0.010060938075184822,0.006147230975329876,-0.00024612864945083857,-0.0030606412328779697
0.0117406090721488,0.0038457612972706556,-0.008957038633525372,0.005743723828345537,-0.00023689148656558245,-0.003240977879613638
0.010644156485795975,0.0034239026717841625,-0.00833174865692854,0.006301434710621834,-0.00022830712259747088,-0.003404185874387622
0.010539270006120205,0.003524019615724683,-0.009373219683766365,0.006733126938343048,-0.00022032133711036295,-0.0032375094015151262
0.010539270006120205,0.003524019615724683,-0.009373219683766365,0.006733126938343048,-0.00022032133711036295,-0.0032375094015151262
0.011095736175775528,0.0038219941779971123,-0.010066063143312931,0.006250963546335697,-0.0002128756168531254,-0.003528710687533021
0.011912028305232525,0.0033906197641044855,-0.00869184173643589,0.005731781013309956,-0.00020591715292539448,-0.0037665930576622486
0.011465664952993393,0.003389601595699787,-0.009441100992262363,0.0055647133849561214,-0.00019939892808906734,-0.003402527654543519
0.011870913207530975,0.003446447430178523,-0.009287494234740734,0.006428013555705547,-0.00019328070629853755,-0.0035249609500169754
0.012624388560652733,0.0034110744018107653,-0.009080578573048115,0.00647792499512434,-0.000187527242815122,-0.003735199337825179
0.012609342113137245,0.003573245368897915,-0.009284761734306812,0.006442899815738201,-0.00020468611910473555,-0.003854280337691307
0.012298575602471828,0.0037976691965013742,-0.009769702330231667,0.006216536741703749,-0.00020204960310366005,-0.0037954701110720634
0.012500850483775139,0.0034488749224692583,-0.009248764254152775,0.0063825007528066635,-0.00019673150382004678,-0.0037755381781607866
0.01266720611602068,0.0035646893084049225,-0.009108235128223896,0.006750054657459259,-0.00019151167361997068,-0.0034870035015046597
0.012826685793697834,0.0037378137931227684,-0.010485894978046417,0.007098975591361523,-0.0001865499943960458,-0.003371649421751499
0.01245082262903452,0.0037664880510419607,-0.009200074709951878,0.006777639500796795,-0.00018183850625064224,-0.0034490516409277916
0.012416355311870575,0.003352080238983035,-0.009028040803968906,0.006340166088193655,-0.00016766060434747487,-0.003679050598293543
0.012696181423962116,0.0034947514068335295,-0.009995143860578537,0.006825442425906658,-0.0001589049061294645,-0.0038524416740983725
0.012811891734600067,0.003202098421752453,-0.00930714514106512,0.006963204126805067,-0.00015330528549384326,-0.003881503129377961
0.013060442171990871,0.003386366879567504,-0.008835291489958763,0.006231403443962336,-0.0001482419902458787,-0.003834039904177189
0.013106032274663448,0.003463058965280652,-0.009508803486824036,0.00605663051828742,-0.0001435134036000818,-0.0036506408359855413
0.013035336509346962,0.003393384162336588,-0.009679524227976799,0.006593488156795502,-0.00013907709217164665,-0.003565628081560135
0.013074181973934174,0.0036341433878988028,-0.009791715070605278,0.007010237779468298,-0.00015371685731224716,-0.003655166132375598
0.01294761337339878,0.0037230364978313446,-0.008283325470983982,0.006350003648549318,-0.000152504988363944,-0.0036075711250305176
0.01304642017930746,0.0037531701382249594,-0.00956950057297945,0.005807315930724144,-0.000148514547618106,-0.003678359556943178
0.013352668844163418,0.0033582872711122036,-0.010272241197526455,0.006288876757025719,-0.00014455232303589582,-0.0034273576457053423
0.013109782710671425,0.0034553075674921274,-0.009384212084114552,0.0069214943796396255,-0.00014078411913942546,-0.0035543167032301426
0.013835052028298378,0.0033140748273581266,-0.009360583499073982,0.006945398636162281,-0.00015706328849773854,-0.0037453086115419865
0.013077854178845882,0.003472304670140147,-0.009914467111229897,0.006504648830741644,-0.00015591156261507422,-0.003917078487575054
0.013558351434767246,0.003678971203044057,-0.009622634388506413,0.00625098031014204,-0.00015232029545586556,-0.004381464794278145
0.013558351434767246,0.003678971203044057,-0.009622634388506413,0.00625098031014204,-0.00015232029545586556,-0.004381464794278145
0.013079721480607986,0.004307181108742952,-0.009314020164310932,0.006563109811395407,-0.0001487359550083056,-0.004130986984819174
0.013325998559594154,0.004102356266230345,-0.009450456127524376,0.006671468261629343,-0.00016069748380687088,-0.003849451430141926
0.013043561019003391,0.003510081907734275,-0.009524816647171974,0.0062352316454052925,-0.00015871820505708456,-0.0041877347975969315
0.013043561019003391,0.003510081907734275,-0.009524816647171974,0.0062352316454052925,-0.00015871820505708456,-0.0041877347975969315
0.013423042371869087,0.004064722917973995,-0.009653517045080662,0.006325626280158758,-0.00015531523968093097,-0.004562839865684509
0.013066035695374012,0.004244412295520306,-0.00996127724647522,0.006734548136591911,-0.00015203691145870835,-0.004266420379281044
0.013953229412436485,0.003572433488443494,-0.008808525279164314,0.0073338584043085575,-0.00014889285375829786,-0.004421099089086056
0.013437884859740734,0.0035753820557147264,-0.010193723253905773,0.007234455551952124,-0.0001861171331256628,-0.004548789467662573
0.013457835651934147,0.0037456972058862448,-0.009810365736484528,0.006857437547296286,-0.00019134138710796833,-0.004248734563589096
0.013046816922724247,0.004222300369292498,-0.009278054349124432,0.006856432184576988,-0.00018436026584822685,-0.004308678675442934
0.013542942702770233,0.004268900491297245,-0.009433458559215069,0.007159457542002201,-0.00020335326553322375,-0.004595732782036066
0.013144299387931824,0.0035753007978200912,-0.009424089454114437,0.0065944078378379345,-0.00020393644808791578,-0.004227350931614637
0.013841154985129833,0.0035570780746638775,-0.009192544966936111,0.006909874267876148,-0.00019703440193552524,-0.004438038915395737
0.014009801670908928,0.004230680875480175,-0.009723221883177757,0.006692477967590094,-0.00021761588868685067,-0.0045152646489441395
0.013705692254006863,0.004130024928599596,-0.01029459573328495,0.007020985707640648,-0.00021400210971478373,-0.004420943558216095
0.01387586910277605,0.003974518738687038,-0.010134626179933548,0.006902970839291811,-0.00020721039618365467,-0.004114125389605761
0.014286680147051811,0.004357110243290663,-0.010002916678786278,0.006810384336858988,-0.00022735500533599406,-0.004248393699526787
0.013219594955444336,0.004225374665111303,-0.010803439654409885,0.006689951755106449,-0.0002220851747551933,-0.004631555173546076
0.013159138150513172,0.003968361299484968,-0.009950495325028896,0.007055993191897869,-0.00021555049170274287,-0.004744909703731537
0.014180921018123627,0.003830754430964589,-0.010582366026937962,0.007243637926876545,-0.00032022417872212827,-0.004825711715966463
0.014163902029395103,0.0040377359837293625,-0.010629313997924328,0.006876424886286259,-0.0003324677818454802,-0.005034243687987328
0.013974061235785484,0.003925084602087736,-0.010090550407767296,0.006640801206231117,-0.00036566416383720934,-0.00485072610899806
0.01449915487319231,0.003768926253542304,-0.011157505214214325,0.007167924661189318,-0.0003287047438789159,-0.004492764361202717
0.013880698010325432,0.0042459736578166485,-0.01004600990563631,0.007088561542332172,-0.00035453971941024065,-0.004534943960607052
0.0142808947712183,0.004056481644511223,-0.01042638998478651,0.007229611277580261,-0.00037744257133454084,-0.0049979244358837605
0.013560467399656773,0.003877627430483699,-0.010670493356883526,0.007592904847115278,-0.0003697414940688759,-0.005100201815366745
0.013560467399656773,0.003877627430483699,-0.010670493356883526,0.007592904847115278,-0.0003697414940688759,-0.005100201815366745
0.014432528987526894,0.0033819032832980156,-0.010552170686423779,0.00760183809325099,-0.00043591452413238585,-0.005282544996589422
0.013754284009337425,0.003343376098200679,-0.010379006154835224,0.007407800760120153,-0.0004694688250310719,-0.005442043300718069
0.014152280054986477,0.0035049968864768744,-0.01033008098602295,0.006940880790352821,-0.00042978840065188706,-0.005228105932474136
0.013732358813285828,0.003668098244816065,-0.01147005707025528,0.007155661471188068,-0.0004305281909182668,-0.004991136956959963
0.01458775531500578,0.00369698996655643,-0.011539304628968239,0.007404488977044821,-0.0004306478367652744,-0.005346652120351791
0.014357234351336956,0.003574380185455084,-0.010402466170489788,0.007452589459717274,-0.00040091670234687626,-0.005465003661811352
0.014746890403330326,0.0033946665935218334,-0.011200083419680595,0.007399666588753462,-0.0003733282210305333,-0.005631986074149609
0.01416003704071045,0.003544225823134184,-0.011876068077981472,0.007474145852029324,-0.00034918281016871333,-0.0055159213952720165
0.014825823716819286,0.0038117424119263887,-0.011520457454025745,0.007998392917215824,-0.0003752262855414301,-0.005303405225276947
0.014497709460556507,0.003952899016439915,-0.011531953699886799,0.007764432579278946,-0.00036022509448230267,-0.004973575472831726
0.01492986362427473,0.0035147713497281075,-0.011284633539617062,0.007710403762757778,-0.0003411354555282742,-0.005331406369805336
0.01446675043553114,0.003554683178663254,-0.011555423028767109,0.007733420934528112,-0.0003236327029298991,-0.005321406293660402
0.014634276740252972,0.003770194947719574,-0.011295000091195107,0.007907094433903694,-0.00030781663372181356,-0.005088290199637413
0.014173260889947414,0.004200041759759188,-0.010295734740793705,0.007612775079905987,-0.000324428518069908,-0.005260723643004894
0.014562285505235195,0.004255826119333506,-0.011362115852534771,0.007451807148754597,-0.00031974943703971803,-0.0051497467793524265
0.014659174717962742,0.0040855915285646915,-0.011009414680302143,0.008549393154680729,-0.00030675981543026865,-0.0057548158802092075
0.015029890462756157,0.0035372357815504074,-0.01100962795317173,0.008147872053086758,-0.00029426292167045176,-0.00555928610265255
0.014682561159133911,0.0035464640241116285,-0.011589722707867622,0.0075801280327141285,-0.0002827089629136026,-0.005801200866699219
0.014860313385725021,0.004022139590233564,-0.011255729012191296,0.007475626189261675,-0.0002726947714108974,-0.0057543134316802025
0.014560593292117119,0.004250099882483482,-0.011470543220639229,0.008393485099077225,-0.00023658883583266288,-0.005713745020329952
0.015093391761183739,0.004103797022253275,-0.011989354155957699,0.008497356437146664,-0.00022341367730405182,-0.005242385435849428
0.014727366156876087,0.004123122896999121,-0.010671880096197128,0.007937157526612282,-0.00021275422477629036,-0.005676808767020702
0.01514347456395626,0.0038854668382555246,-0.011700287461280823,0.008268947713077068,-0.0002031407639151439,-0.005956905893981457
0.014932124875485897,0.003723626025021076,-0.01156209409236908,0.008052056655287743,-0.00022104036179371178,-0.005706277210265398
0.015072455629706383,0.0037870064843446016,-0.01170012541115284,0.0077791037037968636,-0.0002145224279956892,-0.005835391115397215
0.015160945244133472,0.003849770175293088,-0.010891172103583813,0.008265063166618347,-0.00020646722987294197,-0.006405426189303398
0.015062079764902592,0.004266487434506416,-0.011657586321234703,0.008810297586023808,-0.0001988714066101238,-0.005926136858761311
0.015175831504166126,0.004577036947011948,-0.01104700192809105,0.00846235640347004,-0.00019180780509486794,-0.005801412742584944
0.015171701088547707,0.004169299732893705,-0.011222015134990215,0.008282763883471489,-0.00021401110279839486,-0.005897232796996832
0.015171701088547707,0.004169299732893705,-0.011222015134990215,0.008282763883471489,-0.00021401110279839486,-0.005897232796996832
0.014963445253670216,0.003931999206542969,-0.01185335498303175,0.008400904014706612,-0.00020879533258266747,-0.006168864667415619
0.015363093465566635,0.003983343951404095,-0.011475828476250172,0.00840800628066063,-0.0002272802230436355,-0.006449823267757893
0.015123380348086357,0.004011635668575764,-0.011938456445932388,0.008179391734302044,-0.0002236744185211137,-0.006398818455636501
0.015330647118389606,0.0038990601897239685,-0.011378050781786442,0.008502629585564137,-0.00021715358889196068,-0.00640736473724246
0.015161002054810524,0.004248741082847118,-0.011297552846372128,0.008748994208872318,-0.00021080943406559527,-0.006710246670991182
0.015448846854269505,0.004176503978669643,-0.011732276529073715,0.00811306294053793,-0.00025777355767786503,-0.006589267402887344
0.015106253325939178,0.004031910095363855,-0.01136665791273117,0.008153126575052738,-0.00025125264073722064,-0.0065696281380951405
0.015523495152592659,0.0038658338598906994,-0.011991620995104313,0.00871043000370264,-0.0002797308552544564,-0.006373228505253792
0.01573629304766655,0.003969529643654823,-0.011652166023850441,0.008592268452048302,-0.00027135590789839625,-0.006926294416189194
0.015847399830818176,0.0038876202888786793,-0.012315863743424416,0.008654432371258736,-0.00025872336118482053,-0.006902114953845739
0.015765536576509476,0.0038094022311270237,-0.011557826772332191,0.00880738627165556,-0.0002825612318702042,-0.007145403418689966
0.015768704935908318,0.0038489315193146467,-0.011245387606322765,0.008584126830101013,-0.00027511059306561947,-0.006954689044505358
0.015941014513373375,0.003894136054441333,-0.011989190243184566,0.008501850999891758,-0.0002823435643222183,-0.006568887270987034
0.015645086765289307,0.004321961663663387,-0.011592886410653591,0.008602164685726166,-0.00028824113542214036,-0.006853862199932337
0.01539057306945324,0.004045033827424049,-0.012163161300122738,0.008600737899541855,-0.0002782253723125905,-0.006957988254725933
0.015165175311267376,0.004365671891719103,-0.010522942990064621,0.00868095364421606,-0.0003817309334408492,-0.007109170313924551
0.015854166820645332,0.004136822186410427,-0.011874411255121231,0.00913159642368555,-0.00038624482112936676,-0.0070075904950499535
0.015725161880254745,0.003957019653171301,-0.01241927221417427,0.008991165086627007,-0.0003926251665689051,-0.006742406636476517
0.016258159652352333,0.003935699351131916,-0.011385618709027767,0.008774506859481335,-0.0003956331347580999,-0.007194737438112497
0.016102947294712067,0.0039596278220415115,-0.011837375350296497,0.008852864615619183,-0.0004005531081929803,-0.007005092687904835
0.015671147033572197,0.004019228741526604,-0.012094096280634403,0.009248693473637104,-0.00040261319372802973,-0.007100069895386696
0.01625448651611805,0.0038816160522401333,-0.012147903442382812,0.008584976196289062,-0.0003835493989754468,-0.00739298714324832
0.016595901921391487,0.004269670229405165,-0.01152822095900774,0.008974168449640274,-0.0003860521246679127,-0.007991176098585129
0.016595901921391487,0.004269670229405165,-0.01152822095900774,0.008974168449640274,-0.0003860521246679127,-0.007991176098585129
0.01622460037469864,0.004169239196926355,-0.012621068395674229,0.009288445115089417,-0.0003678197390399873,-0.008121587336063385
0.016171474009752274,0.0039981212466955185,-0.01182076707482338,0.00907951220870018,-0.00035002981894649565,-0.007893179543316364
0.016331275925040245,0.003876711241900921,-0.011630062013864517,0.008905629627406597,-0.00038492068415507674,-0.007586085703223944
0.017627619206905365,0.0038319691084325314,-0.012207028456032276,0.00956633035093546,-0.00036215255386196077,-0.007557875011116266
0.01693163998425007,0.003927178215235472,-0.011712041683495045,0.008743527345359325,-0.00033567711943760514,-0.007641674485057592
0.016842054203152657,0.003914190921932459,-0.012460621073842049,0.008582310751080513,-0.00031237740768119693,-0.007171176373958588
0.01723254844546318,0.004010797943919897,-0.012645125389099121,0.009236058220267296,-0.0002921569102909416,-0.007312937639653683
0.01706363819539547,0.0038768979720771313,-0.012378031387925148,0.009448896162211895,-0.0003146908129565418,-0.007565443869680166
0.016110166907310486,0.0036737103946506977,-0.01199272833764553,0.008748579770326614,-0.00030933666857890785,-0.007498105056583881
0.01763826049864292,0.0035005391109734774,-0.011348937638103962,0.00938126165419817,-0.0002933561336249113,-0.007707327138632536
0.01770949549973011,0.003587753977626562,-0.012063799425959587,0.009683297947049141,-0.0002782866358757019,-0.007161364890635014
0.017452463507652283,0.0038707770872861147,-0.011976953595876694,0.009443135000765324,-0.0002646477078087628,-0.007005795370787382
0.017376961186528206,0.004064641427248716,-0.012875272892415524,0.008901054039597511,-0.00028331560315564275,-0.007226685527712107
0.017557332292199135,0.0038756493013352156,-0.011721929535269737,0.0090546365827322,-0.0002804329851642251,-0.007495167199522257
0.0177939310669899,0.003674473613500595,-0.011557760648429394,0.009053116664290428,-0.000269112060777843,-0.007224199362099171
0.017711736261844635,0.003732413286343217,-0.012442413717508316,0.009790400043129921,-0.0002581346489023417,-0.006902807857841253
0.01844794489443302,0.0043470910750329494,-0.011797058396041393,0.009740525856614113,-0.0002652843832038343,-0.006601681932806969
0.018123148009181023,0.0040981704369187355,-0.01231840904802084,0.009037789888679981,-0.0002714839356485754,-0.006917494349181652
0.01822827197611332,0.003905280027538538,-0.01203153282403946,0.00890413299202919,-0.0002626317727845162,-0.006922621745616198
0.018405715003609657,0.0038918231148272753,-0.012320522218942642,0.009539475664496422,-0.00025346060283482075,-0.007497189100831747
0.01825660839676857,0.0040329997427761555,-0.012372135184705257,0.009879122488200665,-0.00024484493769705296,-0.006863090675324202
0.018390079960227013,0.00356791983358562,-0.012457172386348248,0.009590615518391132,-0.00023750256514176726,-0.0067560249008238316
0.01854451559484005,0.004157991614192724,-0.012715714052319527,0.009800943545997143,-0.000218565808609128,-0.00709146074950695
0.018194401636719704,0.004057515412569046,-0.01219725888222456,0.009695255197584629,-0.0002079770783893764,-0.007376449648290873
0.018366463482379913,0.0041335769928991795,-0.012457977049052715,0.009971963241696358,-0.00022332975640892982,-0.007061440031975508
0.018126826733350754,0.003526560263708234,-0.012600617483258247,0.009922332130372524,-0.00021881115389987826,-0.00712174829095602
0.018126826733350754,0.003526560263708234,-0.012600617483258247,0.009922332130372524,-0.00021881115389987826,-0.00712174829095602
0.018726788461208344,0.0036328095011413097,-0.012743333354592323,0.00939661543816328,-0.00024099592701531947,-0.007364103104919195
0.018417105078697205,0.004362964536994696,-0.012563480995595455,0.009496594779193401,-0.00023616421094629914,-0.006962384097278118
0.018731823191046715,0.004143552388995886,-0.012870452366769314,0.009385260753333569,-0.00022789464856032282,-0.007082352414727211
0.019220460206270218,0.0038697354029864073,-0.012300321832299232,0.009675228036940098,-0.00024925105390138924,-0.007623610086739063
0.01875566691160202,0.003807356348261237,-0.01333256158977747,0.010001912713050842,-0.00024275876057799906,-0.007732375059276819
0.01886848174035549,0.003809934249147773,-0.01256949920207262,0.009562855586409569,-0.0003190730349160731,-0.007947995327413082
0.01923835650086403,0.004274395294487476,-0.013373061083257198,0.00913467537611723,-0.0003714552731253207,-0.007743076421320438
0.01922508329153061,0.004184468649327755,-0.013055674731731415,0.009746738709509373,-0.00041261324076913297,-0.007787914481014013
0.018918180838227272,0.003950450103729963,-0.01335391215980053,0.009657831862568855,-0.00043505968642421067,-0.007798239588737488
0.019360415637493134,0.003781417151913047,-0.013001714833080769,0.009632113389670849,-0.0004502719675656408,-0.007986050099134445
0.0193177442997694,0.0036692467983812094,-0.012999105267226696,0.01066248957067728,-0.0004503961536101997,-0.008275988511741161
0.019521944224834442,0.0037929725367575884,-0.013579842634499073,0.010383469052612782,-0.0007700994610786438,-0.007879027165472507
0.019596774131059647,0.003935263492166996,-0.01344327162951231,0.01070394366979599,-0.0007452454883605242,-0.008035589940845966
0.019639724865555763,0.0038801077753305435,-0.013876490294933319,0.010574094951152802,-0.0007537181372754276,-0.007889284752309322
0.0195036381483078,0.0037466869689524174,-0.013025501742959023,0.01034157071262598,-0.0006848327466286719,-0.00785913784056902
0.019639696925878525,0.003726540831848979,-0.013508402742445469,0.009741143323481083,-0.0006943549960851669,-0.008126242086291313
0.01928997039794922,0.003820514539256692,-0.013265491463243961,0.010313179343938828,-0.0006427263142541051,-0.008246910758316517
0.019691117107868195,0.004280528984963894,-0.013924604281783104,0.010576817207038403,-0.0006225876277312636,-0.007846804335713387
0.02016407810151577,0.003551734611392021,-0.013031401671469212,0.01076593529433012,-0.0005778142367489636,-0.008036712184548378
0.020237691700458527,0.0033281410578638315,-0.01367096696048975,0.010839024558663368,-0.000563151843380183,-0.008173241280019283
0.01988375559449196,0.003525255946442485,-0.01326476689428091,0.010087458416819572,-0.0005501519190147519,-0.008566350676119328
0.020390190184116364,0.0038292251992970705,-0.013810662552714348,0.010142335668206215,-0.0005739032640121877,-0.008477776311337948
0.019623873755335808,0.003794168122112751,-0.013895894400775433,0.00986430048942566,-0.0005721488269045949,-0.00831343699246645
0.01982869580388069,0.0036528517957776785,-0.014782608486711979,0.00968880858272314,-0.0005617760471068323,-0.008491046726703644
0.020990027114748955,0.0036052630748599768,-0.013995390385389328,0.010165420360863209,-0.0005575048853643239,-0.008196224458515644
0.0207008495926857,0.003573103342205286,-0.01418380718678236,0.01011576410382986,-0.0005694337305612862,-0.008600224740803242
0.02008610963821411,0.0036332427989691496,-0.014429298229515553,0.010261677205562592,-0.0005352401058189571,-0.008407733403146267
0.021192513406276703,0.003734069876372814,-0.014264721423387527,0.009935813024640083,-0.00048825691919773817,-0.008575770072638988
0.021180706098675728,0.004040384665131569,-0.014071531593799591,0.009744588285684586,-0.0005171400844119489,-0.008549140766263008
0.020875226706266403,0.0039003859274089336,-0.013833301141858101,0.009650132618844509,-0.0004820729373022914,-0.00868921261280775
0.0212292168289423,0.0036401364486664534,-0.014635208994150162,0.009708160534501076,-0.0005075702792964876,-0.008661697618663311
0.02143475040793419,0.003584165358915925,-0.014067389070987701,0.01024055015295744,-0.00047777569852769375,-0.008374120108783245
0.020945178344845772,0.0036412959452718496,-0.015005404129624367,0.01078183576464653,-0.0004643737047445029,-0.008757753297686577
0.020945178344845772,0.0036412959452718496,-0.015005404129624367,0.01078183576464653,-0.0004643737047445029,-0.008757753297686577
0.020813852548599243,0.0035462966188788414,-0.014046069234609604,0.010292565450072289,-0.0004272117221262306,-0.008610013872385025
0.02141725644469261,0.0036212168633937836,-0.014222055673599243,0.010168579407036304,-0.0004630809125956148,-0.008993402123451233
0.022163428366184235,0.003760358551517129,-0.01441319938749075,0.010469809174537659,-0.0004308694042265415,-0.008606103248894215
0.021583247929811478,0.0038004163652658463,-0.01523368526250124,0.010646638460457325,-0.00045672114356420934,-0.008392509073019028
0.021485943347215652,0.0037885024212300777,-0.015224426053464413,0.010374431498348713,-0.00043317832751199603,-0.00829550065100193
0.021577313542366028,0.0036903657019138336,-0.013986787758767605,0.0105075528845191,-0.000455880886875093,-0.008761707693338394
0.0220741368830204,0.003634418360888958,-0.014208478853106499,0.010297154076397419,-0.00043519173050299287,-0.008953839540481567
0.021955914795398712,0.003647672710940242,-0.014989481307566166,0.010650934651494026,-0.000511234684381634,-0.009073397144675255
0.02161490172147751,0.003644512966275215,-0.014459723606705666,0.010600880719721317,-0.0004736040427815169,-0.008854522369801998
0.02202644944190979,0.0037028465885668993,-0.014494773000478745,0.010318276472389698,-0.0005033681518398225,-0.0089999595656991
0.02218610607087612,0.0035226447507739067,-0.014247318729758263,0.010947160422801971,-0.0004696606192737818,-0.009124008007347584
0.022326139733195305,0.0034861727617681026,-0.014481856487691402,0.01086143683642149,-0.0004675729142036289,-0.009463176131248474
0.022163981571793556,0.0041445167735219,-0.01441367156803608,0.011378951370716095,-0.00046491401735693216,-0.009695853106677532
0.022075805813074112,0.004201665986329317,-0.015007049776613712,0.01161709614098072,-0.0004348939983174205,-0.009455439634621143
0.02222183346748352,0.0040084319189190865,-0.014526879414916039,0.011025605723261833,-0.0004571655299514532,-0.00952689815312624
0.02242572233080864,0.003840598976239562,-0.014240189455449581,0.011656435206532478,-0.0004363195039331913,-0.009571227245032787
0.02242572233080864,0.003840598976239562,-0.014240189455449581,0.011656435206532478,-0.0004363195039331913,-0.009571227245032787
0.022371847182512283,0.0037404990289360285,-0.014077561907470226,0.011275270022451878,-0.0004628307360690087,-0.009278346784412861
0.022224444895982742,0.0038095908239483833,-0.014816305600106716,0.011003364808857441,-0.0004902569926343858,-0.008941221050918102
0.0227531585842371,0.003986506722867489,-0.014821261167526245,0.010943752713501453,-0.0004315742990002036,-0.009463799186050892
0.022626155987381935,0.004148268606513739,-0.014342966489493847,0.011811230331659317,-0.00039969105273485184,-0.00952228344976902
0.02252359502017498,0.004359487444162369,-0.014493432827293873,0.011832965537905693,-0.0003721315588336438,-0.00910110492259264
0.022503064945340157,0.0035213809460401535,-0.014896128326654434,0.011937141418457031,-0.00036717523471452296,-0.008936988189816475
0.022873666137456894,0.0033908826299011707,-0.014347102493047714,0.011656281538307667,-0.00035880442010238767,-0.008984225802123547
0.02285500057041645,0.003507650922983885,-0.014637639746069908,0.011525286361575127,-0.000340241618687287,-0.009196003898978233
0.022876041010022163,0.003718358464539051,-0.0144423246383667,0.011508075520396233,-0.0003568778920453042,-0.00906535517424345
0.022754883393645287,0.004212615080177784,-0.014576871879398823,0.011551684699952602,-0.000350196729414165,-0.008880737237632275
0.022754883393645287,0.004212615080177784,-0.014576871879398823,0.011551684699952602,-0.000350196729414165,-0.008880737237632275
0.022722996771335602,0.004133054055273533,-0.014472732320427895,0.012001093477010727,-0.0003349223989062011,-0.009936663322150707
0.023048019036650658,0.004028978757560253,-0.014653650112450123,0.011827207170426846,-0.00032824359368532896,-0.009771672077476978
0.024005966261029243,0.003959507215768099,-0.014332079328596592,0.012057282030582428,-0.0003069997765123844,-0.009517395868897438
0.02324799820780754,0.0038754355628043413,-0.014415984973311424,0.012584203854203224,-0.0003154118894599378,-0.009998313151299953
0.023007355630397797,0.0037738799583166838,-0.014385071583092213,0.012359288521111012,-0.00032230120268650353,-0.010585683397948742
0.022238677367568016,0.004197375383228064,-0.014490974135696888,0.012197435833513737,-0.0003305672435089946,-0.009436707943677902
0.022921783849596977,0.004161067772656679,-0.014327640645205975,0.011707768775522709,-0.0003359839611221105,-0.009109580889344215
0.02420998550951481,0.0035414919257164,-0.014423822052776814,0.012410149909555912,-0.00036303786328062415,-0.009286444634199142
0.023469943553209305,0.003971953876316547,-0.014577452093362808,0.011518075130879879,-0.0004555763443931937,-0.00951006356626749
0.02275313064455986,0.004692736081779003,-0.015058156102895737,0.011498021893203259,-0.0005050752661190927,-0.009539715014398098
0.023999048396945,0.004486634396016598,-0.014794165268540382,0.011761386878788471,-0.0005043357377871871,-0.009529060684144497
0.02419436164200306,0.004160298965871334,-0.015591373667120934,0.01098830159753561,-0.000498125038575381,-0.010540234856307507
0.02421911619603634,0.0036387236323207617,-0.014813397079706192,0.012047890573740005,-0.0005294306902214885,-0.01040313858538866
0.024022113531827927,0.0035819171462208033,-0.015343845821917057,0.012174995616078377,-0.0005445126444101334,-0.010004936717450619
0.022940494120121002,0.003686277661472559,-0.01477492693811655,0.012384505942463875,-0.0005214252159930766,-0.010030061937868595
0.02270606905221939,0.0037155263125896454,-0.015533620491623878,0.011851835064589977,-0.0005873230984434485,-0.010306396521627903
0.024502240121364594,0.004088887944817543,-0.015184936113655567,0.012720800004899502,-0.0005897465161979198,-0.010035012848675251
0.024502240121364594,0.004088887944817543,-0.015184936113655567,0.012720800004899502,-0.0005897465161979198,-0.010035012848675251
0.024427980184555054,0.0040228040888905525,-0.014728829264640808,0.012077569961547852,-0.0005974005325697362,-0.010509191080927849
0.024158237501978874,0.0037145118694752455,-0.015949537977576256,0.012397863902151585,-0.0005639345035888255,-0.009983253665268421
0.023724455386400223,0.003578221658244729,-0.015357274562120438,0.01226134318858385,-0.000587622111197561,-0.010510924272239208
0.02348712645471096,0.003626598045229912,-0.014852479100227356,0.012622269801795483,-0.0005486395093612373,-0.010376430116593838
0.024276308715343475,0.0037201414816081524,-0.015049532055854797,0.01285202894359827,-0.0005931836785748601,-0.010368133895099163
0.024519016966223717,0.003756991121917963,-0.01553073525428772,0.012583895586431026,-0.0006220462382771075,-0.010119081474840641
0.024332575500011444,0.0038383444771170616,-0.015496025793254375,0.012337927706539631,-0.0005692432750947773,-0.01031239703297615
0.02417406253516674,0.004391486290842295,-0.016192102804780006,0.012039531953632832,-0.000589646166190505,-0.01028008945286274
0.024614306166768074,0.004060738254338503,-0.016037438064813614,0.012592568062245846,-0.0005483779823407531,-0.010075736790895462
0.024405932053923607,0.0037747349124401808,-0.015398596413433552,0.01232944056391716,-0.000557983701582998,-0.010438317432999611
0.025005921721458435,0.0037101099733263254,-0.01611889898777008,0.01291525736451149,-0.0005331099964678288,-0.010243772529065609
0.025127096101641655,0.003774691605940461,-0.015359384939074516,0.012752273119986057,-0.0005321812350302935,-0.010623547248542309
0.025060085579752922,0.0038069100119173527,-0.01572093553841114,0.012321791611611843,-0.0005091471830382943,-0.010455353185534477
0.02486913464963436,0.0037430005613714457,-0.015193043276667595,0.012636019848287106,-0.0005267136148177087,-0.010524234734475613
0.024852918460965157,0.0037887943908572197,-0.015856510028243065,0.012328348122537136,-0.0005599010619334877,-0.01067398115992546
0.024868138134479523,0.0044335974380373955,-0.015681181102991104,0.01295874360948801,-0.0005327433464117348,-0.009903211146593094
0.024913348257541656,0.004198812413960695,-0.015281164087355137,0.012851335108280182,-0.0005577722913585603,-0.010389868170022964
0.02545803226530552,0.003958192188292742,-0.016483241692185402,0.012975859455764294,-0.0006804265431128442,-0.010558526031672955
0.025267425924539566,0.003972174599766731,-0.016209838911890984,0.012465992011129856,-0.0006382556748576462,-0.010355480015277863
0.02535782754421234,0.0034855850972235203,-0.016142290085554123,0.012609930709004402,-0.0006660313229076564,-0.010365341790020466
0.02557646855711937,0.0035949198063462973,-0.015436403453350067,0.013040673919022083,-0.0006719668162986636,-0.01060069166123867
0.025789767503738403,0.003640557639300823,-0.015772512182593346,0.012883172370493412,-0.0006277519860304892,-0.010606402531266212
0.025364134460687637,0.004054409451782703,-0.015226875431835651,0.013043965213000774,-0.0006320346146821976,-0.010966005735099316
0.025313038378953934,0.004209607839584351,-0.015787767246365547,0.012481031008064747,-0.000598086160607636,-0.011247502639889717
0.025531098246574402,0.003962737042456865,-0.015165410004556179,0.012709165923297405,-0.0005860207020305097,-0.01140971016138792
0.02566887065768242,0.00372574245557189,-0.015898998826742172,0.012992090545594692,-0.0005447994917631149,-0.010554864071309566
0.02566887065768242,0.00372574245557189,-0.015898998826742172,0.012992090545594692,-0.0005447994917631149,-0.010554864071309566
0.02566887065768242,0.00372574245557189,-0.015898998826742172,0.012992090545594692,-0.0005447994917631149,-0.010554864071309566
0.026286927983164787,0.0033885387238115072,-0.015945294871926308,0.013545557856559753,-0.0005384168471209705,-0.010682349093258381
0.02632077783346176,0.003576316637918353,-0.015789538621902466,0.013500791974365711,-0.0005045542493462563,-0.010439492762088776
0.026677655056118965,0.0032532813493162394,-0.016267988830804825,0.013744547963142395,-0.0005167622002772987,-0.01071813516318798
0.026835540309548378,0.00341909215785563,-0.015731090679764748,0.01376804057508707,-0.0004964134423062205,-0.010717401280999184
0.025665368884801865,0.0036201132461428642,-0.01616911217570305,0.013896985910832882,-0.0004963566898368299,-0.010219089686870575
0.024948399513959885,0.0037133421283215284,-0.015457823872566223,0.013863968662917614,-0.00047499765059910715,-0.010660220868885517
0.025666076689958572,0.0036407536827027798,-0.016048545017838478,0.013687937520444393,-0.0004945952096022666,-0.010843837633728981
0.026476208120584488,0.003550155321136117,-0.01583613082766533,0.014081635512411594,-0.0004710261709988117,-0.010752933099865913
0.02590758726000786,0.0035236231051385403,-0.016418036073446274,0.013496148400008678,-0.0004343912878539413,-0.011083227582275867
0.02649160474538803,0.0035250571090728045,-0.01633390039205551,0.01361849159002304,-0.00040210000588558614,-0.011194579303264618
0.027678050100803375,0.0035592203494161367,-0.015941264107823372,0.012829409912228584,-0.00043221586383879185,-0.011116829700767994
0.027043724432587624,0.003504399675875902,-0.016368471086025238,0.013116566464304924,-0.0004363486368674785,-0.011154594831168652
0.027181098237633705,0.0036180296447128057,-0.015984121710062027,0.013169711455702782,-0.000436217786045745,-0.010955462232232094
0.026501240208745003,0.003963007126003504,-0.01649845950305462,0.013632059097290039,-0.000412915600463748,-0.011331218294799328
0.02615000493824482,0.003919590730220079,-0.015733391046524048,0.012979498133063316,-0.0003927929501514882,-0.011153548955917358
0.026730317622423172,0.0035536312498152256,-0.016322294250130653,0.01333437580615282,-0.00039986532647162676,-0.011395595036447048
0.027255846187472343,0.0035085747949779034,-0.0162971094250679,0.013526052236557007,-0.0004055438912473619,-0.011269628070294857
0.026980141177773476,0.0037295748479664326,-0.016409285366535187,0.013923224993050098,-0.00040768677718006074,-0.01085230614989996
0.026478219777345657,0.003938635345548391,-0.01665271818637848,0.013843448832631111,-0.0003810491762124002,-0.010877082124352455
0.02673153206706047,0.003557453164830804,-0.016368793323636055,0.01356874406337738,-0.00040732984780333936,-0.011224815621972084
0.026896337047219276,0.0035845034290105104,-0.016548460349440575,0.01365237683057785,-0.00041625386802479625,-0.011273819953203201
0.026805080473423004,0.004130484536290169,-0.01602995954453945,0.013358958065509796,-0.00041750952368602157,-0.011173451319336891
0.026764385402202606,0.004137113690376282,-0.016631005331873894,0.013932558707892895,-0.00039651303086429834,-0.011523289605975151
0.02719363570213318,0.003646667581051588,-0.016480939462780952,0.013589957728981972,-0.0004922368680126965,-0.011687777005136013
0.026357382535934448,0.0034393868409097195,-0.01655144803225994,0.013647344894707203,-0.00045191458775661886,-0.01163500640541315
0.027069658041000366,0.0033831477630883455,-0.01649416796863079,0.01410901453346014,-0.00045135951950214803,-0.011704109609127045
0.027069658041000366,0.0033831477630883455,-0.01649416796863079,0.01410901453346014,-0.00045135951950214803,-0.011704109609127045
0.026883231475949287,0.0036031431518495083,-0.016705600544810295,0.013530162163078785,-0.0004817040462512523,-0.011594000272452831
0.027397647500038147,0.0037299140822142363,-0.01608472689986229,0.013519560918211937,-0.00048273734864778817,-0.011482013389468193
0.025542639195919037,0.0037425316404551268,-0.01698889210820198,0.012930959463119507,-0.0004795293207280338,-0.011633247137069702
0.028207778930664062,0.0034271448384970427,-0.01696140505373478,0.013396115973591805,-0.0005583040183410048,-0.011602533981204033
0.028246307745575905,0.0034142392687499523,-0.016634225845336914,0.013221618719398975,-0.0005615950212813914,-0.011656699702143669
0.027574850246310234,0.003561647841706872,-0.017259078100323677,0.013718345202505589,-0.0005496385274454951,-0.011602906510233879
0.027108993381261826,0.004201316740363836,-0.016554884612560272,0.013689934276044369,-0.0005015126662328839,-0.011354989372193813
0.026872117072343826,0.0035476500634104013,-0.01729610376060009,0.013905208557844162,-0.0005300762713886797,-0.011811994947493076
0.027305496856570244,0.0033152764663100243,-0.016718724742531776,0.013776076957583427,-0.0005449538584798574,-0.011546210385859013
0.028499657288193703,0.0032942243851721287,-0.017117414623498917,0.013577284291386604,-0.0005218044389039278,-0.01201262790709734
0.027847299352288246,0.00358206732198596,-0.017423566430807114,0.013928498141467571,-0.0005366328405216336,-0.012469504028558731
0.02832295000553131,0.003943036310374737,-0.016973061487078667,0.013326798565685749,-0.0005238529411144555,-0.012072312645614147
0.02672538161277771,0.003803444327786565,-0.01770702376961708,0.013226907700300217,-0.0005533217336051166,-0.011118751019239426
0.027641894295811653,0.003466196358203888,-0.01730492152273655,0.013288970105350018,-0.0005856265779584646,-0.010831037536263466
0.02802877128124237,0.003538409946486354,-0.01765458658337593,0.013788687065243721,-0.0006128748063929379,-0.01179412566125393
0.02763725444674492,0.003702104790136218,-0.018046332523226738,0.013422749936580658,-0.0007934968452900648,-0.01229084748774767
0.027853792533278465,0.003925721161067486,-0.01682487688958645,0.013997587375342846,-0.0008462965488433838,-0.012015815824270248
0.02871222048997879,0.0039509800262749195,-0.017478598281741142,0.013740173541009426,-0.0007637599483132362,-0.012318822555243969
0.028454191982746124,0.003734090132638812,-0.018041254952549934,0.013867378234863281,-0.0007670176564715803,-0.012218584306538105
0.028239699080586433,0.0034480930771678686,-0.017986362800002098,0.01340465061366558,-0.0006953749107196927,-0.012069079093635082
0.0277834665030241,0.0037025015335530043,-0.018467947840690613,0.014157824218273163,-0.0007099894573912024,-0.0122068515047431
0.028027961030602455,0.004059349652379751,-0.017964210361242294,0.013946285471320152,-0.0006731395842507482,-0.012600029818713665
0.028898140415549278,0.004016376566141844,-0.018276477232575417,0.014497612603008747,-0.0006082499166950583,-0.012812649831175804
0.02877577766776085,0.004229736980050802,-0.018009347841143608,0.014234512113034725,-0.0005372121231630445,-0.012662818655371666
0.02877577766776085,0.004229736980050802,-0.018009347841143608,0.014234512113034725,-0.0005372121231630445,-0.012662818655371666
0.028499649837613106,0.004053378943353891,-0.017116840928792953,0.014221099205315113,-0.0005499983089976013,-0.012797277420759201
0.028522446751594543,0.004380946513265371,-0.018342046067118645,0.014253108762204647,-0.0005425976123660803,-0.012241419404745102
0.028947429731488228,0.004196434281766415,-0.0185290165245533,0.01344265416264534,-0.0005433446494862437,-0.012350435368716717
0.027694007381796837,0.004073400981724262,-0.018087711185216904,0.013268508948385715,-0.0005355782923288643,-0.012542856857180595
0.02927774004638195,0.003994958940893412,-0.016108984127640724,0.014034316875040531,-0.0005004741833545268,-0.012775090523064137
0.029551072046160698,0.004258326254785061,-0.018522532656788826,0.014844215475022793,-0.000471139996079728,-0.01278265193104744
0.02942459098994732,0.004251611419022083,-0.019253287464380264,0.014883839525282383,-0.0004441367054823786,-0.012577536515891552
0.029541175812482834,0.0040715825743973255,-0.01836862601339817,0.014250562526285648,-0.0004445145605131984,-0.012369134463369846
0.029579896479845047,0.003918713424354792,-0.018497256562113762,0.014889027923345566,-0.0004435590235516429,-0.012461300939321518
0.029625654220581055,0.0037807957269251347,-0.019297415390610695,0.01570785976946354,-0.0004758670984301716,-0.012020132504403591
0.029634157195687294,0.0037295755464583635,-0.018346771597862244,0.014729243703186512,-0.0005015629576519132,-0.01240904163569212
0.03016575239598751,0.004028850235044956,-0.018109772354364395,0.014687556773424149,-0.0007110125734470785,-0.01237091887742281
0.029802439734339714,0.004023627378046513,-0.018433015793561935,0.01453324593603611,-0.0007570307934656739,-0.011963856406509876
0.0302211232483387,0.00434522982686758,-0.01869821920990944,0.014980313368141651,-0.0007615437498316169,-0.01253717765212059
0.03072800114750862,0.004206220619380474,-0.01944202557206154,0.014537396840751171,-0.0007027768879197538,-0.012355279177427292
0.030264651402831078,0.004515495151281357,-0.018866483122110367,0.015626154839992523,-0.0007116247434169054,-0.012820463627576828
0.03070899285376072,0.004471100401133299,-0.01827746070921421,0.01528362836688757,-0.0006572618149220943,-0.013049880042672157
0.030376490205526352,0.004278496373444796,-0.018925433978438377,0.015353570692241192,-0.0006623381632380188,-0.013340583071112633
0.030856411904096603,0.004050428979098797,-0.018497776240110397,0.014998648315668106,-0.0005984371528029442,-0.01287152897566557
0.03084435872733593,0.003988675773143768,-0.018527304753661156,0.015380148775875568,-0.0005294778966344893,-0.013176179490983486
0.031430602073669434,0.00400202814489603,-0.019271528348326683,0.014970396645367146,-0.0005551864160224795,-0.013235998339951038
0.03163006901741028,0.0042520989663898945,-0.018766073510050774,0.015512695536017418,-0.0005134066450409591,-0.01313808560371399
0.030986284837126732,0.00449245935305953,-0.01869478076696396,0.015501482412219048,-0.00046945002395659685,-0.013218773528933525
0.030802903696894646,0.004566442221403122,-0.019008539617061615,0.015458312816917896,-0.0004319121362641454,-0.01336178183555603
0.031772878021001816,0.004197855480015278,-0.018892677500844002,0.015341198071837425,-0.0004574388440232724,-0.013168479315936565
0.032719891518354416,0.003932935651391745,-0.019100332632660866,0.015214144252240658,-0.000433767942013219,-0.012854442000389099
0.032719891518354416,0.003932935651391745,-0.019100332632660866,0.015214144252240658,-0.000433767942013219,-0.012854442000389099
0.03241739049553871,0.004191404674202204,-0.019251195713877678,0.015620597638189793,-0.0003987919189967215,-0.013630700297653675
0.032471828162670135,0.004422249272465706,-0.019631199538707733,0.015461543574929237,-0.0004345356428530067,-0.013294998556375504
0.032471828162670135,0.004422249272465706,-0.019631199538707733,0.015461543574929237,-0.0004345356428530067,-0.013294998556375504
0.031971562653779984,0.0044906288385391235,-0.019140595570206642,0.016019882634282112,-0.00040627786074765027,-0.013312519527971745
0.03272922337055206,0.004333207383751869,-0.018935997039079666,0.015736375004053116,-0.0004366986686363816,-0.012904467061161995
0.0325310155749321,0.0045414878986775875,-0.019349778071045876,0.01627248153090477,-0.0004553001490421593,-0.013117662630975246
0.031787239015102386,0.004183776210993528,-0.019215194508433342,0.01583169400691986,-0.00044116575736552477,-0.013502818532288074
0.03147921711206436,0.004117438569664955,-0.019362566992640495,0.0157383494079113,-0.0006040411535650492,-0.013575617223978043
0.033223558217287064,0.004025336820632219,-0.019818097352981567,0.016052551567554474,-0.0005581129225902259,-0.013881964609026909
0.03298965469002724,0.00399314658716321,-0.02023903653025627,0.01597653701901436,-0.0005904689896851778,-0.013659307733178139
0.03334306180477142,0.004275489132851362,-0.019325492903590202,0.016385968774557114,-0.0005377600900828838,-0.01371228788048029
0.03332008048892021,0.0044083548709750175,-0.019789431244134903,0.0158009584993124,-0.0005650807870551944,-0.0134611576795578
0.03267155587673187,0.0043385024182498455,-0.0195468720048666,0.016084179282188416,-0.0005875670467503369,-0.014130339957773685
0.0330200232565403,0.004403103608638048,-0.019639864563941956,0.015586011111736298,-0.0006484414334408939,-0.01308730524033308
0.03343403339385986,0.004362137988209724,-0.020069127902388573,0.015689074993133545,-0.0007014147704467177,-0.013634761795401573
0.03369671106338501,0.004310155753046274,-0.020017828792333603,0.016104964539408684,-0.0007333203684538603,-0.013604357838630676
0.033743683248758316,0.004772798623889685,-0.01954597979784012,0.016824737191200256,-0.000751432788092643,-0.014032144099473953
0.03375428915023804,0.004938502795994282,-0.01963162235915661,0.017152901738882065,-0.0009891772642731667,-0.013962408527731895
0.0334981270134449,0.004668161738663912,-0.020360657945275307,0.016575798392295837,-0.000997997121885419,-0.014228211715817451
0.03389894962310791,0.004343606997281313,-0.020588215440511703,0.01658538356423378,-0.0009293104521930218,-0.014110351912677288
0.033980339765548706,0.004060937091708183,-0.021263854578137398,0.015688398852944374,-0.0008627584902569652,-0.014415020123124123
0.03385402262210846,0.004250932019203901,-0.020660702139139175,0.016366615891456604,-0.0008414570474997163,-0.014065362513065338
0.03349151834845543,0.004520491696894169,-0.0200714822858572,0.01651856303215027,-0.0007826051441952586,-0.014242480508983135
0.034700047224760056,0.004648279398679733,-0.019947562366724014,0.016596218571066856,-0.0006911915261298418,-0.013966012746095657
0.03423916548490524,0.004207955207675695,-0.0208047516644001,0.015315162017941475,-0.0006859755958430469,-0.013948572799563408
0.033648956567049026,0.004229244776070118,-0.02123723365366459,0.015909463167190552,-0.0006598653853870928,-0.014351151883602142
0.03488532081246376,0.004102787934243679,-0.021056344732642174,0.01613708771765232,-0.0005999611457809806,-0.014481416903436184
0.034953564405441284,0.003946743905544281,-0.02088877186179161,0.017102070152759552,-0.0006205960526131094,-0.014501258730888367
0.034953564405441284,0.003946743905544281,-0.02088877186179161,0.017102070152759552,-0.0006205960526131094,-0.014501258730888367
0.03491426631808281,0.004033692181110382,-0.020798033103346825,0.016865652054548264,-0.0005803579115308821,-0.013903265818953514
0.03519490361213684,0.004187699407339096,-0.020260818302631378,0.016912469640374184,-0.0005641839234158397,-0.014070081524550915
0.03593502193689346,0.00441477308049798,-0.02102769911289215,0.01664094626903534,-0.0005045573343522847,-0.013994796201586723
0.03479873761534691,0.004024140536785126,-0.021269090473651886,0.015608462505042553,-0.0005380166112445295,-0.014557074755430222
0.034627772867679596,0.00420968234539032,-0.021157117560505867,0.015659166499972343,-0.0004942361847497523,-0.014473858289420605
0.035255249589681625,0.0042854174971580505,-0.020817648619413376,0.016091464087367058,-0.0005084497388452291,-0.014860166236758232
0.03548945114016533,0.00444590300321579,-0.021018272265791893,0.01700749062001705,-0.0004863568174187094,-0.015078466385602951
0.03541029617190361,0.00435818824917078,-0.021199196577072144,0.017327504232525826,-0.0005126341711729765,-0.014839790761470795
0.03501715883612633,0.004379265010356903,-0.020535342395305634,0.01788575015962124,-0.0005399947986006737,-0.014622489921748638
0.03467114269733429,0.004188184626400471,-0.020432118326425552,0.018048077821731567,-0.0005751005955971777,-0.01494719460606575
0.03504093363881111,0.0038300033193081617,-0.02124009095132351,0.017338678240776062,-0.000584932160563767,-0.014709911309182644
0.03556646779179573,0.003714324440807104,-0.021468879655003548,0.017772547900676727,-0.0005725933006033301,-0.014740554615855217
0.035301078110933304,0.0037722645793110132,-0.02084001712501049,0.017949720844626427,-0.0005972947692498565,-0.01489962451159954
0.03501298278570175,0.0036307023838162422,-0.020858358591794968,0.01780678518116474,-0.0007576962816528976,-0.014959821477532387
0.0357324481010437,0.0033731304574757814,-0.021118544042110443,0.01845182478427887,-0.0008110045455396175,-0.014530032873153687
0.034106768667697906,0.0032780931796878576,-0.020815087482333183,0.018061993643641472,-0.0007360017043538392,-0.014700084924697876
0.03606871888041496,0.0035230868961662054,-0.02046993002295494,0.017684776335954666,-0.0007498791092075408,-0.01474123913794756
0.03583620488643646,0.0037559920456260443,-0.02105673961341381,0.01764685846865177,-0.0007655780063942075,-0.014786898158490658
0.03521377220749855,0.003703368129208684,-0.0214252732694149,0.017093975096940994,-0.000792749400716275,-0.014500794932246208
0.03570396453142166,0.0036314656026661396,-0.020653242245316505,0.01755114085972309,-0.0007733425009064376,-0.01497519388794899
0.0360574834048748,0.003616353962570429,-0.02039395272731781,0.0169026218354702,-0.0007299279677681625,-0.015167959034442902
0.03580821305513382,0.0036429741885513067,-0.02058718539774418,0.017524847760796547,-0.0007389072561636567,-0.014978242106735706
0.03655176982283592,0.003842450911179185,-0.020620591938495636,0.016942434012889862,-0.0007012019050307572,-0.014921757392585278
0.036450453102588654,0.0037739677354693413,-0.02093491703271866,0.017354732379317284,-0.0007062350632622838,-0.015195171348750591
0.03637247532606125,0.0038350874092429876,-0.02113349922001362,0.017299693077802658,-0.0007309794309549034,-0.014288117177784443
0.03624572232365608,0.0038382657803595066,-0.020697716623544693,0.017753392457962036,-0.0007297398406080902,-0.014419741928577423
0.0364685021340847,0.0037870057858526707,-0.020791364833712578,0.018041230738162994,-0.0006760081159882247,-0.015184423886239529
0.0364685021340847,0.0037870057858526707,-0.020791364833712578,0.018041230738162994,-0.0006760081159882247,-0.015184423886239529
0.0362091064453125,0.004248617682605982,-0.02112031728029251,0.01764100417494774,-0.0006871319492347538,-0.015379062853753567
0.03706001490354538,0.004066689405590296,-0.02088276296854019,0.017738183960318565,-0.0006427446496672928,-0.015519760549068451
0.03778119012713432,0.003933553583920002,-0.020338330417871475,0.017876865342259407,-0.0006395091768354177,-0.015446447767317295
0.03651585802435875,0.003430676646530628,-0.020773692056536674,0.01770922541618347,-0.0006695284973829985,-0.015454445965588093
0.03596613183617592,0.003551367437466979,-0.02179662138223648,0.017856409773230553,-0.0006882681045681238,-0.015604509972035885
0.03748542070388794,0.004171364475041628,-0.021272365003824234,0.01778663694858551,-0.0006973887793719769,-0.015593379735946655
0.03741168603301048,0.004037483595311642,-0.020660769194364548,0.018218692392110825,-0.0006550163961946964,-0.01578531786799431
0.03816498443484306,0.0034608193673193455,-0.02143663540482521,0.018585754558444023,-0.0006055186386220157,-0.0157295111566782
0.03733742609620094,0.003334627952426672,-0.021827638149261475,0.018214311450719833,-0.0006377343088388443,-0.0159223061054945
0.03676309064030647,0.0035304762423038483,-0.021346597000956535,0.018167369067668915,-0.0006623322842642665,-0.016081074252724648
0.03681943938136101,0.0037373655941337347,-0.02007458731532097,0.017663873732089996,-0.0006753166671842337,-0.016122600063681602
0.037794798612594604,0.0037897902075201273,-0.021847601979970932,0.017301425337791443,-0.0006970501272007823,-0.01588664948940277
0.03663620725274086,0.004363471642136574,-0.022135568782687187,0.017755985260009766,-0.0006595240556634963,-0.015611384063959122
0.0380190908908844,0.004197870381176472,-0.022260135039687157,0.018041210249066353,-0.0007480018539354205,-0.015916531905531883
0.03856395184993744,0.00393900228664279,-0.021943064406514168,0.018663549795746803,-0.0007471524877473712,-0.016205258667469025
0.03740137815475464,0.0038258424028754234,-0.022237153723835945,0.018699675798416138,-0.0006821515271440148,-0.01634693332016468
0.037890251725912094,0.004378755576908588,-0.021793756633996964,0.018109213560819626,-0.0006941904430277646,-0.015816418454051018
0.03793970122933388,0.004151467699557543,-0.0215817391872406,0.018251823261380196,-0.000635931792203337,-0.01626286469399929
0.03762637451291084,0.004318508319556713,-0.02169857919216156,0.018307359889149666,-0.0006549426470883191,-0.016417091712355614
