davideferrari95/blind_handover_controller/data/Test 70 - [2024-02-07 -- 15-49-26]/joint_states_data.csv
shoulder_pan_joint,shoulder_lift_joint,elbow_joint,wrist_1_joint,wrist_2_joint,wrist_3_joint
0.006753514986485243,-0.0020851821172982454,-0.009184928610920906,0.00968823954463005,0.00023667079221922904,0.006607501767575741
0.006821851246058941,-0.0014946823939681053,-0.00830360408872366,0.00918146874755621,0.00023590691853314638,0.0070680007338523865
0.006821851246058941,-0.0014946823939681053,-0.00830360408872366,0.00918146874755621,0.00023590691853314638,0.0070680007338523865
0.006215742323547602,-0.0011945368023589253,-0.009571148082613945,0.009809977374970913,0.00022663171694148332,0.0073411171324551105
0.006505412515252829,-0.0003750371397472918,-0.009521846659481525,0.009504527784883976,0.00021754037879873067,0.006989482790231705
0.006440178956836462,-0.000401392113417387,-0.008885642513632774,0.0093202143907547,0.00020911743922624737,0.006628723815083504
0.006168103311210871,-0.0005023385165259242,-0.00960408803075552,0.009972457773983479,0.000232597827562131,0.006542607676237822
0.006314437370747328,-0.00043691019527614117,-0.00938030332326889,0.009572398848831654,0.00022628193255513906,0.006478112656623125
0.006180967204272747,-0.00046586530515924096,-0.008904524147510529,0.009578692726790905,0.00021856403327547014,0.007039476186037064
0.007156853098422289,-0.0004413816786836833,-0.009390976279973984,0.009959820657968521,0.00021124299382790923,0.007038228679448366
0.006504309829324484,-0.0003799162514042109,-0.009682646952569485,0.009699739515781403,0.0002316177124157548,0.006922869477421045
0.00651545962318778,-0.0003330186300445348,-0.009465636685490608,0.010104608722031116,0.00022611884924117476,0.00669337622821331
0.006312950514256954,-0.000296430749585852,-0.010210166685283184,0.010241884738206863,0.0002193451509810984,0.006504167336970568
0.007026413455605507,-0.00026709045050665736,-0.009517994709312916,0.01009344682097435,0.0002128675114363432,0.006797316484153271
0.006570931524038315,-0.0002229609526693821,-0.008767969906330109,0.009652018547058105,0.00020098293316550553,0.006836908869445324
0.006570931524038315,-0.0002229609526693821,-0.008767969906330109,0.009652018547058105,0.00020098293316550553,0.006836908869445324
0.007045234087854624,-0.00020595021487679332,-0.009821922518312931,0.01011761836707592,0.00020547177700791508,0.006271656136959791
0.0063470276072621346,-0.0001913504529511556,-0.009405056945979595,0.010623551905155182,0.00020585721358656883,0.006128844805061817
0.006427218206226826,-0.00017868437862489372,-0.009262274019420147,0.010242621414363384,0.0001974626211449504,0.006092546973377466
0.006628107745200396,-0.00016759117715992033,-0.00944844912737608,0.009760295040905476,0.0001892004074761644,0.006922768894582987
0.007027290761470795,-0.0001577959192218259,-0.00928723718971014,0.010130577720701694,0.0001815674768295139,0.006882756017148495
0.007387022487819195,-0.0001490815484430641,-0.008298739790916443,0.010225897654891014,0.000207058314117603,0.006552000064402819
0.0068558999337255955,-0.00014127975737210363,-0.010383249260485172,0.009026393294334412,0.00020145442977081984,0.0066206627525389194
0.006256534717977047,-0.0001342536270385608,-0.01108777616173029,0.00942220352590084,0.00019434177374932915,0.007216454949229956
0.006685458589345217,-0.00012789436732418835,-0.009931948035955429,0.00976883340626955,0.00018759876547846943,0.006768350955098867
0.006896498147398233,-0.0001221097627421841,-0.009913593530654907,0.009389037266373634,0.0001813002018025145,0.006376659031957388
0.006651625968515873,-0.00011682595504680648,-0.009874842129647732,0.010266808792948723,0.00019705103477463126,0.006784395314753056
0.0063675218261778355,-0.0001119801527238451,-0.00959326233714819,0.010175433941185474,0.00019771028019022197,0.006861789617687464
0.006177888717502356,-0.00010752095113275573,-0.01035830844193697,0.009235873818397522,0.0001921274233609438,0.006834281608462334
0.006755662616342306,-0.00010340294102206826,-0.010452437214553356,0.009217179380357265,0.00018646946409717202,0.006843633018434048
0.006830538623034954,-9.958886948879808e-05,-0.010202402248978615,0.009584417566657066,0.00018111069221049547,0.0066477046348154545
0.006415677722543478,-9.604594379197806e-05,-0.010436831042170525,0.00939052551984787,0.00017604923050384969,0.006856710184365511
0.006218945607542992,-9.274693729821593e-05,-0.010552151128649712,0.00917757861316204,0.0001712633966235444,0.006687415763735771
0.00662945955991745,-8.96664205356501e-05,-0.010145651176571846,0.009775311686098576,0.00018438068218529224,0.006824867334216833
0.00678852666169405,-8.678456651978195e-05,-0.010255382396280766,0.00958011019974947,0.00018523349717725068,0.006684172432869673
0.0071184453554451466,-0.00010249434853903949,-0.010238352231681347,0.00920737162232399,0.00018094315601047128,0.00670115789398551
0.0064710997976362705,-0.00010859424219233915,-0.010537810623645782,0.009847206994891167,0.0001765308843459934,0.006834017112851143
0.006288970820605755,-0.00010553419269854203,-0.010433973744511604,0.009874758310616016,0.00019160439842380583,0.006716176867485046
0.006907017435878515,-0.00010253029904561117,-0.009710540995001793,0.010031981393694878,0.00020175869576632977,0.00699422275647521
0.007491278927773237,-9.96910166577436e-05,-0.009910949505865574,0.010180206969380379,0.00019427271035965532,0.006660277955234051
0.006281137466430664,-9.445946488995105e-05,-0.010417087003588676,0.00967586599290371,0.00017890507297124714,0.006629366893321276
0.006436427589505911,-9.204437810694799e-05,-0.010176570154726505,0.010152250528335571,0.00017206375196110457,0.006878985092043877
0.007008896674960852,-8.974976663012058e-05,-0.009731472469866276,0.010395250283181667,0.00019446772057563066,0.00652864295989275
0.007008896674960852,-8.974976663012058e-05,-0.009731472469866276,0.010395250283181667,0.00019446772057563066,0.00652864295989275
0.006758998613804579,-8.756667375564575e-05,-0.009803698398172855,0.010110328905284405,0.0001915186148835346,0.006324428133666515
0.0064968024380505085,-8.548727782908827e-05,-0.009990008547902107,0.010279743000864983,0.00018520760932005942,0.006845179945230484
0.006494641304016113,-8.350444113602862e-05,-0.009716233238577843,0.009918911382555962,0.00017908138397615403,0.007357974071055651
0.006868201773613691,-8.161141158780083e-05,-0.00950300507247448,0.01034469436854124,0.0001733334211166948,0.007073683198541403
0.007190980948507786,-7.980234659044072e-05,-0.010940833017230034,0.010363723151385784,0.00018167267262469977,0.006830345373600721
0.007190810050815344,-7.807170914020389e-05,-0.009979712776839733,0.00970669649541378,0.0001890910934889689,0.0066829705610871315
0.0066360849887132645,-7.641452248208225e-05,-0.009248720481991768,0.009877773933112621,0.00018439751875121146,0.006775983609259129
0.006632424890995026,-7.48263846617192e-05,-0.009599816985428333,0.010564603842794895,0.00017920663231052458,0.006815312895923853
0.007156561128795147,-7.33027482056059e-05,-0.009409419260919094,0.009657496586441994,0.00017425348050892353,0.006933907978236675
0.007418474182486534,-7.18400115147233e-05,-0.00917788501828909,0.009715039283037186,0.00016956313629634678,0.006511760409921408
0.0066879065707325935,-7.043440564302728e-05,-0.0098112802952528,0.010160052217543125,0.00016511869034729898,0.00648180628195405
0.006463468540459871,-6.908282375661656e-05,-0.009749951772391796,0.009684625081717968,0.00018234724120702595,0.006778890732675791
0.007107423152774572,-6.778210081392899e-05,-0.00913679227232933,0.009966407902538776,0.00017920693790074438,0.006722833961248398
0.007400420494377613,-6.652957381447777e-05,-0.00934887770563364,0.010161214508116245,0.00017494398343842477,0.007356919813901186
0.0068589672446250916,-6.532238330692053e-05,-0.009329685010015965,0.010412794537842274,0.00017079972894862294,0.00735940458253026
0.006960584782063961,-6.415826646843925e-05,-0.009314869530498981,0.010136163793504238,0.00016684207366779447,0.0066091022454202175
0.007620562333613634,-6.303486588876694e-05,-0.00962221808731556,0.009520708583295345,0.0001630634069442749,0.0062565370462834835
0.007105696946382523,-6.195015157572925e-05,-0.009419159032404423,0.009127984754741192,0.00015945208724588156,0.0065880645997822285
0.0073903342708945274,-6.09021881246008e-05,-0.008848854340612888,0.009779159910976887,0.00017624297470320016,0.006905614864081144
0.006663578096777201,-5.988906559650786e-05,-0.009191366843879223,0.009780178777873516,0.00017253847909159958,0.006860792171210051
0.007080179639160633,-5.890913598705083e-05,-0.009181331843137741,0.009525207802653313,0.00016635913925711066,0.007063242606818676
0.007256682496517897,-5.7960685808211565e-05,-0.009455909952521324,0.009531732648611069,0.00016043995856307447,0.007376537658274174
0.006856532301753759,-5.704230716219172e-05,-0.0089061688631773,0.009912702254951,0.00015491663361899555,0.007081231102347374
0.007044556085020304,-5.615258123725653e-05,-0.00973095279186964,0.009792671538889408,0.00014976052625570446,0.006959407590329647
0.007380372378975153,-6.788191967643797e-05,-0.009156577289104462,0.010302504524588585,0.00014041348185855895,0.0072718458250164986
0.007380372378975153,-6.788191967643797e-05,-0.009156577289104462,0.010302504524588585,0.00014041348185855895,0.0072718458250164986
0.007365154102444649,-6.705070700263605e-05,-0.008813227526843548,0.01011036615818739,0.00013616448268294334,0.006775649264454842
0.007095293141901493,-6.606873648706824e-05,-0.009899551048874855,0.0102987727150321,0.0001321648305747658,0.006752081215381622
0.007333084009587765,-6.511278479592875e-05,-0.009057918563485146,0.010468925349414349,0.0001283935853280127,0.006903336849063635
0.007543180137872696,-6.418403791030869e-05,-0.009991896338760853,0.009720328263938427,0.0001248315384145826,0.007106132339686155
0.007512654177844524,-6.328155723167583e-05,-0.009255421347916126,0.009959381073713303,0.0001214620569953695,0.006619730032980442
0.007468678057193756,-6.24039676040411e-05,-0.008803770877420902,0.009862902574241161,0.00011826960690086707,0.006514306180179119
0.006908246781677008,-6.155048322398216e-05,-0.008682907558977604,0.009559770114719868,0.00011524058936629444,0.006690003909170628
0.0064474791288375854,-6.0719961766153574e-05,-0.009000256657600403,0.01041742879897356,0.00011236299178563058,0.0067221056669950485
0.007015676703304052,-5.991158104734495e-05,-0.008859693072736263,0.00967506505548954,0.00013008338282816112,0.0065119266510009766
0.006834230851382017,-5.9124449762748554e-05,-0.008516167290508747,0.00911291129887104,0.00012832623906433582,0.006708239205181599
0.005801470018923283,-5.835773117723875e-05,-0.009573078714311123,0.009789715521037579,0.0001254326052730903,0.0066887810826301575
0.006357782054692507,-5.761059946962632e-05,-0.009346620179712772,0.01013426948338747,0.00012259047070983797,0.007327735889703035
0.006934350822120905,-5.6882436183514073e-05,-0.00904049165546894,0.010282587260007858,0.00011986943718511611,0.0071321879513561726
0.007089571096003056,-4.5384957047645e-05,-0.009028037078678608,0.010034061037003994,0.00011726636876119301,0.007200085092335939
0.006504424847662449,-4.438991527422331e-05,-0.00952445063740015,0.009626722894608974,0.00011477390944492072,0.006972780451178551
0.0063825324177742004,-4.3843479943461716e-05,-0.008899877779185772,0.009173054248094559,0.00011238518345635384,0.00671779178082943
0.00689188577234745,-4.331586751504801e-05,-0.009815838187932968,0.009302357211709023,0.00011009380250470713,0.007004548795521259
0.006807495839893818,-4.280087523511611e-05,-0.008991015143692493,0.009354595094919205,0.0001078940331353806,0.0068459054455161095
0.0067266132682561874,-4.229806290823035e-05,-0.007501218467950821,0.009059474803507328,0.00010578052024357021,0.00677748816087842
0.006505210418254137,-4.180684481980279e-05,-0.008991110138595104,0.009967301040887833,0.00010374805424362421,0.006815633736550808
0.006510041654109955,-4.132693356950767e-05,-0.010693271644413471,0.009823239408433437,0.00010179246601182967,0.00684557156637311
0.006913655903190374,-4.085790351382457e-05,-0.009666320867836475,0.009292133152484894,9.990904072765261e-05,0.007133022416383028
0.007081515621393919,-4.039942359668203e-05,-0.009314339607954025,0.010032160207629204,9.809400216909125e-05,0.0067517757415771484
0.006592263001948595,-3.9951115468284115e-05,-0.009640980511903763,0.010022468864917755,9.634397429181263e-05,0.006671666633337736
0.0072214799001812935,-6.174103361900052e-08,-0.008889216929674149,0.009405506774783134,9.302455873694271e-05,0.00692719966173172
0.007327299099415541,-8.283348451598727e-10,-0.009233647026121616,0.009256112389266491,9.144925570581108e-05,0.006795050110667944
0.007327299099415541,-8.283348451598727e-10,-0.009233647026121616,0.009256112389266491,9.144925570581108e-05,0.006795050110667944
0.007328616455197334,-1.1113168545129337e-11,-0.009282059967517853,0.009713680483400822,8.992622315417975e-05,0.00711069256067276
0.006918555591255426,-1.490973414609159e-13,-0.009118063375353813,0.009454276412725449,8.845329284667969e-05,0.007517834659665823
0.007246444001793861,-2.000331197137364e-15,-0.009754019789397717,0.009971530176699162,8.702768536750227e-05,0.006915275007486343
0.0073937163688242435,-2.683699319975e-17,-0.009533122181892395,0.009120081551373005,8.564742893213406e-05,0.00695570046082139
0.007462704088538885,-3.6005251454448523e-19,-0.009648271836340427,0.008984653279185295,8.431018068222329e-05,0.006685432977974415
0.007041637320071459,-4.830564332867056e-21,-0.009745227172970772,0.010195801965892315,8.301407069666311e-05,0.006800962146371603
0.007151257712393999,-6.480817978172287e-23,-0.00925788190215826,0.009873875416815281,8.175722905434668e-05,0.00663392711430788
0.008086785674095154,-8.694845604944754e-25,-0.0091885169968009,0.009469910524785519,8.053795318119228e-05,0.006357190664857626
0.0076592303812503815,-1.1665244428472758e-26,-0.009862611070275307,0.010336942039430141,7.935435132822022e-05,0.006681007798761129
0.007534561678767204,-1.5650413673175565e-28,-0.010011488571763039,0.010069387033581734,7.820516475476325e-05,0.006872194819152355
0.007488308008760214,-2.099702615992458e-30,-0.009064956568181515,0.01018374040722847,7.708874909440055e-05,0.006981130689382553
0.007379122078418732,-2.817019314499825e-32,-0.009687583893537521,0.01012194063514471,7.600372191518545e-05,0.006805123295634985
0.007264731917530298,-3.779390891635018e-34,-0.010569483041763306,0.010411319322884083,7.494881720049307e-05,0.006730215158313513
0.007999666035175323,-5.0705354907803945e-36,-0.009155972860753536,0.010202563367784023,7.392281258944422e-05,0.007211771328002214
0.007916301488876343,-6.802770429841772e-38,-0.009690758772194386,0.010464142076671124,7.292458030860871e-05,0.007730647921562195
0.007603692356497049,-9.126783015009323e-40,-0.009769872762262821,0.010005333460867405,7.195287616923451e-05,0.0069146426394581795
0.0074617378413677216,-1.2244545981270252e-41,-0.00964832678437233,0.010079811327159405,7.100675429683179e-05,0.006662499159574509
0.0074790776707232,-1.639519203260036e-43,-0.009896906092762947,0.00971461832523346,7.008521788520738e-05,0.007164169568568468
0.007810789626091719,-2.802596928649634e-45,-0.009733984246850014,0.009508940391242504,6.918725557625294e-05,0.007559941615909338
0.0076752291060984135,-0.0,-0.009274234995245934,0.009872755967080593,6.831200153101236e-05,0.0073066712357103825
0.007261557038873434,0.0,-0.010092810727655888,0.010490922257304192,6.745863356627524e-05,0.007167513947933912
0.007261557038873434,0.0,-0.010092810727655888,0.010490922257304192,6.745863356627524e-05,0.007167513947933912
0.007369811646640301,0.0,-0.010598892346024513,0.009588789194822311,6.662632949883118e-05,0.007181926164776087
0.007403215393424034,0.0,-0.009758633561432362,0.010188395157456398,6.502186442958191e-05,0.007013536524027586
0.007234369404613972,-2.01277325686533e-05,-0.009762286208570004,0.009755336679518223,6.424824096029624e-05,0.0067422715947031975
0.007234369404613972,-2.01277325686533e-05,-0.009762286208570004,0.009755336679518223,6.424824096029624e-05,0.0067422715947031975
0.00768399890512228,-2.7003920877177734e-07,-0.009352992288768291,0.009984566830098629,6.34928437648341e-05,0.0064835925586521626
0.006979446392506361,-6.521129122805114e-13,-0.009478693827986717,0.009936642833054066,6.132954877102748e-05,0.006916301790624857
0.006979446392506361,-6.521129122805114e-13,-0.009478693827986717,0.009936642833054066,6.132954877102748e-05,0.006916301790624857
0.007445319090038538,-8.748926232191468e-15,-0.009566660039126873,0.009837760590016842,6.0640839365078136e-05,0.006794801913201809
0.007367579732090235,-1.173780141822383e-16,-0.009618621319532394,0.009791198186576366,5.996744584990665e-05,0.006931804120540619
0.007638339884579182,-1.5747758002280675e-18,-0.00961211696267128,0.010263986885547638,1.523854643892264e-05,0.007479412015527487
0.007430736906826496,-2.112762587039209e-20,-0.00974543858319521,0.00960609782487154,9.94968218037684e-07,0.007465139497071505
0.007474727928638458,-2.8345405582209124e-22,-0.009819144383072853,0.009091266430914402,6.496431836922056e-08,0.00732326740399003
0.007428862154483795,-3.802898053400572e-24,-0.00963585451245308,0.00964778009802103,4.241705653384997e-09,0.007321946322917938
0.007460627239197493,-5.102073152164766e-26,-0.009231431409716606,0.009760783053934574,2.7695307158737137e-10,0.007657940965145826
0.007300216238945723,-6.845081948960296e-28,-0.009527904912829399,0.009403731673955917,1.8083055886020105e-11,0.0075616128742694855
0.007710814941674471,-9.183550932352794e-30,-0.00928277987986803,0.009411579929292202,1.1806941058525866e-12,0.0069426666013896465
0.007652518805116415,-1.232090524683023e-31,-0.009549090638756752,0.009320918470621109,7.709088765571123e-14,0.006535789929330349
0.00803210400044918,-1.6530066047491942e-33,-0.010087707079946995,0.008940589614212513,5.033483548179786e-15,0.007049292791634798
0.007530500181019306,-2.217719325507502e-35,-0.008752732537686825,0.009321698918938637,3.2865053054012224e-16,0.007424313109368086
0.008113453164696693,-2.975353935902192e-37,-0.008687364868819714,0.009455638937652111,2.1458529199309757e-17,0.007222797721624374
0.007755884900689125,-3.991817278189676e-39,-0.009378636255860329,0.009727132506668568,1.401088654504822e-18,0.007063549477607012
0.007692541927099228,-5.355482470956586e-41,-0.009143992327153683,0.009948637336492538,9.148107049302176e-20,0.0069604599848389626
0.007787695154547691,-7.188661121986312e-43,-0.008744549937546253,0.010088329203426838,5.973060298032259e-21,0.007105325348675251
0.007845007814466953,-9.80908925027372e-45,-0.009387771598994732,0.009689358063042164,3.899981397957694e-22,0.007329127751290798
0.007990304380655289,-0.0,-0.009026138111948967,0.010539621114730835,2.5464090810345016e-23,0.007265013176947832
0.007917762733995914,0.0,-0.008749223314225674,0.01018872857093811,1.6626231625816613e-24,0.007467043120414019
0.007820543833076954,0.0,-0.00924642849713564,0.009765305556356907,1.085574048166143e-25,0.007485494948923588
0.00804862193763256,0.0,-0.009302518330514431,0.010190091095864773,7.088023085487677e-27,0.007189916912466288
0.008177239447832108,0.0,-0.008612163364887238,0.010114372707903385,4.627972582211098e-28,0.007014537695795298
0.007611006963998079,0.0,-0.009069034829735756,0.009898512624204159,3.021735332641856e-29,0.006935762241482735
0.008018831722438335,0.0,-0.009158045053482056,0.010487048886716366,1.9729771779681626e-30,0.007130798883736134
0.008018831722438335,0.0,-0.009158045053482056,0.010487048886716366,1.9729771779681626e-30,0.007130798883736134
0.008218808099627495,0.0,-0.009221273474395275,0.009822470135986805,1.288213091869812e-31,0.007315509021282196
0.007901187054812908,0.0,-0.009445385076105595,0.010009733028709888,5.4918545057440324e-34,0.006990132853388786
0.008252694271504879,0.0,-0.009098749607801437,0.00961119681596756,3.585788406984215e-35,0.00825087632983923
0.008213437162339687,0.0,-0.00883355364203453,0.009683892130851746,2.34126364546061e-36,0.007769373245537281
0.007983566261827946,0.0,-0.009336193092167377,0.010051479563117027,1.5286778399784687e-37,0.007107250392436981
0.007591982837766409,0.0,-0.009263434447348118,0.009694579057395458,9.981175708185129e-39,0.006725749000906944
0.008290383033454418,0.0,-0.008880659937858582,0.009622158482670784,6.51699074206614e-40,0.007253693416714668
0.00829215906560421,0.0,-0.00949367880821228,0.010621677152812481,4.2551829167687395e-41,0.007297057192772627
0.007916834205389023,0.0,-0.009226449765264988,0.010094581171870232,2.7787748547561123e-42,0.0072368597611784935
0.008052567951381207,0.0,-0.008631497621536255,0.00962226465344429,1.807675018979014e-43,0.007295032497495413
0.008611570112407207,0.0,-0.009273460134863853,0.010234955698251724,1.1210387714598537e-44,0.008000023663043976
0.008037827908992767,0.0,-0.009318524971604347,0.009653768502175808,1.401298464324817e-45,0.0076022399589419365
0.008111842907965183,0.0,-0.00879670213907957,0.009451226331293583,0.0,0.007397381588816643
0.008460255339741707,0.0,-0.009065642021596432,0.010554001666605473,0.0,0.007900070399045944
0.008337347768247128,0.0,-0.00929050613194704,0.009963192977011204,0.0,0.007892891764640808
0.008286652155220509,0.0,-0.008898208849132061,0.00930396281182766,0.0,0.007504850160330534
0.008003628812730312,0.0,-0.0093549694865942,0.010525960475206375,0.0,0.007391149643808603
0.008240796625614166,0.0,-0.010104712098836899,0.010192125104367733,0.0,0.007498036604374647
0.008158301003277302,0.0,-0.008921264670789242,0.009706422686576843,0.0,0.00790503341704607
0.008023024536669254,0.0,-0.008581777103245258,0.0101691335439682,0.0,0.007724242750555277
0.008607235737144947,0.0,-0.009492753073573112,0.00929797999560833,0.0,0.007512575481086969
0.008549668826162815,0.0,-0.009849684312939644,0.009343421086668968,0.0,0.007915566675364971
0.008266831748187542,0.0,-0.009398086927831173,0.00987030565738678,0.0,0.007630155887454748
0.008080773986876011,0.0,-0.009565968066453934,0.009585734456777573,0.0,0.007254309020936489
0.00887500960379839,0.0,-0.009047952480614185,0.009126560762524605,0.0,0.0069260927848517895
0.008137617260217667,0.0,-0.008890735916793346,0.009977125562727451,0.0,0.007220840081572533
0.008137617260217667,0.0,-0.008890735916793346,0.009977125562727451,0.0,0.007220840081572533
0.008019039407372475,0.0,-0.009819925762712955,0.009659938514232635,0.0,0.007874722592532635
0.008199337869882584,0.0,-0.009355668909847736,0.0097025316208601,0.0,0.007541454862803221
0.009034985676407814,0.0,-0.009798689745366573,0.010346990078687668,0.0,0.007290992420166731
0.008027982898056507,0.0,-0.008462056517601013,0.009448554366827011,0.0,0.007797348778694868
0.008900136686861515,0.0,-0.009646600112318993,0.01020229235291481,0.0,0.008011964149773121
0.008360535837709904,0.0,-0.010616314597427845,0.009767040610313416,0.0,0.007707500364631414
0.00795234739780426,0.0,-0.009392304345965385,0.00945321749895811,0.0,0.007622696924954653
0.008111118339002132,0.0,-0.008899216540157795,0.009435288608074188,0.0,0.0077354153618216515
0.008962306194007397,0.0,-0.009697547182440758,0.00967224407941103,0.0,0.007665987126529217
0.008368002250790596,0.0,-0.010172449983656406,0.009496299549937248,0.0,0.007568956818431616
0.008367509581148624,0.0,-0.008922949433326721,0.009541013278067112,0.0,0.008108810521662235
0.008407238870859146,0.0,-0.009915202856063843,0.00984182022511959,0.0,0.007858305238187313
0.008542791940271854,0.0,-0.00966370664536953,0.009704547002911568,0.0,0.00797669030725956
0.008468635380268097,0.0,-0.00932594109326601,0.009808603674173355,0.0,0.008125260472297668
0.008456717245280743,0.0,-0.009410670027136803,0.009376831352710724,0.0,0.007970676757395267
0.008387397974729538,0.0,-0.009104447439312935,0.008934622630476952,0.0,0.007563542574644089
0.00858345441520214,0.0,-0.00906245969235897,0.009968982078135014,0.0,0.0075156195089221
0.00797852873802185,0.0,-0.009189116768538952,0.010555590502917767,0.0,0.007614554837346077
0.008846970275044441,0.0,-0.009335982613265514,0.009932163171470165,0.0,0.008165737614035606
0.008226176723837852,0.0,-0.009302170015871525,0.00992895383387804,0.0,0.007962575182318687
0.008043899200856686,0.0,-0.008846776559948921,0.009943315759301186,0.0,0.007582324557006359
0.008820082992315292,0.0,-0.009587561711668968,0.009558826684951782,0.0,0.008040073327720165
0.008689348585903645,0.0,-0.009452387690544128,0.010226617567241192,0.0,0.008243829943239689
0.008689348585903645,0.0,-0.009452387690544128,0.010226617567241192,0.0,0.008243829943239689
0.00849083624780178,0.0,-0.010399541817605495,0.01011854037642479,0.0,0.007802241947501898
0.00849083624780178,0.0,-0.010399541817605495,0.01011854037642479,0.0,0.007802241947501898
0.00811427179723978,0.0,-0.008974317461252213,0.010114178992807865,0.0,0.008316176012158394
0.00811427179723978,0.0,-0.008974317461252213,0.010114178992807865,0.0,0.008316176012158394
0.010407221503555775,0.0,-0.009882687591016293,0.010142064653337002,0.0,0.007857605814933777
0.008077852427959442,0.0,-0.009649614803493023,0.00981675274670124,0.0,0.0077455006539821625
0.00798355508595705,0.0,-0.009887773543596268,0.009827062487602234,0.0,0.008179295808076859
0.008453416638076305,0.0,-0.009705196134746075,0.010220985859632492,0.0,0.008165854029357433
0.009091226384043694,0.0,-0.009703231044113636,0.010071675293147564,0.0,0.008777936920523643
0.00890505313873291,0.0,-0.010310286656022072,0.010352840647101402,0.0,0.008214585483074188
0.008797738701105118,0.0,-0.010284129530191422,0.010227720253169537,0.0,0.008113009855151176
0.00935028400272131,0.0,-0.00952973123639822,0.009779063053429127,0.0,0.00827077217400074
0.00929831899702549,0.0,-0.010411013849079609,0.010055361315608025,0.0,0.008966853842139244
0.008170826360583305,0.0,-0.00987434946000576,0.010333514772355556,0.0,0.00829597283154726
0.008630107156932354,0.0,-0.009540428407490253,0.009591931477189064,0.0,0.008069506846368313
0.008996978402137756,0.0,-0.010208875872194767,0.009364995174109936,0.0,0.008340086787939072
0.009027673862874508,0.0,-0.01066609751433134,0.010338956490159035,0.0,0.008770687505602837
0.009259725920855999,0.0,-0.009992582723498344,0.00929820816963911,0.0,0.00855316873639822
0.008946598507463932,0.0,-0.00996354315429926,0.009683633223176003,0.0,0.008770312182605267
0.009447222575545311,0.0,-0.010054942220449448,0.010400816798210144,0.0,0.00898770336061716
0.008810841478407383,0.0,-0.010528340004384518,0.00925097893923521,0.0,0.00883115641772747
0.008959506638348103,0.0,-0.011202622205018997,0.009686284698545933,0.0,0.008858288638293743
0.008671684190630913,0.0,-0.010309143923223019,0.01038969587534666,0.0,0.008887439966201782
0.008622011169791222,0.0,-0.010105626657605171,0.009474319405853748,0.0,0.008565155789256096
0.0091935433447361,0.0,-0.01063608843833208,0.010279647074639797,0.0,0.008524388074874878
0.0091935433447361,0.0,-0.01063608843833208,0.010279647074639797,0.0,0.008524388074874878
0.008892480283975601,0.0,-0.010278471745550632,0.01025879941880703,0.0,0.008515879511833191
0.009463287889957428,0.0,-0.010604350827634335,0.010309889912605286,0.0,0.008866584859788418
0.009185929782688618,0.0,-0.010500083677470684,0.01080234069377184,0.0,0.008614111691713333
0.008762896992266178,0.0,-0.010596716776490211,0.00967656634747982,0.0,0.008795755915343761
0.008470832370221615,0.0,-0.01053465437144041,0.010087117552757263,0.0,0.008380535989999771
0.008945816196501255,0.0,-0.009973564185202122,0.010207006707787514,0.0,0.008393521420657635
0.009097885340452194,0.0,-0.01068141683936119,0.009780101478099823,0.0,0.009768041782081127
0.009089038707315922,0.0,-0.010447591543197632,0.010090540163218975,0.0,0.008890406228601933
0.00896407663822174,0.0,-0.010319714434444904,0.010006215423345566,0.0,0.008479940705001354
0.00943711306899786,0.0,-0.010639205574989319,0.010281047783792019,3.375899950697203e-06,0.008967176079750061
0.008848598226904869,0.0,-0.010059908963739872,0.010219670832157135,2.204221516421967e-07,0.008951975964009762
0.009587802924215794,0.0,-0.01044344063848257,0.009690694510936737,1.4391991598472487e-08,0.008820980787277222
0.009518592618405819,0.0,-0.010921761393547058,0.009304719045758247,9.396942113326645e-10,0.008586455136537552
0.00904166977852583,0.0,-0.00986661296337843,0.00955234095454216,6.135531666062732e-11,0.008934150449931622
0.008966862224042416,0.0,-0.010550725273787975,0.009612901136279106,4.006063709927066e-12,0.008927198126912117
0.009509991854429245,0.0,-0.010835424065589905,0.009282111190259457,2.6156735197929715e-13,0.008762937970459461
0.009441145695745945,0.0,-0.010361798107624054,0.009666366502642632,1.707847798186786e-14,0.009430774487555027
0.009197442792356014,0.0,-0.010805416852235794,0.009998146444559097,1.1151025696760518e-15,0.009120323695242405
0.010274798609316349,3.7941292248433456e-05,-0.010119438171386719,0.010391861200332642,7.280822575868068e-17,0.00927978940308094
0.009089873172342777,0.00015058269491419196,-0.010311657562851906,0.009981777518987656,4.753856611179003e-18,0.00882506463676691
0.009089873172342777,0.00015058269491419196,-0.010311657562851906,0.009981777518987656,4.753856611179003e-18,0.00882506463676691
0.009344451129436493,0.0001425447262590751,-0.010297645814716816,0.01015914510935545,2.0266437148670622e-20,0.008716363459825516
0.009675992652773857,0.00013816848513670266,-0.010032042860984802,0.01003994420170784,1.3232535082600794e-21,0.008590459823608398
0.009389583952724934,0.00013405241770669818,-0.010602875612676144,0.00961355771869421,8.639899983503436e-23,0.009357753209769726
0.009355874732136726,0.00013017436140216887,-0.010514081455767155,0.009207393042743206,5.6412374188222715e-24,0.008978176862001419
0.009355874732136726,0.00013017436140216887,-0.010514081455767155,0.009207393042743206,5.6412374188222715e-24,0.008978176862001419
0.009190967306494713,0.00012305501149967313,-0.010393834672868252,0.010053128004074097,-0.00025394055410288274,0.008932432159781456
0.009190967306494713,0.00012305501149967313,-0.010393834672868252,0.010053128004074097,-0.00025394055410288274,0.008932432159781456
0.009514311328530312,0.00014000418013893068,-0.010511203669011593,0.009911286644637585,-0.0002791977603919804,0.00902594905346632
0.009467288851737976,0.0001364703057333827,-0.010598024353384972,0.00976883340626955,-0.00026821898063644767,0.008610864169895649
0.009617390111088753,0.0001331063685938716,-0.010103780776262283,0.009809790179133415,-0.0002557049156166613,0.009247178211808205
0.009726077318191528,0.00012990430695936084,-0.010875570587813854,0.01047915406525135,-0.00024415209190919995,0.009253011085093021
0.009687195532023907,0.00014770435518585145,-0.01028518658131361,0.009909842163324356,-0.0002698634343687445,0.009510286152362823
0.009807024151086807,0.00014459404337685555,-0.01003201212733984,0.009489183314144611,-0.00026104506105184555,0.009120253846049309
0.009562680497765541,0.00014135359378997236,-0.01070943009108305,0.01032654382288456,-0.00028419995214790106,0.00958489440381527
0.010044080205261707,0.00015124227502383292,-0.010556655004620552,0.009970445185899734,-0.00027551085804589093,0.009295201860368252
0.009807467460632324,0.0001545184786664322,-0.010143301449716091,0.009694628417491913,-0.0002654932613950223,0.009488620795309544
0.009394198656082153,0.00015135770081542432,-0.009825462475419044,0.01033009123057127,-0.00025605905102565885,0.009602767415344715
0.009372961707413197,0.00021632933930959553,-0.010470977984368801,0.010010605677962303,-0.0003166474343743175,0.009294208139181137
0.009975438937544823,0.00021484482567757368,-0.01095082052052021,0.009936953894793987,-0.00031744898296892643,0.009924480691552162
0.00993133895099163,0.00020516745280474424,-0.010625737719237804,0.01041232980787754,-0.0002979380660690367,0.00928263459354639
0.009622139856219292,0.00019622212857939303,-0.010157897137105465,0.010214706882834435,-0.0002795213367789984,0.00946513656526804
0.009787198156118393,0.00022510066628456116,-0.011371582746505737,0.010565095581114292,-0.0002631731331348419,0.009846611879765987
0.00984907615929842,0.00021657044999301434,-0.010509975254535675,0.010765575803816319,-0.00029491414898075163,0.009636323899030685
0.00963912345468998,0.00023100116231944412,-0.010062036104500294,0.010104239918291569,-0.00028250113246031106,0.00947238877415657
0.009502957575023174,0.00023374988813884556,-0.010832668282091618,0.010335090570151806,-0.00030740833608433604,0.009640028700232506
0.009695314802229404,0.00022553357121068984,-0.010641085915267467,0.010209168307483196,-0.0002981793659273535,0.009724400006234646
0.009434699080884457,0.00024758742074482143,-0.010617022402584553,0.010098302736878395,-0.0002850327582564205,0.009716142900288105
0.009732378646731377,0.00024051606305874884,-0.011072478257119656,0.010342509485781193,-0.00030149807571433485,0.009680929593741894
0.009693416766822338,0.0002327567635802552,-0.010456434451043606,0.010611061938107014,-0.00029807642567902803,0.009563902392983437
0.009338241070508957,0.0003524656349327415,-0.01047348603606224,0.010180648416280746,-0.00028679409297183156,0.009865115396678448
0.009972650557756424,0.00033183666528202593,-0.010753239504992962,0.010707392357289791,-0.0002771210565697402,0.009784802794456482
0.009628606028854847,0.00034698695526458323,-0.01080748625099659,0.009808521717786789,-0.0002942600112874061,0.009383143857121468
0.010359360836446285,0.00032611945061944425,-0.010752072557806969,0.010130271315574646,-0.00027640449116006494,0.009941188618540764
0.009767081588506699,0.0003566896775737405,-0.00997707899659872,0.009553583338856697,-0.00026041577802971005,0.01016112882643938
0.00942363403737545,0.0003394375671632588,-0.011857244186103344,0.009599828161299229,-0.00024616558221168816,0.010132309049367905
0.00942363403737545,0.0003394375671632588,-0.011857244186103344,0.009599828161299229,-0.00024616558221168816,0.010132309049367905
0.009726044721901417,0.00035225434112362564,-0.010583929717540741,0.010425732471048832,-0.0002737979812081903,0.009467731229960918
0.010104559361934662,0.00035000251955352724,-0.010157009586691856,0.010099313221871853,-0.0002658484736457467,0.009355936199426651
0.01017669029533863,0.00033618989982642233,-0.010651454329490662,0.010802415199577808,-0.0002537163090892136,0.009130772203207016
0.009407413192093372,0.0004150960885453969,-0.010652911849319935,0.010445556603372097,-0.00024234990996774286,0.009456752799451351
0.009531275369226933,0.00044844101648777723,-0.010943243280053139,0.009862974286079407,-0.00023194035748019814,0.00946243666112423
0.0093530947342515,0.0004217942478135228,-0.010563320480287075,0.010389040224254131,-0.00025692666531540453,0.009520307183265686
0.009777989238500595,0.00044871558202430606,-0.009933164343237877,0.01023432519286871,-0.0002490216284058988,0.010583162307739258
0.009967342019081116,0.0004255948297213763,-0.010765066370368004,0.00973854586482048,-0.00023969290487002581,0.009714302606880665
0.00940100010484457,0.00039874992216937244,-0.010720071382820606,0.010300030000507832,-0.00023091577168088406,0.009600642137229443
0.009582355618476868,0.0004278199630789459,-0.009935947135090828,0.009964974597096443,-0.00024629393010400236,0.010434335097670555
0.01037592627108097,0.00040449187508784235,-0.010782978497445583,0.009606693871319294,-0.00024533658870495856,0.010226259008049965
0.00945472251623869,0.00038636673707515,-0.010587730444967747,0.010783655568957329,-0.00023772216809447855,0.010283908806741238
0.010207775980234146,0.0004448496620170772,-0.010448341257870197,0.010839581489562988,-0.0002301537460880354,0.010778665542602539
0.010268975049257278,0.000483775045722723,-0.011175689287483692,0.010046832263469696,-0.0002230257960036397,0.010228310711681843
0.011184765957295895,0.0005123261362314224,-0.010015950538218021,0.010504988953471184,-0.00022232106130104512,0.010144507512450218
0.011702235788106918,0.0005263020866550505,-0.010222222656011581,0.009984620846807957,-0.00021425446902867407,0.010330679826438427
0.012078151106834412,0.0007422642665915191,-0.010613572783768177,0.009933706372976303,-0.00020467113063205034,0.010100306011736393
0.012023050338029861,0.0008629251387901604,-0.010728978551924229,0.010620485059916973,-0.00019577609782572836,0.010550281964242458
0.011461270041763783,0.0008406070992350578,-0.011155317537486553,0.010063921101391315,-0.00022257855744101107,0.010908306576311588
0.01137651689350605,0.000775710039306432,-0.01071898266673088,0.010251213796436787,-0.00021595619909930974,0.010429718531668186
0.012000329792499542,0.0007883230573497713,-0.010948617942631245,0.01076492015272379,-0.00023782087373547256,0.009973662905395031
0.01143616158515215,0.0007178521482273936,-0.011392442509531975,0.01053438801318407,-0.0002331513533135876,0.009882188402116299
0.01143616158515215,0.0007178521482273936,-0.011392442509531975,0.01053438801318407,-0.0002331513533135876,0.009882188402116299
0.011618136428296566,0.0007689945050515234,-0.011360622011125088,0.010357636958360672,-0.00023230772058013827,0.0104976836591959
0.011618136428296566,0.0007689945050515234,-0.011360622011125088,0.010357636958360672,-0.00023230772058013827,0.0104976836591959
0.012033436447381973,0.0007832670235075057,-0.01031112764030695,0.010187596082687378,-0.00023184868041425943,0.01066227164119482
0.011957059614360332,0.0008729927940294147,-0.011210381053388119,0.010485447011888027,-0.00022505987726617604,0.010414418764412403
0.012444968335330486,0.0009946248028427362,-0.010941892862319946,0.009698175825178623,-0.00021826646116096526,0.010436031967401505
0.01219910942018032,0.0009828335605561733,-0.010202912613749504,0.010106955654919147,-0.00021184566139709204,0.010226769372820854
0.011919083073735237,0.0009013988310471177,-0.01125748548656702,0.010644794441759586,-0.00020583244622685015,0.0106461551040411
0.012346708215773106,0.0009736030478961766,-0.010377323254942894,0.009965864010155201,-0.0002705161168705672,0.010910258628427982
0.011990348808467388,0.0009612232097424567,-0.010606496594846249,0.01031079888343811,-0.0002599304134491831,0.010944618843495846
0.012548702768981457,0.0009478965075686574,-0.011209480464458466,0.009951471351087093,-0.0002460426767356694,0.010938194580376148
0.01255362294614315,0.0009319898090325296,-0.010560666210949421,0.010558942332863808,-0.00023330382828135043,0.010675390250980854
0.013801776804029942,0.0008874933701008558,-0.011127928271889687,0.010515439324080944,-0.00022180234373081475,0.011137917637825012
0.01212933287024498,0.0009101546020247042,-0.010639655403792858,0.01064846757799387,-0.00021138053853064775,0.011265143752098083
0.01191050186753273,0.0009089047089219093,-0.010276340879499912,0.010535355657339096,-0.0002395126357441768,0.010473248548805714
0.012772009707987309,0.0009281282545998693,-0.011372326873242855,0.010677918791770935,-0.00023168760526459664,0.01081461738795042
0.012501716613769531,0.0012318827211856842,-0.011257127858698368,0.010082182474434376,-0.00022230840113479644,0.01046976912766695
0.0125513831153512,0.0011872637551277876,-0.011095165275037289,0.010419832542538643,-0.00021352630574256182,0.010589508339762688
0.01279668789356947,0.001145710120908916,-0.011476672254502773,0.010847759433090687,-0.00020540339755825698,0.011056188493967056
0.012602506205439568,0.0010810468811541796,-0.01089355256408453,0.010240375064313412,-0.00022862025070935488,0.010839814320206642
0.013055047951638699,0.001038857502862811,-0.01180971134454012,0.010488619096577168,-0.00023813526786398143,0.011524181813001633
0.013055047951638699,0.001038857502862811,-0.01180971134454012,0.010488619096577168,-0.00023813526786398143,0.011524181813001633
0.013151023536920547,0.0011818528873845935,-0.011528578586876392,0.009895818307995796,-0.00028626256971620023,0.01144316140562296
0.013151023536920547,0.0011818528873845935,-0.011528578586876392,0.009895818307995796,-0.00028626256971620023,0.01144316140562296
0.012396848760545254,0.0013296034885570407,-0.012006460689008236,0.01069189514964819,-0.0002844802802428603,0.011412171646952629
0.012968393974006176,0.0012968052178621292,-0.01104354951530695,0.010789751075208187,-0.0002685638901311904,0.01086796261370182
0.012588255107402802,0.0015965994680300355,-0.01217232458293438,0.010980049148201942,-0.00025349852512590587,0.010913941077888012
0.012636400759220123,0.0014272972475737333,-0.01186912041157484,0.01029767096042633,-0.00027025563758797944,0.011121122166514397
0.012702462263405323,0.0014316659653559327,-0.01241331733763218,0.009958122856914997,-0.0002600072184577584,0.011011892929673195
0.012872838415205479,0.0013359159929677844,-0.012094585224986076,0.010656996630132198,-0.0002482326526660472,0.010726005770266056
0.012342439033091068,0.0012856635730713606,-0.01181418914347887,0.010345048271119595,-0.00027418596437200904,0.01057302113622427
0.012542366981506348,0.0013133481843397021,-0.011625939980149269,0.010748174041509628,-0.00026505321147851646,0.011386899277567863
0.01238941214978695,0.001367767807096243,-0.011697573587298393,0.01074848510324955,-0.0002545001916587353,0.011228857561945915
0.013070434331893921,0.0016316438559442759,-0.01224814634770155,0.01044691912829876,-0.0002704660582821816,0.013013079762458801
0.012632790021598339,0.0015400632983073592,-0.01125324796885252,0.010359124280512333,-0.0002685279177967459,0.01099366694688797
0.012845431454479694,0.001467398600652814,-0.011671613901853561,0.01060893852263689,-0.00025938564795069396,0.01041338499635458
0.012903041206300259,0.0015029223868623376,-0.011840157210826874,0.009982929565012455,-0.00025128637207672,0.01115414872765541
0.012853013351559639,0.0015219294000416994,-0.011979358270764351,0.010244629345834255,-0.00028797361301258206,0.01228813361376524
0.013069072738289833,0.0014434761833399534,-0.01051298063248396,0.010154590010643005,-0.00032130509498529136,0.011576952412724495
0.013068552128970623,0.0014744728105142713,-0.011598983779549599,0.009866572916507721,-0.00033476034877821803,0.011368067935109138
0.013203009963035583,0.0014186582993716002,-0.012073998339474201,0.010889017954468727,-0.00034035174758173525,0.01132719125598669
0.012648114934563637,0.0015543949557468295,-0.011316124349832535,0.010700056329369545,-0.00032437260961160064,0.011774676851928234
0.013465180061757565,0.001615797053091228,-0.011989914812147617,0.009803668595850468,-0.0003496379649732262,0.011618375778198242
0.013035743497312069,0.0018456891411915421,-0.01164723839610815,0.01025577075779438,-0.00033780402736738324,0.011797891929745674
0.013270823284983635,0.0017833156744018197,-0.011333819478750229,0.010677937418222427,-0.0005467928131110966,0.011792541481554508
0.012915940955281258,0.0015797994565218687,-0.012388026341795921,0.010312220081686974,-0.0005886931903660297,0.0117245614528656
0.01313689909875393,0.001598284114152193,-0.01175415888428688,0.010858205147087574,-0.000542312627658248,0.012113519012928009
0.013423390686511993,0.0015447072219103575,-0.011824090965092182,0.010731820948421955,-0.0005698808818124235,0.011972003616392612
0.01328885555267334,0.0018619999755173922,-0.011730206198990345,0.010900162160396576,-0.0005271943518891931,0.011801859363913536
0.013274931348860264,0.0017774994485080242,-0.011639703996479511,0.010303426533937454,-0.0005467603332363069,0.011990322731435299
0.013214067555963993,0.0020622527226805687,-0.011973009444773197,0.009948116727173328,-0.0005157659179531038,0.011904262937605381
0.013214067555963993,0.0020622527226805687,-0.011973009444773197,0.009948116727173328,-0.0005157659179531038,0.011904262937605381
0.013935732655227184,0.0018743335967883468,-0.011222297325730324,0.0110727958381176,-0.0005387726705521345,0.012050827033817768
0.012914992868900299,0.0019131827866658568,-0.011591971851885319,0.010592271573841572,-0.0005002835532650352,0.012084952555596828
0.013739543035626411,0.001774771953932941,-0.01181597076356411,0.01056239940226078,-0.0005291273701004684,0.01161586306989193
0.013761931098997593,0.001768005546182394,-0.011423016898334026,0.011034039780497551,-0.0005235678399913013,0.01161369401961565
0.013761931098997593,0.001768005546182394,-0.011423016898334026,0.011034039780497551,-0.0005235678399913013,0.01161369401961565
0.012860924936830997,0.0018173810094594955,-0.011815611273050308,0.011015444993972778,-0.0005147609044797719,0.012028446421027184
0.012974172830581665,0.0020119205582886934,-0.011568925343453884,0.010944033972918987,-0.0005748242256231606,0.01180664636194706
0.013159957714378834,0.0018582382472231984,-0.01094120554625988,0.011339014396071434,-0.0005386456614360213,0.011837359517812729
0.013510267250239849,0.00204028794541955,-0.0115787573158741,0.010524949990212917,-0.0005659438902512193,0.011846432462334633
0.013344675302505493,0.001911258907057345,-0.011615538038313389,0.009823561646044254,-0.0005225169006735086,0.012440236285328865
0.013777419924736023,0.0020522535778582096,-0.01191315334290266,0.010272608138620853,-0.0005508734611794353,0.01177118718624115
0.013835698366165161,0.002256396459415555,-0.011745969764888287,0.010410680435597897,-0.0005740313208661973,0.012494239024817944
0.013709990307688713,0.002197656547650695,-0.01106651034206152,0.010700054466724396,-0.0005398592329584062,0.012656409293413162
0.01367676816880703,0.0022519200574606657,-0.011791384778916836,0.010964098386466503,-0.0005709868855774403,0.012489451095461845
0.01409614086151123,0.002223240677267313,-0.012200577184557915,0.010708136484026909,-0.0006062651518732309,0.012500433251261711
0.013557055965065956,0.0023675139527767897,-0.011668916791677475,0.010823952965438366,-0.0006134178256615996,0.012295132502913475
0.014573927968740463,0.0024661701172590256,-0.011458823457360268,0.011025995016098022,-0.0005978650297038257,0.012501738034188747
0.014091607183218002,0.0023560139816254377,-0.010998433455824852,0.010781357064843178,-0.0006060070591047406,0.012154332362115383
0.01426977664232254,0.0024416849482804537,-0.011825967580080032,0.010969391092658043,-0.0005791639559902251,0.012484810315072536
0.013688558712601662,0.0023022920358926058,-0.011510195210576057,0.011091922409832478,-0.0006897370330989361,0.012386128306388855
0.014614013023674488,0.0024287186097353697,-0.011916343122720718,0.011239723302423954,-0.0007222566055133939,0.01262429915368557
0.013728195801377296,0.0026098769158124924,-0.011288324370980263,0.011379828676581383,-0.0006442050798796117,0.012736465781927109
0.014324099756777287,0.0024067664053291082,-0.010882804170250893,0.011238649487495422,-0.0006459923461079597,0.012797117233276367
0.01382586732506752,0.0022646477445960045,-0.011458702385425568,0.010660848580300808,-0.0006054029799997807,0.013949647545814514
0.01437816210091114,0.0022878781892359257,-0.01116932649165392,0.010778753086924553,-0.0005917780217714608,0.012336531654000282
0.014240550808608532,0.0021666758693754673,-0.011207792907953262,0.011465546675026417,-0.0005789283895865083,0.01226523332297802
0.014861860312521458,0.0021083869505673647,-0.011673088185489178,0.011493964120745659,-0.0005379279609769583,0.011999609880149364
0.014861860312521458,0.0021083869505673647,-0.011673088185489178,0.011493964120745659,-0.0005379279609769583,0.011999609880149364
0.014319521375000477,0.0021246771793812513,-0.010993336327373981,0.011217612773180008,-0.0005034036585129797,0.012567427940666676
0.014549636282026768,0.0026985805016011,-0.011523326858878136,0.011146238073706627,-0.00045458212844096124,0.012903173454105854
0.014019040390849113,0.002699842443689704,-0.011601075530052185,0.011630023829638958,-0.00048407880240119994,0.012917778454720974
0.014712920412421227,0.002434277208521962,-0.011417110450565815,0.011238024570047855,-0.0004531067970674485,0.012951787561178207
0.014900431968271732,0.00222205463796854,-0.010882570408284664,0.011731770820915699,-0.00045291733113117516,0.012664303183555603
0.014077491126954556,0.0023518006782978773,-0.01123142708092928,0.012039105407893658,-0.00047496985644102097,0.012635072693228722
0.014900422655045986,0.0026913608890026808,-0.011786951683461666,0.011645498685538769,-0.00045226264046505094,0.012601915746927261
0.01474778912961483,0.0025452824775129557,-0.011302527971565723,0.011079528369009495,-0.0004661301209125668,0.012861959636211395
0.01497451588511467,0.002363440813496709,-0.011868025176227093,0.011286268010735512,-0.00045936371316201985,0.01297223661094904
0.01448985654860735,0.0017461280804127455,-0.01145594660192728,0.011558596044778824,-0.00045967611367814243,0.013174667954444885
0.015324887819588184,0.0006693419418297708,-0.012115491554141045,0.010936254635453224,-0.00045750211575068533,0.013394579291343689
0.015111555345356464,0.0004305556358303875,-0.011478159576654434,0.011176744475960732,-0.00048495837836526334,0.01344230491667986
0.015281613916158676,0.0006278428481891751,-0.0117094237357378,0.011276749894022942,-0.0004581389366649091,0.013321294449269772
0.014905622228980064,0.0006753586931154132,-0.012041342444717884,0.011221085675060749,-0.00042758070048876107,0.013199838809669018
0.015388237312436104,0.0009098033769987524,-0.011610538698732853,0.011727254837751389,-0.0004536387568805367,0.013076110742986202
0.015079347416758537,0.0016630814643576741,-0.012183095328509808,0.01066642627120018,-0.0004300074651837349,0.013364151120185852
0.015114566311240196,0.0017723273485898972,-0.01163202803581953,0.010752477683126926,-0.00040597940096631646,0.013184702955186367
0.015351870097219944,0.0015353306662291288,-0.01152257900685072,0.010990345850586891,-0.00042976366239599884,0.01322522945702076
0.015294943936169147,0.0013131641317158937,-0.012107442133128643,0.010808069258928299,-0.0004069728893227875,0.012949968688189983
0.015546723268926144,0.0011110096238553524,-0.012326506897807121,0.011576112359762192,-0.00037416123086586595,0.01354424748569727
0.015451418235898018,0.0009644590900279582,-0.012803532183170319,0.010644241236150265,-0.00034547902760095894,0.013826723210513592
0.015683526173233986,0.0007087045232765377,-0.012333550490438938,0.010720456950366497,-0.000380487646907568,0.013949460349977016
0.015464605763554573,0.0007312328671105206,-0.012256106361746788,0.011587259359657764,-0.00035906938137486577,0.0138359684497118
0.015844974666833878,0.0008211141685023904,-0.012108038179576397,0.011263345368206501,-0.00033690902637317777,0.013453599065542221
0.015179723501205444,0.001099234214052558,-0.012565787881612778,0.010657723993062973,-0.0003171288699377328,0.013257172890007496
0.01606474444270134,0.0012197763426229358,-0.012758344411849976,0.01083403080701828,-0.0003363341966178268,0.013293115422129631
0.01606474444270134,0.0012197763426229358,-0.012758344411849976,0.01083403080701828,-0.0003363341966178268,0.013293115422129631
0.015772730112075806,0.0010432658018544316,-0.01319812797009945,0.010656455531716347,-0.00031449124799109995,0.013325394131243229
0.01589624024927616,0.0010094819590449333,-0.012662101536989212,0.010573445819318295,-0.00032048291177488863,0.014187752269208431
0.016102727502584457,0.0009926845086738467,-0.012879892252385616,0.010163253173232079,-0.0003254069888498634,0.013821791857481003
0.015894301235675812,0.0009781359694898129,-0.01244290079921484,0.010832247324287891,-0.0003125472867395729,0.013786431401968002
0.015598631463944912,0.0009854910895228386,-0.012452072463929653,0.010239256545901299,-0.000299620907753706,0.013566968031227589
0.015779029577970505,0.0011161724105477333,-0.012693511322140694,0.010332553647458553,-0.0002892293268814683,0.01514142844825983
0.015576990321278572,0.001194557175040245,-0.011726987548172474,0.010375862941145897,-0.00027317958301864564,0.013455606065690517
0.016082504764199257,0.0013071269495412707,-0.012827175669372082,0.010408958420157433,-0.00025763254961930215,0.013405103236436844
0.015963546931743622,0.0013150351587682962,-0.011919780634343624,0.011059465818107128,-0.0002858566876966506,0.013784184120595455
0.016437148675322533,0.0013534576864913106,-0.012211933732032776,0.010851741768419743,-0.00027696453616954386,0.014271899126470089
0.016185864806175232,0.001350686070509255,-0.012290277518332005,0.010527867823839188,-0.0003047616919502616,0.014362643472850323
0.016404761001467705,0.0014058640226721764,-0.01226042490452528,0.011644979938864708,-0.0002932664647232741,0.014890199527144432
0.016521280631422997,0.001367727993056178,-0.011185654439032078,0.012840877287089825,-0.00031770701752975583,0.014750995673239231
0.016326453536748886,0.0015575679717585444,-0.01249137707054615,0.010788795538246632,-0.0004167041042819619,0.01458371989428997
0.01671903021633625,0.0015663644298911095,-0.013212602585554123,0.011433728970587254,-0.00047616130905225873,0.014370656572282314
0.01652827300131321,0.0014752884162589908,-0.011897508054971695,0.011990945786237717,-0.00047886298852972686,0.014639594592154026
0.01691424660384655,0.0015913505339995027,-0.012516246177256107,0.011605012230575085,-0.00047519439249299467,0.01446559652686119
0.016960561275482178,0.001515228534117341,-0.01248739380389452,0.011222721077501774,-0.0005021917750127614,0.014716814272105694
0.016682395711541176,0.0017707147635519505,-0.012634730897843838,0.01069917343556881,-0.00047321029705926776,0.01419199537485838
0.017303815111517906,0.0017084403662011027,-0.012710574083030224,0.01108559500426054,-0.0004950364236719906,0.014443994499742985
0.016622284427285194,0.0020051125902682543,-0.012005339376628399,0.010760524310171604,-0.0004701534635387361,0.014239226467907429
0.016941677778959274,0.001791746006347239,-0.01253556739538908,0.010922832414507866,-0.0004951045848429203,0.01435115560889244
0.016546374186873436,0.001726134680211544,-0.01227795984596014,0.010774081572890282,-0.0004940095823258162,0.014163968153297901
0.01631852239370346,0.0017238048603758216,-0.013069179840385914,0.010757961310446262,-0.0005254309508018196,0.014629076234996319
0.01631852239370346,0.0017238048603758216,-0.013069179840385914,0.010757961310446262,-0.0005254309508018196,0.014629076234996319
0.016490934416651726,0.0017627073684707284,-0.012680145911872387,0.011257325299084187,-0.0004885556409135461,0.014228370040655136
0.016590477898716927,0.0015736729837954044,-0.012898057699203491,0.011217562481760979,-0.0004486275720410049,0.014135373756289482
0.017407864332199097,0.0015992592088878155,-0.012515365146100521,0.01131320558488369,-0.00044849750702269375,0.014643310569226742
0.017170365899801254,0.0015037307748571038,-0.012832623906433582,0.01105454657226801,-0.00047064226237125695,0.014459348283708096
0.016942357644438744,0.0016510554123669863,-0.012525682337582111,0.01127853523939848,-0.000448397098807618,0.014832321554422379
0.017110642045736313,0.001643716124817729,-0.013367176987230778,0.011570623144507408,-0.00042253517312929034,0.014815009199082851
0.017802776768803596,0.0017997039249166846,-0.012396439909934998,0.011349078267812729,-0.0004403485800139606,0.014861944131553173
0.017707353457808495,0.0018231654539704323,-0.013256539590656757,0.011617209762334824,-0.0004076562181580812,0.014590015634894371
0.017932504415512085,0.0016822605393826962,-0.013186044059693813,0.011834793724119663,-0.0003741976688615978,0.015096253715455532
0.018494214862585068,0.0017555091762915254,-0.0130894361063838,0.01181815005838871,-0.00039620837196707726,0.014806654304265976
0.016682665795087814,0.0016493258299306035,-0.013134811073541641,0.011521193198859692,-0.0003837933181785047,0.01496538519859314
0.017604807391762733,0.001765754888765514,-0.012832200154662132,0.011096623726189137,-0.0003592790453694761,0.014770401641726494
0.01807752624154091,0.0016472002025693655,-0.013325395993888378,0.01145563367754221,-0.0003642328374553472,0.015324610285460949
0.018021980300545692,0.0016964867245405912,-0.012876302935183048,0.011644735001027584,-0.00036809747689403594,0.01670522429049015
0.018471669405698776,0.001721440814435482,-0.013225026428699493,0.01190053392201662,-0.00034932748530991375,0.014920473098754883
0.01829230971634388,0.001821761834435165,-0.013262588530778885,0.011830459348857403,-0.00036595421261154115,0.014359014108777046
0.018302688375115395,0.0018231553258374333,-0.013590944930911064,0.011166787706315517,-0.00035866652615368366,0.014948946423828602
0.01814187318086624,0.0019055637530982494,-0.012875295244157314,0.011472534388303757,-0.00034232495818287134,0.015242356806993484
0.01832926832139492,0.0018850219203159213,-0.013570960611104965,0.011655843816697598,-0.0003466835187282413,0.015790196135640144
0.018857883289456367,0.0019215195206925273,-0.013280320912599564,0.011865833774209023,-0.00032914598705247045,0.015702364966273308
0.0184803269803524,0.0019352285889908671,-0.01335484441369772,0.011894001625478268,-0.00036025443114340305,0.015311802737414837
0.01824040710926056,0.002115759300068021,-0.013380829244852066,0.011240256018936634,-0.00034453667467460036,0.01527474820613861
0.018596820533275604,0.0019599231891334057,-0.013256452977657318,0.011786210350692272,-0.0003710561722982675,0.015620687045156956
0.018596820533275604,0.0019599231891334057,-0.013256452977657318,0.011786210350692272,-0.0003710561722982675,0.015620687045156956
0.018411509692668915,0.002099168486893177,-0.013631980866193771,0.011980931274592876,-0.0003564763464964926,0.015702087432146072
0.01874593459069729,0.002004207344725728,-0.013292713090777397,0.011704771779477596,-0.00038270570803433657,0.01536861527711153
0.019096041098237038,0.0019971285946667194,-0.013572401367127895,0.01194649189710617,-0.00036619152524508536,0.015716055408120155
0.018550239503383636,0.0021397050004452467,-0.013453153893351555,0.012063940055668354,-0.00048201705794781446,0.01567469909787178
0.018550239503383636,0.0021397050004452467,-0.013453153893351555,0.012063940055668354,-0.00048201705794781446,0.01567469909787178
0.018775293603539467,0.0020127741154283285,-0.01383968349546194,0.011407449841499329,-0.0004788201185874641,0.015986483544111252
0.019166748970746994,0.001989090582355857,-0.013494282960891724,0.011806348338723183,-0.0004401181067805737,0.015796881169080734
0.01866263709962368,0.002008028794080019,-0.013782724738121033,0.012176429852843285,-0.0004654836666304618,0.015702996402978897
0.018368376418948174,0.002271883422508836,-0.013361547142267227,0.011804667301476002,-0.00044086904381401837,0.0157012902200222
0.019018562510609627,0.002081228420138359,-0.013773888349533081,0.011142020113766193,-0.0004634397628251463,0.015683049336075783
0.019040655344724655,0.002266319701448083,-0.013612262904644012,0.011534606106579304,-0.00044196791714057326,0.015885869041085243
0.018785253167152405,0.0020863402169197798,-0.013915267772972584,0.012057410553097725,-0.00041682759183458984,0.015820158645510674
0.01933627761900425,0.0022394824773073196,-0.013806403614580631,0.011976029723882675,-0.00041233550291508436,0.016102483496069908
0.019308408722281456,0.002180305775254965,-0.014115827158093452,0.01193379145115614,-0.00039499744889326394,0.015995889902114868
0.018831858411431313,0.002083418658003211,-0.013833644799888134,0.011602883227169514,-0.0003642380179371685,0.015910355374217033
0.019406316801905632,0.002087181666865945,-0.013585046865046024,0.012160415761172771,-0.00038652512012049556,0.015872515738010406
0.01948436163365841,0.002116585150361061,-0.013872448354959488,0.01197569165378809,-0.00037506152875721455,0.01612057536840439
0.019142521545290947,0.0025229984894394875,-0.01387285441160202,0.012068583630025387,-0.0003947668301407248,0.016264870762825012
0.01957632042467594,0.002497331937775016,-0.014180589467287064,0.012956465594470501,-0.00038420988130383193,0.016189265996217728
0.01947244442999363,0.002299194922670722,-0.013856053352355957,0.012248042039573193,-0.000362951192073524,0.016308287158608437
0.019170239567756653,0.002302685286849737,-0.01440517045557499,0.01279525924474001,-0.00036712968721985817,0.016767822206020355
0.01930171251296997,0.002098152181133628,-0.013744316063821316,0.011899007484316826,-0.00037034909473732114,0.015947483479976654
0.019387569278478622,0.002376767573878169,-0.014171818271279335,0.012264802120625973,-0.0003536026633810252,0.016064481809735298
0.019197160378098488,0.002742030192166567,-0.013901157304644585,0.012011840008199215,-0.0003371357743162662,0.01661686785519123
0.019197160378098488,0.002742030192166567,-0.013901157304644585,0.012011840008199215,-0.0003371357743162662,0.01661686785519123
0.020015479996800423,0.0026775887235999107,-0.01440357230603695,0.011896095238626003,-0.00034213325125165284,0.016948958858847618
0.019786614924669266,0.00255694892257452,-0.014553072862327099,0.011377105489373207,-0.0003183585067745298,0.017411645501852036
0.019599346444010735,0.0025995951145887375,-0.014167608693242073,0.01210728008300066,-0.00029733942938037217,0.01730235107243061
0.019599346444010735,0.0025995951145887375,-0.014167608693242073,0.01210728008300066,-0.00029733942938037217,0.01730235107243061
0.01906302571296692,0.002491386840119958,-0.014617853797972202,0.011981867253780365,-0.0003271257446613163,0.01773436740040779
0.01912473514676094,0.0029149893671274185,-0.01461504865437746,0.011568036861717701,-0.00031464669154956937,0.017003975808620453
0.019765285775065422,0.002932981587946415,-0.014398455619812012,0.011993574909865856,-0.0002821884991135448,0.016760870814323425
0.019402915611863136,0.0026553794741630554,-0.014604148454964161,0.0119602270424366,-0.0002681715996004641,0.017459869384765625
0.018960388377308846,0.002589775249361992,-0.014708434231579304,0.01180108729749918,-0.00029514182824641466,0.018235784024000168
0.01956142485141754,0.0027046818286180496,-0.014864340424537659,0.011557022109627724,-0.00028440766618587077,0.017766810953617096
0.019716888666152954,0.0026252453681081533,-0.015052460134029388,0.012106329202651978,-0.0002722949720919132,0.017111346125602722
0.019667459651827812,0.0027986776549369097,-0.015371808782219887,0.0115534458309412,-0.0002792463346850127,0.01730092614889145
0.019442493095993996,0.0025870094541460276,-0.015495318919420242,0.012004728429019451,-0.0002851814788300544,0.017324265092611313
0.019714130088686943,0.0024829290341585875,-0.01496934425085783,0.011838339269161224,-0.0002753829176072031,0.018086737021803856
0.019542796537280083,0.0026276258286088705,-0.015073833987116814,0.011904477141797543,-0.0002824013354256749,0.017924906685948372
0.01953255757689476,0.0027901872526854277,-0.014698374085128307,0.011929425410926342,-0.00027173443231731653,0.017624611034989357
0.019623078405857086,0.0029003287199884653,-0.01455584354698658,0.011255167424678802,-0.0002816583728417754,0.017423313111066818
0.01964833401143551,0.0027171331457793713,-0.01467538345605135,0.011992798186838627,-0.00028966812533326447,0.016841351985931396
0.018951797857880592,0.0027407591696828604,-0.015043400228023529,0.011567571200430393,-0.00027637346647679806,0.01703968085348606
0.02029000222682953,0.002726479899138212,-0.015312353149056435,0.011425458826124668,-0.00030381421674974263,0.017541415989398956
0.02023429609835148,0.0025828515645116568,-0.015313271433115005,0.011960756964981556,-0.00029237911803647876,0.017635025084018707
0.020000360906124115,0.0027095710393041372,-0.014273179695010185,0.011411693878471851,-0.00031420119921676815,0.018048329278826714
0.01993841677904129,0.0027942568995058537,-0.014226078987121582,0.012243160977959633,-0.0003056061395909637,0.017957940697669983
0.020032944157719612,0.0028973501175642014,-0.015112148597836494,0.011875012889504433,-0.00045495317317545414,0.018101464956998825
0.020174477249383926,0.0026747046504169703,-0.015697892755270004,0.012208095751702785,-0.0004987408174201846,0.01737554557621479
0.020712310448288918,0.0029077474027872086,-0.01470732782036066,0.012247527949512005,-0.0004760292067658156,0.017441803589463234
0.020521465688943863,0.0030631048139184713,-0.01496349461376667,0.01149604469537735,-0.0005067005986347795,0.01804322563111782
0.020602228119969368,0.0030757987406104803,-0.01429549790918827,0.012082850560545921,-0.00047309568617492914,0.018487541005015373
0.021264994516968727,0.0029767232481390238,-0.015326333232223988,0.012074822559952736,-0.00048654968850314617,0.01824742555618286
0.021404452621936798,0.0029539503157138824,-0.014058229513466358,0.01207695621997118,-0.0004693030787166208,0.018094440922141075
0.021404452621936798,0.0029539503157138824,-0.014058229513466358,0.01207695621997118,-0.0004693030787166208,0.018094440922141075
0.0208599716424942,0.002874140627682209,-0.014671162702143192,0.011826503090560436,-0.0004440928460098803,0.017502963542938232
0.020456364378333092,0.002855288330465555,-0.014433286152780056,0.011407972313463688,-0.0005144487367942929,0.01758161000907421
0.02135465107858181,0.0029124594293534756,-0.015364453196525574,0.011876692064106464,-0.0005067246966063976,0.0175736416131258
0.02106296457350254,0.003087457502260804,-0.015502129681408405,0.012724279426038265,-0.0004657450772356242,0.018129587173461914
0.021053118631243706,0.0030044647864997387,-0.014662869274616241,0.012684982270002365,-0.0004813179839402437,0.01780765876173973
0.02116374671459198,0.0033444908913224936,-0.014933137223124504,0.01272412110120058,-0.00046230325824581087,0.01735633984208107
0.02132396027445793,0.003209110349416733,-0.01480528712272644,0.012750962749123573,-0.00047700005234219134,0.017746059224009514
0.02123023010790348,0.0035320385359227657,-0.015237631276249886,0.012574958615005016,-0.0004606993170455098,0.018116194754838943
0.021275557577610016,0.0031589632853865623,-0.015518303960561752,0.012534967623651028,-0.0004338581638876349,0.018643159419298172
0.021459462121129036,0.0030413593631237745,-0.015363533049821854,0.012138277292251587,-0.00043941789772361517,0.018491877242922783
0.021489853039383888,0.002520917681977153,-0.015543351881206036,0.01267358846962452,-0.0004107204731553793,0.018129006028175354
0.021216921508312225,0.0022835559211671352,-0.014955812133848667,0.012607982382178307,-0.0004134864138904959,0.018321789801120758
0.021740218624472618,0.0020420036744326353,-0.015824483707547188,0.012661527842283249,-0.0004149847663938999,0.01858018897473812
0.02165907248854637,0.0020350904669612646,-0.015254540368914604,0.0126533517614007,-0.0004347902722656727,0.018530812114477158
0.021455960348248482,0.0025154773611575365,-0.015531742013990879,0.012773208320140839,-0.00042070928611792624,0.01904955692589283
0.021206075325608253,0.0027635921724140644,-0.01480151154100895,0.012903454713523388,-0.00044777229777537286,0.018928252160549164
0.021715626120567322,0.002729818457737565,-0.01578517258167267,0.012637135572731495,-0.0004276433028280735,0.01871192641556263
0.021899444982409477,0.0027164185885339975,-0.014873478561639786,0.013057127594947815,-0.0005234067793935537,0.018303873017430305
0.021845931187272072,0.002422095276415348,-0.015247102826833725,0.012267540208995342,-0.0005595558905042708,0.017919210717082024
0.022004561498761177,0.0022384263575077057,-0.015287140384316444,0.012466090731322765,-0.0005177067359909415,0.019090814515948296
0.021967178210616112,0.002221334259957075,-0.015758436173200607,0.01268251333385706,-0.0005410361336544156,0.01837960258126259
0.022798258811235428,0.0020146802999079227,-0.015416123904287815,0.012233509682118893,-0.0005418610526248813,0.01858128421008587
0.022937888279557228,0.0021415594965219498,-0.015478082001209259,0.012416633777320385,-0.0005342260701581836,0.01876666024327278
0.02224198915064335,0.002403596416115761,-0.01533113606274128,0.012094655074179173,-0.0004992798203602433,0.01906524784862995
0.021482689306139946,0.0023547105956822634,-0.015307665802538395,0.012568867765367031,-0.0005120794521644711,0.01926182582974434
0.0223604217171669,0.0024298925418406725,-0.015625018626451492,0.012541810981929302,-0.0004990774905309081,0.01978551223874092
0.02307491935789585,0.0025084682274609804,-0.015407934784889221,0.012520425021648407,-0.0005295588634908199,0.019872788339853287
0.0230115856975317,0.0025757874827831984,-0.015775376930832863,0.012299726717174053,-0.0004919929197058082,0.01918719708919525
0.02231772430241108,0.0026113921776413918,-0.01521224994212389,0.012233751825988293,-0.0005164180765859783,0.019444914534687996
0.02298184484243393,0.0024711545556783676,-0.01565132662653923,0.0127419987693429,-0.0005191222298890352,0.018838755786418915
0.02339080348610878,0.0023536428343504667,-0.015477035194635391,0.012371918186545372,-0.0005133936647325754,0.018811233341693878
0.02335829846560955,0.002127883955836296,-0.016127418726682663,0.012745994143188,-0.0005460667889565229,0.01971760392189026
0.022776231169700623,0.002749516163021326,-0.016435880213975906,0.012730050832033157,-0.0005363739910535514,0.020722635090351105
0.02224145084619522,0.002521421993151307,-0.015622115693986416,0.012736708857119083,-0.0005265298532322049,0.020356599241495132
0.023055801168084145,0.002579134190455079,-0.015255600214004517,0.01283776294440031,-0.0005515273078344762,0.02019977569580078
0.023841213434934616,0.0022931222338229418,-0.01559580210596323,0.013004050590097904,-0.000515927909873426,0.019873812794685364
0.023841213434934616,0.0022931222338229418,-0.01559580210596323,0.013004050590097904,-0.000515927909873426,0.019873812794685364
0.02317049540579319,0.00224582152441144,-0.01552911289036274,0.013054167851805687,-0.00047742921742610633,0.020114971324801445
0.023193221539258957,0.0026458147913217545,-0.01655646786093712,0.012866963632404804,-0.000502761104144156,0.02070200815796852
0.023419272154569626,0.0029761430341750383,-0.016143081709742546,0.012777527794241905,-0.0004773654800374061,0.020735476166009903
0.023628873750567436,0.0030171636026352644,-0.016146497800946236,0.013477162458002567,-0.0004918065387755632,0.02024884894490242
0.023729758337140083,0.002845334354788065,-0.014845394529402256,0.013239202089607716,-0.000524281058460474,0.020174933597445488
0.023772183805704117,0.0029125555884093046,-0.015913156792521477,0.013501910492777824,-0.0004876372986473143,0.02002847008407116
0.023611154407262802,0.0028704481665045023,-0.015987465158104897,0.013193166814744473,-0.00044786001672036946,0.02004043571650982
0.02327536977827549,0.002545119496062398,-0.016894139349460602,0.013119107112288475,-0.00047305485350079834,0.019935935735702515
0.02361576072871685,0.002660198137164116,-0.01673058792948723,0.012824680656194687,-0.00044753969996236265,0.020826295018196106
0.024109821766614914,0.003069160506129265,-0.016214819625020027,0.012822942808270454,-0.0004183346754871309,0.019278721883893013
0.023988094180822372,0.003139139385893941,-0.016927191987633705,0.01280211005359888,-0.00044444770901463926,0.019339289516210556
0.023959677666425705,0.0030102881137281656,-0.015934601426124573,0.012809732928872108,-0.0004218026006128639,0.020179495215415955
0.024073652923107147,0.0027624652720987797,-0.016300467774271965,0.013106230646371841,-0.0004222966672386974,0.020336788147687912
0.023829488083720207,0.002847396768629551,-0.015957485884428024,0.013083068653941154,-0.00040784728480502963,0.020186064764857292
0.02426915057003498,0.0029186371248215437,-0.016881799325346947,0.013559740036725998,-0.0004116806958336383,0.020036600530147552
0.02428961917757988,0.0034576491452753544,-0.017312824726104736,0.012921488843858242,-0.0004133112670388073,0.020270949229598045
0.024336770176887512,0.0034773198422044516,-0.016549108549952507,0.013312631286680698,-0.00043317757081240416,0.020030416548252106
0.024226412177085876,0.0034095929004251957,-0.01685214787721634,0.012725518085062504,-0.0004192408232484013,0.020407304167747498
0.024139633402228355,0.0029982600826770067,-0.016180213540792465,0.013089767657220364,-0.00043538931640796363,0.020587773993611336
0.02412249706685543,0.0030278251506388187,-0.01629294455051422,0.01291817519813776,-0.00042285260860808194,0.020444799214601517
0.023970089852809906,0.0031243199482560158,-0.016442785039544106,0.013389273546636105,-0.00040282434201799333,0.02025921270251274
0.023970089852809906,0.0031243199482560158,-0.016442785039544106,0.013389273546636105,-0.00040282434201799333,0.02025921270251274
0.024101251736283302,0.002964279381558299,-0.01669631525874138,0.013488205149769783,-0.00047857488971203566,0.020495116710662842
0.024101251736283302,0.002964279381558299,-0.01669631525874138,0.013488205149769783,-0.00047857488971203566,0.020495116710662842
0.024101251736283302,0.002964279381558299,-0.01669631525874138,0.013488205149769783,-0.00047857488971203566,0.020495116710662842
0.024552326649427414,0.0034688895102590322,-0.01676705852150917,0.013063875027000904,-0.0004999936209060252,0.02026290073990822
0.024552326649427414,0.0034688895102590322,-0.01676705852150917,0.013063875027000904,-0.0004999936209060252,0.02026290073990822
0.024655044078826904,0.003250197507441044,-0.01696615107357502,0.013487225398421288,-0.00047465154784731567,0.02041839435696602
0.024232298135757446,0.003154940437525511,-0.016574108973145485,0.013037950731813908,-0.0005284358048811555,0.020883357152342796
0.023983122780919075,0.0033070254139602184,-0.01703679747879505,0.013238111510872841,-0.0005474734352901578,0.021348459646105766
0.025263696908950806,0.003126932308077812,-0.016263455152511597,0.01427404209971428,-0.0005379939684644341,0.021283641457557678
0.024898534640669823,0.0032095364294946194,-0.016648832708597183,0.013539446517825127,-0.0005680322065018117,0.02103087306022644
0.02420824207365513,0.0032632299698889256,-0.016304733231663704,0.013419878669083118,-0.0005257559241726995,0.021041691303253174
0.024882670491933823,0.0034268794115632772,-0.016603656113147736,0.013687985949218273,-0.0005191402742639184,0.021295230835676193
0.02498268149793148,0.003403940936550498,-0.016596633940935135,0.013359105214476585,-0.0005161718581803143,0.022296005859971046
0.02494863048195839,0.003467294853180647,-0.01636730320751667,0.01224002055823803,-0.0006657806225121021,0.02085292898118496
0.025242675095796585,0.0036367098800837994,-0.017213165760040283,0.01289331540465355,-0.0007007207605056465,0.020621001720428467
0.024221278727054596,0.003297379706054926,-0.016501981765031815,0.013174930587410927,-0.0006761016556993127,0.020742399618029594
0.023944418877363205,0.0034757729154080153,-0.01648239977657795,0.014059248380362988,-0.0006135122966952622,0.020857278257608414
0.024977853521704674,0.003723634872585535,-0.016581913456320763,0.013394157402217388,-0.0005592061206698418,0.02143915183842182
0.024952780455350876,0.0033222248312085867,-0.016661684960126877,0.014121263287961483,-0.0005490838666446507,0.021931374445557594
0.0249651912599802,0.0032821870408952236,-0.016881706193089485,0.01368158683180809,-0.0005402019596658647,0.021579494699835777
0.025024743750691414,0.003294649999588728,-0.016404181718826294,0.013471348211169243,-0.0005044539575465024,0.021439438685774803
0.024567896500229836,0.0035111873876303434,-0.016621608287096024,0.012944581918418407,-0.0004862977657467127,0.020506976172327995
0.025042453780770302,0.0036952702794224024,-0.01602788455784321,0.013345109298825264,-0.0004526521952357143,0.020835980772972107
0.025294238701462746,0.0037141775246709585,-0.016501206904649734,0.01362124364823103,-0.0004121520323678851,0.02133682183921337
0.025235898792743683,0.0032920234370976686,-0.01645467057824135,0.013486243784427643,-0.0004427010426297784,0.02145916409790516
0.024715621024370193,0.003075704211369157,-0.016753286123275757,0.013600260950624943,-0.00041733181569725275,0.021190600469708443
0.02542906068265438,0.0035361009649932384,-0.016956115141510963,0.013540687039494514,-0.0004480222996789962,0.021222567185759544
0.02542906068265438,0.0035361009649932384,-0.016956115141510963,0.013540687039494514,-0.0004480222996789962,0.021222567185759544
0.02523745596408844,0.003331500804051757,-0.01645316742360592,0.014262891374528408,-0.0004663311701733619,0.021219557151198387
0.02563522383570671,0.003247615182772279,-0.01668504811823368,0.014035746455192566,-0.0004511912411544472,0.021930402144789696
0.025657644495368004,0.0032031219452619553,-0.016441404819488525,0.014070102944970131,-0.00042544238385744393,0.022204788401722908
0.02573363296687603,0.00312021910212934,-0.016600370407104492,0.013712038286030293,-0.00044110207818448544,0.021668557077646255
0.02572341077029705,0.0032441120129078627,-0.016376400366425514,0.013783639296889305,-0.00040144938975572586,0.020895151421427727
0.02533772960305214,0.0030764471739530563,-0.016675660386681557,0.014163530431687832,-0.00043719381210394204,0.021052436903119087
0.025286424905061722,0.003051368985325098,-0.016292082145810127,0.013985160738229752,-0.0004085726395715028,0.021688910201191902
0.025675375014543533,0.0031520340126007795,-0.016542354598641396,0.014169719070196152,-0.00043898995500057936,0.02178213931620121
0.026012593880295753,0.003083757823333144,-0.01653970405459404,0.013680193573236465,-0.00041399153997190297,0.021978644654154778
0.025929680094122887,0.0030694452580064535,-0.01695106364786625,0.013723921030759811,-0.0003886886697728187,0.02213362418115139
0.025996943935751915,0.0031892068218439817,-0.01689465530216694,0.013008436188101768,-0.000411343207815662,0.021910985931754112
0.026621198281645775,0.002894837409257889,-0.0168759822845459,0.014014937914907932,-0.00039496037061326206,0.02159239910542965
0.026361068710684776,0.0030485494062304497,-0.01741015911102295,0.013687936589121819,-0.0003747978189494461,0.022413112223148346
0.02599969692528248,0.0034092324785888195,-0.017133479937911034,0.014023372903466225,-0.0003927327925339341,0.021511569619178772
0.026202239096164703,0.0032734940759837627,-0.017225539311766624,0.013688561506569386,-0.00037317126407288015,0.021731432527303696
0.026460688561201096,0.0030726378317922354,-0.017244460061192513,0.01378017570823431,-0.00037883775075897574,0.0216715969145298
0.026360629126429558,0.00301911449059844,-0.016243403777480125,0.013586172834038734,-0.0003826163010671735,0.021893227472901344
0.025735260918736458,0.003090939251706004,-0.01763404719531536,0.01393811497837305,-0.0003882578748743981,0.022303128615021706
0.02677311934530735,0.0032999380491673946,-0.01757376827299595,0.013822170905768871,-0.00039101310539990664,0.02231311798095703
0.02705799974501133,0.003386180615052581,-0.017430467531085014,0.013867385685443878,-0.0004087455745320767,0.022092366591095924
0.026976754888892174,0.0031599116045981646,-0.018259651958942413,0.013876650482416153,-0.00039841484976932406,0.02212216518819332
0.02703491970896721,0.0030760441441088915,-0.017625201493501663,0.013670718297362328,-0.00037859726580791175,0.022419003769755363
0.026452763006091118,0.003290972439572215,-0.01784319244325161,0.013926886022090912,-0.00046665751142427325,0.022458625957369804
0.025758391246199608,0.003638193476945162,-0.017167195677757263,0.01363352220505476,-0.0005045742145739496,0.02247084677219391
0.026735801249742508,0.0031966690439730883,-0.01747567020356655,0.013720904476940632,-0.0005091428174637258,0.02231716178357601
0.027314797043800354,0.0031087850220501423,-0.017694944515824318,0.013215770944952965,-0.0005036223446950316,0.022556960582733154
0.02665611542761326,0.003111800877377391,-0.017501680180430412,0.013724111951887608,-0.00046845866017974913,0.022475630044937134
0.02665611542761326,0.003111800877377391,-0.017501680180430412,0.013724111951887608,-0.00046845866017974913,0.022475630044937134
0.026805981993675232,0.0032981557305902243,-0.01800401322543621,0.013991241343319416,-0.0004819692694582045,0.022502202540636063
0.027871442958712578,0.0031629777513444424,-0.017675498500466347,0.01449600514024496,-0.0004651024646591395,0.02339703030884266
0.026993192732334137,0.003489174647256732,-0.017471469938755035,0.013996600173413754,-0.00043774687219411135,0.02325248159468174
0.026785992085933685,0.0032875980250537395,-0.01806555688381195,0.014225841499865055,-0.0004138065851293504,0.02310885861515999
0.02661157213151455,0.0034165678080171347,-0.018281683325767517,0.014057931490242481,-0.0004176856018602848,0.022318018600344658
0.027357110753655434,0.003339276649057865,-0.018343821167945862,0.013654263690114021,-0.0004484476812649518,0.02247283048927784
0.02717362344264984,0.0031514798756688833,-0.01786854676902294,0.01425347663462162,-0.0004223462601657957,0.023397713899612427
0.02732117846608162,0.003286498598754406,-0.018351195380091667,0.014172581024467945,-0.0004239509580656886,0.023156657814979553
0.027622729539871216,0.0031920785550028086,-0.017107823863625526,0.014831292442977428,-0.00042444595601409674,0.023059304803609848
0.02777680568397045,0.003444031346589327,-0.017371587455272675,0.014162213541567326,-0.00039942836156114936,0.02328367903828621
0.027699990198016167,0.0036242858041077852,-0.017879044637084007,0.014604846946895123,-0.00042213566484861076,0.023528000339865685
0.027524171397089958,0.0037196234334260225,-0.01769471913576126,0.013739524409174919,-0.0004047528200317174,0.022830236703157425
0.0276136863976717,0.003369318088516593,-0.01827714964747429,0.013580034486949444,-0.0004353865806479007,0.02212778851389885
0.027162527665495872,0.0032959484960883856,-0.017887212336063385,0.013499710708856583,-0.0004141876706853509,0.02218005619943142
0.027407865971326828,0.0033259615302085876,-0.017408136278390884,0.01421852596104145,-0.0004510524740908295,0.022509630769491196
0.0275337602943182,0.003347995225340128,-0.01768452301621437,0.01425057090818882,-0.00047209372860379517,0.021783627569675446
0.027421817183494568,0.0035461781080812216,-0.0170097965747118,0.014537322334945202,-0.0004543258692137897,0.022798867896199226
0.02771972119808197,0.0034740690607577562,-0.018117690458893776,0.01438082754611969,-0.0004811860853806138,0.023760706186294556
0.025973154231905937,0.0034822188317775726,-0.018328461796045303,0.014406619593501091,-0.0004560072848107666,0.023483477532863617
0.027700599282979965,0.0036216701846569777,-0.017462465912103653,0.013838345184922218,-0.00060556415701285,0.022787263616919518
0.028239160776138306,0.0037657530046999454,-0.017542868852615356,0.014709358103573322,-0.0006472206441685557,0.02266278676688671
0.027901791036128998,0.00378524255938828,-0.017642129212617874,0.014796871691942215,-0.0006314395577646792,0.02318563498556614
0.02738599106669426,0.0033363678958266973,-0.017818806692957878,0.015138007700443268,-0.0006125372601673007,0.023404203355312347
0.027362670749425888,0.002995357383042574,-0.01791341044008732,0.014239024370908737,-0.0005994518869556487,0.023526551201939583
0.027337295934557915,0.003115409053862095,-0.017391370609402657,0.014684355817735195,-0.0005859255907125771,0.02357151173055172
0.028682952746748924,0.0033204734791070223,-0.017754627391695976,0.014505813829600811,-0.0005949501064606011,0.02353210747241974
0.028061257675290108,0.003325811820104718,-0.01749022677540779,0.015543856658041477,-0.0005705339717678726,0.023273533210158348
0.028495587408542633,0.0034199540968984365,-0.017471320927143097,0.014407733455300331,-0.0006036274135112762,0.02405589260160923
0.028495587408542633,0.0034199540968984365,-0.017471320927143097,0.014407733455300331,-0.0006036274135112762,0.02405589260160923
0.027018850669264793,0.0031761955469846725,-0.018301669508218765,0.016093660145998,-0.0005926503799855709,0.024028079584240913
0.027400154620409012,0.0034257827792316675,-0.017453528940677643,0.013863962143659592,-0.000578299630433321,0.023825203999876976
0.028450384736061096,0.0031976921018213034,-0.017911149188876152,0.014368726871907711,-0.000597598438616842,0.024142267182469368
0.02816648781299591,0.0031410532537847757,-0.018177779391407967,0.014756448566913605,-0.0005601642187684774,0.023769240826368332
0.028199832886457443,0.0032153516076505184,-0.017580723389983177,0.015352738089859486,-0.0006115394062362611,0.023464344441890717
0.029012329876422882,0.003462763037532568,-0.01782190054655075,0.014894331805408001,-0.0006620747735723853,0.0237551461905241
0.028918413445353508,0.003732292680069804,-0.01841081865131855,0.014856341294944286,-0.000662605743855238,0.024046219885349274
0.02820177748799324,0.0038630682975053787,-0.018383800983428955,0.015301921404898167,-0.0006434495444409549,0.024334732443094254
0.02838120050728321,0.0034221101086586714,-0.017851775512099266,0.015005137771368027,-0.0007634850917384028,0.024146396666765213
0.029120389372110367,0.0035723536275327206,-0.018694724887609482,0.015409358777105808,-0.0007936221081763506,0.024170303717255592
0.028998833149671555,0.003751064883545041,-0.019457457587122917,0.015085289254784584,-0.0008082333952188492,0.02378418855369091
0.02913866937160492,0.0037601222284138203,-0.018310416489839554,0.014757245779037476,-0.000805374700576067,0.024099500849843025
0.029120657593011856,0.003331569954752922,-0.01895180158317089,0.01459189411252737,-0.0007501583895646036,0.024762578308582306
0.029077524319291115,0.0033544686157256365,-0.018672799691557884,0.014708200469613075,-0.0008057489176280797,0.02488364279270172
0.02909860573709011,0.0035755462013185024,-0.01827041618525982,0.014840595424175262,-0.0008220777381211519,0.024930329993367195
0.027893727645277977,0.003749404801055789,-0.01861220970749855,0.014836188405752182,-0.0008325109374709427,0.024591363966464996
0.02935444936156273,0.0041797407902777195,-0.018598871305584908,0.015048125758767128,-0.0008194409892894328,0.024620505049824715
0.03008614480495453,0.00413522170856595,-0.018821468576788902,0.015024291351437569,-0.0007572901668027043,0.025037048384547234
0.02978258766233921,0.004063142463564873,-0.019052909687161446,0.014665428549051285,-0.0007538315840065479,0.024928919970989227
0.029581721872091293,0.003923692274838686,-0.019111808389425278,0.014654096215963364,-0.0007528329151682556,0.025032149627804756
0.02943221665918827,0.0038046794943511486,-0.018936537206172943,0.014875447377562523,-0.000741593015845865,0.02550002560019493
0.02954607643187046,0.004360952880233526,-0.01987667754292488,0.014491165988147259,-0.0007087804260663688,0.024060290306806564
0.02975604124367237,0.004203661810606718,-0.019254591315984726,0.014801351353526115,-0.0007068523555062711,0.024203352630138397
0.030110083520412445,0.004323829431086779,-0.019166424870491028,0.014502043835818768,-0.0006625279784202576,0.025445763021707535
0.02978060580790043,0.004292917903512716,-0.01971862092614174,0.015045593492686749,-0.0006615183083340526,0.02598859742283821
0.03017546609044075,0.004453551489859819,-0.019232280552387238,0.015063908882439137,-0.0005866907886229455,0.024860426783561707
0.030548052862286568,0.004612525459378958,-0.01912422478199005,0.015580914914608002,-0.0006158211617730558,0.024204572662711143
0.030308812856674194,0.004252844024449587,-0.01975715346634388,0.015145499259233475,-0.0006264348048716784,0.025042448192834854
0.030308812856674194,0.004252844024449587,-0.01975715346634388,0.015145499259233475,-0.0006264348048716784,0.025042448192834854
0.03064546175301075,0.004043771419674158,-0.020131809636950493,0.015463121235370636,-0.0005891393520869315,0.025857649743556976
0.030978893861174583,0.004449706990271807,-0.019824843853712082,0.01561739668250084,-0.0005671234684996307,0.024957560002803802
0.030978893861174583,0.004449706990271807,-0.019824843853712082,0.01561739668250084,-0.0005671234684996307,0.024957560002803802
0.030831564217805862,0.004755549132823944,-0.019916268065571785,0.015445134602487087,-0.0005871669272892177,0.02662920020520687
0.03134900704026222,0.004426721949130297,-0.019776759669184685,0.015112104825675488,-0.0005671316757798195,0.02527719922363758
0.030953213572502136,0.00444484269246459,-0.020041871815919876,0.014946765266358852,-0.0005942130810581148,0.02458985522389412
0.03084832802414894,0.0041114771738648415,-0.01969638466835022,0.015135803259909153,-0.0006051886011846364,0.025159334763884544
0.0316251739859581,0.0043455567210912704,-0.019899146631360054,0.015300420112907887,-0.0005749315023422241,0.02601761929690838
0.03246307000517845,0.00431358115747571,-0.02014748938381672,0.015394537709653378,-0.0006342797423712909,0.02620314061641693
0.03160400688648224,0.004490826278924942,-0.019979611039161682,0.015379787422716618,-0.0005876622744835913,0.02594192884862423
0.030598049983382225,0.004478507209569216,-0.019784491509199142,0.01579560711979866,-0.0006184708327054977,0.025817913934588432
0.032257311046123505,0.0042273360304534435,-0.02046375162899494,0.015209070406854153,-0.0006289617158472538,0.02601463533937931
0.03198987618088722,0.004340627696365118,-0.020394284278154373,0.015344462357461452,-0.0006321450346149504,0.026045288890600204
0.03149793669581413,0.004139985889196396,-0.019870970398187637,0.014954951591789722,-0.0006163551588542759,0.025645969435572624
0.03258083388209343,0.00401889206841588,-0.020412977784872055,0.015515950508415699,-0.0006647567497566342,0.02603599987924099
0.03218846395611763,0.004481332842260599,-0.02028820477426052,0.015071908012032509,-0.000699025287758559,0.025855498388409615
0.03161592409014702,0.004649545531719923,-0.020090656355023384,0.01568896695971489,-0.0006448361091315746,0.026021912693977356
0.030950678512454033,0.004530187696218491,-0.020170729607343674,0.01523299515247345,-0.000660443096421659,0.0265240129083395
0.03251902014017105,0.0044208406470716,-0.020246557891368866,0.01587800122797489,-0.0006079841405153275,0.026349959895014763
0.03261275216937065,0.004362538456916809,-0.02012808248400688,0.015554997138679028,-0.0006234316970221698,0.026039015501737595
0.032705362886190414,0.00437965290620923,-0.020222347229719162,0.015615616925060749,-0.0005823122337460518,0.026149654760956764
0.03278768062591553,0.004225497134029865,-0.02062513865530491,0.015553169883787632,-0.0005940109840594232,0.02635548822581768
0.03229156509041786,0.0044656116515398026,-0.020563505589962006,0.01555040292441845,-0.0005954366060905159,0.026048077270388603
0.0323420949280262,0.004238770343363285,-0.020082969218492508,0.015585696324706078,-0.0005793908494524658,0.026628820225596428
0.03264080733060837,0.00436939112842083,-0.020335478708148003,0.015599575825035572,-0.0006015226244926453,0.02663354203104973
0.03241434320807457,0.004685923457145691,-0.0206109918653965,0.016410592943429947,-0.0006171322311274707,0.026646554470062256
0.032479193061590195,0.0041923923417925835,-0.01983344368636608,0.01614891178905964,-0.0006969497189857066,0.026172775775194168
0.03281004726886749,0.003828697372227907,-0.01965283788740635,0.016698308289051056,-0.000763330259360373,0.026617975905537605
0.03281004726886749,0.003828697372227907,-0.01965283788740635,0.016698308289051056,-0.000763330259360373,0.026617975905537605
0.032951172441244125,0.004188877996057272,-0.02014196291565895,0.015443069860339165,-0.0007359260343946517,0.02759971283376217
0.03316788002848625,0.0044311718083918095,-0.019856944680213928,0.01492085587233305,-0.0007402781629934907,0.026721157133579254
0.03239511698484421,0.004540022928267717,-0.01994653418660164,0.015333810821175575,-0.0008126157918013632,0.02590244635939598
0.030729055404663086,0.004601780790835619,-0.020092887803912163,0.01569894328713417,-0.000853537698276341,0.0255485437810421
0.03368530049920082,0.004172293934971094,-0.01972181163728237,0.016750041395425797,-0.000861820881254971,0.02674981579184532
0.034787070006132126,0.0039506396278738976,-0.020328789949417114,0.01599552109837532,-0.0008522554417140782,0.026867777109146118
0.034108757972717285,0.0038298568688333035,-0.020296066999435425,0.014683322049677372,-0.0008987190085463226,0.02702947147190571
0.032596655189991,0.004312490578740835,-0.019831420853734016,0.015590963885188103,-0.0009275442571379244,0.02759079821407795
0.03278440609574318,0.004081106744706631,-0.020108673721551895,0.01582503691315651,-0.0008571186335757375,0.027362525463104248
0.03415446728467941,0.004450597334653139,-0.020226728171110153,0.016684414818882942,-0.0008584713796153665,0.0271697249263525
0.03378227353096008,0.004353336989879608,-0.019865568727254868,0.01601763442158699,-0.0008415632182732224,0.026056747883558273
0.034344661980867386,0.004412970505654812,-0.01945100910961628,0.016318291425704956,-0.0007797913276590407,0.026039032265543938
0.03449901565909386,0.004530941601842642,-0.020157089456915855,0.016075413674116135,-0.0008115725358948112,0.027277281507849693
0.034061867743730545,0.004152955953031778,-0.021095965057611465,0.01601378433406353,-0.0008251400431618094,0.027804354205727577
0.03344743326306343,0.003926665522158146,-0.02064455859363079,0.015370670706033707,-0.0007809925591573119,0.027686497196555138
0.033666037023067474,0.004360153339803219,-0.02067605033516884,0.01487687323242426,-0.0007905902457423508,0.027743853628635406
0.034407515078783035,0.004662303254008293,-0.020791616290807724,0.01559438370168209,-0.0008095293887890875,0.02771540731191635
0.03494206443428993,0.0045346347615122795,-0.02027018740773201,0.015964360907673836,-0.0008374007302336395,0.02792954631149769
0.03492765128612518,0.004317368846386671,-0.020500216633081436,0.01719587855041027,-0.0008475695503875613,0.027878528460860252
0.034115783870220184,0.004394251387566328,-0.021421656012535095,0.017060639336705208,-0.0007995491032488644,0.02747485227882862
0.03402455523610115,0.004462024662643671,-0.021621553227305412,0.016813207417726517,-0.000800345151219517,0.02762334607541561
0.034700989723205566,0.004248248413205147,-0.020613407716155052,0.016697142273187637,-0.0007318516727536917,0.027927523478865623
0.034765928983688354,0.004382486920803785,-0.02078116312623024,0.016595344990491867,-0.000731036823708564,0.02815205231308937
0.034578725695610046,0.004214577842503786,-0.02169138193130493,0.01678306795656681,-0.0007276151445694268,0.027906853705644608
0.03450671583414078,0.0039906310848891735,-0.021764881908893585,0.016296807676553726,-0.0006661840016022325,0.028668290004134178
0.03499439358711243,0.00407332181930542,-0.02079690806567669,0.016614709049463272,-0.0006864165188744664,0.027800394222140312
0.03499439358711243,0.00407332181930542,-0.02079690806567669,0.016614709049463272,-0.0006864165188744664,0.027800394222140312
0.033754609525203705,0.00401545874774456,-0.021014444530010223,0.016114749014377594,-0.0007072218577377498,0.027228785678744316
0.035165078938007355,0.0039466386660933495,-0.021195383742451668,0.015968244522809982,-0.0007575653144158423,0.027944881469011307
0.03508121147751808,0.004093562718480825,-0.02128150686621666,0.01595037244260311,-0.0007953119929879904,0.028146926313638687
0.03496498242020607,0.003990026190876961,-0.021547794342041016,0.0161932073533535,-0.000768279773183167,0.027779025956988335
0.035787373781204224,0.004528726451098919,-0.021375296637415886,0.01581810973584652,-0.0007348771905526519,0.027866188436746597
0.03531594201922417,0.00420300243422389,-0.02091372385621071,0.016333753243088722,-0.0007594971102662385,0.027861854061484337
0.03562254458665848,0.004389711655676365,-0.02126072160899639,0.01601073145866394,-0.000779207213781774,0.027970898896455765
0.0357181653380394,0.004163334146142006,-0.021646426990628242,0.01677185483276844,-0.0007089859573170543,0.027934575453400612
0.035751622170209885,0.004160444252192974,-0.021628601476550102,0.016497423872351646,-0.0007254524971358478,0.02810683660209179
0.03577689081430435,0.003914646804332733,-0.021011581644415855,0.01668434776365757,-0.0007247768226079643,0.028439894318580627
0.03586874529719353,0.0038124502170830965,-0.021146085113286972,0.016719387844204903,-0.0006779606337659061,0.02846084162592888
0.03560931608080864,0.00457170233130455,-0.02181021124124527,0.016492439433932304,-0.0006998318713158369,0.028165293857455254
0.035670459270477295,0.004890380892902613,-0.0217982679605484,0.017081674188375473,-0.0007088823476806283,0.028235072270035744
0.0363493449985981,0.0042357174679636955,-0.02100555971264839,0.01663563773036003,-0.0007308932254090905,0.028691202402114868
0.037313688546419144,0.004350543487817049,-0.021183952689170837,0.016759341582655907,-0.0007249012123793364,0.02937459386885166
0.03626951202750206,0.004142895340919495,-0.02190885692834854,0.01653890684247017,-0.0006981776678003371,0.029206957668066025
0.03501831740140915,0.004262834787368774,-0.021272987127304077,0.016723262146115303,-0.0007835326250642538,0.028020471334457397
0.03622165322303772,0.004517040215432644,-0.020775338634848595,0.01718767359852791,-0.0008164817118085921,0.027643520385026932
0.03589950129389763,0.004244477488100529,-0.021259477362036705,0.016682295128703117,-0.0008285189978778362,0.028524186462163925
0.036497704684734344,0.0039216442964971066,-0.021657828241586685,0.016956988722085953,-0.0007390573155134916,0.028930028900504112
0.03663869574666023,0.004309637006372213,-0.021098162978887558,0.016217056661844254,-0.0007494486053474247,0.028576547279953957
0.035531699657440186,0.0041543529368937016,-0.020908009260892868,0.016454989090561867,-0.0007651940104551613,0.029924852773547173
0.034675076603889465,0.0043741678819060326,-0.021595973521471024,0.016346560791134834,-0.0007993291947059333,0.02951193042099476
0.035644061863422394,0.004153999499976635,-0.021809587255120277,0.016648320481181145,-0.0007980714435689151,0.027713799849152565
0.036902185529470444,0.0038651865907013416,-0.021342875435948372,0.017134686931967735,-0.0007325821206904948,0.02816001884639263
0.03550779074430466,0.0038678788114339113,-0.020519142970442772,0.01730712316930294,-0.0007029598928056657,0.029163366183638573
0.036908842623233795,0.003997735679149628,-0.02104438655078411,0.017471248283982277,-0.0006775195943191648,0.029780399054288864
0.03660592436790466,0.004301746841520071,-0.021751131862401962,0.017183098942041397,-0.0006864305469207466,0.029461318626999855
0.036104682832956314,0.004623097833245993,-0.022165827453136444,0.01648116111755371,-0.0006172556895762682,0.028743932023644447
0.036707982420921326,0.0041773137636482716,-0.02155458554625511,0.01705554872751236,-0.0006448759813793004,0.029019873589277267
0.036707982420921326,0.0041773137636482716,-0.02155458554625511,0.01705554872751236,-0.0006448759813793004,0.029019873589277267
0.03593086078763008,0.004136813338845968,-0.021553436294198036,0.015684718266129494,-0.0006764763966202736,0.02910122089087963
0.036795828491449356,0.004038533195853233,-0.021303603425621986,0.015795808285474777,-0.0006423250888474286,0.0290208850055933
0.03650755435228348,0.004015211947262287,-0.021856581792235374,0.01712665520608425,-0.0006869764183647931,0.02925313264131546
0.036378879100084305,0.004463304299861193,-0.02275737375020981,0.017398199066519737,-0.0007158700027503073,0.029151171445846558
0.03636540099978447,0.00426435424014926,-0.022457873448729515,0.017154913395643234,-0.00071659468812868,0.028753304854035378
0.03790656104683876,0.004312728997319937,-0.021811900660395622,0.018118489533662796,-0.0007109063444659114,0.029265353456139565
0.03768790513277054,0.004065181128680706,-0.022610994055867195,0.01802525483071804,-0.0006858911365270615,0.029321398586034775
0.03587173670530319,0.004294273909181356,-0.02286708541214466,0.018468523398041725,-0.0007174804923124611,0.029569972306489944
0.03698446601629257,0.004515493288636208,-0.021941212937235832,0.017678864300251007,-0.0007592709735035896,0.029462696984410286
0.036959100514650345,0.004396356176584959,-0.022634319961071014,0.016592077910900116,-0.0007633058121427894,0.02926548942923546
0.0373992919921875,0.004061954561620951,-0.022299552336335182,0.01736811175942421,-0.0007526144036091864,0.029467478394508362
0.03828008845448494,0.004365947097539902,-0.021306514739990234,0.016891488805413246,-0.0007221568957902491,0.02991107665002346
0.03798558935523033,0.00412473501637578,-0.022073376923799515,0.016887327656149864,-0.0008086948655545712,0.029715556651353836
0.03604915738105774,0.004281645640730858,-0.022900830954313278,0.0173605028539896,-0.0008105381857603788,0.029322270303964615
0.0375928170979023,0.004614210221916437,-0.022398151457309723,0.01715867780148983,-0.0008219865849241614,0.029474591836333275
0.038225844502449036,0.004740410018712282,-0.02180914580821991,0.018093686550855637,-0.0008313691942021251,0.03052668459713459
0.036962758749723434,0.0041887941770255566,-0.02216729335486889,0.01752704381942749,-0.000860550906509161,0.03092411532998085
0.037463199347257614,0.004284529481083155,-0.022501345723867416,0.017193160951137543,-0.0008772139553911984,0.030304720625281334
0.03779725730419159,0.00412584375590086,-0.022281039506196976,0.01705990731716156,-0.0008164867758750916,0.028865285217761993
0.037908200174570084,0.004294366575777531,-0.021796897053718567,0.01706959493458271,-0.0008150195935741067,0.029535870999097824
0.03775407373905182,0.004689195193350315,-0.021777091547846794,0.017720552161335945,-0.0008241069735959172,0.03051264025270939
