davideferrari95/blind_handover_controller/data/Test 138 - [2024-02-07 -- 17-22-49]/joint_states_data.csv
shoulder_pan_joint,shoulder_lift_joint,elbow_joint,wrist_1_joint,wrist_2_joint,wrist_3_joint
0.005500641651451588,0.00032765758805908263,-0.012375720776617527,0.011487974785268307,-0.0,0.005423561669886112
0.005387479905039072,0.00027718639466911554,-0.012932241894304752,0.01113982405513525,-0.0,0.00540184834972024
0.005387479905039072,0.00027718639466911554,-0.012932241894304752,0.01113982405513525,-0.0,0.00540184834972024
0.0054920087568461895,0.0002401621750323102,-0.012642466463148594,0.011469028890132904,-0.0,0.005527216009795666
0.005486124660819769,0.00021186839148867875,-0.012432532384991646,0.010831370018422604,-0.0,0.005135310813784599
0.005521480459719896,0.00028289275360293686,-0.01247144490480423,0.011256135068833828,-0.0,0.004953955765813589
0.005317018833011389,0.000257196428719908,-0.01212692353874445,0.011677595786750317,-0.0,0.005912851542234421
0.005885900929570198,0.0002348341076867655,-0.012815984897315502,0.01102225948125124,-0.0,0.00570080429315567
0.005281839054077864,0.00021603850473184139,-0.012367366813123226,0.01155315525829792,-0.0,0.0051988400518894196
0.005449189338833094,0.00020002909877803177,-0.013463723473250866,0.011426831595599651,-0.0,0.005346976220607758
0.005109201651066542,0.00024085665063466877,-0.012800158001482487,0.011344109661877155,-0.0,0.005826883018016815
0.005323204677551985,0.00023218023125082254,-0.01301615871489048,0.01152165699750185,-0.0,0.005611354950815439
0.005516668315976858,0.00013233665958978236,-0.012663321569561958,0.011767459101974964,-0.0,0.00584563659504056
0.0056197065860033035,0.00018356615328229964,-0.01275859959423542,0.011663585901260376,-0.0,0.0058427657932043076
0.005194161087274551,0.00022780452854931355,-0.012278243899345398,0.0114293172955513,-0.0,0.0053140148520469666
0.005118615925312042,0.0002639603626448661,-0.012746257707476616,0.011809328570961952,-0.0,0.00511610321700573
0.005054108798503876,0.0006388405454345047,-0.012435498647391796,0.01149290893226862,-0.0,0.005137359723448753
0.005787487607449293,0.0008097042446024716,-0.013118979521095753,0.011703509837388992,-0.0,0.005680051166564226
0.0053943125531077385,0.0007437526364810765,-0.01316727977246046,0.011708136647939682,-0.0,0.005791353527456522
0.0053943125531077385,0.0007437526364810765,-0.01316727977246046,0.011708136647939682,-0.0,0.005791353527456522
0.004999582190066576,0.0006541910697706044,-0.012933744117617607,0.011492972262203693,-0.0,0.00561919528990984
0.005231983494013548,0.0006792484782636166,-0.012576433829963207,0.011728936806321144,-0.0,0.005514460150152445
0.005078484304249287,0.0006142789497971535,-0.012714296579360962,0.011352303437888622,-0.0,0.006141514051705599
0.005365835502743721,0.000638480472844094,-0.01308134850114584,0.011317172087728977,-0.0,0.0058004301972687244
0.005696078296750784,0.0006114402785897255,-0.01270391047000885,0.011394054628908634,-0.0,0.005724865011870861
0.005531384143978357,0.0006218006019480526,-0.013440684415400028,0.011571070179343224,-0.0,0.00555632496252656
0.0050874436274170876,0.0006741872639395297,-0.01275175902992487,0.01191534660756588,-0.0,0.005827894899994135
0.004869080614298582,0.000703719852026552,-0.013228575699031353,0.011440715752542019,-0.0,0.00572363892570138
0.005106179974973202,0.0010050307027995586,-0.012721476145088673,0.012024088762700558,-0.0,0.005739896558225155
0.005433468613773584,0.0010300945723429322,-0.013412192463874817,0.011773581616580486,-0.0,0.005417676642537117
0.005466710776090622,0.0010054429294541478,-0.01340152695775032,0.011888451874256134,-0.0,0.005526624154299498
0.00553642213344574,0.0008716845768503845,-0.013342291116714478,0.011925108730793,-0.0,0.005198143422603607
0.005330471787601709,0.0008734320872463286,-0.012974896468222141,0.011710562743246555,-0.0,0.005598790477961302
0.00525327492505312,0.0008028352749533951,-0.012482714839279652,0.011971239931881428,-0.0,0.005274001508951187
0.005076174158602953,0.0008171185036189854,-0.013081436976790428,0.011554576456546783,-0.0,0.005412475671619177
0.0059067788533866405,0.0009085290948860347,-0.012751169502735138,0.011721302755177021,-0.0,0.005397222004830837
0.005313810892403126,0.001124583650380373,-0.011922389268875122,0.01189650408923626,-0.0,0.005765465088188648
0.005362784489989281,0.0013380475575104356,-0.013082269579172134,0.011141753755509853,-0.0,0.005466642789542675
0.005545421037822962,0.001299397787079215,-0.013288373127579689,0.011580308899283409,-0.0,0.005850264802575111
0.005480531603097916,0.001269384752959013,-0.01309099979698658,0.011778960935771465,-0.0,0.0053025176748633385
0.005484823137521744,0.0011988584883511066,-0.013028949499130249,0.01165770459920168,-0.0,0.0056768241338431835
0.005374659784138203,0.0011465855641290545,-0.01301111001521349,0.010852624662220478,-0.0,0.006037713494151831
0.005229633767157793,0.0011132145300507545,-0.013101066462695599,0.011441837064921856,-0.0,0.005658010020852089
0.004923555534332991,0.0011135736713185906,-0.012927178293466568,0.011767462827265263,-0.0,0.005353121552616358
0.005552119109779596,0.0014505228027701378,-0.013075028546154499,0.011827142909169197,-0.0,0.005580429919064045
0.005290598142892122,0.0016218556556850672,-0.012622253969311714,0.01194683276116848,-0.0,0.006120657082647085
0.005341498646885157,0.0015378538519144058,-0.01331908069550991,0.011384627781808376,-0.0,0.005848427768796682
0.005551386624574661,0.0016729148337617517,-0.012686176225543022,0.012444023042917252,-0.0,0.005857066251337528
0.005551386624574661,0.0016729148337617517,-0.012686176225543022,0.012444023042917252,-0.0,0.005857066251337528
0.005389377474784851,0.0014960290864109993,-0.013111822307109833,0.011898432858288288,-0.0,0.005708818789571524
0.005259490106254816,0.0013942657969892025,-0.012596851214766502,0.012220892123878002,-0.0,0.00562454154714942
0.005042404402047396,0.0013251769123598933,-0.013204026035964489,0.01239293534308672,-0.0,0.005238729994744062
0.005891329143196344,0.0012827226892113686,-0.012873951345682144,0.012033103965222836,-3.8400407902372535e-06,0.005293506197631359
0.005405465606600046,0.0012692142045125365,-0.012765742838382721,0.012448135763406754,-2.50727197226297e-07,0.005593350622802973
0.005309167318046093,0.0016141710802912712,-0.013244478031992912,0.011823357082903385,-1.637069502180566e-08,0.0055807060562074184
0.005454343743622303,0.0015563694760203362,-0.01233372837305069,0.01224059984087944,-1.0688893103960595e-09,0.006273506674915552
0.005037788301706314,0.0017198256682604551,-0.01319138053804636,0.012138957157731056,-6.979083977398659e-11,0.005765547975897789
0.0052447193302214146,0.001670720404945314,-0.0125718479976058,0.012553179636597633,-4.556843184039261e-12,0.0051487949676811695
0.005587902385741472,0.0014663299079984426,-0.013159606605768204,0.012805934064090252,-2.9752928094352316e-13,0.005302058532834053
0.006119399797171354,0.0013509714044630527,-0.01269900519400835,0.01198595855385065,-1.942653632088561e-14,0.006034425459802151
0.005463028326630592,0.0012601205380633473,-0.01261433307081461,0.01204419694840908,-1.2684140508214224e-15,0.005898742936551571
0.005444252397865057,0.0013135925401002169,-0.01298565324395895,0.011897178366780281,-8.28183684851034e-17,0.0057003190740942955
0.005228850059211254,0.0014109652256593108,-0.01259492989629507,0.011778919026255608,-5.407448409104103e-18,0.005403469316661358
0.00593694718554616,0.0014057651860639453,-0.012767549604177475,0.01176409237086773,-3.530677497532992e-19,0.005315176211297512
0.005691029597073793,0.0018405783921480179,-0.012600324116647243,0.011847552843391895,-2.305280150440403e-20,0.005472267046570778
0.005302618723362684,0.0017173305386677384,-0.012771740555763245,0.011905903927981853,-9.827771152206305e-23,0.005663035903126001
0.006005085539072752,0.001538219628855586,-0.013045107945799828,0.011856652796268463,-6.4168320502001815e-24,0.0052932086400687695
0.005717500112950802,0.0014965147711336613,-0.012666570022702217,0.012065164744853973,-4.189732958785157e-25,0.005389526952058077
0.005880298092961311,0.0015355865471065044,-0.012121248058974743,0.01192112360149622,-2.7355964396858696e-26,0.005591754801571369
0.005880298092961311,0.0015355865471065044,-0.012121248058974743,0.01192112360149622,-2.7355964396858696e-26,0.005591754801571369
0.005621137097477913,0.0019545424729585648,-0.012103989720344543,0.01148089300841093,-1.1662277388948683e-28,0.006137532647699118
0.0054198033176362514,0.001974426908418536,-0.012965184636414051,0.011963492259383202,-7.614633480558881e-30,0.005691856611520052
0.00558262225240469,0.0019996375776827335,-0.012382245622575283,0.011961583979427814,-4.971811661322666e-31,0.005893111228942871
0.0057792337611317635,0.0018808625172823668,-0.012995438650250435,0.0114652831107378,-3.2462378523911365e-32,0.005743687506765127
0.006357671692967415,0.0018942184979096055,-0.012550240382552147,0.012121769599616528,-2.1195610472745294e-33,0.005820996593683958
0.006357671692967415,0.0018942184979096055,-0.012550240382552147,0.012121769599616528,-2.1195610472745294e-33,0.005820996593683958
0.0064406925812363625,0.001891260384581983,-0.012275520712137222,0.011090818792581558,-1.3839218970150604e-34,0.006110014393925667
0.005479143466800451,0.0019399153534322977,-0.01242072507739067,0.011581316590309143,-9.036020196010191e-36,0.005583499558269978
0.0060881092213094234,0.0019270774209871888,-0.012246044352650642,0.011125802993774414,-5.8998750413358e-37,0.005428357981145382
0.00635833665728569,0.0019599399529397488,-0.012817669659852982,0.010998894460499287,-3.852196383359437e-38,0.005642266478389502
0.005879552103579044,0.0022293571382761,-0.012527438811957836,0.011494695208966732,-2.5152088304966504e-39,0.006006554700434208
0.005811543669551611,0.0021973405964672565,-0.012980234809219837,0.011487050913274288,-1.6422517352654694e-40,0.005763003136962652
0.00585985416546464,0.002193968975916505,-0.012900104746222496,0.011344383470714092,-1.07227358490135e-41,0.005886217579245567
0.0064653973095119,0.0021703781094402075,-0.012581591494381428,0.011327389627695084,-7.006492321624085e-43,0.0054781995713710785
0.0059701246209442616,0.002257260261103511,-0.012911870144307613,0.011329034343361855,-4.624284932271896e-44,0.005706524010747671
0.005944304168224335,0.0023834039457142353,-0.012635547667741776,0.011585742235183716,-2.802596928649634e-45,0.005329600069671869
0.006159407086670399,0.0023361057974398136,-0.01306173112243414,0.010988805443048477,-0.0,0.005865034647285938
0.005584423895925283,0.0025488443206995726,-0.01227099634706974,0.011640396900475025,-0.0,0.005540503188967705
0.005979257635772228,0.002358056604862213,-0.013275524601340294,0.012854228727519512,-0.0,0.005406791809946299
0.006306301802396774,0.0024640108458697796,-0.01225653849542141,0.011440175585448742,-0.0,0.005572337191551924
0.005999913439154625,0.002639457816258073,-0.012953882105648518,0.01129054743796587,-0.0,0.005984407849609852
0.005883287638425827,0.002253690268844366,-0.012835510075092316,0.011301986873149872,-0.0,0.006175367161631584
0.006349367089569569,0.002347072120755911,-0.012990438379347324,0.011327188462018967,-0.0,0.005648388527333736
0.00634488370269537,0.002274667378515005,-0.012627216055989265,0.010798074305057526,-0.0,0.005739415995776653
0.00634488370269537,0.002274667378515005,-0.012627216055989265,0.010798074305057526,-0.0,0.005739415995776653
0.005852158647030592,0.0026481037493795156,-0.012130288407206535,0.011683609336614609,-0.0,0.006003233604133129
0.005910506471991539,0.002483498305082321,-0.012693334370851517,0.011794360354542732,-0.0,0.0059531559236347675
0.00605316087603569,0.002582443179562688,-0.01267830841243267,0.011372367851436138,-0.0,0.005585811100900173
0.00605316087603569,0.002582443179562688,-0.01267830841243267,0.011372367851436138,-0.0,0.005585811100900173
0.006231491919606924,0.0026342743076384068,-0.013111777603626251,0.011130934581160545,-0.0,0.005932798609137535
0.005617826245725155,0.0024647582322359085,-0.012986360117793083,0.011578655801713467,-0.0,0.005676068365573883
0.00575672322884202,0.0024844484869390726,-0.012885276228189468,0.01159362867474556,-0.0,0.005838486831635237
0.005672433413565159,0.002657265169546008,-0.013256078585982323,0.01158294826745987,-0.0,0.006075304467231035
0.006201163399964571,0.0024827432353049517,-0.012903175316751003,0.011866488493978977,-0.0,0.005805883090943098
0.005956487264484167,0.0024980022571980953,-0.01335019152611494,0.011369802057743073,-0.0,0.005642579402774572
0.00583133939653635,0.0022824343759566545,-0.012645366601645947,0.011807658709585667,-0.0,0.005519264843314886
0.005622247699648142,0.0023860957007855177,-0.013242254965007305,0.011524337343871593,-0.0,0.00593556510284543
0.005769581068307161,0.0026278605218976736,-0.012859364971518517,0.011755988001823425,-0.0,0.005764711182564497
0.0061982059851288795,0.0028039372991770506,-0.013074218295514584,0.01134886872023344,-0.0,0.005848442669957876
0.00607987679541111,0.0026816807221621275,-0.013253098353743553,0.011649311520159245,-0.0,0.00574701651930809
0.006312037818133831,0.002866210648790002,-0.013645141385495663,0.011936509050428867,-0.0,0.006024411413818598
0.006366409827023745,0.0026608239859342575,-0.013306569308042526,0.011537344194948673,-0.0,0.006187429651618004
0.005950606893748045,0.0021311186719685793,-0.013634239323437214,0.011389542371034622,-0.0,0.006216286215931177
0.006304933223873377,0.0007538259960711002,-0.013242450542747974,0.011812996119260788,-0.0,0.0059367818757891655
0.006595941260457039,0.0002608085342217237,-0.01286303624510765,0.011132967658340931,-0.0,0.005627481732517481
0.0058700572699308395,0.00032602660940028727,-0.013544656336307526,0.011681059375405312,-0.0,0.006028237286955118
0.005881811026483774,0.0005846177809871733,-0.01299387775361538,0.011284972541034222,-0.0,0.006257688160985708
0.005708308424800634,0.0004458355251699686,-0.013351966626942158,0.01131373830139637,-0.0,0.00630290899425745
0.0062062921933829784,0.0005778350750915706,-0.012952870689332485,0.01155762653797865,-0.0,0.005782017484307289
0.006301864515990019,0.0012476398842409253,-0.01255977712571621,0.011873016133904457,-0.0,0.005705184303224087
0.00621454743668437,0.0010422177147120237,-0.01281371247023344,0.01163336168974638,-0.0,0.005950826220214367
0.006485802587121725,0.0008467668085359037,-0.013427691534161568,0.01134456042200327,-0.0,0.0065297833643853664
0.006485802587121725,0.0008467668085359037,-0.013427691534161568,0.01134456042200327,-0.0,0.0065297833643853664
0.006248714402318001,0.0007124739931896329,-0.013794470578432083,0.011464020237326622,-0.0,0.006441917736083269
0.0063761258497834206,0.0006149844266474247,-0.013368862681090832,0.011121313087642193,-0.0,0.006259853485971689
0.006391560658812523,0.0005409875884652138,-0.012073235586285591,0.011292591691017151,-0.0,0.005776666570454836
0.00596834858879447,0.0005780199426226318,-0.013959292322397232,0.011602404527366161,-0.0,0.006274066399782896
0.00626441789790988,0.0005800453945994377,-0.013653870671987534,0.011669016443192959,-0.0,0.00603242265060544
0.006768095772713423,0.0005561377038247883,-0.013140067458152771,0.011464623734354973,-0.0,0.006047065835446119
0.006370048504322767,0.000511349062435329,-0.012130128219723701,0.011011837981641293,-0.0,0.006217738147825003
0.006315312813967466,0.00047295456170104444,-0.013191595673561096,0.01099070068448782,-0.0,0.006283431779593229
0.006226941477507353,0.00043992087012156844,-0.01312567200511694,0.01078825443983078,-0.0,0.006416568532586098
0.006119344383478165,0.0004112011520192027,-0.013874274678528309,0.010617579333484173,-0.0,0.006620027124881744
0.006821407005190849,0.00043886600178666413,-0.013035289011895657,0.011109935119748116,-0.0,0.006539700087159872
0.006684974301606417,0.00041564300772733986,-0.012898133136332035,0.011287793517112732,-0.0,0.006112614646553993
0.0069128298200666904,0.00039298186311498284,-0.012708678841590881,0.011447174474596977,-0.0,0.005715350154787302
0.006937885656952858,0.0002786075056064874,-0.012497509829699993,0.012386574409902096,-0.0,0.005938293877989054
0.00661303848028183,0.00025885141803883016,-0.01286834292113781,0.01182799506932497,-0.0,0.00624811789020896
0.006563855800777674,0.00029165379237383604,-0.012831784784793854,0.01182169746607542,-0.0,0.006140938028693199
0.006672020070254803,0.00027849027537740767,-0.013573729433119297,0.01195141114294529,-0.0,0.006140789948403835
0.006349355913698673,0.00030837528174743056,-0.012642466463148594,0.011952952481806278,-0.0,0.0060812486335635185
0.007119260262697935,0.00033489958150312304,-0.013197741471230984,0.01203767117112875,-0.0,0.006767850834876299
0.00691370340064168,0.0006206531543284655,-0.012440435588359833,0.011654610745608807,-0.0,0.006916992831975222
0.00681219482794404,0.0006809526821598411,-0.013415946625173092,0.01230910699814558,-0.0,0.006022617220878601
0.006653724238276482,0.0006162176141515374,-0.0128550436347723,0.011859603226184845,-0.0,0.005846388638019562
0.006634298712015152,0.0006414948147721589,-0.012812145985662937,0.011988283134996891,-0.0,0.005933721549808979
0.006869252305477858,0.000611032301094383,-0.013007092289626598,0.011511830613017082,-0.0,0.00660800701007247
0.0071633621118962765,0.0006510364473797381,-0.013599230907857418,0.011765039525926113,-0.0,0.0064360904507339
0.006798029411584139,0.0006871300865896046,-0.012609343975782394,0.011257669888436794,-0.0,0.0064805662259459496
0.007069386541843414,0.0007126250420697033,-0.013565651141107082,0.011506937444210052,-0.0,0.006430954672396183
0.007069386541843414,0.0007126250420697033,-0.013565651141107082,0.011506937444210052,-0.0,0.006430954672396183
0.007002388127148151,0.0006915832054801285,-0.013277863152325153,0.011385983787477016,-0.0,0.006366477347910404
0.0067157200537621975,0.0008391352603211999,-0.012824391014873981,0.012063970789313316,-0.0,0.0064452881924808025
0.0067157200537621975,0.0008391352603211999,-0.012824391014873981,0.012063970789313316,-0.0,0.0064452881924808025
0.007195053622126579,0.0008591675432398915,-0.01299584936350584,0.01124702487140894,-0.0,0.006387151312083006
0.007135135121643543,0.0008650654926896095,-0.013179491274058819,0.011131678707897663,-0.0,0.006364101078361273
0.007440924644470215,0.0008442308171652257,-0.012903477996587753,0.011508164927363396,-0.0,0.006781134754419327
0.007016458082944155,0.0007861403282731771,-0.013144991360604763,0.010777076706290245,-0.0,0.006461499258875847
0.007547236979007721,0.0008127046748995781,-0.01394012663513422,0.011213255114853382,-0.0,0.006075066979974508
0.007740582339465618,0.0008256040164269507,-0.013058102689683437,0.011143106035888195,-0.0,0.006257961504161358
0.0068358853459358215,0.00083549675764516,-0.012243508361279964,0.010873476043343544,-0.0,0.007097396533936262
0.006736665032804012,0.0008430770831182599,-0.013105952180922031,0.011305010877549648,-0.0,0.007008059415966272
0.006682872772216797,0.0007677958928979933,-0.012751331552863121,0.011191271245479584,-0.0,0.006679520942270756
0.00708093261346221,0.0007824624190106988,-0.01330309547483921,0.011322378180921078,-0.0,0.006297919899225235
0.007337010931223631,0.0007996956119313836,-0.01285568904131651,0.011843787506222725,-0.0,0.006499722599983215
0.007270785979926586,0.0008093008073046803,-0.01311788335442543,0.01142591331154108,-0.0,0.006578694563359022
0.0072878156788647175,0.0008114089723676443,-0.013119738548994064,0.011337039060890675,-0.0,0.006442301440984011
0.00746398139744997,0.0007509617134928703,-0.012635740451514721,0.011008593253791332,-0.0,0.006560153793543577
0.007490070071071386,0.0008729660767130554,-0.012804415076971054,0.010982931591570377,-0.0,0.006521635223180056
0.006976900156587362,0.0008781957440078259,-0.012159382924437523,0.011619189754128456,-0.0,0.006820315029472113
0.007149623241275549,0.0008809593273326755,-0.013158955611288548,0.011107194237411022,-0.0,0.00685148686170578
0.008082538843154907,0.0010566897690296173,-0.013697871007025242,0.011500084772706032,-0.0,0.006565329618752003
0.007234262768179178,0.0011264277854934335,-0.01303787436336279,0.011335215531289577,-0.0,0.0067853182554244995
0.007306051906198263,0.0011886536376550794,-0.01335182599723339,0.011690836399793625,-0.0,0.006614609621465206
0.006929510273039341,0.0012001784052699804,-0.012898799031972885,0.011653437279164791,-0.0,0.006439043674618006
0.008099044673144817,0.001132542616687715,-0.01254616491496563,0.011843115091323853,-0.0,0.006577779538929462
0.008099044673144817,0.001132542616687715,-0.01254616491496563,0.011843115091323853,-0.0,0.006577779538929462
0.007873407565057278,0.0010645616566762328,-0.012905796989798546,0.0116053381934762,-0.0,0.006519917398691177
0.00691316369920969,0.0009640453499741852,-0.012625596486032009,0.011130934581160545,-0.0,0.006829265505075455
0.007119520101696253,0.0008443866390734911,-0.013323893770575523,0.011280031874775887,-0.0,0.006227675825357437
0.008261101320385933,0.0008523784345015883,-0.013005014508962631,0.01146499253809452,-0.0,0.006270293612033129
0.00796233955770731,0.0009383888100273907,-0.013087717816233635,0.011905141174793243,-0.0,0.006635688245296478
0.006942629814147949,0.0011841225204989314,-0.012667221948504448,0.011784571222960949,-0.0,0.006954365409910679
0.007109403144568205,0.0013352283276617527,-0.012997044250369072,0.011128026992082596,-0.0,0.007409022189676762
0.008170069195330143,0.0012957589933648705,-0.012741157785058022,0.011625436134636402,-0.0,0.007554683368653059
0.0077632153406739235,0.0015132721746340394,-0.01317436434328556,0.011520644649863243,-0.0,0.007110064383596182
0.007557408418506384,0.0013974407920613885,-0.01355697400867939,0.011355369351804256,-0.0,0.007057167589664459
0.007906378246843815,0.0013074803864583373,-0.013103824108839035,0.01104654185473919,-0.0,0.006772927008569241
0.007960035465657711,0.0012704653199762106,-0.013698103837668896,0.011001848615705967,-0.0,0.006859912537038326
0.007853423245251179,0.0012409258633852005,-0.012930468656122684,0.011359822936356068,-0.0,0.006750365253537893
0.007586176041513681,0.001233902177773416,-0.013514797203242779,0.011110084131360054,-0.0,0.00678095780313015
0.007599875330924988,0.0015470412326976657,-0.01314477063715458,0.010947611182928085,-0.0,0.00689592445269227
0.008081653155386448,0.0015204172814264894,-0.01380749512463808,0.010856111533939838,-0.0,0.0072878445498645306
0.007666444405913353,0.0018985024653375149,-0.013031469658017159,0.010528204031288624,-0.0,0.006737943738698959
0.00775328790768981,0.00172302161809057,-0.013554246164858341,0.011068517342209816,-0.0,0.0064860074780881405
0.007666625548154116,0.0014624872710555792,-0.013434916734695435,0.01110831554979086,-0.0,0.007035114802420139
0.007882492616772652,0.0015257758786901832,-0.013447362929582596,0.011289729736745358,-0.0,0.007488495670258999
0.007761713117361069,0.0014431950403377414,-0.013366669416427612,0.012081321328878403,-0.0,0.007316765375435352
0.008445666171610355,0.001666721422225237,-0.013443191535770893,0.011825238354504108,-0.0,0.007002495229244232
0.008614949882030487,0.0015731740277260542,-0.01351223699748516,0.011501796543598175,-0.0,0.0073193772695958614
0.007846159860491753,0.001565834041684866,-0.01357946265488863,0.011396760120987892,-0.0,0.007140720263123512
0.008102311752736568,0.0014594325330108404,-0.01319433655589819,0.011591441929340363,-0.0,0.007375456392765045
0.00836118869483471,0.0014214921975508332,-0.013245975598692894,0.011360226199030876,-0.0,0.007120244670659304
0.008200320415198803,0.0015000045532360673,-0.01291673444211483,0.011449730955064297,-0.0,0.0069719599559903145
0.008163915947079659,0.0017564615700393915,-0.013492311351001263,0.011537197977304459,-0.0,0.006765564437955618
0.008163915947079659,0.0017564615700393915,-0.013492311351001263,0.011537197977304459,-0.0,0.006765564437955618
0.008357000537216663,0.0017783497460186481,-0.012747720815241337,0.011164391413331032,-0.0,0.007050381973385811
0.008962149731814861,0.0019224593415856361,-0.013499442487955093,0.01155477948486805,-0.0,0.007330062333494425
0.008094420656561852,0.0018986283103004098,-0.013429896906018257,0.010818910785019398,-0.0,0.007785953115671873
0.008365425281226635,0.001810936606489122,-0.013497537933290005,0.010897168889641762,-0.0,0.007386572193354368
0.00894732866436243,0.001805793261155486,-0.013179532252252102,0.011245070025324821,-0.0,0.0070372275076806545
0.008631394244730473,0.0018779856618493795,-0.013221118599176407,0.011188043281435966,-0.0,0.007232270669192076
0.007812832482159138,0.0018763182451948524,-0.013154604472219944,0.011817974969744682,-0.0,0.00781339593231678
0.00859544612467289,0.002005930757150054,-0.012746098451316357,0.01112290658056736,-0.0,0.007533665746450424
0.008679660968482494,0.0020431785378605127,-0.013120672665536404,0.010946565307676792,-0.0,0.007476012222468853
0.008426256477832794,0.0021081464365124702,-0.012560859322547913,0.011180606670677662,-0.0,0.008406507782638073
0.0081276074051857,0.002029866212978959,-0.013494094833731651,0.011524585075676441,-0.0,0.007522305473685265
0.008422230370342731,0.0018787189619615674,-0.012809875421226025,0.011506288312375546,-0.0,0.007081987336277962
0.008905683644115925,0.0017039421945810318,-0.01346615981310606,0.011526601389050484,-0.0,0.007361831143498421
0.008184141479432583,0.0016394908307120204,-0.01314268447458744,0.011118684895336628,-0.0,0.008044176734983921
0.008723639883100986,0.0017108232714235783,-0.012855574488639832,0.01176384650170803,-0.0,0.008260199800133705
0.008993478491902351,0.0018335772911086679,-0.012627587653696537,0.011499414220452309,-0.0,0.007622860837727785
0.008011676371097565,0.001929825753904879,-0.01243552751839161,0.011935749091207981,-0.0,0.00748983072116971
0.008364500477910042,0.001925718504935503,-0.013260123319923878,0.011454249732196331,-0.0,0.007658316288143396
0.008912201970815659,0.0018983681220561266,-0.012906108982861042,0.01115204393863678,-0.0,0.007841004990041256
0.008485265076160431,0.0017894267803058028,-0.0133833521977067,0.01152859628200531,-0.0,0.007578214630484581
0.00940654706209898,0.001757680787704885,-0.013168854638934135,0.012232581153512001,-5.624639925372321e-06,0.007577111013233662
0.008697456680238247,0.0017118353862315416,-0.012693341821432114,0.011930731125175953,-3.672487878247921e-07,0.007543209008872509
0.008328919298946857,0.0015154490247368813,-0.012939576990902424,0.011511223390698433,-2.397871945447605e-08,0.007618279196321964
0.009031158871948719,0.0013940815115347505,-0.012846764177083969,0.011347087100148201,-1.56563895181705e-09,0.007231344468891621
0.009031158871948719,0.0013940815115347505,-0.012846764177083969,0.011347087100148201,-1.56563895181705e-09,0.007231344468891621
0.009339254349470139,0.0011409244034439325,-0.01289407815784216,0.01107815932482481,-1.0222503399326399e-10,0.0072930604219436646
0.00889679603278637,0.0010725978063419461,-0.013236810453236103,0.011516689322888851,-6.6745641132126554e-12,0.008037946186959743
0.009237605147063732,0.001178807346150279,-0.01289505697786808,0.011685414239764214,-4.358013516031489e-13,0.008021770045161247
0.009251642972230911,0.0015321995597332716,-0.013492844067513943,0.01154013630002737,-2.845471661029261e-14,0.007492460776120424
0.009224147535860538,0.0016319386195391417,-0.01241418905556202,0.012014115229249,-1.8578896898041077e-15,0.007367386016994715
0.008878552354872227,0.0015868324553593993,-0.013006679713726044,0.011285235174000263,-1.2130692356851817e-16,0.007471501361578703
0.008744854480028152,0.0014635848347097635,-0.012433718889951706,0.011257520876824856,-7.920475222418792e-18,0.008058027364313602
0.009590927511453629,0.0013419307069852948,-0.013293260708451271,0.011519262567162514,-5.17150423836009e-19,0.008349685929715633
0.009612124413251877,0.001122990739531815,-0.012955300509929657,0.011370592750608921,-3.376622669392777e-20,0.008206513710319996
0.00917287077754736,0.0010832243133336306,-0.012867039069533348,0.012136140838265419,-2.2046932108081077e-21,0.008012140169739723
0.008967089466750622,0.0009596800664439797,-0.012829224579036236,0.011685896664857864,-1.4395071951778054e-22,0.008012143895030022
0.009155978448688984,0.0008114406955428421,-0.012489767745137215,0.01166243851184845,-9.39895346387631e-24,0.007615947630256414
0.009248307906091213,0.000850070035085082,-0.012730690650641918,0.011807526461780071,-6.136844311515643e-25,0.00852450542151928
0.00993000715970993,0.000867578259203583,-0.012520763091742992,0.011078114621341228,-4.00692128490335e-26,0.008061493746936321
0.008918363600969315,0.0013029720867052674,-0.012658278457820415,0.011476431973278522,-1.1502304914756678e-05,0.007859922014176846
0.009280608035624027,0.0013636883813887835,-0.012381612323224545,0.011214325204491615,-0.00022399399313144386,0.007692523300647736
0.009112327359616756,0.0012157278833910823,-0.012690642848610878,0.011128999292850494,-0.0002266161609441042,0.007578469347208738
0.009222885593771935,0.0011516038794070482,-0.012755862437188625,0.011477179825305939,-0.00024860253324732184,0.007578393444418907
0.009272781200706959,0.0010999105870723724,-0.012289324775338173,0.010990005917847157,-0.00024732420570217073,0.007955134846270084
0.009879724122583866,0.001048885053023696,-0.012764425948262215,0.01175141055136919,-0.0002371226146351546,0.008230898529291153
0.009289020672440529,0.001027095247991383,-0.012090378440916538,0.011899666860699654,-0.00026000262005254626,0.008310085162520409
0.009528834372758865,0.0009874275419861078,-0.01237843744456768,0.011729898862540722,-0.00024445870076306164,0.008207843638956547
0.009257487952709198,0.001015910878777504,-0.013095896691083908,0.01162740495055914,-0.00025180893135257065,0.008691254071891308
0.008932446129620075,0.0014919826062396169,-0.013092383742332458,0.011673148721456528,-0.00025815892149694264,0.008214007131755352
0.009362678974866867,0.0015296409837901592,-0.012798264622688293,0.011668986640870571,-0.0002501929411664605,0.008095492608845234
0.009716079570353031,0.0013477531028911471,-0.012924299575388432,0.011544671840965748,-0.00024185336951632053,0.008192192763090134
0.009716079570353031,0.0013477531028911471,-0.012924299575388432,0.011544671840965748,-0.00024185336951632053,0.008192192763090134
0.009151495061814785,0.0013310709036886692,-0.01214118953794241,0.012235334143042564,-0.0002344207459827885,0.008535216562449932
0.009841701947152615,0.0012429479975253344,-0.012939853593707085,0.01148863136768341,-0.0003164510999340564,0.008132255636155605
0.009683900512754917,0.0012195113813504577,-0.012639135122299194,0.011484780348837376,-0.00030168209923431277,0.008110188879072666
0.00916893221437931,0.0010806560749188066,-0.013311549089848995,0.011436939239501953,-0.0002831140882335603,0.008178511634469032
0.009248564019799232,0.0010523709934204817,-0.012625095434486866,0.011671970598399639,-0.0002663751074578613,0.008077814243733883
0.009522928856313229,0.001160664833150804,-0.013315990567207336,0.01205520611256361,-0.000251483783358708,0.008168880827724934
0.009906256571412086,0.0013224119320511818,-0.012920275330543518,0.011404426768422127,-0.0002381690574111417,0.008333735167980194
0.00961025059223175,0.0014484093990176916,-0.013029403053224087,0.011447318829596043,-0.00025957328034564853,0.008748538792133331
0.00945623591542244,0.0013612296897917986,-0.01383858360350132,0.011326303705573082,-0.0002576638071332127,0.008514449000358582
0.00933888554573059,0.0012742439284920692,-0.01302836649119854,0.011331482790410519,-0.00024658054462634027,0.008188892155885696
0.009629113599658012,0.0012018810957670212,-0.013169619254767895,0.011743735522031784,-0.00023585221788380295,0.008706923574209213
0.009771090932190418,0.00114648777525872,-0.01315977517515421,0.01138925552368164,-0.0002259838511236012,0.008949368260800838
0.009468196891248226,0.0011082268320024014,-0.013674144633114338,0.012195282615721226,-0.00021690440189559013,0.00878798309713602
0.00984383374452591,0.0009890904184430838,-0.012914186343550682,0.011644813232123852,-0.00020852724264841527,0.008512887172400951
0.010003599338233471,0.0010806003119796515,-0.013612176291644573,0.011285176500678062,-0.00021716007904615253,0.008441353216767311
0.009559552185237408,0.0010860571637749672,-0.013221384026110172,0.011621284298598766,-0.00022472193813882768,0.008400188758969307
0.009448991157114506,0.0013865866931155324,-0.01319438312202692,0.01094113290309906,-0.00021794741041958332,0.00885660108178854
0.009734805673360825,0.0013565834378823638,-0.013002054765820503,0.0117237139493227,-0.0002107223408529535,0.009301681071519852
0.009733404032886028,0.0012225923128426075,-0.013489550910890102,0.011658374220132828,-0.00019751256331801414,0.008426950313150883
0.00972966942936182,0.0011587628396227956,-0.013767564669251442,0.011540868319571018,-0.0001915077882586047,0.008201131597161293
0.00972966942936182,0.0011587628396227956,-0.013767564669251442,0.011540868319571018,-0.0001915077882586047,0.008201131597161293
0.00986901018768549,0.001178281381726265,-0.012870761565864086,0.011424427852034569,-0.00019963532395195216,0.009166219271719456
0.00986901018768549,0.001178281381726265,-0.012870761565864086,0.011424427852034569,-0.00019963532395195216,0.009166219271719456
0.009941931813955307,0.0013322200393304229,-0.013105930760502815,0.011922994628548622,-0.00020013672474306077,0.009009342640638351
0.009551274590194225,0.0012849717168137431,-0.012885917909443378,0.01145733892917633,-0.00019510855781845748,0.009246569126844406
0.009717201814055443,0.0016076847678050399,-0.01318226009607315,0.011901529505848885,-0.0001899858907563612,0.009422548115253448
0.010036942549049854,0.0016367001226171851,-0.012894690968096256,0.011351009830832481,-0.0001851030538091436,0.009269097819924355
0.00956446398049593,0.0014911432517692447,-0.01329658180475235,0.011280025355517864,-0.0001804632047424093,0.009353848174214363
0.009538199752569199,0.0015075543196871877,-0.013404051773250103,0.011591365560889244,-0.00016891845734789968,0.009146347641944885
0.009994245134294033,0.0014440411468967795,-0.01368376612663269,0.011357469484210014,-0.00015644023369532079,0.00905509665608406
0.009681664407253265,0.0014985527377575636,-0.013247921131551266,0.01227121613919735,-0.00015076628187671304,0.009207265451550484
0.010190178640186787,0.0015217596665024757,-0.01334795169532299,0.01174482237547636,-0.0001458509941585362,0.00939029548317194
0.009938681498169899,0.0017406538827344775,-0.012997561134397984,0.012018543668091297,-0.00016218892415054142,0.009474033489823341
0.010020515881478786,0.0016142957611009479,-0.012564734555780888,0.012051736935973167,-0.00016388441144954413,0.009939589537680149
0.010011172853410244,0.001482696970924735,-0.013400032185018063,0.011261560954153538,-0.00015947643260005862,0.00965068768709898
0.010566879995167255,0.0012802754063159227,-0.013201422989368439,0.011698595248162746,-0.00015492914826609194,0.009413385763764381
0.009669607505202293,0.0013301280559971929,-0.013271423056721687,0.011355447582900524,-0.00015060936857480556,0.009442850947380066
0.010271538980305195,0.0012913228711113334,-0.012726133689284325,0.011749579571187496,-0.0001693040831014514,0.009152889251708984
0.010041429661214352,0.0014586403267458081,-0.013633997179567814,0.012154534459114075,-0.00016632014012429863,0.009885415434837341
0.00973183661699295,0.0015384493162855506,-0.012885384261608124,0.012040084227919579,-0.00016213644994422793,0.01008082926273346
0.010025289840996265,0.0018893486121669412,-0.013371429406106472,0.011789543554186821,-0.0001580744719831273,0.009660592302680016
0.010422351770102978,0.0018178126774728298,-0.013018816709518433,0.011276214383542538,-0.0001542052923468873,0.009519698098301888
0.009653668850660324,0.0016101559158414602,-0.013164037838578224,0.011573663912713528,-0.00015052100934553891,0.009400300681591034
0.00983624067157507,0.0016149597940966487,-0.013160993345081806,0.011714708991348743,-0.00016660545952618122,0.009725278243422508
0.010179461911320686,0.0015493682585656643,-0.013002905063331127,0.011171459220349789,-0.00016408682859037071,0.00970630906522274
0.009952916763722897,0.0016800898592919111,-0.013403542339801788,0.01137477345764637,-0.0001570170425111428,0.009966107085347176
0.010012676008045673,0.001986753661185503,-0.013631785288453102,0.01126921083778143,-0.00022310460917651653,0.009628708474338055
0.010012676008045673,0.001986753661185503,-0.013631785288453102,0.01126921083778143,-0.00022310460917651653,0.009628708474338055
0.010401093401014805,0.0018427823670208454,-0.012972643598914146,0.011487443000078201,-0.00022208546579349786,0.009635410271584988
0.009861861355602741,0.001973838545382023,-0.013465176336467266,0.010910766199231148,-0.00021226091485004872,0.00953423697501421
0.009615417569875717,0.0017704785568639636,-0.013140726834535599,0.011432026512920856,-0.00022255437215790153,0.009373190812766552
0.009676355868577957,0.0016766313929110765,-0.013465550728142262,0.011814055033028126,-0.0002314448938705027,0.009915085509419441
0.010323267430067062,0.0017036526696756482,-0.013108933344483376,0.01138321403414011,-0.000223086797632277,0.010156206786632538
0.010047509334981441,0.0016032110434025526,-0.013460952788591385,0.011611973866820335,-0.0002143102028639987,0.00991488341242075
0.009793542325496674,0.0016989466967061162,-0.01338436733931303,0.011231769807636738,-0.00020613327797036618,0.010262335650622845
0.010587555356323719,0.001748166512697935,-0.013509318232536316,0.011569207534193993,-0.00022724953305441886,0.009658139199018478
0.00971931591629982,0.0017683814512565732,-0.013373013585805893,0.011431172490119934,-0.0002231418329756707,0.00949277076870203
0.009506783448159695,0.0016267565079033375,-0.013608042150735855,0.0110388258472085,-0.00021575648861471564,0.009143220260739326
0.010648496448993683,0.0016170436283573508,-0.013157653622329235,0.011836543679237366,-0.00020862772362306714,0.009782332926988602
0.010011784732341766,0.0016589458100497723,-0.01303457748144865,0.011247776448726654,-0.00022697083477396518,0.009285825304687023
0.009993307292461395,0.0018199201440438628,-0.013653522357344627,0.011137912981212139,-0.00022337163682095706,0.009390097111463547
0.010117286816239357,0.0016656146617606282,-0.013124128803610802,0.010852610692381859,-0.00021686783293262124,0.00952179729938507
0.010369397699832916,0.0017225092742592096,-0.013374855741858482,0.010727670043706894,-0.00021054045646451414,0.009663623757660389
0.00992667581886053,0.0018050884827971458,-0.012857158668339252,0.011592822149395943,-0.00020455884805414826,0.010056697763502598
0.010177204385399818,0.0018123547779396176,-0.01370526198297739,0.011654241010546684,-0.00024833838688209653,0.01028398983180523
0.00992237776517868,0.0018720825901255012,-0.013040207326412201,0.012017096392810345,-0.00024233473232015967,0.00997228641062975
0.010494386777281761,0.0016751742223277688,-0.013630477711558342,0.011659471318125725,-0.00023040598898660392,0.01067869458347559
0.010026087053120136,0.0016495896270498633,-0.013420302420854568,0.011982280761003494,-0.00021921035659033805,0.01052702683955431
0.010413571260869503,0.00141269585583359,-0.013602837920188904,0.011672317050397396,-0.00023933024203870445,0.01127778459340334
0.009913083165884018,0.0015224545495584607,-0.013419479131698608,0.011583349667489529,-0.0002294822916155681,0.009546046145260334
0.009896782226860523,0.001446597627364099,-0.013474030420184135,0.012074767611920834,-0.00022014589922036976,0.009492650628089905
0.010388852097094059,0.0017212480306625366,-0.013252686709165573,0.011414174921810627,-0.00022877803712617606,0.010060437954962254
0.01008940301835537,0.001751333475112915,-0.013689995743334293,0.011919565498828888,-0.00023629749193787575,0.010206513106822968
0.010000091977417469,0.0015321479877457023,-0.014038548804819584,0.0112003143876791,-0.00022876930597703904,0.010401212610304356
0.010000091977417469,0.0015321479877457023,-0.014038548804819584,0.0112003143876791,-0.00022876930597703904,0.010401212610304356
0.01010800339281559,0.0014040837995707989,-0.013895240612328053,0.011343001388013363,-0.000220817732042633,0.010675841011106968
0.010287093929946423,0.0014247354120016098,-0.013162709772586823,0.011679806746542454,-0.00023589868214912713,0.010227967984974384
0.011323598213493824,0.0012998792808502913,-0.014341805130243301,0.011717130430042744,-0.00023531680926680565,0.009861985221505165
0.012125376611948013,0.0013669462641701102,-0.013791326433420181,0.011773824691772461,-0.00022831998649053276,0.010532249696552753
0.011715235188603401,0.0013256045058369637,-0.013822157867252827,0.011236644349992275,-0.00022133135644253343,0.01028544083237648
0.011849791742861271,0.00160433747805655,-0.013299469836056232,0.011361648328602314,-0.00021506930352188647,0.010375915095210075
0.012194027192890644,0.001611885498277843,-0.014027855359017849,0.011250290088355541,-0.0002535308594815433,0.010495992377400398
0.011853841133415699,0.0016169659793376923,-0.013913021422922611,0.01160395611077547,-0.00024313929316122085,0.010170284658670425
0.011937548406422138,0.0016726659378036857,-0.014490921050310135,0.012163661420345306,-0.00023087760200724006,0.010831132531166077
0.01245839148759842,0.00152690545655787,-0.013983475975692272,0.011797619052231312,-0.00021962040045764297,0.011161228641867638
0.012173175811767578,0.001490269205532968,-0.014223192818462849,0.012260287068784237,-0.00020939840760547668,0.010321948677301407
0.01197610143572092,0.0014255940914154053,-0.013932332396507263,0.012684283778071404,-0.00022964441450312734,0.010139808058738708
0.012766414321959019,0.0015129621606320143,-0.014858824200928211,0.012595362961292267,-0.00022919606999494135,0.010523765347898006
0.0122297378256917,0.0015970853855833411,-0.014160222373902798,0.012468659318983555,-0.00022044655634090304,0.010543957352638245
0.012149621732532978,0.0015461455332115293,-0.014764122664928436,0.012125356122851372,-0.00021183627541176975,0.010966230183839798
0.012501625344157219,0.0018615820445120335,-0.01428247895091772,0.012653111480176449,-0.0002038415113929659,0.01066590379923582
0.012054120190441608,0.001714015961624682,-0.014804485253989697,0.011879153549671173,-0.00019642563711386174,0.010519953444600105
0.01277877762913704,0.001743872882798314,-0.014819477684795856,0.011715664528310299,-0.0001895304158097133,0.010675042867660522
0.010820425115525723,0.0017058290541172028,-0.01500636525452137,0.012259242124855518,-0.00019806121417786926,0.010234844870865345
0.01264602318406105,0.0015127112856134772,-0.013816283084452152,0.011322415433824062,-0.0002055980294244364,0.01071438193321228
0.013057103380560875,0.0013867998495697975,-0.014948097057640553,0.011704234406352043,-0.000199985719518736,0.010884000919759274
0.012720360420644283,0.0015189367113634944,-0.014834897592663765,0.01269424520432949,-0.00018810413894243538,0.011654709465801716
0.01241517998278141,0.0015953584806993604,-0.014219637960195541,0.012526387348771095,-0.00018265072139911354,0.011424633674323559
0.012568410485982895,0.0019221068359911442,-0.014895305037498474,0.012612595222890377,-0.0001775039272615686,0.01122000440955162
0.012589865364134312,0.0019277428509667516,-0.014252216555178165,0.012644111178815365,-0.0001726391928968951,0.011159098707139492
0.012644634582102299,0.0019554889295250177,-0.014669125899672508,0.012391673400998116,-0.00016803431208245456,0.01092138234525919
0.012906674295663834,0.0019268933683633804,-0.013876141980290413,0.012901298701763153,-0.0001839699543779716,0.010771418921649456
0.012528450228273869,0.0016713145887479186,-0.014571105130016804,0.01219620555639267,-0.00018211235874332488,0.010700816288590431
0.013184873387217522,0.001661022542975843,-0.013691791333258152,0.01226891577243805,-0.00017779762856662273,0.010958167724311352
0.013184873387217522,0.001661022542975843,-0.013691791333258152,0.01226891577243805,-0.00017779762856662273,0.010958167724311352
0.012491384521126747,0.0015881378203630447,-0.014522791840136051,0.012240435928106308,-0.00017352418217342347,0.011306514032185078
0.012935730628669262,0.0018127779476344585,-0.013942084275186062,0.011840258724987507,-0.00016944122035056353,0.011092389933764935
0.012663496658205986,0.0017383121885359287,-0.014619747176766396,0.011937822215259075,-0.0001655452069826424,0.011245373636484146
0.012822155840694904,0.002056864323094487,-0.013935795985162258,0.011585521511733532,-0.00016144648543559015,0.011238381266593933
0.01278450433164835,0.0019949611742049456,-0.014773126691579819,0.011879850178956985,-0.00015598458412569016,0.011064579710364342
0.012789184227585793,0.0019930414855480194,-0.013900390826165676,0.012137986719608307,-0.00015076629642862827,0.01158478669822216
0.01269197091460228,0.00187865667976439,-0.014545644633471966,0.01193333137780428,-0.0001458790065953508,0.011181368492543697
0.012507455423474312,0.001650531659834087,-0.014120034873485565,0.012117053382098675,-0.00014129807823337615,0.010936967097222805
0.01302482932806015,0.0016642909031361341,-0.014816165901720524,0.011838669888675213,-0.0001572852925164625,0.011514049954712391
0.012574484571814537,0.0016064440133050084,-0.014025417156517506,0.012486043386161327,-0.00015907328634057194,0.011254232376813889
0.013227159157395363,0.0016551619628444314,-0.01462552323937416,0.012182689271867275,-0.00015492922102566808,0.011375358328223228
0.012806450016796589,0.00190351449418813,-0.01393759623169899,0.012235144153237343,-0.0001724279427435249,0.012147912755608559
0.012932613492012024,0.001909364596940577,-0.014444757252931595,0.012217384763062,-0.00017075608775485307,0.0111008882522583
0.013086836785078049,0.002011106815189123,-0.01401181984692812,0.01241275854408741,-0.00018406231538392603,0.01148899458348751
0.013044142164289951,0.001973979640752077,-0.014751172624528408,0.012223036028444767,-0.00018493414972908795,0.012340244837105274
0.01334103848785162,0.0019418728770688176,-0.014036262407898903,0.012008730322122574,-0.00034723695716820657,0.01261234562844038
0.013047449290752411,0.0019158130744472146,-0.014830109663307667,0.012557792477309704,-0.00034443812910467386,0.012256254442036152
0.013541541062295437,0.0017320100450888276,-0.014508930034935474,0.011911463923752308,-0.00036864206776954234,0.01195234153419733
0.013331721536815166,0.001784133492037654,-0.014809506945312023,0.011787384748458862,-0.0003589431580621749,0.012402539141476154
0.013511508703231812,0.0020317300222814083,-0.014613205567002296,0.011925548315048218,-0.00036873025237582624,0.012403830885887146
0.013865970075130463,0.002194884931668639,-0.0141673618927598,0.012069674208760262,-0.00038675646646879613,0.012655518017709255
0.013157712295651436,0.0020909912418574095,-0.014507550746202469,0.011585867963731289,-0.0004791409592144191,0.012052812613546848
0.013710285536944866,0.001974253449589014,-0.01428092923015356,0.012119606137275696,-0.0005970635102130473,0.011507037095725536
0.013535861857235432,0.0019290007185190916,-0.01501369383186102,0.0115504190325737,-0.0006457337294705212,0.011678078211843967
0.01382200326770544,0.0018048271303996444,-0.014184036292135715,0.011573662050068378,-0.0006767445593141019,0.01190784852951765
0.013661883771419525,0.0016491878777742386,-0.014646407216787338,0.01174953393638134,-0.0010225983569398522,0.011733407154679298
0.013721532188355923,0.001612667110748589,-0.014106234535574913,0.011157944798469543,-0.0010483341757208109,0.011792737990617752
0.013731819577515125,0.001841763500124216,-0.014806301333010197,0.011713490821421146,-0.0009971107356250286,0.012137332931160927
0.01393790915608406,0.0021113974507898092,-0.01441774982959032,0.012029820121824741,-0.0009498613653704524,0.012344743125140667
0.01393790915608406,0.0021113974507898092,-0.01441774982959032,0.012029820121824741,-0.0009498613653704524,0.012344743125140667
0.013849333859980106,0.0018889667699113488,-0.01481108833104372,0.012372531928122044,-0.0008972490322776139,0.012401438318192959
0.01394765917211771,0.0017847358249127865,-0.014107645489275455,0.012677480466663837,-0.0008665022323839366,0.01224876381456852
0.013824271969497204,0.0018165226792916656,-0.014390428550541401,0.012372373603284359,-0.0008695943397469819,0.012926237657666206
0.014133337885141373,0.0016955933533608913,-0.01390845701098442,0.01268825214356184,-0.0008174526155926287,0.012847122736275196
0.014123132452368736,0.0018835641676560044,-0.014806075021624565,0.012248339131474495,-0.0008161691948771477,0.012902339920401573
0.014190129935741425,0.001930674072355032,-0.01423901878297329,0.01244155503809452,-0.0007475275197066367,0.012555227614939213
0.014075826853513718,0.0019829298835247755,-0.014653271995484829,0.012139145284891129,-0.0007522900123149157,0.012511491775512695
0.014110912568867207,0.0019380036974325776,-0.014057093299925327,0.012108511291444302,-0.0007461963687092066,0.012564769946038723
0.014401771128177643,0.0018982981564477086,-0.014501224271953106,0.012538922019302845,-0.0006811161292716861,0.012115050107240677
0.014488855376839638,0.0017578371334820986,-0.014080807566642761,0.012043017894029617,-0.0006064061890356243,0.012641741894185543
0.014265214093029499,0.0018827775493264198,-0.014802847988903522,0.012113274075090885,-0.000629469461273402,0.01252149697393179
0.014528111554682255,0.001765209948644042,-0.014472190290689468,0.012023254297673702,-0.0005772444419562817,0.01305790152400732
0.014674358069896698,0.001992788864299655,-0.014441348612308502,0.011946743354201317,-0.0005844989791512489,0.013006651774048805
0.014927200973033905,0.0017841685330495238,-0.014033745974302292,0.012255378067493439,-0.000556480314116925,0.012851282022893429
0.014592916704714298,0.0017491189064458013,-0.01477346196770668,0.012308814562857151,-0.0005175799014978111,0.012847935780882835
0.014443943277001381,0.0017056148499250412,-0.01451082993298769,0.012518011964857578,-0.00048291555140167475,0.012674449943006039
0.014668782241642475,0.0018992340192198753,-0.014418553560972214,0.012104983441531658,-0.000434002373367548,0.012838505208492279
0.014910304918885231,0.0022382414899766445,-0.014746932312846184,0.01252848282456398,-0.00035083849797956645,0.012865928933024406
0.015035185031592846,0.0020479420199990273,-0.014612304978072643,0.012568039819598198,-0.0003253829781897366,0.01278158463537693
0.015383637510240078,0.0021959056612104177,-0.014797475188970566,0.012683385983109474,-0.00030342451645992696,0.013271952979266644
0.015254754573106766,0.0020862112287431955,-0.014493055641651154,0.01244619581848383,-0.0003371330094523728,0.013265212997794151
0.014693750068545341,0.0022604186087846756,-0.014740786515176296,0.012839867733418941,-0.0003205607063136995,0.014414315111935139
0.014693750068545341,0.0022604186087846756,-0.014740786515176296,0.012839867733418941,-0.0003205607063136995,0.014414315111935139
0.015041894279420376,0.0021627689711749554,-0.015361478552222252,0.012421686202287674,-0.00028673530323430896,0.012223540805280209
0.01580565609037876,0.002279341220855713,-0.014896109700202942,0.012096008285880089,-0.0002722730569075793,0.01284263376146555
0.01580565609037876,0.002279341220855713,-0.014896109700202942,0.012096008285880089,-0.0002722730569075793,0.01284263376146555
0.015653135254979134,0.00215224944986403,-0.015179773792624474,0.012428891845047474,-0.0002881674445234239,0.01345799583941698
0.015653135254979134,0.00215224944986403,-0.015179773792624474,0.012428891845047474,-0.0002881674445234239,0.01345799583941698
0.015938665717840195,0.0019429659005254507,-0.014554113149642944,0.012396901845932007,-0.00026432593585923314,0.013264576904475689
0.015938665717840195,0.0019429659005254507,-0.014554113149642944,0.012396901845932007,-0.00026432593585923314,0.013264576904475689
0.01531917229294777,0.0018755097407847643,-0.014589543454349041,0.012222581543028355,-0.00025368155911564827,0.013311195187270641
0.015330745838582516,0.0020880126394331455,-0.01498404797166586,0.012129632756114006,-0.00024386031145695597,0.01374336238950491
0.015623437240719795,0.0025128982961177826,-0.015323014929890633,0.01188644114881754,-0.00023477085051126778,0.013458546251058578
0.01578231155872345,0.002435185480862856,-0.015385361388325691,0.012095511890947819,-0.00022633573098573834,0.013657976873219013
0.016327060759067535,0.00231000455096364,-0.014655932784080505,0.012283077463507652,-0.0002184850600315258,0.013516961596906185
0.015556774102151394,0.0023045057896524668,-0.015290860086679459,0.012033970095217228,-0.0002334870514459908,0.013353962451219559
0.01603212207555771,0.0021634309086948633,-0.014721076935529709,0.012868218123912811,-0.00023298787709791213,0.013888916932046413
0.015886683017015457,0.002180493902415037,-0.015418066643178463,0.013443347066640854,-0.00022613098553847522,0.013866233639419079
0.016489317640662193,0.002107148990035057,-0.014993847347795963,0.012395222671329975,-0.00021927333727944642,0.013796629384160042
0.015928486362099648,0.0022744149900972843,-0.015236148610711098,0.011667842045426369,-0.0002127944608218968,0.013872415758669376
0.016369231045246124,0.00249433983117342,-0.014699595980346203,0.01201156247407198,-0.00018894056847784668,0.01418397482484579
0.01645086333155632,0.0024195299483835697,-0.015876345336437225,0.012836446985602379,-0.0001792171533452347,0.014066868461668491
0.01625083200633526,0.0022686547599732876,-0.01493894960731268,0.012245570309460163,-0.0001722135057207197,0.014066469855606556
0.01610039733350277,0.002133507514372468,-0.014832385815680027,0.012750156223773956,-0.0001658561232034117,0.013676011934876442
0.01635557971894741,0.0021483981981873512,-0.014449246227741241,0.012497427873313427,-0.00015995954163372517,0.014024556614458561
0.016544748097658157,0.0021557221189141273,-0.015569698996841908,0.012753823772072792,-0.00017868430586531758,0.01393438596278429
0.016805492341518402,0.0024055647663772106,-0.015557747334241867,0.01257116999477148,-0.0001734174438752234,0.013869942165911198
0.01690787635743618,0.002317107515409589,-0.015225681476294994,0.012704433873295784,-0.00016805087216198444,0.01396497618407011
0.016832653433084488,0.0024500691797584295,-0.01496341172605753,0.012747504748404026,-0.00016298053378704935,0.014155329205095768
0.016901884227991104,0.0022044789511710405,-0.015215062536299229,0.013052796013653278,-0.00017114514776039869,0.014232838526368141
0.016539523378014565,0.0022491137497127056,-0.015329820103943348,0.012414422817528248,-0.00017844211834017187,0.014008033089339733
0.017204927280545235,0.0023934815544635057,-0.015556888654828072,0.012572357431054115,-0.0001742984022712335,0.014188519679009914
0.01699957251548767,0.002322516869753599,-0.014815929345786572,0.012664683163166046,-0.00016965641407296062,0.014275834895670414
0.017095645889639854,0.002543205162510276,-0.015419580042362213,0.013094565831124783,-0.00016521028010174632,0.014563949778676033
0.017337536439299583,0.0025654041673988104,-0.015110033564269543,0.01324298232793808,-0.00016098853666335344,0.014329785481095314
0.017337536439299583,0.0025654041673988104,-0.015110033564269543,0.01324298232793808,-0.00016098853666335344,0.014329785481095314
0.017544737085700035,0.00224872212857008,-0.015094121918082237,0.012540437281131744,-0.00015316056669689715,0.014449367299675941
0.017544737085700035,0.00224872212857008,-0.015094121918082237,0.012540437281131744,-0.00015316056669689715,0.014449367299675941
0.01731749437749386,0.002169283339753747,-0.01561108510941267,0.012318912893533707,-0.0001495250326115638,0.01473318599164486
0.017319878563284874,0.002223309827968478,-0.014736637473106384,0.0128256781026721,-0.00014605867909267545,0.01455459464341402
0.017525821924209595,0.0021614502184093,-0.015279637649655342,0.012837988324463367,-0.0001604619319550693,0.014895537868142128
0.017258349806070328,0.002330043585970998,-0.015092531219124794,0.012708439491689205,-0.0001593518245499581,0.01599525474011898
0.01771482825279236,0.0026455584447830915,-0.015270523726940155,0.012715039774775505,-0.0001560573000460863,0.014542543329298496
0.017702603712677956,0.002455182373523712,-0.015223901718854904,0.012598583474755287,-0.00015275654732249677,0.013834030367434025
0.017587365582585335,0.0023005956318229437,-0.015551955439150333,0.012774630449712276,-0.00014958373503759503,0.014482684433460236
0.018073908984661102,0.0023084746208041906,-0.01559778954833746,0.012588633224368095,-0.00014653925609309226,0.014825507067143917
0.017976952716708183,0.002232553903013468,-0.015201005153357983,0.012897486798465252,-0.00014361619832925498,0.015073325484991074
0.018067937344312668,0.002176146022975445,-0.015592214651405811,0.012312669306993484,-0.00014080748951528221,0.015137852169573307
0.017594825476408005,0.0021639226470142603,-0.015149407088756561,0.012836350128054619,-0.0001381835900247097,0.015332045033574104
0.017703957855701447,0.002496014814823866,-0.015518531203269958,0.012595578096807003,-0.0001508537825429812,0.015277382917702198
0.018146764487028122,0.0024331158492714167,-0.01496357936412096,0.013179589062929153,-0.0001470547285862267,0.01537716668099165
0.018668919801712036,0.0023313183337450027,-0.01571320742368698,0.01292230375111103,-0.00014247202489059418,0.015954019501805305
0.018608631566166878,0.002091828500851989,-0.015213925391435623,0.013184149749577045,-0.00015724930563010275,0.014914566650986671
0.018302973359823227,0.0022196369245648384,-0.015037129633128643,0.013072564266622066,-0.00015590942348353565,0.014791521243751049
0.018058817833662033,0.0025472959969192743,-0.01578381098806858,0.013590557500720024,-0.000151737142005004,0.015538312494754791
0.01823495328426361,0.0024857043754309416,-0.014931532554328442,0.013205474242568016,-0.00015968261868692935,0.015675745904445648
0.01916757971048355,0.0026935674250125885,-0.015389145351946354,0.013324471190571785,-0.00016680477710906416,0.015752587467432022
0.019003083929419518,0.00250618951395154,-0.015200759284198284,0.012800714932382107,-0.000163224438438192,0.01566619612276554
0.018259011209011078,0.002335910452529788,-0.01564238965511322,0.01315272692590952,-0.0001788918161764741,0.015694014728069305
0.017944728955626488,0.0024058381095528603,-0.015800869092345238,0.012961144559085369,-0.00017721149197313935,0.015431610867381096
0.017944728955626488,0.0024058381095528603,-0.015800869092345238,0.012961144559085369,-0.00017721149197313935,0.015431610867381096
0.018763190135359764,0.002450949978083372,-0.016465621069073677,0.01334562711417675,-0.00030396407237276435,0.016093626618385315
0.01854289323091507,0.0028351591899991035,-0.015665732324123383,0.01336999423801899,-0.00030271479045040905,0.016134552657604218
0.01854289323091507,0.0028351591899991035,-0.015665732324123383,0.01336999423801899,-0.00030271479045040905,0.016134552657604218
0.01898650825023651,0.002650612033903599,-0.016410812735557556,0.013256086967885494,-0.00033405626891180873,0.016260234639048576
0.01881052739918232,0.0023885262198746204,-0.015479966066777706,0.013039770536124706,-0.00032100288080982864,0.015962425619363785
0.018061939626932144,0.0022903892677277327,-0.015758611261844635,0.013088889420032501,-0.00034068082459270954,0.015999820083379745
0.018498633056879044,0.0021075820550322533,-0.014991757459938526,0.012661748565733433,-0.0003343004791531712,0.015367627143859863
0.018575705587863922,0.0024965964257717133,-0.016164258122444153,0.012617644853889942,-0.0003181777719873935,0.015571372583508492
0.018911544233560562,0.0027944413013756275,-0.016110282391309738,0.012270237319171429,-0.00032405529054813087,0.015664339065551758
0.019562378525733948,0.002846780465915799,-0.016618134453892708,0.012877054512500763,-0.0003288693551439792,0.016059918329119682
0.019195053726434708,0.0026879175566136837,-0.01646534353494644,0.01298192422837019,-0.00031641681562177837,0.0164348017424345
0.018974630162119865,0.0028269116301089525,-0.015490425750613213,0.012969298288226128,-0.0004099938669241965,0.016709377989172935
0.01888139918446541,0.0028658455703407526,-0.01639004796743393,0.013089600019156933,-0.00042020913679152727,0.016819696873426437
0.018905658274888992,0.0029641876462846994,-0.016058452427387238,0.012780304998159409,-0.00042163467151112854,0.016178587451577187
0.01874946802854538,0.002728726016357541,-0.017012866213917732,0.012953661382198334,-0.0003931642568204552,0.016340773552656174
0.019211098551750183,0.0026578991673886776,-0.015972133725881577,0.012955964542925358,-0.00041938788490369916,0.01596185192465782
0.019309109076857567,0.0026585340965539217,-0.01598234474658966,0.013571005314588547,-0.00039996649138629436,0.01619323156774044
0.019095944240689278,0.0024813690688461065,-0.01642710156738758,0.013496512547135353,-0.0004230415215715766,0.016105860471725464
0.019567621871829033,0.0023818183690309525,-0.016131682321429253,0.01305274199694395,-0.0004727588384412229,0.01597866788506508
0.01971813477575779,0.0025695839431136847,-0.015350268222391605,0.013115310110151768,-0.0005221449537202716,0.016229035332798958
0.019564861431717873,0.0026789752300828695,-0.016308357939124107,0.012759456411004066,-0.0004966695560142398,0.016506560146808624
0.019350189715623856,0.0027456318493932486,-0.016355358064174652,0.012451432645320892,-0.000521713518537581,0.016279147937893867
0.01952439546585083,0.0024875751696527004,-0.016526389867067337,0.013401840813457966,-0.0004901157226413488,0.016585741192102432
0.01952439546585083,0.0024875751696527004,-0.016526389867067337,0.013401840813457966,-0.0004901157226413488,0.016585741192102432
0.019420139491558075,0.0024481769651174545,-0.01599796675145626,0.012990142218768597,-0.00048534158850088716,0.016874559223651886
0.019420139491558075,0.0024481769651174545,-0.01599796675145626,0.012990142218768597,-0.00048534158850088716,0.016874559223651886
0.01941506750881672,0.002628644462674856,-0.016221312806010246,0.012986899353563786,-0.0005976431421004236,0.01708131469786167
0.019879087805747986,0.0023460197262465954,-0.01643558219075203,0.013519969768822193,-0.0005761947249993682,0.016883013769984245
0.019879087805747986,0.0023460197262465954,-0.01643558219075203,0.013519969768822193,-0.0005761947249993682,0.016883013769984245
0.019397618249058723,0.002202635630965233,-0.015683017671108246,0.01375346165150404,-0.0005849235458299518,0.016473060473799706
0.019981348887085915,0.00228416477330029,-0.016291750594973564,0.013304540887475014,-0.0005531749920919538,0.016791123896837234
0.019852491095662117,0.0021856871899217367,-0.01606660522520542,0.014102941378951073,-0.0005724789807572961,0.016784830018877983
0.019612310454249382,0.002515755593776703,-0.016210617497563362,0.013726526871323586,-0.0005382905364967883,0.016806969419121742
0.02003483660519123,0.002761494368314743,-0.016494540497660637,0.014156309887766838,-0.0005552934017032385,0.01702994480729103
0.019969549030065536,0.0027515769470483065,-0.01618468202650547,0.01327964011579752,-0.000512460246682167,0.01684231124818325
0.019896604120731354,0.002856896724551916,-0.016505181789398193,0.013471955433487892,-0.0005055977962911129,0.01701214723289013
0.02028612047433853,0.0025579596403986216,-0.015796517953276634,0.013346804305911064,-0.0004989044973626733,0.01695043221116066
0.02073024772107601,0.002424033125862479,-0.01606304757297039,0.013334144838154316,-0.0004590851895045489,0.01706070825457573
0.02027297578752041,0.0026204909663647413,-0.015613449737429619,0.01341967098414898,-0.0004887861432507634,0.017202308401465416
0.020357146859169006,0.0028434183914214373,-0.016077842563390732,0.013052881695330143,-0.000457552436273545,0.01751149818301201
0.021087462082505226,0.0026220588479191065,-0.015951067209243774,0.013297408819198608,-0.00045643336488865316,0.017682740464806557
0.02082509733736515,0.002735582645982504,-0.016189033165574074,0.013355033472180367,-0.0004547939752228558,0.017275290563702583
0.020556364208459854,0.0026976766530424356,-0.016322098672389984,0.013665754348039627,-0.0004294401151128113,0.017356472089886665
0.020080240443348885,0.002720783930271864,-0.016461702063679695,0.014086980372667313,-0.0003955798747483641,0.016863366588950157
0.02096077986061573,0.0029669019859284163,-0.01599150337278843,0.013614080846309662,-0.0004314797115512192,0.017158908769488335
0.021106135100126266,0.0032012956216931343,-0.016452958807349205,0.01376322191208601,-0.00043628213461488485,0.01745213381946087
0.02089124359190464,0.003102309536188841,-0.016011793166399002,0.013010893948376179,-0.00043619482312351465,0.018029550090432167
0.02089124359190464,0.003102309536188841,-0.016011793166399002,0.013010893948376179,-0.00043619482312351465,0.018029550090432167
0.0213114395737648,0.0030623904895037413,-0.01635284535586834,0.013116373680531979,-0.0004382491169963032,0.018052369356155396
0.02114463597536087,0.003399195149540901,-0.016078094020485878,0.013387498445808887,-0.0004378842713776976,0.017205627635121346
0.020956916734576225,0.0031119603663682938,-0.01625397615134716,0.01348285935819149,-0.0005403135437518358,0.017264751717448235
0.020771538838744164,0.003095153020694852,-0.01657048612833023,0.013481381349265575,-0.0005208927905187011,0.017406346276402473
0.02080138400197029,0.0029265661723911762,-0.01603943295776844,0.013390233740210533,-0.0004693366645369679,0.018156928941607475
0.021117476746439934,0.0028625638224184513,-0.016409920528531075,0.01389386411756277,-0.0005040141986683011,0.018125060945749283
0.021315744146704674,0.0028839788865298033,-0.01637124828994274,0.013906951062381268,-0.00042898731771856546,0.017587760463356972
0.021315744146704674,0.0028839788865298033,-0.01637124828994274,0.013906951062381268,-0.00042898731771856546,0.017587760463356972
0.021097157150506973,0.002961172955110669,-0.016307318583130836,0.013609737157821655,-0.0004460714990273118,0.017330767586827278
0.02163570746779442,0.0029005794785916805,-0.016489073634147644,0.013935208320617676,-0.0004306980990804732,0.01774810254573822
0.022053251042962074,0.0031510803382843733,-0.01658250391483307,0.013572371564805508,-0.0004465407691895962,0.017512161284685135
0.02170647494494915,0.0029271235689520836,-0.016085674986243248,0.014159890823066235,-0.0004330041992943734,0.018019868060946465
0.021496454253792763,0.0031172537710517645,-0.016748525202274323,0.013934069313108921,-0.0004211585328448564,0.0186461191624403
0.021289624273777008,0.0029633063822984695,-0.016231393441557884,0.014262544922530651,-0.00039830789319239557,0.018441174179315567
0.021255016326904297,0.002835806692019105,-0.016574205830693245,0.013452685438096523,-0.00036676094168797135,0.017992470413446426
0.02158995345234871,0.0026414538733661175,-0.015880636870861053,0.014009284786880016,-0.00033915883977897465,0.018143996596336365
0.021973300725221634,0.0028756968677043915,-0.01642865687608719,0.013476907275617123,-0.00031537553877569735,0.018336236476898193
0.02176518924534321,0.002969643333926797,-0.016824951395392418,0.014178409241139889,-0.00029470844310708344,0.018130259588360786
0.02161562256515026,0.003029980231076479,-0.016323072835803032,0.01373659260571003,-0.0003035005065612495,0.01846550963819027
0.021983934566378593,0.002847213065251708,-0.016820287331938744,0.014289912767708302,-0.0003108199161943048,0.01854274608194828
0.021869106218218803,0.0028522342909127474,-0.016177233308553696,0.013982953503727913,-0.00029543275013566017,0.018290048465132713
0.0218990258872509,0.0029015361797064543,-0.016616635024547577,0.014134283177554607,-0.00028020518948324025,0.0184931643307209
0.022311583161354065,0.003202222753316164,-0.016696784645318985,0.013879507780075073,-0.00025385746266692877,0.018655473366379738
0.02218635007739067,0.002870285650715232,-0.01765524595975876,0.014197783544659615,-0.00027746392879635096,0.01870228722691536
0.021808985620737076,0.002706856932491064,-0.016683772206306458,0.014221826568245888,-0.00027035604580305517,0.01827259175479412
0.021644800901412964,0.0026984550058841705,-0.016995925456285477,0.013880237936973572,-0.00025953035219572484,0.018884330987930298
0.02191285416483879,0.002729403553530574,-0.016514357179403305,0.014315211214125156,-0.00024928009952418506,0.019274674355983734
0.02191285416483879,0.002729403553530574,-0.016514357179403305,0.014315211214125156,-0.00024928009952418506,0.019274674355983734
0.02220584638416767,0.0028312194626778364,-0.016695041209459305,0.014403234235942364,-0.0002717217430472374,0.018808072432875633
0.021963881328701973,0.0028792202938348055,-0.01678498089313507,0.014506635256111622,-0.0002638461592141539,0.01883534900844097
0.0223840419203043,0.0028111066203564405,-0.01728902943432331,0.014276552014052868,-0.00023882642562966794,0.01875508762896061
0.0223840419203043,0.0028111066203564405,-0.01728902943432331,0.014276552014052868,-0.00023882642562966794,0.01875508762896061
0.02255755290389061,0.002897375961765647,-0.01690864749252796,0.015428617596626282,-0.00022512748546432704,0.01897963508963585
0.02111903764307499,0.0031461992766708136,-0.017021233215928078,0.014329197816550732,-0.00025140412617474794,0.019291609525680542
0.022885022684931755,0.003060185117647052,-0.01677391678094864,0.014181297272443771,-0.000245071278186515,0.018823973834514618
0.022890310734510422,0.002988117514178157,-0.017092062160372734,0.01425512507557869,-0.0002686519001144916,0.018972599878907204
0.022527426481246948,0.0029510101303458214,-0.01684412732720375,0.014348110184073448,-0.0002621434396132827,0.019238552078604698
0.02261209487915039,0.0030326240230351686,-0.01699158176779747,0.014568408951163292,-0.0002785742690321058,0.019015558063983917
0.022407691925764084,0.0032591093331575394,-0.017314400523900986,0.014095735736191273,-0.00027629121905192733,0.019009893760085106
0.022694285959005356,0.0033863584976643324,-0.01687495782971382,0.013616809621453285,-0.0004945892142131925,0.01928442344069481
0.022523974999785423,0.0031099317129701376,-0.016922784969210625,0.013626575469970703,-0.0005214443081058562,0.019276227802038193
0.02349548041820526,0.0030554565601050854,-0.016593193635344505,0.013843575492501259,-0.0005151542136445642,0.019395913928747177
0.023823339492082596,0.0033831410109996796,-0.016494033858180046,0.01395549438893795,-0.0005109519697725773,0.019395634531974792
0.023334942758083344,0.0036980395670980215,-0.016288157552480698,0.013928341679275036,-0.0005047554732300341,0.01957479491829872
0.023393889889121056,0.0032524014823138714,-0.01655275747179985,0.01415906473994255,-0.000527304015122354,0.020041441544890404
0.02209058776497841,0.003237429540604353,-0.017593584954738617,0.013757861219346523,-0.0005865920102223754,0.01989644579589367
0.023171937093138695,0.0033446927554905415,-0.01677786000072956,0.013949756510555744,-0.0005943760625086725,0.019683998078107834
0.023521484807133675,0.003221966326236725,-0.016694089397788048,0.014149713329970837,-0.0006209408165886998,0.019811376929283142
0.023719269782304764,0.0034563210792839527,-0.01694774068892002,0.014897484332323074,-0.0005682099144905806,0.019527718424797058
0.023564079776406288,0.0034450646489858627,-0.016680225729942322,0.014500519260764122,-0.000546822149772197,0.020070703700184822
0.023958977311849594,0.003218546276912093,-0.016512207686901093,0.014048333279788494,-0.0005664430209435523,0.019873416051268578
0.024225909262895584,0.0032617910765111446,-0.017349595203995705,0.014057979919016361,-0.0005330252461135387,0.019921382889151573
0.0243472158908844,0.003218164900317788,-0.01735031232237816,0.013971425592899323,-0.0005453762714751065,0.02034989930689335
0.0243472158908844,0.003218164900317788,-0.01735031232237816,0.013971425592899323,-0.0005453762714751065,0.02034989930689335
0.023449821397662163,0.003159397514536977,-0.016632992774248123,0.014403227716684341,-0.0005794784519821405,0.019574206322431564
0.02365792542695999,0.0033365788403898478,-0.01691390946507454,0.01475097518414259,-0.0005994171369820833,0.019299698993563652
0.02364065870642662,0.003232122166082263,-0.016389016062021255,0.015279117040336132,-0.0005663688061758876,0.019340291619300842
0.024455389007925987,0.0034601360093802214,-0.01732390932738781,0.01478505227714777,-0.0005899934913031757,0.02031274139881134
0.02479124255478382,0.0035960148088634014,-0.01715979538857937,0.014674329198896885,-0.0007162486435845494,0.020883554592728615
0.0245960745960474,0.0037634074687957764,-0.017096415162086487,0.014278384856879711,-0.0007324100588448346,0.020212525501847267
0.02443188801407814,0.003349001519382,-0.017193345353007317,0.014670982956886292,-0.0006977040902711451,0.019232554361224174
0.02444690279662609,0.0032405266538262367,-0.01661553792655468,0.0144500732421875,-0.0007102026138454676,0.019366424530744553
0.02427917905151844,0.002981935627758503,-0.017087874934077263,0.014861340634524822,-0.0006938951555639505,0.019957376644015312
0.024599509313702583,0.0031941975466907024,-0.01715673878788948,0.014829142019152641,-0.0006702646496705711,0.02084141969680786
0.024563845247030258,0.003132327925413847,-0.01742713339626789,0.015765193849802017,-0.0006609300617128611,0.02047368325293064
0.024596992880105972,0.003458305960521102,-0.017157316207885742,0.015609490685164928,-0.0006173026049509645,0.019948065280914307
0.02561570703983307,0.0031811620574444532,-0.016664955765008926,0.014763199724256992,-0.0006390628404915333,0.020155515521764755
0.02505057491362095,0.003202190389856696,-0.01724914088845253,0.014260745607316494,-0.0006664844113402069,0.021557055413722992
0.024826334789395332,0.0032404044177383184,-0.016877204179763794,0.014269842766225338,-0.0006559728644788265,0.021761644631624222
0.025166302919387817,0.0031496805604547262,-0.017019785940647125,0.014491027221083641,-0.0006381368148140609,0.020732633769512177
0.02493833564221859,0.003397613763809204,-0.017276598140597343,0.015166031196713448,-0.0007220294210128486,0.02005423605442047
0.025494052097201347,0.0032004867680370808,-0.017060084268450737,0.0149280596524477,-0.0007497848710045218,0.019947217777371407
0.02566903457045555,0.0029957671649754047,-0.017394470050930977,0.014691503718495369,-0.0007684454903937876,0.020484210923314095
0.02591727301478386,0.0030313399620354176,-0.016647959128022194,0.01424387190490961,-0.0007761975284665823,0.02079186588525772
0.02569068968296051,0.0032276445999741554,-0.016784364357590675,0.014506904408335686,-0.0007166996947489679,0.021358098834753036
0.025542862713336945,0.0032021321821957827,-0.01754504069685936,0.014662780798971653,-0.0007656898815184832,0.021361157298088074
0.026046013459563255,0.0032215106766670942,-0.017424101009964943,0.014870520681142807,-0.0006940634339116514,0.020930666476488113
0.025124136358499527,0.0031164244282990694,-0.017060190439224243,0.014505906030535698,-0.0006153751164674759,0.02105429582297802
0.02577388845384121,0.0031693214550614357,-0.017428778111934662,0.015500127337872982,-0.0006315362988971174,0.02133982814848423
0.026261847466230392,0.0033533305395394564,-0.01791437529027462,0.01526573859155178,-0.0005836999625898898,0.021222352981567383
0.026261847466230392,0.0033533305395394564,-0.01791437529027462,0.01526573859155178,-0.0005836999625898898,0.021222352981567383
0.025978971272706985,0.003355225082486868,-0.016911886632442474,0.015107899904251099,-0.0005348037229850888,0.02139372192323208
0.026413148269057274,0.003174243029206991,-0.01756683737039566,0.014434365555644035,-0.0005537208635360003,0.02176370471715927
0.026328155770897865,0.0032894467003643513,-0.01748761348426342,0.014891484752297401,-0.000521843321621418,0.021562425419688225
0.026701821014285088,0.0031443412881344557,-0.017138823866844177,0.014847376383841038,-0.0004891526768915355,0.02105031907558441
0.027239840477705002,0.003508324036374688,-0.017182160168886185,0.014665789902210236,-0.0004154602065682411,0.021205374971032143
0.026880811899900436,0.0031899651512503624,-0.017068931832909584,0.014078178443014622,-0.0004151916073169559,0.02157501131296158
0.02627214789390564,0.0033024316653609276,-0.017525333911180496,0.01506002340465784,-0.00041633046930655837,0.02171195298433304
0.026694901287555695,0.0032992297783493996,-0.01725391112267971,0.015104644000530243,-0.0004444698861334473,0.021395057439804077
0.027523687109351158,0.0031129145063459873,-0.017432859167456627,0.01565936952829361,-0.000466872937977314,0.021668044850230217
0.02769860439002514,0.0029174773953855038,-0.017892390489578247,0.01556503027677536,-0.0004528722201939672,0.02150762639939785
0.02683206833899021,0.0028126961551606655,-0.017395656555891037,0.015838811174035072,-0.0006358156097121537,0.021244091913104057
0.02443266101181507,0.00297224591486156,-0.018268723040819168,0.015613808296620846,-0.0005713162245228887,0.021125052124261856
0.027189716696739197,0.003188173286616802,-0.017505325376987457,0.015536767430603504,-0.0006018992862664163,0.02170710079371929
0.027427608147263527,0.0031955826561897993,-0.017348863184452057,0.015619685873389244,-0.0005470594041980803,0.021637482568621635
0.02644113264977932,0.0033281685318797827,-0.01864846609532833,0.015590124763548374,-0.0005370242288336158,0.021876368671655655
0.02705073170363903,0.0031869634985923767,-0.01743880659341812,0.015295203775167465,-0.0005281925550661981,0.021723603829741478
0.027950400486588478,0.003532135160639882,-0.017576051875948906,0.015078147873282433,-0.0004895005840808153,0.021803176030516624
0.027864228934049606,0.003237151773646474,-0.01731756329536438,0.015542825683951378,-0.0005146636976860464,0.02203763835132122
0.027459556236863136,0.003212968586012721,-0.017424577847123146,0.01554777566343546,-0.00048401416279375553,0.02239234931766987
0.026409221813082695,0.003237745026126504,-0.018557125702500343,0.015774035826325417,-0.00045742435031570494,0.022153038531541824
0.026936935260891914,0.0030865645967423916,-0.018053296953439713,0.014999995939433575,-0.00047752386308275163,0.021972283720970154
0.027859454974532127,0.003143299836665392,-0.018014464527368546,0.015438433736562729,-0.0004560914821922779,0.021494241431355476
0.027407249435782433,0.0033028533216565847,-0.018124565482139587,0.015322173945605755,-0.0004732930101454258,0.021194670349359512
0.027509082108736038,0.0031023751944303513,-0.017542853951454163,0.015768375247716904,-0.00045517802936956286,0.02135157398879528
0.0278342105448246,0.0032338930759578943,-0.01760299876332283,0.015204694122076035,-0.0007129766163416207,0.022382887080311775
0.027246804907917976,0.003577830269932747,-0.017857898026704788,0.015126666985452175,-0.0007485764799639583,0.02249741367995739
0.027246804907917976,0.003577830269932747,-0.017857898026704788,0.015126666985452175,-0.0007485764799639583,0.02249741367995739
0.027286212891340256,0.0035288138315081596,-0.018287621438503265,0.01518107671290636,-0.0007173455087468028,0.0225580595433712
0.02733289636671543,0.0034603942185640335,-0.017631864175200462,0.015501869842410088,-0.0006916160928085446,0.02252848818898201
0.027058804407715797,0.0027994962874799967,-0.01790616102516651,0.015529950149357319,-0.0006677000783383846,0.02268156036734581
0.02721075527369976,0.0028085168451070786,-0.017903469502925873,0.015889698639512062,-0.0006863083690404892,0.022438649088144302
0.02721034362912178,0.0030345539562404156,-0.01769561879336834,0.01544349268078804,-0.0006582670612260699,0.021829286590218544
0.027606310322880745,0.0035072844475507736,-0.018553603440523148,0.016003459692001343,-0.0006774672656320035,0.02174420841038227
0.027449410408735275,0.003480529645457864,-0.018045397475361824,0.015795640647411346,-0.00063737464370206,0.02304140478372574
0.027449410408735275,0.003480529645457864,-0.018045397475361824,0.015795640647411346,-0.00063737464370206,0.02304140478372574
0.028063897043466568,0.003238395322114229,-0.018317848443984985,0.014931806363165379,-0.0006241420051082969,0.022942956537008286
0.02794061042368412,0.0035093592014163733,-0.01757854036986828,0.015015894547104836,-0.0006082002655602992,0.022902654483914375
0.02803085371851921,0.0032202156726270914,-0.017773211002349854,0.014835860580205917,-0.0006095846765674651,0.022462302818894386
0.027747780084609985,0.003293450456112623,-0.018240539357066154,0.015523010864853859,-0.000553295249119401,0.022492503747344017
0.02868582308292389,0.003411277197301388,-0.017945485189557076,0.01514302659779787,-0.0005852326285094023,0.022683842107653618
0.02912374772131443,0.0034032075200229883,-0.018325699493288994,0.015718135982751846,-0.0006159467156976461,0.023032397031784058
0.02875421941280365,0.003553026355803013,-0.018086493015289307,0.015576152130961418,-0.0006360643310472369,0.022823262959718704
0.0275926161557436,0.003764754394069314,-0.01793266460299492,0.015450683422386646,-0.0006997901946306229,0.02272077091038227
0.028000008314847946,0.003398783737793565,-0.018147889524698257,0.015379579737782478,-0.0007628874736838043,0.022929256781935692
0.02865471877157688,0.003612094558775425,-0.017507923766970634,0.015182264149188995,-0.0007256509852595627,0.023264078423380852
0.028766842558979988,0.0039191399700939655,-0.018153604120016098,0.01554801408201456,-0.000742673291824758,0.023375704884529114
0.02849021553993225,0.003521283157169819,-0.018306072801351547,0.015189492143690586,-0.0007526985136792064,0.023444540798664093
0.02935466729104519,0.0035410034470260143,-0.017990896478295326,0.015286813490092754,-0.000691895023919642,0.02334943227469921
0.029046041890978813,0.003291703062132001,-0.018443062901496887,0.014748475514352322,-0.0006823943695053458,0.02335549332201481
0.029490124434232712,0.003235147101804614,-0.01770930178463459,0.015588543377816677,-0.0006354103097692132,0.023779798299074173
0.028448505327105522,0.0033242402132600546,-0.017700886353850365,0.01419331505894661,-0.0006631095893681049,0.02256031520664692
0.028598695993423462,0.003409305354580283,-0.018298322334885597,0.015336461365222931,-0.0005967096076346934,0.023020988330245018
0.029058260843157768,0.003745089052245021,-0.01797998696565628,0.014649641700088978,-0.0005700111505575478,0.023538703098893166
0.029149716719985008,0.004127246793359518,-0.018414946272969246,0.014994493685662746,-0.0005230017122812569,0.02384299598634243
0.02920331060886383,0.0040938169695436954,-0.01791459508240223,0.015939069911837578,-0.0005424311966635287,0.02366892620921135
0.02917715534567833,0.003961652051657438,-0.018130863085389137,0.0156329907476902,-0.0005119530251249671,0.02338889054954052
0.02917715534567833,0.003961652051657438,-0.018130863085389137,0.0156329907476902,-0.0005119530251249671,0.02338889054954052
0.029049746692180634,0.003503411775454879,-0.01775152049958706,0.01587488129734993,-0.00047844339860603213,0.02342703379690647
0.02938317134976387,0.003910834435373545,-0.01802726276218891,0.015702618286013603,-0.0004486499819904566,0.02362183853983879
0.02945813164114952,0.00419289106503129,-0.018708381801843643,0.01589052565395832,-0.00040561301284469664,0.023908529430627823
0.029588082805275917,0.004034687299281359,-0.018504394218325615,0.01576986350119114,-0.0003686393902171403,0.02348693087697029
0.02958834357559681,0.003976850770413876,-0.018512839451432228,0.015338582918047905,-0.0003404789313208312,0.023504219949245453
0.02983863465487957,0.00403606379404664,-0.01873868517577648,0.01571769267320633,-0.00036303294473327696,0.023756733164191246
0.030126074329018593,0.0036389962770044804,-0.0182507187128067,0.015665052458643913,-0.00035373028367757797,0.023859959095716476
0.02980138547718525,0.0035729024093598127,-0.01815594546496868,0.016066329553723335,-0.0003328647871967405,0.023905135691165924
0.029152346774935722,0.003644120180979371,-0.018238835036754608,0.015673989430069923,-0.0003622299700509757,0.02391691319644451
0.030294321477413177,0.0037018279545009136,-0.018627220764756203,0.01602615788578987,-0.0003455324040260166,0.02381100505590439
0.03012740984559059,0.0037212271708995104,-0.019526192918419838,0.01573924534022808,-0.0003622977528721094,0.02397625520825386
0.02992977201938629,0.003684375435113907,-0.019381951540708542,0.01608937419950962,-0.0003552638809196651,0.024562165141105652
0.02997526340186596,0.0041236598044633865,-0.018104923889040947,0.016280721873044968,-0.00034094342845492065,0.024548035115003586
0.03006031922996044,0.004269690718501806,-0.019274480640888214,0.01622120663523674,-0.00038899126229807734,0.024214597418904305
0.030411669984459877,0.00405921321362257,-0.019024718552827835,0.01668967679142952,-0.0004253418301232159,0.023524530231952667
0.030171247199177742,0.0038479622453451157,-0.01884531043469906,0.01598578318953514,-0.0004024867375846952,0.023670664057135582
0.030552010983228683,0.003825112245976925,-0.018736574798822403,0.015963882207870483,-0.00043322661076672375,0.024182243272662163
0.031165802851319313,0.003769215429201722,-0.018973957747220993,0.015403766185045242,-0.0004373407573439181,0.024720512330532074
0.030876848846673965,0.00403771223500371,-0.018695320934057236,0.015624148771166801,-0.00043715277570299804,0.024258995428681374
0.031036313623189926,0.004039290361106396,-0.018757225945591927,0.015303418971598148,-0.0005785144167020917,0.024358410388231277
0.031249841675162315,0.003890600521117449,-0.018779685720801353,0.015598934143781662,-0.0006588656106032431,0.02545877918601036
0.03143871948122978,0.0042063393630087376,-0.018608778715133667,0.015518699772655964,-0.0006754532805643976,0.025005780160427094
0.03055005520582199,0.003553325543180108,-0.018857868388295174,0.015875695273280144,-0.000655735784675926,0.02355148084461689
0.031313635408878326,0.003582641249522567,-0.018817948177456856,0.015740135684609413,-0.0007740973378531635,0.024724869057536125
0.031786974519491196,0.0041977115906775,-0.018767770379781723,0.016177868470549583,-0.0007123538525775075,0.025150775909423828
0.03185158595442772,0.004001109395176172,-0.01854144223034382,0.015944093465805054,-0.0007326054037548602,0.025248808786273003
0.030047062784433365,0.003861884353682399,-0.018840519711375237,0.016603996977210045,-0.0006517596775665879,0.024929789826273918
0.030047062784433365,0.003861884353682399,-0.018840519711375237,0.016603996977210045,-0.0006517596775665879,0.024929789826273918
0.030924763530492783,0.0038611148484051228,-0.018785063177347183,0.016341786831617355,-0.0006526906508952379,0.024402689188718796
0.03223283216357231,0.003412955440580845,-0.018282387405633926,0.01645968295633793,-0.0006110794492997229,0.02477516606450081
0.03160029649734497,0.003411788260564208,-0.018810074776411057,0.016432160511612892,-0.0005582922021858394,0.024656763300299644
0.03257494047284126,0.003598423209041357,-0.018961215391755104,0.016332706436514854,-0.000566639646422118,0.02470439299941063
0.032238416373729706,0.003688432741910219,-0.018495896831154823,0.016895752400159836,-0.0005407308344729245,0.02472795359790325
0.031894758343696594,0.0036312630400061607,-0.01890840008854866,0.016622448340058327,-0.0004879552579950541,0.024857794865965843
0.031341586261987686,0.003565744264051318,-0.019104069098830223,0.01682235300540924,-0.0004375827847979963,0.025346431881189346
0.03114083968102932,0.0035519772209227085,-0.018442556262016296,0.016235966235399246,-0.0004725909966509789,0.02511199563741684
0.03236914798617363,0.0036404964048415422,-0.018856411799788475,0.01656406931579113,-0.000492679129820317,0.025365367531776428
0.031088238582015038,0.003636835841462016,-0.018758611753582954,0.016287919133901596,-0.0004726645420305431,0.025614837184548378
0.03228473290801048,0.0036427751183509827,-0.018544234335422516,0.016007689759135246,-0.0004712626396212727,0.0256526879966259
0.03289433568716049,0.003725436283275485,-0.018855798989534378,0.016262248158454895,-0.000468665239168331,0.025518443435430527
0.03258135914802551,0.0037595031317323446,-0.018610244616866112,0.016754766926169395,-0.000556657905690372,0.025621697306632996
0.032158054411411285,0.003711830358952284,-0.01846197061240673,0.016966504976153374,-0.00060886493884027,0.025598861277103424
0.03284657374024391,0.003654523752629757,-0.01898094266653061,0.015898067504167557,-0.0006405995227396488,0.025640303269028664
0.03221863508224487,0.0036581133026629686,-0.018468935042619705,0.01613270677626133,-0.0006655951729044318,0.02573496662080288
0.03223961591720581,0.003753417870029807,-0.01836269535124302,0.016211561858654022,-0.0008180374279618263,0.02641257271170616
0.03269258886575699,0.003750015050172806,-0.01867050677537918,0.016510283574461937,-0.0009684131946414709,0.026353251188993454
0.032963551580905914,0.0036919005215168,-0.01818806864321232,0.0165687408298254,-0.0008623815956525505,0.026160141453146935
0.03242047131061554,0.004181036725640297,-0.01857144758105278,0.01639786921441555,-0.0008363379747606814,0.025735368952155113
0.032763369381427765,0.00389146339148283,-0.018202466890215874,0.01654166355729103,-0.0006816939567215741,0.026840414851903915
0.0336126871407032,0.003753933822736144,-0.018211256712675095,0.016802499070763588,-0.0006966651417315006,0.02708839625120163
0.033022474497556686,0.004133428912609816,-0.018742527812719345,0.016822252422571182,-0.0006385994493030012,0.02670874446630478
0.0314471460878849,0.004237613640725613,-0.01833632029592991,0.016689257696270943,-0.0006142666097730398,0.025623761117458344
0.0314471460878849,0.004237613640725613,-0.01833632029592991,0.016689257696270943,-0.0006142666097730398,0.025623761117458344
0.03262362256646156,0.004072605166584253,-0.01871023327112198,0.01734236627817154,-0.00059440394397825,0.02534380555152893
0.03372710943222046,0.003452297765761614,-0.018343154340982437,0.01665336638689041,-0.000621465384028852,0.026490380987524986
0.03301715478301048,0.0039202203042805195,-0.018632974475622177,0.017050616443157196,-0.0006464851321652532,0.026165839284658432
0.034255512058734894,0.004238693043589592,-0.019386140629649162,0.01635795459151268,-0.0007843835046514869,0.026102066040039062
0.03391489014029503,0.004562753718346357,-0.019889619201421738,0.016200512647628784,-0.0008282158523797989,0.02712307870388031
0.033053234219551086,0.004264796152710915,-0.019602777436375618,0.01655513048171997,-0.000856360886245966,0.0275191031396389
0.03229067474603653,0.004049141891300678,-0.019433941692113876,0.016828913241624832,-0.0008211766835302114,0.026347370818257332
0.03417179733514786,0.004078807309269905,-0.01917482353746891,0.017583684995770454,-0.0007800834719091654,0.026321718469262123
0.03422078490257263,0.0038259567227214575,-0.01889883354306221,0.01712225005030632,-0.0007604719721712172,0.02602618746459484
0.03346360847353935,0.003697742708027363,-0.01942245289683342,0.016808750107884407,-0.0006970316171646118,0.02647799253463745
0.03375600650906563,0.0038775205612182617,-0.019511034712195396,0.016446104273200035,-0.0006064519402571023,0.027532082051038742
0.03373485431075096,0.004415156319737434,-0.019596857950091362,0.016867417842149734,-0.000626216409727931,0.02714657597243786
0.03375701606273651,0.004122640006244183,-0.019562331959605217,0.017361223697662354,-0.0005721974303014576,0.026708627119660378
0.03351143002510071,0.004276161547750235,-0.019588874652981758,0.016963927075266838,-0.0005981564172543585,0.026795001700520515
0.03408506512641907,0.004293097648769617,-0.019921772181987762,0.01717529445886612,-0.0006087945657782257,0.026716353371739388
0.03421157971024513,0.003985424060374498,-0.020528849214315414,0.01689785160124302,-0.0005780854844488204,0.026615364477038383
0.03424466401338577,0.00382609898224473,-0.020343350246548653,0.016974782571196556,-0.0005462539265863597,0.026806024834513664
0.03417229279875755,0.0033620719332247972,-0.01892847567796707,0.016448765993118286,-0.0005746014066971838,0.02701839618384838
0.03438700735569,0.003928947728127241,-0.019650224596261978,0.016327369958162308,-0.0005724289221689105,0.02713967300951481
0.03453361615538597,0.004216365981847048,-0.020506348460912704,0.01670793443918228,-0.00056067033438012,0.02718951925635338
0.0344068743288517,0.004081017337739468,-0.019451400265097618,0.01738605834543705,-0.0006548021920025349,0.027566390112042427
0.03414482995867729,0.003813115879893303,-0.0204091165214777,0.017389731481671333,-0.0007627735030837357,0.027407148852944374
0.03451932221651077,0.0037174320314079523,-0.020290913060307503,0.01686970144510269,-0.0007563139661215246,0.027971690520644188
0.03557850047945976,0.003763735992833972,-0.019837139174342155,0.01773727685213089,-0.0007216384401544929,0.02796722948551178
0.03474999591708183,0.003936640918254852,-0.020079514011740685,0.017754120752215385,-0.0007366472273133695,0.02772422507405281
0.03474999591708183,0.003936640918254852,-0.020079514011740685,0.017754120752215385,-0.0007366472273133695,0.02772422507405281
0.03454054519534111,0.004079500678926706,-0.01962953433394432,0.01745804026722908,-0.0006788496975786984,0.028005439788103104
0.03437741845846176,0.004257775377482176,-0.019692059606313705,0.017074773088097572,-0.0007318864809349179,0.02810046076774597
0.03506002202630043,0.004091175273060799,-0.020531507208943367,0.016971927136182785,-0.0007480393396690488,0.027466410771012306
0.035056427121162415,0.003976512234658003,-0.020490726456046104,0.01752062328159809,-0.0007239858387038112,0.027912942692637444
0.035466279834508896,0.004326899070292711,-0.019944922998547554,0.01734626665711403,-0.0006929158116690814,0.028218112885951996
0.03493544086813927,0.00404845317825675,-0.020083364099264145,0.017458954825997353,-0.0007041608914732933,0.028375597670674324
0.034514497965574265,0.0037957956083118916,-0.02023952268064022,0.01731211505830288,-0.0006982093909755349,0.027482613921165466
0.034835636615753174,0.0041110399179160595,-0.02044486254453659,0.017959659919142723,-0.0007099114009179175,0.028030022978782654
0.035209402441978455,0.004620837513357401,-0.020610598847270012,0.01664743572473526,-0.0006785226287320256,0.028676316142082214
0.036224234849214554,0.004439979325979948,-0.020245293155312538,0.016364704817533493,-0.0006996873999014497,0.02837163582444191
0.03560830280184746,0.004078535828739405,-0.020255250856280327,0.01732524298131466,-0.0007017824100330472,0.028780048713088036
0.0346333384513855,0.003959466237574816,-0.019996698945760727,0.017644988372921944,-0.0006584019283764064,0.029308319091796875
0.035380810499191284,0.0038996869698166847,-0.0206908006221056,0.017401283606886864,-0.0007153915939852595,0.028272459283471107
0.03519510105252266,0.0037894980050623417,-0.020804448053240776,0.017484981566667557,-0.0007513785967603326,0.02729424461722374
0.03563549369573593,0.0037610004656016827,-0.019898122176527977,0.01718263141810894,-0.00077037513256073,0.02723151445388794
0.03705041483044624,0.0038256291300058365,-0.020048324018716812,0.017472220584750175,-0.0007779592997394502,0.028454434126615524
0.03664126619696617,0.0039388807490468025,-0.020823240280151367,0.017397606745362282,-0.0008196292910724878,0.02850753627717495
0.03467627242207527,0.00440348731353879,-0.020474063232541084,0.016741761937737465,-0.0007830529357306659,0.028531424701213837
0.035267896950244904,0.004220554605126381,-0.01988985575735569,0.01678050309419632,-0.0007970151491463184,0.029467293992638588
0.03641293942928314,0.00392191344872117,-0.020586315542459488,0.017109567299485207,-0.0007576968055218458,0.029434336349368095
0.036240361630916595,0.00380358612164855,-0.020354483276605606,0.017613738775253296,-0.000735942623578012,0.02778048999607563
0.03641636669635773,0.003978080581873655,-0.020739668980240822,0.016984613612294197,-0.0006751219043508172,0.02812870964407921
0.03610597178339958,0.004072272684425116,-0.02090579643845558,0.017389118671417236,-0.0006913230172358453,0.02954917587339878
0.03681397810578346,0.004147072322666645,-0.0205185879021883,0.017103299498558044,-0.0007162272813729942,0.02947806753218174
0.03611953556537628,0.0040227314457297325,-0.02043744921684265,0.01694304496049881,-0.0007364779594354331,0.029224419966340065
0.03611953556537628,0.0040227314457297325,-0.02043744921684265,0.01694304496049881,-0.0007364779594354331,0.029224419966340065
0.03591175004839897,0.004433029796928167,-0.020845871418714523,0.016682034358382225,-0.0009150131954811513,0.029231956228613853
0.03616899996995926,0.004142218269407749,-0.021014699712395668,0.01683247648179531,-0.0010814820416271687,0.02942557819187641
0.036391258239746094,0.003917368594557047,-0.02044079266488552,0.01732264831662178,-0.001041116425767541,0.029141400009393692
0.036455754190683365,0.004258467350155115,-0.020941510796546936,0.0174644086509943,-0.000986782368272543,0.029448969289660454
0.03708632290363312,0.0041752709075808525,-0.021392300724983215,0.017720630392432213,-0.0009183652000501752,0.029120033606886864
0.03653942421078682,0.003977760206907988,-0.02156248688697815,0.01762840338051319,-0.0008527435711584985,0.029294323176145554
0.035696953535079956,0.0041595157235860825,-0.02064751833677292,0.018007969483733177,-0.0007343087927438319,0.029133621603250504
0.0366998054087162,0.004669657442718744,-0.021472850814461708,0.01888262666761875,-0.0007403837516903877,0.029418477788567543
0.035901229828596115,0.004291260614991188,-0.02133435383439064,0.018418604508042336,-0.000716875831130892,0.02993319369852543
0.036993399262428284,0.004347191192209721,-0.020802514627575874,0.018270088359713554,-0.0006868120981380343,0.029999302700161934
0.03778970241546631,0.004237353801727295,-0.020900212228298187,0.0180275347083807,-0.0007045313250273466,0.02980227954685688
0.03593362495303154,0.003992761019617319,-0.023310640826821327,0.017249930649995804,-0.000695383467245847,0.030973104760050774
0.03547315672039986,0.004312414210289717,-0.02079346776008606,0.017827121540904045,-0.000710858148522675,0.030675405636429787
0.03782445564866066,0.004476550966501236,-0.02004278264939785,0.017953168600797653,-0.0007058304618112743,0.03053218498826027
0.03739739954471588,0.005426180083304644,-0.02140442468225956,0.018106674775481224,-0.0007250835769809783,0.030482226982712746
0.037101827561855316,0.004690754227340221,-0.022632110863924026,0.018686018884181976,-0.0006997687160037458,0.030332550406455994
0.03729156404733658,0.004494137596338987,-0.021953679621219635,0.018176907673478127,-0.0008065374568104744,0.030500121414661407
0.036845751106739044,0.004234964959323406,-0.020489154383540154,0.018245885148644447,-0.0008395334589295089,0.029551232233643532
0.03704215586185455,0.004041175823658705,-0.021442096680402756,0.018209785223007202,-0.0008488948224112391,0.03051021322607994
0.03753156587481499,0.004258223809301853,-0.021286459639668465,0.01803853176534176,-0.0008550277561880648,0.03180735558271408
0.03731277585029602,0.004581749439239502,-0.02125372365117073,0.018415147438645363,-0.0009538495796732605,0.031499627977609634
0.037255145609378815,0.00528574176132679,-0.02181289903819561,0.01843215897679329,-0.0009644837118685246,0.029872892424464226
0.03762020543217659,0.004589025396853685,-0.021614745259284973,0.0181845985352993,-0.0008937068050727248,0.03003714792430401
0.03817754238843918,0.004239358473569155,-0.021399814635515213,0.018760966137051582,-0.0008334582671523094,0.031174253672361374
0.038001857697963715,0.004009259399026632,-0.021624263375997543,0.018993131816387177,-0.0008162588928826153,0.031113415956497192
0.03849896416068077,0.00445462204515934,-0.021119728684425354,0.018187476322054863,-0.0006703795515932143,0.0322168804705143
0.03844331204891205,0.0048398664221167564,-0.021418124437332153,0.017824025824666023,-0.0006850080098956823,0.03117070347070694
0.03807549551129341,0.0048006270080804825,-0.02144131064414978,0.018978510051965714,-0.0006695103365927935,0.030088145285844803
0.03807549551129341,0.0048006270080804825,-0.02144131064414978,0.018978510051965714,-0.0006695103365927935,0.030088145285844803
0.038886658847332,0.0047133564949035645,-0.021234191954135895,0.018331950530409813,-0.0006460591685026884,0.03042719140648842
0.038420096039772034,0.004134411457926035,-0.021330880001187325,0.017463350668549538,-0.0006666642148047686,0.03181057050824165
0.03853737562894821,0.004412044771015644,-0.021721547469496727,0.018327003344893456,-0.0007441004854626954,0.0315982848405838
0.03879803046584129,0.004619682673364878,-0.021152175962924957,0.018625712022185326,-0.0008039390668272972,0.03101019188761711
0.03876608982682228,0.004405506886541843,-0.02119521051645279,0.018031395971775055,-0.0008754012524150312,0.03228558972477913
0.03889135271310806,0.004512275569140911,-0.021558070555329323,0.018383054062724113,-0.0010297161061316729,0.03224201500415802
0.03930317610502243,0.005177974235266447,-0.02164352312684059,0.018503960222005844,-0.0011391958687454462,0.03174469247460365
0.03976893052458763,0.004583476576954126,-0.021658537909388542,0.01830986514687538,-0.0011047727894037962,0.03184175491333008
