davideferrari95/blind_handover_controller/data/Test 299 - [2024-02-08 -- 14-04-02]/joint_states_data.csv
shoulder_pan_joint,shoulder_lift_joint,elbow_joint,wrist_1_joint,wrist_2_joint,wrist_3_joint
0.0027502893935889006,0.006528050638735294,-0.008344288915395737,0.0032969743479043245,0.00033861573319882154,0.00277808983810246
0.0028443632181733847,0.006721161305904388,-0.007946503348648548,0.003155114594846964,0.0004531276354100555,0.0028789963107556105
0.0028443632181733847,0.006721161305904388,-0.007946503348648548,0.003155114594846964,0.0004531276354100555,0.0028789963107556105
0.0028622406534850597,0.006610627751797438,-0.008345719426870346,0.003015713533386588,0.0004205225268378854,0.003054738976061344
0.002625171560794115,0.006256102118641138,-0.007404452655464411,0.0032421646174043417,0.00035478410427458584,0.0028308772016316652
0.002713809022679925,0.006518245209008455,-0.007480261381715536,0.003172894474118948,0.00032883993117138743,0.00265255244448781
0.0028191828168928623,0.0062223137356340885,-0.008080492727458477,0.002947620814666152,0.0003064318443648517,0.002732829889282584
0.002753998152911663,0.006311332806944847,-0.007632543332874775,0.002731693908572197,0.0003364764852449298,0.002839341526851058
0.0027423258870840073,0.00610408466309309,-0.00717992102727294,0.0027236260939389467,0.00032311055110767484,0.002874604659155011
0.0027423258870840073,0.00610408466309309,-0.00717992102727294,0.0027236260939389467,0.00032311055110767484,0.002874604659155011
0.0027459340635687113,0.005531219765543938,-0.007634123787283897,0.003011440858244896,0.00030527974013239145,0.0028374844696372747
0.0028742619324475527,0.006423082668334246,-0.008375431410968304,0.002886950969696045,0.0002889662282541394,0.0028603856917470694
0.0027294806204736233,0.006214665248990059,-0.007744406815618277,0.0030033988878130913,0.000274285877821967,0.0028186021372675896
0.002910907380282879,0.006074761971831322,-0.008108261972665787,0.002644133986905217,0.00026102334959432483,0.0027579821180552244
0.002659853082150221,0.005929423961788416,-0.00829667504876852,0.0026245436165481806,0.00024898460833355784,0.0026218360289931297
0.0025392076931893826,0.0058938912115991116,-0.008573492988944054,0.002912176074460149,0.00025739785633049905,0.0029027429409325123
0.0026832972653210163,0.006233977619558573,-0.007893585599958897,0.0034195715561509132,0.0002646269858814776,0.003423033282160759
0.002820827066898346,0.006629783194512129,-0.008068334311246872,0.0036225023213773966,0.00025508966064080596,0.0037894423585385084
0.0029362027999013662,0.006060524843633175,-0.008545921184122562,0.003480615559965372,0.0002452359476592392,0.0035179259721189737
0.0028257162775844336,0.005724131595343351,-0.008405878208577633,0.0029306402429938316,0.0002360506623517722,0.0030825675930827856
0.0028643726836889982,0.006065125577151775,-0.007831396535038948,0.002675849013030529,0.00022752447694074363,0.002891284879297018
0.003107010619714856,0.0059778462164103985,-0.00890694186091423,0.0027068746276199818,0.00024680193746462464,0.0028161725495010614
0.003149364609271288,0.006275879684835672,-0.00868285447359085,0.0027790393214672804,0.00024223762738984078,0.0031718420796096325
0.0030716024339199066,0.005964256823062897,-0.008229515515267849,0.0025541000068187714,0.00023458835494238883,0.0031777124386280775
0.002871404169127345,0.005735541693866253,-0.008387867361307144,0.002658735727891326,0.0002272693527629599,0.003501031082123518
0.003160556312650442,0.005518792662769556,-0.008639570325613022,0.002648039720952511,0.0001912342122523114,0.0036761134397238493
0.003046751022338867,0.005787439178675413,-0.008230043575167656,0.0027393214404582977,0.00018178086611442268,0.0033521035220474005
0.002896950114518404,0.006263601128011942,-0.007855061441659927,0.0028620921075344086,0.00017461324750911444,0.003181417938321829
0.0026817319449037313,0.006211333908140659,-0.008324537426233292,0.002951521659269929,0.0001845442020567134,0.0031356222461909056
0.00273885321803391,0.006161610595881939,-0.008518089540302753,0.003077011089771986,0.0001933146413648501,0.003183790948241949
0.0032256399281322956,0.0052556237205863,-0.00806341040879488,0.00305107980966568,0.00018760308739729226,0.003080896334722638
0.0035012373700737953,0.005775450263172388,-0.008354142308235168,0.002779314760118723,0.00017547703464515507,0.003207151312381029
0.003260022960603237,0.006262791808694601,-0.007316738832741976,0.003048607613891363,0.00016995372425299138,0.0031607358250766993
0.0031702041160315275,0.0061530666425824165,-0.008216777816414833,0.0031928406096994877,0.00017823942471295595,0.0031828295905143023
0.0031702041160315275,0.0061530666425824165,-0.008216777816414833,0.0031928406096994877,0.00017823942471295595,0.0031828295905143023
0.0030816621147096157,0.005422631278634071,-0.008261612616479397,0.003028715495020151,0.00018562343029771,0.0031599414069205523
0.0031202267855405807,0.005315541755408049,-0.0075468989089131355,0.0027512111701071262,0.00017610307259019464,0.003144071903079748
0.0031202267855405807,0.005315541755408049,-0.0075468989089131355,0.0027512111701071262,0.00017610307259019464,0.003144071903079748
0.0030935138929635286,0.005913812201470137,-0.007659883238375187,0.0029276078566908836,0.00017131750064436346,0.003242494771257043
0.0028289512265473604,0.00604970520362258,-0.008445427753031254,0.0029501861426979303,0.0001667820761213079,0.0031669563613831997
0.0029620130080729723,0.005504191387444735,-0.007977792993187904,0.002781705465167761,0.0001624803408049047,0.0031880054157227278
0.0029938528314232826,0.005473692901432514,-0.007463432848453522,0.002710340078920126,0.00017804371600504965,0.0031907230149954557
0.0030028230976313353,0.005335878115147352,-0.007747539319097996,0.0023924396373331547,0.00017638865392655134,0.0030894551891833544
0.0028412286192178726,0.005988805554807186,-0.008278992958366871,0.0023622449953109026,0.00017234311962965876,0.003390479600057006
0.0029949003364890814,0.006875677965581417,-0.007683075498789549,0.0027484651654958725,0.00016832521941978484,0.0033025830052793026
0.0030458439141511917,0.005992131773382425,-0.0073296125046908855,0.003236545715481043,0.00016448055976070464,0.0034107142128050327
0.0032145206350833178,0.005799050442874432,-0.007437721360474825,0.003215534146875143,0.0001829100219765678,0.003247690387070179
0.0031572768930345774,0.005550149828195572,-0.008217996917665005,0.0030579674057662487,0.0001961864036275074,0.0032419110648334026
0.00294698029756546,0.0062168254517018795,-0.008284010924398899,0.002920866711065173,0.00018932102830149233,0.0033005583100020885
0.0030303511302918196,0.0066140866838395596,-0.00796296913176775,0.0028407848440110683,0.00018176321464125067,0.0032251724041998386
0.003315019654110074,0.00575817096978426,-0.007816004566848278,0.0028276939410716295,0.00017471108003519475,0.0032371566630899906
0.003207575064152479,0.005713710095733404,-0.007902750745415688,0.0032256762497127056,0.00016818050062283874,0.003301061689853668
0.003103479975834489,0.006454284768551588,-0.007953710854053497,0.003155081532895565,0.00017800422210711986,0.003349785227328539
0.002906140638515353,0.006396132055670023,-0.007754994556307793,0.0029449716676026583,0.00018669880228117108,0.0035693799145519733
0.0031716811936348677,0.006429047789424658,-0.007695101201534271,0.003030802123248577,0.00018139708845410496,0.0037147568073123693
0.0034644585102796555,0.005717071704566479,-0.008212628774344921,0.002942581195384264,0.00017556246893946081,0.003734166733920574
0.003438537009060383,0.005720256362110376,-0.008407598361372948,0.002910315990447998,0.00017003770335577428,0.003722717287018895
0.0032095753122121096,0.005346792284399271,-0.008218440227210522,0.0028655848000198603,0.00016484670049976557,0.003654800122603774
0.0034143971279263496,0.006007598713040352,-0.008523265831172466,0.00305550592020154,0.00017970841145142913,0.0036419325042515993
0.0032617792021483183,0.006721323821693659,-0.008018439635634422,0.0030186621006578207,0.0001808023953344673,0.003235055599361658
0.003450003219768405,0.005768864415585995,-0.008319240063428879,0.0027558922301977873,0.00017615499382372946,0.0031708080787211657
0.0038368620444089174,0.005532960873097181,-0.008626526221632957,0.0027326245326548815,0.0001668514305492863,0.0032462708186358213
0.0034051218535751104,0.006257812492549419,-0.007722925394773483,0.002851654076948762,0.00016254637739621103,0.003428244963288307
0.003366891061887145,0.006344068329781294,-0.007429191377013922,0.0028780631255358458,0.0001584577839821577,0.0036297442857176065
0.003366891061887145,0.006344068329781294,-0.007429191377013922,0.0028780631255358458,0.0001584577839821577,0.0036297442857176065
0.003484168788418174,0.005780872888863087,-0.00904486607760191,0.0026943322736769915,0.00015456974506378174,0.003703180467709899
0.003623958909884095,0.0056294044479727745,-0.008399379439651966,0.0026970438193529844,0.00016145953850355,0.0036838199011981487
0.003499033162370324,0.005281688645482063,-0.008249321021139622,0.0026356419548392296,0.00016767237684689462,0.0036391818430274725
0.0035060353111475706,0.00511583499610424,-0.007833344861865044,0.002615982899442315,0.00016449313261546195,0.0036405648570507765
0.003384142415598035,0.005865080747753382,-0.008258799090981483,0.0029092319309711456,0.00016086030518636107,0.0037317979149520397
0.003473130287602544,0.005603767465800047,-0.008276618085801601,0.003283415688201785,0.00015734757471363991,0.0035801217891275883
0.003964676056057215,0.005562640726566315,-0.007978012785315514,0.0033238783944398165,0.0001539826043881476,0.0034421910531818867
0.0042533534578979015,0.005440630484372377,-0.007950756698846817,0.0030394450295716524,0.00015075827832333744,0.003574746660888195
0.003555717645213008,0.0055305915884673595,-0.008304543793201447,0.002830908400937915,0.0001609825121704489,0.003682567272335291
0.0036294504534453154,0.005390483420342207,-0.0086527019739151,0.002892575692385435,0.00015978321607690305,0.0033619003370404243
0.0038018107879906893,0.005977216176688671,-0.00801372155547142,0.003114107297733426,0.00015458869165740907,0.0032331477850675583
0.003828293876722455,0.005894026719033718,-0.00860083382576704,0.0031108944676816463,0.00014947251474950463,0.00338995223864913
0.0040887161158025265,0.005855363793671131,-0.008356799371540546,0.0029328269883990288,0.0001446677779313177,0.0034963663201779127
0.004174734000116587,0.005219174083322287,-0.00841508712619543,0.002769269747659564,0.00016448611859232187,0.0035171001218259335
0.004107278306037188,0.005243655294179916,-0.008096272125840187,0.002902979264035821,0.00016287079779431224,0.003603624179959297
0.0036026977468281984,0.005489520728588104,-0.00848730280995369,0.003244247753173113,0.0001583140983711928,0.0036971524823457003
0.0035329791717231274,0.005640777759253979,-0.009155240841209888,0.00294084707275033,0.0001538184005767107,0.003725881688296795
0.00422699237242341,0.005201981868594885,-0.00826048944145441,0.0026171861682087183,0.0001495588367106393,0.0037332100328058004
0.004127377178519964,0.004863303154706955,-0.008855736814439297,0.0026359003968536854,0.00014552802895195782,0.0037391178775578737
0.003898958209902048,0.005323005840182304,-0.009007859043776989,0.0028661596588790417,0.0001417089079041034,0.0033956326078623533
0.003790129441767931,0.005214902572333813,-0.008365746587514877,0.0029646456241607666,0.0001551420718897134,0.0033230551052838564
0.0038804453797638416,0.005338876508176327,-0.00850282795727253,0.0028270867187529802,0.00015669300046283752,0.003370023099705577
0.004100427497178316,0.005304417572915554,-0.008325581438839436,0.0029770024120807648,0.00014961879060138017,0.004187881480902433
0.003969704266637564,0.005671293940395117,-0.008375667035579681,0.002690086839720607,0.00014614932297263294,0.004104258492588997
0.0038023716770112514,0.005217933561652899,-0.009401693008840084,0.0026569089386612177,0.00014283564814832062,0.0039661843329668045
0.0038023716770112514,0.005217933561652899,-0.009401693008840084,0.0026569089386612177,0.00014283564814832062,0.0039661843329668045
0.0037528120446950197,0.005464178044348955,-0.009073604829609394,0.0026723488699644804,0.00013966897677164525,0.003610104089602828
0.0038477720227092505,0.005232004448771477,-0.008542773313820362,0.002454797038808465,0.00013663955905940384,0.0034011141397058964
0.0042397333309054375,0.005725024733692408,-0.009233704768121243,0.0024874366354197264,0.00014790977002121508,0.00357238482683897
0.004026494454592466,0.005392937920987606,-0.00913919322192669,0.002639583544805646,0.00014934487990103662,0.0038500053342431784
0.003924529999494553,0.005034964065998793,-0.008479991927742958,0.0027082981541752815,0.00014659820590168238,0.003971673082560301
0.004262368660420179,0.0053484453819692135,-0.00856498721987009,0.0026309690438210964,0.0001436916645616293,0.0035864149685949087
0.004293872509151697,0.00537105044350028,-0.00882458034902811,0.0026722452603280544,0.00014088128227740526,0.0035340944305062294
0.0043847146444022655,0.005457427352666855,-0.008783787488937378,0.002752941334620118,0.00013817760918755084,0.004166936036199331
0.004256838466972113,0.005176100414246321,-0.009271886199712753,0.0030364987906068563,0.00013557571219280362,0.004070633091032505
0.004057327751070261,0.005311294458806515,-0.009175504557788372,0.002912436379119754,0.0001330699014943093,0.0038309891242533922
0.003941569477319717,0.005300721153616905,-0.008753126487135887,0.0030188795644789934,0.0001306551566813141,0.003463346278294921
0.004326047841459513,0.005272147711366415,-0.00845575612038374,0.002960638841614127,0.0001283263845834881,0.0034039178863167763
0.00438811955973506,0.0053130825981497765,-0.009055783040821552,0.002629365772008896,0.00012607920507434756,0.004145398736000061
0.004521890543401241,0.005002132151275873,-0.00889597274363041,0.002699999138712883,0.00012413944932632148,0.004470054060220718
0.004114152863621712,0.0056404597125947475,-0.008651983924210072,0.0029851605650037527,0.00013767923519480973,0.004779583774507046
0.004338340368121862,0.005361468996852636,-0.009526331909000874,0.0034653530456125736,0.00013469081022776663,0.004592332988977432
0.004219012800604105,0.0059205531142652035,-0.00901319645345211,0.003371375845745206,0.00013084811507724226,0.004214250948280096
0.00440254295244813,0.005544831044971943,-0.00881944503635168,0.0030809594318270683,0.00012715529010165483,0.0036752023734152317
0.0045038387179374695,0.005338233895599842,-0.00873835850507021,0.002769355196505785,0.0001236610987689346,0.0034600039944052696
0.004555744584649801,0.005603220779448748,-0.009021133184432983,0.0027785624843090773,0.00012035347026539966,0.0036623734049499035
0.004510957282036543,0.005370417609810829,-0.00880740862339735,0.003057361813262105,0.0001172182965092361,0.0038682622835040092
0.004415033385157585,0.005881257355213165,-0.008651744574308395,0.0031109494157135487,0.00011424227704992518,0.004150065593421459
0.004574350081384182,0.00636688619852066,-0.009324208833277225,0.002964354120194912,0.00011141358118038625,0.004382355138659477
0.004969175439327955,0.005596683826297522,-0.008717423304915428,0.0029371611308306456,0.00010872166603803635,0.00442794244736433
0.005064752418547869,0.005251802038401365,-0.008580800145864487,0.0028457583393901587,0.00010615681094350293,0.00396597757935524
0.004690404981374741,0.005448813550174236,-0.009071340784430504,0.0025438631419092417,0.00010371011012466624,0.003703796537593007
0.004690404981374741,0.005448813550174236,-0.009071340784430504,0.0025438631419092417,0.00010371011012466624,0.003703796537593007
0.0044844201765954494,0.005611730273813009,-0.007855918258428574,0.0029757407028228045,9.914018301060423e-05,0.004166763741523027
0.004639423917979002,0.005353044252842665,-0.00899057649075985,0.003043469740077853,9.70030523603782e-05,0.004095263779163361
0.004702077247202396,0.005307518411427736,-0.009085232391953468,0.002973451977595687,9.495607082499191e-05,0.004425655119121075
0.004641384351998568,0.005088360980153084,-0.008471342734992504,0.0027588284574449062,9.29937741602771e-05,0.004514729138463736
0.004767070058733225,0.005397215485572815,-0.007967883720993996,0.002655135001987219,9.111088002100587e-05,0.004138746298849583
0.004725820384919643,0.0055610910058021545,-0.008451628498733044,0.002738178474828601,8.930275362217799e-05,0.0037571995053440332
0.0046984669752418995,0.0062851193360984325,-0.00879912730306387,0.002900840248912573,8.756492752581835e-05,0.0037084079813212156
0.004623847082257271,0.0056978375650942326,-0.008895564824342728,0.002996303141117096,8.589352364651859e-05,0.0039014515932649374
0.0043845269829034805,0.005534508265554905,-0.008220710791647434,0.0029017517808824778,8.42846930027008e-05,0.00469547463580966
0.004817648325115442,0.005394438281655312,-0.008723377250134945,0.0026729826349765062,8.273508137790486e-05,0.004887722432613373
0.005044083576649427,0.005896683782339096,-0.008312424644827843,0.00248644407838583,8.124133455567062e-05,0.004794068168848753
0.004848293028771877,0.006403475068509579,-0.00834642630070448,0.002622693544253707,9.469984797760844e-05,0.0045405118726193905
0.004801343660801649,0.0055595445446670055,-0.008760195225477219,0.003071884624660015,9.402284194948152e-05,0.004391939844936132
0.004914900287985802,0.005305646453052759,-0.008844884112477303,0.0030681691132485867,9.247618436347693e-05,0.004380206577479839
0.004888329189270735,0.005602529738098383,-0.00792693067342043,0.0028835362754762173,9.092323307413608e-05,0.004297236911952496
0.005096200853586197,0.006009990815073252,-0.008232652209699154,0.0031719692051410675,8.94179247552529e-05,0.004314319230616093
0.006126992870122194,0.005907652899622917,-0.008995435200631618,0.003392582992091775,8.796138718025759e-05,0.004320030566304922
0.005807266570627689,0.006092270836234093,-0.008846187964081764,0.0031894592102617025,8.655153214931488e-05,0.004541317466646433
0.00456621078774333,0.00529550900682807,-0.008549130521714687,0.0029242741875350475,8.518613321939483e-05,0.005003765225410461
0.00484960014000535,0.005486130714416504,-0.008945963345468044,0.002827433170750737,8.386316039832309e-05,0.0050021870993077755
0.005116106942296028,0.005298172123730183,-0.008604710921645164,0.0030086662154644728,8.25806928332895e-05,0.004637456964701414
0.004923021886497736,0.005952740553766489,-0.008121910504996777,0.003265311708673835,8.133685332722962e-05,0.004363099578768015
0.005267636384814978,0.005900481715798378,-0.008646821603178978,0.0034589064307510853,8.012988837435842e-05,0.0045194486156105995
0.005182862281799316,0.00556512176990509,-0.008952843025326729,0.0032215313985943794,7.8958211815916e-05,0.004673721734434366
0.005599010735750198,0.00564988749101758,-0.00839049369096756,0.003365421434864402,7.671480852877721e-05,0.005026863422244787
0.005297738593071699,0.00563048617914319,-0.009077485650777817,0.0034487666562199593,7.564018596895039e-05,0.005314749199897051
0.005339006893336773,0.005725885275751352,-0.008641422726213932,0.0031786018516868353,7.459532207576558e-05,0.004888513125479221
0.005394706502556801,0.005500596947968006,-0.008444769307971,0.0032149446196854115,7.357888534897938e-05,0.005753867793828249
0.005394706502556801,0.005500596947968006,-0.008444769307971,0.0032149446196854115,7.357888534897938e-05,0.005753867793828249
0.005506910849362612,0.005481990985572338,-0.009099770337343216,0.003252220107242465,7.258980622282252e-05,0.0053529078140854836
0.005523452535271645,0.005250626243650913,-0.009301241487264633,0.0031732693314552307,7.162699330365285e-05,0.004633605945855379
0.005539492703974247,0.005728959571570158,-0.008511489257216454,0.0030485212337225676,7.068936247378588e-05,0.004360613413155079
0.005232687573879957,0.005887418054044247,-0.00861433707177639,0.0029953334014862776,6.977595330681652e-05,0.004846018273383379
0.005736907944083214,0.0060182055458426476,-0.009303937666118145,0.003059046110138297,6.888583448017016e-05,0.005172231234610081
0.005853777285665274,0.005504133645445108,-0.00890431646257639,0.003343334887176752,6.801817653467879e-05,0.004949487745761871
0.006208400242030621,0.005951091647148132,-0.00901953037828207,0.0034971528220921755,6.717206269968301e-05,0.005004264879971743
0.005711627658456564,0.0059903766959905624,-0.00895068421959877,0.0032866273541003466,6.634676537942141e-05,0.004841924179345369
0.005795361939817667,0.005954318679869175,-0.008684489876031876,0.0032030807342380285,6.554149149451405e-05,0.004651226568967104
0.005567720625549555,0.00607716990634799,-0.008351030759513378,0.0030544388573616743,6.475557165686041e-05,0.004510914906859398
0.005922660231590271,0.005722221918404102,-0.008886312134563923,0.0028517094906419516,6.398824189091101e-05,0.004787537269294262
0.006209906190633774,0.005713798105716705,-0.009102126583456993,0.0029694028198719025,6.323889829218388e-05,0.004818551242351532
0.005680814851075411,0.005854468327015638,-0.008498260751366615,0.0030181119218468666,6.250688602449372e-05,0.004784921184182167
0.005875992123037577,0.006157508119940758,-0.00869724340736866,0.003312146058306098,6.179163756314665e-05,0.005035287234932184
0.005580747965723276,0.006347821094095707,-0.009117908775806427,0.0037047727964818478,6.109256355557591e-05,0.004994682967662811
0.006381969433277845,0.005725813563913107,-0.009179112501442432,0.003488625632598996,6.040914013283327e-05,0.005151223391294479
0.005804406479001045,0.0059538003988564014,-0.009243236854672432,0.0034752446226775646,5.974082159809768e-05,0.005069320555776358
0.00596127612516284,0.005766572430729866,-0.008977783843874931,0.003164185443893075,7.695325621170923e-06,0.005169938784092665
0.005655395332723856,0.005745477508753538,-0.008932335302233696,0.0032005836255848408,5.024497795602656e-07,0.005228254944086075
0.005757012404501438,0.0058377827517688274,-0.00858420692384243,0.0032628767658025026,3.2806379834937616e-08,0.005492992699146271
0.005619603209197521,0.0058775609359145164,-0.009311840869486332,0.0035757115110754967,2.1420221152368413e-09,0.005488269496709108
0.005601039156317711,0.0055519696325063705,-0.009291869588196278,0.0033812210895121098,1.398587357037684e-10,0.005945463199168444
0.006098845973610878,0.005871655885130167,-0.008283587172627449,0.0035146349109709263,9.131776064486008e-12,0.005678020883351564
0.005608045030385256,0.006203826516866684,-0.008756767027080059,0.0034641476813703775,5.96239691733752e-13,0.005608191713690758
0.00582532025873661,0.006087000016123056,-0.008906588889658451,0.0035813727881759405,2.5418637125142717e-15,0.00584163423627615
0.006254918873310089,0.006285952404141426,-0.008691735565662384,0.0033813402988016605,1.6596554457241907e-16,0.0056197973899543285
0.006797863636165857,0.005827894899994135,-0.009304366074502468,0.0032468975987285376,1.0836363809465182e-17,0.005651168525218964
0.0060126339085400105,0.006335283163934946,-0.009095564484596252,0.0033270150888711214,7.075371570545695e-19,0.005322770215570927
0.0060126339085400105,0.006335283163934946,-0.009095564484596252,0.0033270150888711214,7.075371570545695e-19,0.005322770215570927
0.005990575533360243,0.006138518452644348,-0.008724777027964592,0.0034070045221596956,4.6197119557594545e-20,0.0058571468107402325
0.006343132350593805,0.005830327980220318,-0.009435631334781647,0.0035997596569359303,3.016341972552675e-21,0.005673592444509268
0.006233899854123592,0.005599488038569689,-0.009145484305918217,0.0037275762297213078,1.9694557471518668e-22,0.005735266953706741
0.006130401045084,0.0057691605761647224,-0.008466044440865517,0.0037432380486279726,1.2859138785612665e-23,0.005615878850221634
0.006149783730506897,0.00621700519695878,-0.009396898560225964,0.0038381568156182766,8.3960990497569e-25,0.005834790877997875
0.006049383897334337,0.006189603824168444,-0.009558547288179398,0.003831543494015932,5.482052659067754e-26,0.005671331658959389
0.0064909677021205425,0.006149877328425646,-0.008803993463516235,0.0038073656614869833,3.5793885647062986e-27,0.005650802981108427
0.00663392711430788,0.005672060418874025,-0.009735779836773872,0.003890911815688014,2.3370849318935575e-28,0.005977323278784752
0.006542803253978491,0.005919320043176413,-0.009189573116600513,0.0036722628865391016,1.5259495033448028e-29,0.0055715423077344894
0.006124264560639858,0.006176491733640432,-0.009510544128715992,0.003572710556909442,9.963359402597897e-31,0.0054197534918785095
0.00640135258436203,0.006415863987058401,-0.008777827024459839,0.003643264528363943,6.505361473855987e-32,0.00577903725206852
0.006683955900371075,0.005955002270638943,-0.009187747724354267,0.004118067212402821,4.247536797391023e-33,0.006076005287468433
0.006699805613607168,0.005970788653939962,-0.008892765268683434,0.004172150511294603,2.773338082176513e-34,0.005642191041260958
0.0063436939381062984,0.005892013665288687,-0.009009486064314842,0.003923417534679174,1.8107916502566352e-35,0.0059316111728549
0.006388247478753328,0.0062072076834738255,-0.009907902218401432,0.003763610729947686,1.1823174412009008e-36,0.005517186596989632
0.006851732265204191,0.006484318524599075,-0.009315921925008297,0.0033761905506253242,7.719688219716673e-38,0.005513112060725689
0.00671371491625905,0.005953585729002953,-0.009006106294691563,0.003585193306207657,5.040404715148544e-39,0.006314877886325121
0.006423926446586847,0.006174019537866116,-0.009403865784406662,0.0037549196276813745,3.291019508390049e-40,0.0065381769090890884
0.0063290102407336235,0.0057473620399832726,-0.00919366255402565,0.0037414762191474438,2.1487510651956745e-41,0.006310666911303997
0.006805483717471361,0.006205595564097166,-0.00893651694059372,0.0036851270124316216,1.4026997627891419e-42,0.005828089080750942
0.0070206280797719955,0.006648138165473938,-0.00937915313988924,0.0036408500745892525,9.10844001811131e-44,0.0062769558280706406
0.006306053604930639,0.005941211711615324,-0.009246001951396465,0.0036701071076095104,5.605193857299268e-45,0.0061728074215352535
0.006704653613269329,0.0060668583028018475,-0.0095788249745965,0.003729608142748475,0.0,0.005957786459475756
0.007016455288976431,0.0071824598126113415,-0.009755974635481834,0.0038601825945079327,0.0,0.005817998666316271
0.006750932894647121,0.0065367151983082294,-0.008882319554686546,0.0038765929639339447,0.0,0.005697884131222963
0.0072712344117462635,0.006165700498968363,-0.00959945097565651,0.003910775296390057,0.0,0.005912189371883869
0.006487594451755285,0.005875402130186558,-0.009687993675470352,0.003866687184199691,0.0,0.00610894663259387
0.006737940013408661,0.005920319352298975,-0.00925309956073761,0.003799913451075554,0.0,0.006280627567321062
0.007058470044285059,0.006598854903131723,-0.00963730737566948,0.0037504364736378193,0.0,0.00608530268073082
0.0070526436902582645,0.006579152308404446,-0.00964954774826765,0.0037031450774520636,0.0,0.0062293098308146
0.0070526436902582645,0.006579152308404446,-0.00964954774826765,0.0037031450774520636,0.0,0.0062293098308146
0.006864755414426327,0.005630829371511936,-0.009476264007389545,0.0038014515303075314,0.0,0.00661686435341835
0.006880943197757006,0.005790386348962784,-0.009885982610285282,0.0040396093390882015,0.0,0.006437039468437433
0.006836336571723223,0.0059593007899820805,-0.009489499032497406,0.004067482426762581,0.0,0.006237122230231762
0.007003798149526119,0.006488026585429907,-0.009518002159893513,0.003664573421701789,0.0,0.006205981131643057
0.006796081550419331,0.006112857721745968,-0.009223943576216698,0.0033206103835254908,0.0,0.006288448814302683
0.006788271479308605,0.005874385125935078,-0.00992568675428629,0.00433790497481823,0.0,0.006516559980809689
0.007466341368854046,0.0060918754898011684,-0.00950111448764801,0.004516917746514082,0.0,0.006963970605283976
0.0071219708770513535,0.006387752015143633,-0.009394832886755466,0.004155460279434919,0.0,0.007132895290851593
0.0075147151947021484,0.006284786853939295,-0.010133464820683002,0.004203754011541605,0.0,0.007020972669124603
0.006706511601805687,0.00550590455532074,-0.01029253751039505,0.00408994872123003,0.0,0.0068192258477211
0.007120905444025993,0.004897089209407568,-0.010089503601193428,0.0040794373489916325,0.0,0.006679137237370014
0.006933102384209633,0.004503944888710976,-0.009922192431986332,0.004341983236372471,0.0,0.006423815619200468
0.006977214477956295,0.0047061862424016,-0.009587635286152363,0.00440469803288579,0.0,0.006733855232596397
0.00682260375469923,0.006287646945565939,-0.009692206978797913,0.004067000932991505,0.0,0.00697129312902689
0.007378185633569956,0.005740190390497446,-0.010107914917171001,0.003866139566525817,0.0,0.006913692224770784
0.007645699195563793,0.004410975147038698,-0.009875268675386906,0.004245689604431391,0.0,0.006583026144653559
0.00762966088950634,0.004953254014253616,-0.010368661023676395,0.004142749588936567,0.0,0.006617111619561911
0.0069209616631269455,0.006055028643459082,-0.009708412922918797,0.003986694850027561,0.0,0.006867913529276848
0.007474120240658522,0.005466165952384472,-0.009356698952615261,0.0039940495043993,0.0,0.007127654273062944
0.007766983937472105,0.005386029835790396,-0.010712928138673306,0.00397093640640378,0.0,0.0070089492946863174
0.007415667176246643,0.005023228470236063,-0.010288107208907604,0.004270846955478191,0.0,0.006877832114696503
0.0074616288766264915,0.004933150019496679,-0.009688165038824081,0.004469024483114481,0.0,0.007287393789738417
0.0076060425490140915,0.005073199048638344,-0.008972388692200184,0.003987716045230627,0.0,0.006740455515682697
0.0076060425490140915,0.005073199048638344,-0.008972388692200184,0.003987716045230627,0.0,0.006740455515682697
0.008205483667552471,0.004956647288054228,-0.010982596315443516,0.004084628075361252,0.0,0.006735492497682571
0.00727124372497201,0.005344483070075512,-0.010784338228404522,0.0042007011361420155,0.0,0.006856007035821676
0.007909516803920269,0.005016856826841831,-0.009678134694695473,0.004076929297298193,0.0,0.0071671269834041595
0.00797064695507288,0.0049882326275110245,-0.009515911340713501,0.004365636967122555,0.0,0.008134950883686543
0.007622385863214731,0.005427058320492506,-0.010913598351180553,0.004449164494872093,0.0,0.007363870739936829
0.007408440578728914,0.00512728001922369,-0.010204821825027466,0.004283069632947445,0.0,0.007134128361940384
0.007740069180727005,0.005181652028113604,-0.009578382596373558,0.004378231707960367,0.0,0.007076931651681662
0.007774898316711187,0.005195213947445154,-0.010566093027591705,0.004048848524689674,0.0,0.0071843513287603855
0.0078446539118886,0.005143843591213226,-0.010206428356468678,0.004328561946749687,0.0,0.007559222634881735
0.007337731309235096,0.0052225603722035885,-0.00935010053217411,0.004621757660061121,0.0,0.0068133119493722916
0.007661906071007252,0.005170766729861498,-0.010114514268934727,0.004420616198331118,0.0,0.006844442803412676
0.008138611912727356,0.00536823645234108,-0.010050659999251366,0.00430434662848711,0.0,0.007189370691776276
0.008199263364076614,0.0055888802744448185,-0.01011707540601492,0.004141302779316902,0.0,0.0076058488339185715
0.008206292986869812,0.005949807818979025,-0.00994126871228218,0.004334203898906708,0.0,0.007222966756671667
0.008367232978343964,0.0053382995538413525,-0.00919321645051241,0.004598017316311598,0.0,0.007133051753044128
0.008384991437196732,0.005423936527222395,-0.009116449393332005,0.004462266806513071,0.0,0.007660022005438805
0.008194019086658955,0.005475763697177172,-0.010157713666558266,0.0049019139260053635,0.0,0.007511207368224859
0.008318128995597363,0.005601088050752878,-0.009699676185846329,0.004640146624296904,3.850231678370619e-06,0.007015736773610115
0.008903998881578445,0.005466110538691282,-0.008957687765359879,0.0045824297703802586,2.513926062874816e-07,0.007232536096125841
0.008467334322631359,0.005728000309318304,-0.009776955470442772,0.004650358110666275,1.641414293374055e-08,0.007472608238458633
0.00810160394757986,0.0052558002062141895,-0.009855074808001518,0.004746329039335251,1.0717261522685817e-09,0.007688216865062714
0.00861374381929636,0.005039323586970568,-0.010595384985208511,0.004730617627501488,6.997606660785749e-11,0.007443729788064957
0.008679618127644062,0.005173732526600361,-0.009992808103561401,0.004781268537044525,4.568937242432902e-12,0.007077941671013832
0.008689360693097115,0.005225879140198231,-0.009311442263424397,0.005168538074940443,2.983189867009073e-13,0.007691317703574896
0.009238959290087223,0.005230017006397247,-0.010415439493954182,0.004876182414591312,1.271780689149403e-15,0.007558335550129414
0.008806523866951466,0.005265071988105774,-0.009676270186901093,0.004669414833188057,8.303818676980569e-17,0.00855734758079052
0.008575920946896076,0.005457247141748667,-0.01006866991519928,0.004645779728889465,5.421800406322204e-18,0.00815657339990139
0.009159237146377563,0.005185251589864492,-0.010051947087049484,0.004759170580655336,3.540048419897452e-19,0.00776979373767972
0.009159237146377563,0.005185251589864492,-0.010051947087049484,0.004759170580655336,3.540048419897452e-19,0.00776979373767972
0.009200803935527802,0.005459283944219351,-0.009523398242890835,0.005394339095801115,2.311398540475168e-20,0.00783107616007328
0.008381573483347893,0.005393765866756439,-0.009251448325812817,0.005281675141304731,1.5091781029059279e-21,0.008190370164811611
0.009261572733521461,0.005561014171689749,-0.010503819212317467,0.0045265513472259045,9.853854680265257e-23,0.007822793908417225
0.00885035376995802,0.005361741874366999,-0.009824046865105629,0.0043498980812728405,6.4338631627134506e-24,0.008117896504700184
0.008802780881524086,0.005151769146323204,-0.009829309768974781,0.004487782251089811,-0.0001431207056157291,0.008377062156796455
0.009120147675275803,0.005705066956579685,-0.009937132708728313,0.00459132669493556,-0.00025442626792937517,0.008380305953323841
0.009101362898945808,0.005451675038784742,-0.009692929685115814,0.00496782036498189,-0.0002481974952388555,0.008216307498514652
0.009045366197824478,0.005247912369668484,-0.009673199616372585,0.005105952266603708,-0.0002765124081633985,0.008686196990311146
0.009344667196273804,0.005058738403022289,-0.009835912846028805,0.00512666255235672,-0.000268387608230114,0.008466017432510853
0.009257099591195583,0.005383695010095835,-0.009697633795440197,0.004933012183755636,-0.00029298689332790673,0.008407366462051868
0.009214725345373154,0.005614865105599165,-0.009825820103287697,0.004434024915099144,-0.00028482856578193605,0.008254747837781906
0.009261802770197392,0.005545916501432657,-0.010613233782351017,0.004490790423005819,-0.0002728235849644989,0.008378938771784306
0.009230613708496094,0.005383601412177086,-0.009596030227839947,0.004969547502696514,-0.00027979258447885513,0.008020742796361446
0.009154995903372765,0.004933509044349194,-0.009372067637741566,0.0051214504055678844,-0.0002857183280866593,0.008074397221207619
0.00942663848400116,0.005455635488033295,-0.011106308549642563,0.005261964164674282,-0.0003540808102115989,0.00840047001838684
0.009399489499628544,0.005241780076175928,-0.010210130363702774,0.005405427888035774,-0.00039660767652094364,0.009042365476489067
0.009720556437969208,0.005317974835634232,-0.009487435221672058,0.005082951858639717,-0.00036891651689074934,0.008769487962126732
0.009522165171802044,0.0056434208527207375,-0.010308978147804737,0.004842266906052828,-0.00034123644581995904,0.008798062801361084
0.00971191842108965,0.004940609447658062,-0.009189710021018982,0.0052380310371518135,-0.00037197087658569217,0.008684945292770863
0.00974504929035902,0.004747264087200165,-0.009631973691284657,0.005569622851908207,-0.0003549849789123982,0.008743240498006344
0.009378088638186455,0.00536864809691906,-0.009901145473122597,0.005681461188942194,-0.00033353609615005553,0.008785853162407875
0.009578515775501728,0.005399035289883614,-0.009344949387013912,0.005490554496645927,-0.00031415652483701706,0.008177362382411957
0.009490764699876308,0.0058174594305455685,-0.009219950065016747,0.0051560178399086,-0.0002968782209791243,0.008751431480050087
0.009175975807011127,0.0054837861098349094,-0.009722546674311161,0.0052351877093315125,-0.00032199634006246924,0.008398586884140968
0.010481743142008781,0.005000562872737646,-0.009165056049823761,0.005672253668308258,-0.0002972801448777318,0.008592894300818443
0.00976797379553318,0.004926726222038269,-0.009331370703876019,0.0055665806867182255,-0.00028390338411554694,0.009337536990642548
0.010026794858276844,0.005208783783018589,-0.008937234058976173,0.005239499732851982,-0.00030033267103135586,0.0087949363514781
0.010228276252746582,0.005185069516301155,-0.008981376886367798,0.0056973849423229694,-0.0002969705092255026,0.008517489768564701
0.010228276252746582,0.005185069516301155,-0.008981376886367798,0.0056973849423229694,-0.0002969705092255026,0.008517489768564701
0.010114379227161407,0.005274113267660141,-0.010680833831429482,0.005463994573801756,-0.0002857714716810733,0.00938667356967926
0.010984205640852451,0.005187809467315674,-0.009507081471383572,0.005397947505116463,-0.0002761222131084651,0.009408221580088139
0.010151482187211514,0.0047003705985844135,-0.009440208785235882,0.005624152719974518,-0.0002621648018248379,0.008634530939161777
0.010115946643054485,0.005066459532827139,-0.010899392887949944,0.00556076318025589,-0.000247859483351931,0.008963002823293209
0.01060005184262991,0.005277151707559824,-0.009909790009260178,0.005524372216314077,-0.00026958054513670504,0.009191158227622509
0.010256247594952583,0.005128882825374603,-0.009634529240429401,0.005509628914296627,-0.0002671131514944136,0.008970526047050953
0.010362556204199791,0.005350559484213591,-0.01060470286756754,0.005891008768230677,-0.00025519775226712227,0.009527157060801983
0.010654730722308159,0.005098373629152775,-0.01042940467596054,0.005413919221609831,-0.00027891280478797853,0.009069695137441158
0.010166671127080917,0.004667453467845917,-0.00976584292948246,0.005138908512890339,-0.0002717105089686811,0.008024393580853939
0.010678347200155258,0.004896494559943676,-0.010737568140029907,0.005024753510951996,-0.0002930669579654932,0.008116930723190308
0.010499869473278522,0.0053456490859389305,-0.010023360140621662,0.005290727596729994,-0.00028588008717633784,0.009221603162586689
0.009807586669921875,0.005326602607965469,-0.009807446040213108,0.005711188539862633,-0.00027635626611299813,0.010358788073062897
0.010150860995054245,0.005384410265833139,-0.010778648778796196,0.005878170486539602,-0.0003945595817640424,0.009961389936506748
0.010494228452444077,0.004978219047188759,-0.011076436378061771,0.005749305244535208,-0.00037133030127733946,0.009695558808743954
0.009920787997543812,0.004671895410865545,-0.010475628077983856,0.005569671746343374,-0.00034357127151452005,0.009448838420212269
0.010588759556412697,0.00490725040435791,-0.01098720170557499,0.005204483866691589,-0.00031922003836371005,0.009605669416487217
0.010136854834854603,0.004943009000271559,-0.010595289058983326,0.005751910153776407,-0.0003535111900418997,0.01026981882750988
0.009972802363336086,0.005275500938296318,-0.010636361315846443,0.00559026887640357,-0.00033517536940053105,0.010005583055317402
0.010597210377454758,0.005510498769581318,-0.010117202997207642,0.005800188984721899,-0.00035458177444525063,0.009775874204933643
0.01045968197286129,0.004887302406132221,-0.009963389486074448,0.0056022838689386845,-0.00034718390088528395,0.01026863232254982
0.010065892711281776,0.004311192315071821,-0.010984569787979126,0.005571543704718351,-0.00035278048017062247,0.009817825630307198
0.010635213926434517,0.004395279102027416,-0.010631290264427662,0.005400977563112974,-0.0003566376690287143,0.010239759460091591
0.010363038629293442,0.005308528896421194,-0.011124537326395512,0.006027523428201675,-0.00032582515268586576,0.009832466021180153
0.010542921721935272,0.005688665900379419,-0.010824272409081459,0.005763945169746876,-0.00034162806696258485,0.01004281360656023
0.010159740224480629,0.005096106790006161,-0.01117879431694746,0.005495503544807434,-0.0003222722443751991,0.009979882277548313
0.01073461677879095,0.004841711837798357,-0.011173848062753677,0.005849646404385567,-0.0003009792708326131,0.010004842653870583
0.011162644252181053,0.004885775502771139,-0.010318062268197536,0.006324904505163431,-0.00033467001048848033,0.010368349961936474
0.011162644252181053,0.004885775502771139,-0.010318062268197536,0.006324904505163431,-0.00033467001048848033,0.010368349961936474
0.010142192244529724,0.004839853383600712,-0.011029292829334736,0.006220933049917221,-0.00031837503775022924,0.010091337375342846
0.01032093446701765,0.005274569615721703,-0.010854022577404976,0.006247392855584621,-0.0003008425410371274,0.009737814776599407
0.01051931083202362,0.005271305330097675,-0.010273284278810024,0.006211514584720135,-0.00028498590108938515,0.010184879414737225
0.01043540146201849,0.004867988638579845,-0.011069740168750286,0.005670338403433561,-0.00030970072839409113,0.009967376478016376
0.010688998736441135,0.004863733425736427,-0.01048214826732874,0.006443646736443043,-0.0003003226884175092,0.009875340387225151
0.01044392865151167,0.005248102825134993,-0.010589693672955036,0.006626779679208994,-0.0002870011667255312,0.010806548409163952
0.010683930478990078,0.005104695912450552,-0.01108876708894968,0.006338951177895069,-0.00030848561436869204,0.010484145022928715
0.010896721854805946,0.0054637654684484005,-0.010777757503092289,0.006082240957766771,-0.00030028977198526263,0.009998198598623276
0.010926870629191399,0.005673572421073914,-0.011580775491893291,0.006205229554325342,-0.00028855723212473094,0.010464743711054325
0.01100456714630127,0.005472950637340546,-0.010848412290215492,0.007412732113152742,-0.0003022687160409987,0.01067721750587225
0.010920415632426739,0.005306906998157501,-0.01080512534826994,0.006782363168895245,-0.0003059716254938394,0.010202065110206604
0.010781260207295418,0.005569692235440016,-0.011135301552712917,0.006183817982673645,-0.00033775754855014384,0.010457527823746204
0.011333612725138664,0.005432956852018833,-0.010721497237682343,0.006304183974862099,-0.00032438072958029807,0.010786918923258781
0.010680125094950199,0.005766094196587801,-0.01085610780864954,0.006373352371156216,-0.00030641956254839897,0.01014721393585205
0.011022762395441532,0.005602383520454168,-0.01105792447924614,0.006633582524955273,-0.0003349849721416831,0.01008059922605753
0.011203725822269917,0.005656741093844175,-0.010290542617440224,0.006573626305907965,-0.0003208559355698526,0.010044381022453308
0.011136499233543873,0.005219448823481798,-0.010949117131531239,0.0060201482847332954,-0.0003054850094486028,0.009870640002191067
0.011649941094219685,0.005017226096242666,-0.010955581441521645,0.005981392227113247,-0.000291365577140823,0.01029002945870161
0.011448360048234463,0.005835947580635548,-0.010517698712646961,0.006803655531257391,-0.00031554882298223674,0.010378880426287651
0.01189456321299076,0.005583471618592739,-0.011043229140341282,0.006957383826375008,-0.00030461413552984595,0.010624345391988754
0.01149485819041729,0.0056806993670761585,-0.010611687786877155,0.006710384041070938,-0.000292399141471833,0.010165950283408165
0.011897617019712925,0.005750150885432959,-0.010976459830999374,0.006757369264960289,-0.000304473505821079,0.010341030545532703
0.011498399078845978,0.005562528967857361,-0.010358489118516445,0.006996640004217625,-0.0003161213535349816,0.010501880198717117
0.012008053250610828,0.0057233525440096855,-0.010722849518060684,0.006818927358835936,-0.00029738573357462883,0.01024515088647604
0.011670811101794243,0.005431741941720247,-0.010872161015868187,0.006418892648071051,-0.0002790759317576885,0.010826622135937214
0.011670811101794243,0.005431741941720247,-0.010872161015868187,0.006418892648071051,-0.0002790759317576885,0.010826622135937214
0.013155361637473106,0.005413439590483904,-0.011180776171386242,0.006638042628765106,-0.0002976937685161829,0.011253845877945423
0.013155361637473106,0.005413439590483904,-0.011180776171386242,0.006638042628765106,-0.0002976937685161829,0.011253845877945423
0.01295542810112238,0.005878073163330555,-0.010930802673101425,0.0067886351607739925,-0.0002823320683091879,0.010487254709005356
0.01330166682600975,0.00560622476041317,-0.010840739123523235,0.006631151307374239,-0.0002683134807739407,0.009892760775983334
0.013108748011291027,0.005836129654198885,-0.011420374736189842,0.006574912462383509,-0.0002952915383502841,0.010547682642936707
0.013327890075743198,0.005437175743281841,-0.010842746123671532,0.007208834867924452,-0.0002845396229531616,0.011052032932639122
0.013450903818011284,0.005333405919373035,-0.011308285407721996,0.006996701471507549,-0.00030866390443407,0.010962208732962608
0.01345130242407322,0.005338714458048344,-0.011365750804543495,0.00639045936986804,-0.00029825104866176844,0.011170418001711369
0.013460527174174786,0.005063796415925026,-0.010907446965575218,0.006751621142029762,-0.0003265252453275025,0.011146637611091137
0.013543982058763504,0.005160933826118708,-0.011636504903435707,0.0070742215029895306,-0.00034097430761903524,0.010434596799314022
0.013685592450201511,0.0050957887433469296,-0.011110893450677395,0.007550658192485571,-0.0003745248541235924,0.010819333605468273
0.013741658069193363,0.005301239434629679,-0.01121550239622593,0.007183332461863756,-0.0003574196307454258,0.010941877961158752
0.01445345114916563,0.005171531345695257,-0.011275493539869785,0.007252295035868883,-0.0003629151324275881,0.01081082969903946
0.013589924201369286,0.005676225293427706,-0.010918350890278816,0.007432791870087385,-0.00036687246756628156,0.011232239194214344
0.014139184728264809,0.005383303388953209,-0.011375975795090199,0.0076750824227929115,-0.0003482293977867812,0.011422381736338139
0.015041951090097427,0.004907798022031784,-0.010977671481668949,0.007152155041694641,-0.0003300848475191742,0.011409939266741276
0.014378250576555729,0.004733135923743248,-0.010504821315407753,0.006914407946169376,-0.0003553803835529834,0.011134040541946888
0.013106472790241241,0.005111965350806713,-0.011509208008646965,0.0069676348939538,-0.00034125498495996,0.010932950302958488
0.013802220113575459,0.004977797623723745,-0.010845724493265152,0.007241054903715849,-0.00032597919926047325,0.01164986565709114
0.013788990676403046,0.005481861066073179,-0.01126551628112793,0.0072612096555531025,-0.00031291350023820996,0.011378854513168335
0.014236790128052235,0.0051709068939089775,-0.011585653759539127,0.007148394361138344,-0.00036905912565998733,0.01109097246080637
0.014288453385233879,0.004946173634380102,-0.011544222012162209,0.00703444005921483,-0.0003814442898146808,0.01102365367114544
0.01395815797150135,0.004865269176661968,-0.0110173299908638,0.007126756012439728,-0.0004118059005122632,0.010920420289039612
0.01395815797150135,0.004865269176661968,-0.0110173299908638,0.007126756012439728,-0.0004118059005122632,0.010920420289039612
0.013519816100597382,0.0048194038681685925,-0.011265289969742298,0.0068632387556135654,-0.0004218174144625664,0.011004072614014149
0.013912493363022804,0.005361790768802166,-0.01079526636749506,0.00672454247251153,-0.0005167016061022878,0.011273969896137714
0.013853252865374088,0.005063219461590052,-0.011670127511024475,0.007081133313477039,-0.0005617132410407066,0.0114313755184412
0.013853252865374088,0.005063219461590052,-0.011670127511024475,0.007081133313477039,-0.0005617132410407066,0.0114313755184412
0.014147516340017319,0.00472297566011548,-0.01118742860853672,0.0069177420809865,-0.0005927044549025595,0.012162509374320507
0.013689963147044182,0.004949658643454313,-0.011119688861072063,0.006375378929078579,-0.000545061775483191,0.011462983675301075
0.013955529779195786,0.004995496943593025,-0.011615613475441933,0.006764344871044159,-0.0005356438341550529,0.011485498398542404
0.014426865614950657,0.005121186375617981,-0.01118607446551323,0.007024074904620647,-0.000526970368809998,0.01155941467732191
0.014306099154055119,0.005597782786935568,-0.011626520194113255,0.007244524545967579,-0.0004884562222287059,0.011606903746724129
0.014132659882307053,0.0052742864936590195,-0.011210366152226925,0.007455024868249893,-0.00045343031524680555,0.012192889116704464
0.014178932644426823,0.0049192472361028194,-0.011206316761672497,0.00773547263815999,-0.0004229767364449799,0.012017805129289627
0.014296711422502995,0.005145797040313482,-0.011669573374092579,0.007833444513380527,-0.000449027749709785,0.011661548167467117
0.01442154310643673,0.00506236869841814,-0.011007534340023994,0.007314831484109163,-0.00042589200893417,0.011875997297465801
0.01422163750976324,0.004969156812876463,-0.011788329109549522,0.007164805196225643,-0.00040231054299511015,0.011938158422708511
0.014200943522155285,0.0056631132028996944,-0.011412803083658218,0.006835415959358215,-0.000381026096874848,0.011602760292589664
0.014034751802682877,0.0051719993352890015,-0.01154027134180069,0.007171174045652151,-0.0003442721499595791,0.0117656784132123
0.014019935391843319,0.004862776026129723,-0.011808015406131744,0.008001072332262993,-0.0003184748347848654,0.011586942709982395
0.014096916653215885,0.005137018859386444,-0.011334273964166641,0.0072213150560855865,-0.0003526297805365175,0.011805759742856026
0.014186280779540539,0.005051342770457268,-0.012103606946766376,0.0067735472694039345,-0.00033438715036027133,0.011584777384996414
0.014409746043384075,0.005335241090506315,-0.011669225059449673,0.00742279551923275,-0.00034067765227518976,0.011865802109241486
0.014054383151233196,0.00522811571136117,-0.011542361229658127,0.007568156812340021,-0.0003456003905739635,0.012934171594679356
0.014445825479924679,0.004878313280642033,-0.012060984969139099,0.0074987164698541164,-0.00032908853609114885,0.011498949490487576
0.013882779516279697,0.004832007922232151,-0.010987273417413235,0.007339640986174345,-0.0003515384451020509,0.01197823416441679
0.01456766203045845,0.005282340571284294,-0.011831150390207767,0.007684743031859398,-0.00034023108310066164,0.012115019373595715
0.014345389790832996,0.005099193658679724,-0.011372801847755909,0.007738341111689806,-0.00032520623062737286,0.012327322736382484
0.014246406964957714,0.00520699517801404,-0.01230387669056654,0.0071794441901147366,-0.00039043062133714557,0.012745632790029049
0.014595923013985157,0.00496266782283783,-0.011778843589127064,0.008026568219065666,-0.00036014735815115273,0.01283234916627407
0.01449742540717125,0.005134242121130228,-0.0120974350720644,0.008079775609076023,-0.00033349962905049324,0.013212949968874454
0.014814338646829128,0.005189123563468456,-0.01209479384124279,0.007839640602469444,-0.00034063158091157675,0.012896731495857239
0.014814338646829128,0.005189123563468456,-0.01209479384124279,0.007839640602469444,-0.00034063158091157675,0.012896731495857239
0.014605455100536346,0.005020953714847565,-0.012409926392138004,0.007721923291683197,-0.00034642714308574796,0.012499353848397732
0.014934610575437546,0.00485172588378191,-0.012218366377055645,0.0077682617120444775,-0.00032723849290050566,0.0128554692491889
0.014368883334100246,0.004806297365576029,-0.0119736073538661,0.007500824518501759,-0.0003086434444412589,0.01249722484499216
0.014711756259202957,0.004670333117246628,-0.012864229269325733,0.007551546208560467,-0.00033725856337696314,0.012797395698726177
0.014902411960065365,0.004917594604194164,-0.012515610083937645,0.008116674609482288,-0.0003229219582863152,0.012422683648765087
0.014651661738753319,0.004946183878928423,-0.012617010623216629,0.008390632458031178,-0.00033976422855630517,0.01269514486193657
0.014430821873247623,0.00484691234305501,-0.012521565891802311,0.008273468352854252,-0.00033418333623558283,0.012963538989424706
0.014382322318851948,0.005201601888984442,-0.012692419812083244,0.007832009345293045,-0.0003199940256308764,0.012943407520651817
0.01447281427681446,0.005459904670715332,-0.012598228640854359,0.008232604712247849,-0.00030641688499599695,0.013241448439657688
0.01472699735313654,0.005022523459047079,-0.01246288139373064,0.007756818551570177,-0.00029936147620901465,0.013506721705198288
0.014666419476270676,0.005130354780703783,-0.012885674834251404,0.00775069510564208,-0.00028592892340384424,0.0135341826826334
0.014542331919074059,0.0049340068362653255,-0.012429841794073582,0.007624406833201647,-0.0002691832196433097,0.013034422881901264
0.014870062470436096,0.005420461762696505,-0.013270595110952854,0.007698044180870056,-0.0002979544806294143,0.013369080610573292
0.01503554917871952,0.005217908415943384,-0.01292467676103115,0.007581251207739115,-0.0002880697138607502,0.013095201924443245
0.015377547591924667,0.005079397466033697,-0.013328627683222294,0.007973331026732922,-0.00027385036810301244,0.013298679143190384
0.014895223081111908,0.005020343232899904,-0.012761011719703674,0.00819358229637146,-0.0002818660868797451,0.013700391165912151
0.015048874542117119,0.004911475349217653,-0.013406943529844284,0.008478031493723392,-0.0002886399161070585,0.01389933843165636
0.014554325491189957,0.004796469584107399,-0.013373509049415588,0.007764059584587812,-0.00027722440427169204,0.013764239847660065
0.014614189974963665,0.0052261087112128735,-0.012719561345875263,0.007807367946952581,-0.000298501894576475,0.013567598536610603
0.014681282453238964,0.005181018728762865,-0.012731533497571945,0.007772549521178007,-0.00029095515492372215,0.013268996961414814
0.01510598324239254,0.005106745287775993,-0.012288986705243587,0.008684600703418255,-0.0002799360954668373,0.012640636414289474
0.01483288686722517,0.004951792303472757,-0.01289506908506155,0.00788743793964386,-0.00029804030782543123,0.013061778619885445
0.014802243560552597,0.005103523377329111,-0.013418060727417469,0.008250325918197632,-0.00031379485153593123,0.013423822820186615
0.01500258594751358,0.005294731352478266,-0.013126354664564133,0.009362665936350822,-0.0002955692762043327,0.0133518036454916
0.01500258594751358,0.005294731352478266,-0.013126354664564133,0.009362665936350822,-0.0002955692762043327,0.0133518036454916
0.014401821419596672,0.0051450952887535095,-0.013100037351250648,0.008581968024373055,-0.0003183580993209034,0.013892384245991707
0.015290480107069016,0.005435385275632143,-0.012585336342453957,0.008640863932669163,-0.0003126946394331753,0.01372150145471096
0.014960519969463348,0.0051309107802808285,-0.011570977978408337,0.008483253419399261,-0.0003327878948766738,0.015569101087749004
0.015737488865852356,0.004852796904742718,-0.013397672213613987,0.008656565099954605,-0.000326977256918326,0.013621768914163113
0.015420644544064999,0.005248041823506355,-0.013684670440852642,0.00834252592176199,-0.00033328300924040377,0.013805498369038105
0.015204042196273804,0.0051527745090425014,-0.013628128916025162,0.008901147171854973,-0.0003378447436261922,0.013406767509877682
0.015029743313789368,0.005098306108266115,-0.012393309734761715,0.008867787197232246,-0.00032396084861829877,0.01372817438095808
0.015451978892087936,0.005199374631047249,-0.01307914312928915,0.00861590076237917,-0.0004221550188958645,0.014066587202250957
0.01510243583470583,0.004872837103903294,-0.012673021294176579,0.008709694258868694,-0.0004013889702036977,0.014407280832529068
0.015103038400411606,0.0050528571009635925,-0.013108782470226288,0.008430272340774536,-0.00042373090400360525,0.014000432565808296
0.015458991751074791,0.005035388749092817,-0.013078393414616585,0.008249511010944843,-0.00040853730752132833,0.014228164218366146
0.015255143865942955,0.004908203613013029,-0.012970211915671825,0.007866288535296917,-0.000380813202355057,0.014140818268060684
0.015440848655998707,0.0052146646194159985,-0.013190604746341705,0.008219495415687561,-0.00040702111436985433,0.01434619165956974
0.014685312286019325,0.0055145747028291225,-0.012908409349620342,0.00826344359666109,-0.00038888645940460265,0.014252495020627975
0.016281669959425926,0.004973868373781443,-0.01321882102638483,0.008207759819924831,-0.0004120131488889456,0.01385741401463747
0.015622581355273724,0.00479683605954051,-0.012868345715105534,0.008372867479920387,-0.0003955941938329488,0.013735568150877953
0.01571635715663433,0.004837958142161369,-0.01316035632044077,0.008650449104607105,-0.00041861331555992365,0.013738077133893967
0.015436248853802681,0.004805525299161673,-0.012735065072774887,0.008509058505296707,-0.0004211334453430027,0.014309304766356945
0.01538784895092249,0.0051404437981545925,-0.0136860441416502,0.008420472964644432,-0.0003875735856126994,0.014209765940904617
0.01548269484192133,0.005383887328207493,-0.013175196014344692,0.008720341138541698,-0.0004233124782331288,0.014020407572388649
0.016347341239452362,0.004728917498141527,-0.013545582070946693,0.00850680097937584,-0.00039654941065236926,0.013866547495126724
0.01693459041416645,0.0050588552840054035,-0.013177536427974701,0.008296235464513302,-0.0004269630881026387,0.014151660725474358
0.01652386598289013,0.005068174563348293,-0.013026448898017406,0.008964605629444122,-0.0004033696313854307,0.014347553253173828
0.016846757382154465,0.004938499536365271,-0.013415022753179073,0.008564826101064682,-0.00042617888539098203,0.014495796523988247
0.01663840189576149,0.0052144466899335384,-0.013743768446147442,0.008270781487226486,-0.0004084159736521542,0.014447031542658806
0.017038315534591675,0.004768465645611286,-0.01320297084748745,0.008794664405286312,-0.00048392752069048584,0.0142922168597579
0.016780167818069458,0.0050509292632341385,-0.013342526741325855,0.00883297249674797,-0.00048024539137259126,0.014462373219430447
0.017044998705387115,0.00529084587469697,-0.01284161489456892,0.009030995890498161,-0.00044337069266475737,0.014854912646114826
0.017044998705387115,0.00529084587469697,-0.01284161489456892,0.009030995890498161,-0.00044337069266475737,0.014854912646114826
0.016916409134864807,0.00488808611407876,-0.013718578964471817,0.008998838253319263,-0.0004733421956188977,0.014744112268090248
0.017420822754502296,0.005031208042055368,-0.013394705951213837,0.009375924244523048,-0.00044410934788174927,0.015097763389348984
0.016881335526704788,0.004810867831110954,-0.014110811054706573,0.008995250798761845,-0.0004150964959990233,0.01476030983030796
0.017038166522979736,0.004700217396020889,-0.013301078230142593,0.00931865070015192,-0.00044120833626948297,0.014706951566040516
0.017031854018568993,0.0045913453213870525,-0.013366322964429855,0.009424503892660141,-0.00041890176362358034,0.014636578038334846
0.016706401482224464,0.004702245816588402,-0.012949969619512558,0.009661694057285786,-0.00045691512059420347,0.01452674251049757
0.01736275665462017,0.004687217064201832,-0.01392504945397377,0.009774817153811455,-0.00042387089342810214,0.014455773867666721
0.017550962045788765,0.00504517974331975,-0.013674999587237835,0.009847437031567097,-0.00045483256690204144,0.014547155238687992
0.017331143841147423,0.005519669968634844,-0.013679313473403454,0.0095374109223485,-0.00042790506267920136,0.015655791386961937
0.01736040599644184,0.0051250942051410675,-0.013449510559439659,0.010554115287959576,-0.0003970155376009643,0.015066144056618214
0.016967540606856346,0.004574012476950884,-0.013224443420767784,0.010198565199971199,-0.00042716774623841047,0.015299112536013126
0.017744317650794983,0.004596700891852379,-0.013288767077028751,0.009150242432951927,-0.00043158623157069087,0.015699438750743866
0.017630761489272118,0.00493827648460865,-0.013432208448648453,0.008784686215221882,-0.0004317362036090344,0.015221045352518559
0.017531124874949455,0.005057798698544502,-0.013976052403450012,0.009419550187885761,-0.00040891117532737553,0.015657078474760056
0.01746722310781479,0.0050190892070531845,-0.013446198776364326,0.009400646202266216,-0.00044140758109278977,0.015606384724378586
0.01733826845884323,0.0050910827703773975,-0.013898267410695553,0.009358623065054417,-0.0004599406383931637,0.015772119164466858
0.017887672409415245,0.005031741689890623,-0.013061891309916973,0.010316574014723301,-0.0004588286392390728,0.015749920159578323
0.017791463062167168,0.00475497217848897,-0.013694788329303265,0.00960814394056797,-0.00042516927351243794,0.015233922749757767
0.017688969150185585,0.0049170153215527534,-0.013867749832570553,0.009377805516123772,-0.00044254332897253335,0.015082032419741154
0.018031373620033264,0.005290773697197437,-0.014317895285785198,0.009890934452414513,-0.0004275323008187115,0.015568122267723083
0.017726343125104904,0.00525062857195735,-0.013485400937497616,0.010035895742475986,-0.00040127121610566974,0.015258881263434887
0.01785070262849331,0.005205220077186823,-0.014092741534113884,0.009417396038770676,-0.0003772931231651455,0.015381895937025547
0.018011044710874557,0.004986982326954603,-0.013164255768060684,0.00988271925598383,-0.0003934458363801241,0.015711912885308266
0.01787472330033779,0.004403582774102688,-0.01389397494494915,0.009641306474804878,-0.00038418403710238636,0.015895843505859375
0.018539143726229668,0.004353437572717667,-0.014040193520486355,0.009545471519231796,-0.0003654469328466803,0.016393937170505524
0.01851736009120941,0.0051626539789140224,-0.013731947168707848,0.009569398127496243,-0.00036001691478304565,0.016672831028699875
0.0190250463783741,0.0047985585406422615,-0.01400009822100401,0.009501748718321323,-0.00036709298728965223,0.01627061888575554
0.01835007406771183,0.004416208248585463,-0.013966626487672329,0.01062687300145626,-0.0003715991333592683,0.01597134955227375
0.01835007406771183,0.004416208248585463,-0.013966626487672329,0.01062687300145626,-0.0003715991333592683,0.01597134955227375
0.018047887831926346,0.004426721017807722,-0.01421117689460516,0.010298334993422031,-0.0004036911705043167,0.015595865435898304
0.018756432458758354,0.004157510586082935,-0.014106092974543571,0.009844784624874592,-0.0004094497417099774,0.016079595312476158
0.018649162724614143,0.003979860804975033,-0.014665232971310616,0.010577026754617691,-0.0004108591820113361,0.01660555973649025
0.019146548584103584,0.004424906335771084,-0.014761858619749546,0.010038327425718307,-0.0005069876788184047,0.01650257222354412
0.018762681633234024,0.004736362490803003,-0.014625981450080872,0.010494007728993893,-0.0005543879233300686,0.016194099560379982
0.01863221265375614,0.0043084570206701756,-0.014859573915600777,0.01032673753798008,-0.0005859624361619353,0.01604795642197132
0.019660642370581627,0.004254886880517006,-0.0144730806350708,0.009661207906901836,-0.0005394836771301925,0.016154371201992035
0.01978393830358982,0.0040713464841246605,-0.014484002254903316,0.01008745189756155,-0.0005671357503160834,0.016214601695537567
0.019493412226438522,0.004317251965403557,-0.01522695180028677,0.010100682266056538,-0.0005248624365776777,0.01618129201233387
0.019652705639600754,0.00453040050342679,-0.01467612013220787,0.009374030865728855,-0.0005491285701282322,0.016145218163728714
0.019591916352510452,0.004644713830202818,-0.014871777035295963,0.010024599730968475,-0.0005141155561432242,0.01631646789610386
0.0193181149661541,0.004480554256588221,-0.014135029166936874,0.010044331662356853,-0.0004800885508302599,0.017696883529424667
0.0193723663687706,0.0041518365032970905,-0.014951012097299099,0.00958954356610775,-0.0004861713096033782,0.016108132898807526
0.019704269245266914,0.0043721869587898254,-0.014948459342122078,0.010010863654315472,-0.0004450922133401036,0.016210081055760384
0.020218823105096817,0.004136756528168917,-0.015504050068557262,0.010270935483276844,-0.00040540931513532996,0.016530685126781464
0.01995714195072651,0.004431955981999636,-0.014825556427240372,0.009642833843827248,-0.0004360343737062067,0.017018329352140427
0.020273586735129356,0.004106868524104357,-0.015178163535892963,0.009766086004674435,-0.000411517103202641,0.017103848978877068
0.020220648497343063,0.004401625599712133,-0.014563133008778095,0.010427616536617279,-0.00038289191434159875,0.017093200236558914
0.019745033234357834,0.0044264462776482105,-0.014515557326376438,0.010077575221657753,-0.00041298443102277815,0.017071858048439026
0.020421825349330902,0.004168385174125433,-0.014092124067246914,0.010251333005726337,-0.00039096278487704694,0.01678432896733284
0.02053200639784336,0.0039129359647631645,-0.01497021783143282,0.010351499542593956,-0.0003683321410790086,0.01719375140964985
0.02030361071228981,0.004344149958342314,-0.014587005600333214,0.010122951120138168,-0.0003479930164758116,0.01698768325150013
0.02039264515042305,0.004091090057045221,-0.015422036871314049,0.010685885325074196,-0.0003736350336112082,0.01716340146958828
0.0203529205173254,0.004624764900654554,-0.014751720242202282,0.010997971519827843,-0.00034114180016331375,0.01688798889517784
0.020378846675157547,0.004535929299890995,-0.014230499975383282,0.011354129761457443,-0.00033067012554965913,0.017111213877797127
0.020378846675157547,0.004535929299890995,-0.014230499975383282,0.011354129761457443,-0.00033067012554965913,0.017111213877797127
0.020992690697312355,0.004416395910084248,-0.015155008062720299,0.0110536003485322,-0.00028956346795894206,0.01666494831442833
0.020992690697312355,0.004416395910084248,-0.015155008062720299,0.0110536003485322,-0.00028956346795894206,0.01666494831442833
0.02065223827958107,0.004159866366535425,-0.0150768356397748,0.010926833376288414,-0.0003191019350197166,0.016864707693457603
0.02067672647535801,0.004469678737223148,-0.014551253989338875,0.010634604841470718,-0.00030736427288502455,0.017114918678998947
0.020627757534384727,0.0046125613152980804,-0.014728176407516003,0.01109315361827612,-0.00033639342291280627,0.017348097637295723
0.020954368636012077,0.004675596486777067,-0.014669368043541908,0.010733719915151596,-0.0003561370831448585,0.017477527260780334
0.02083526737987995,0.004556023981422186,-0.01504151988774538,0.010510426014661789,-0.0003496939316391945,0.017323704436421394
0.02076798304915428,0.004098463337868452,-0.01513509452342987,0.01039342861622572,-0.00033416904625482857,0.017462512478232384
0.021187420934438705,0.004411506932228804,-0.01467959675937891,0.010543952696025372,-0.00044265735778026283,0.01729726605117321
0.021183546632528305,0.0046641165390610695,-0.014906455762684345,0.010133367963135242,-0.00041988701559603214,0.017520487308502197
0.021234866231679916,0.004336935933679342,-0.015056077390909195,0.010168240405619144,-0.0004566775751300156,0.017824426293373108
0.021449539810419083,0.004335507750511169,-0.01570838689804077,0.010075489990413189,-0.0004254239611327648,0.017890889197587967
0.02146998979151249,0.004618995822966099,-0.01522866915911436,0.010327004827558994,-0.00045576266711577773,0.017752906307578087
0.021223904564976692,0.0042014699429273605,-0.015212125144898891,0.010814185254275799,-0.00045850983588024974,0.017745787277817726
0.021465761587023735,0.004392857663333416,-0.014938519336283207,0.01031680777668953,-0.0004569762386381626,0.018161950632929802
0.022189946845173836,0.004139326047152281,-0.015420844778418541,0.010808373801410198,-0.0004330475931055844,0.018318943679332733
0.021453803405165672,0.004422519356012344,-0.014871085062623024,0.010834417305886745,-0.0005107484175823629,0.019421322271227837
0.021829036995768547,0.004210522398352623,-0.015566075220704079,0.010679519735276699,-0.0005110497586429119,0.018253440037369728
0.021493354812264442,0.004149203188717365,-0.015089819207787514,0.010606430470943451,-0.000504249008372426,0.01740935817360878
0.02263806387782097,0.004227750468999147,-0.01573885977268219,0.010558725334703922,-0.00046360772103071213,0.01797473430633545
0.022117571905255318,0.004423073958605528,-0.014684678055346012,0.01068861223757267,-0.00047932786401361227,0.018338462337851524
0.02181701548397541,0.004502307623624802,-0.015004505403339863,0.010999778285622597,-0.0004604937566909939,0.018483484163880348
0.019988246262073517,0.00464166235178709,-0.014652138575911522,0.010718125849962234,-0.0004831876722164452,0.018931275233626366
0.022479042410850525,0.0044188667088747025,-0.015639252960681915,0.010742195881903172,-0.0004596427024807781,0.019405176863074303
0.023106077685952187,0.004298496525734663,-0.015149607323110104,0.010850289836525917,-0.0004324978799559176,0.01908794976770878
0.02201751619577408,0.004475182853639126,-0.01514059491455555,0.011612222529947758,-0.00041246015462093055,0.018761638551950455
0.0227070190012455,0.00460751773789525,-0.015308892354369164,0.011896935291588306,-0.0004158227238804102,0.018239924684166908
0.0227070190012455,0.00460751773789525,-0.015308892354369164,0.011896935291588306,-0.0004158227238804102,0.018239924684166908
0.02322613075375557,0.00440156739205122,-0.01563549041748047,0.011970424093306065,-0.00041713964310474694,0.01877206563949585
0.02301785722374916,0.00407804362475872,-0.015149222686886787,0.011410512961447239,-0.0004369415109977126,0.018939463421702385
0.022479182109236717,0.004295154009014368,-0.015238729305565357,0.011174689047038555,-0.00042260202462784946,0.019141066819429398
0.021757906302809715,0.004333225544542074,-0.014949190430343151,0.011344220489263535,-0.0004497078189160675,0.019026080146431923
0.022174932062625885,0.004097987897694111,-0.015675785019993782,0.011488000862300396,-0.0005727888783439994,0.019184496253728867
0.02271459624171257,0.004250223748385906,-0.01516818068921566,0.01136524137109518,-0.0006055430276319385,0.01893480308353901
0.02341906912624836,0.004488114267587662,-0.015367155894637108,0.01224007923156023,-0.0005900058895349503,0.01945292390882969
0.023164095357060432,0.004255206324160099,-0.014930433593690395,0.01164731290191412,-0.0005348331178538501,0.019552838057279587
0.022734802216291428,0.004492536187171936,-0.01599665731191635,0.011878476478159428,-0.0005620862357318401,0.01919105462729931
0.022922832518815994,0.004626003094017506,-0.015055613592267036,0.011551257222890854,-0.0005565365427173674,0.018949396908283234
0.022757653146982193,0.004201117437332869,-0.015383750200271606,0.011539176106452942,-0.0005472985794767737,0.018807392567396164
0.02302769385278225,0.003902854397892952,-0.01530476938933134,0.011895134113729,-0.0005122477887198329,0.019015509635210037
0.023339860141277313,0.004250998143106699,-0.01621381565928459,0.011546438559889793,-0.0005365733522921801,0.019342811778187752
0.022854754701256752,0.00494926143437624,-0.016170943155884743,0.011667829938232899,-0.0005309589905664325,0.019668113440275192
0.02305665984749794,0.004928570706397295,-0.015787038952112198,0.011725188232958317,-0.0005218064179643989,0.019502263516187668
0.02374442294239998,0.004466285929083824,-0.015961462631821632,0.011654624715447426,-0.0005367415142245591,0.019773034378886223
0.023810649290680885,0.0042063589207828045,-0.014544954523444176,0.011978719383478165,-0.0005468432791531086,0.0197774525731802
0.023548897355794907,0.004106398671865463,-0.016579052433371544,0.011836260557174683,-0.0005393449682742357,0.019408833235502243
0.02361418306827545,0.004561133217066526,-0.01632201299071312,0.012187818065285683,-0.0006334823556244373,0.019587358459830284
0.02354292757809162,0.0047611817717552185,-0.016368543729186058,0.012019962072372437,-0.0006574263679794967,0.020498910918831825
0.023950180038809776,0.004882909823209047,-0.0167926624417305,0.012663413770496845,-0.0006099684396758676,0.019312547519803047
0.023773685097694397,0.004345589783042669,-0.016828665509819984,0.01268165372312069,-0.0006283738766796887,0.019203701987862587
0.024177949875593185,0.0040265335701406,-0.016553841531276703,0.0125123867765069,-0.0005811541923321784,0.01965147629380226
0.023660806939005852,0.004317287355661392,-0.01672988571226597,0.01219960767775774,-0.0005587531486526132,0.020209915935993195
0.02426859177649021,0.004833911545574665,-0.015937354415655136,0.012341546826064587,-0.0005205284105613828,0.020410316064953804
0.02430644817650318,0.004482204560190439,-0.01665014773607254,0.011926358565688133,-0.0004984181141480803,0.020344281569123268
0.02430644817650318,0.004482204560190439,-0.01665014773607254,0.011926358565688133,-0.0004984181141480803,0.020344281569123268
0.024010099470615387,0.0045409537851810455,-0.016745667904615402,0.011999348178505898,-0.0005059675313532352,0.0202211644500494
0.024634720757603645,0.004261352121829987,-0.016808560118079185,0.012231721542775631,-0.0005000840756110847,0.020289750769734383
0.02472088299691677,0.004031147807836533,-0.016761785373091698,0.012265665456652641,-0.0005313762230798602,0.020639991387724876
0.024585938081145287,0.00423815380781889,-0.016219068318605423,0.012624043971300125,-0.0005601466982625425,0.02053808607161045
0.024317823350429535,0.00457838224247098,-0.017043335363268852,0.01217394508421421,-0.0007665154989808798,0.020487483590841293
0.024923786520957947,0.004652167670428753,-0.016441088169813156,0.012530256994068623,-0.0008500066469423473,0.020555678755044937
0.025047993287444115,0.0044368840754032135,-0.01717679388821125,0.012078928761184216,-0.000861146196257323,0.020247096195816994
0.024674493819475174,0.004033453296869993,-0.017181476578116417,0.012140132486820221,-0.000824307615403086,0.020458731800317764
0.025191793218255043,0.0039186482317745686,-0.016730137169361115,0.012412714771926403,-0.0007826754008419812,0.020724868401885033
0.02429634891450405,0.003892136737704277,-0.017212538048624992,0.01220865547657013,-0.0007165237911976874,0.02074057050049305
0.02517099492251873,0.004361801315099001,-0.015716785565018654,0.01272755116224289,-0.0007070386200211942,0.02134205400943756
0.025281434878706932,0.0044997455552220345,-0.016634143888950348,0.012271135114133358,-0.0006755689391866326,0.021724773570895195
0.025416607037186623,0.0045908051542937756,-0.016633089631795883,0.012967742048203945,-0.0006469553336501122,0.021441413089632988
0.025425752624869347,0.004658004269003868,-0.017089825123548508,0.011755567975342274,-0.0006514012347906828,0.02072703093290329
0.024986514821648598,0.0042826090939342976,-0.017429456114768982,0.012217514216899872,-0.0006101707112975419,0.020315539091825485
0.024582358077168465,0.00445207767188549,-0.01630578003823757,0.012877150438725948,-0.0006261969683691859,0.020471662282943726
0.025259898975491524,0.004122118465602398,-0.016976971179246902,0.012324271723628044,-0.0005847284919582307,0.021013587713241577
0.02548503689467907,0.004301201552152634,-0.016799593344330788,0.012718153186142445,-0.0005413465551100671,0.021723339334130287
0.025275347754359245,0.004633947741240263,-0.017032315954566002,0.012009721249341965,-0.0005005652201361954,0.02099539339542389
0.025357354432344437,0.004684830084443092,-0.016985973343253136,0.012570574879646301,-0.00045152768143452704,0.020814497023820877
0.026739560067653656,0.004724005702883005,-0.016800206154584885,0.012483544647693634,-0.0004865559749305248,0.021213233470916748
0.02572053112089634,0.004530262667685747,-0.017172666266560555,0.012462199665606022,-0.000450879248091951,0.021784069016575813
0.025834089145064354,0.004556841216981411,-0.01644746959209442,0.012840417213737965,-0.0004808982484973967,0.021400291472673416
0.025559069588780403,0.004477395210415125,-0.01751568727195263,0.012756322510540485,-0.0004798654990736395,0.020743729546666145
0.02636481262743473,0.004722781013697386,-0.017125766724348068,0.012494547292590141,-0.0005426410352811217,0.021364660933613777
0.02649262547492981,0.005145256873220205,-0.017670663073658943,0.013276836834847927,-0.0005129979690536857,0.020450856536626816
0.02649262547492981,0.005145256873220205,-0.017670663073658943,0.013276836834847927,-0.0005129979690536857,0.020450856536626816
0.026257777586579323,0.004801259841769934,-0.01713496819138527,0.013136332854628563,-0.0005299245822243392,0.02126888930797577
0.02621087059378624,0.0046010310761630535,-0.01759032905101776,0.013343682512640953,-0.0005015841452404857,0.022037619724869728
0.02641233056783676,0.004431449342519045,-0.01774214766919613,0.013125961646437645,-0.0005314075970090926,0.022158004343509674
0.026402732357382774,0.0047368984669446945,-0.016902374103665352,0.013228829950094223,-0.0005553915980271995,0.022126689553260803
0.026234041899442673,0.004926696885377169,-0.017674067988991737,0.013544748537242413,-0.000743819517083466,0.02196013182401657
0.02603469416499138,0.005150382872670889,-0.017131531611084938,0.013661381788551807,-0.0007862181519158185,0.021900078281760216
0.026879318058490753,0.005035863257944584,-0.017215967178344727,0.013480783440172672,-0.0008013530168682337,0.022172212600708008
0.026722535490989685,0.004712122492492199,-0.0174348596483469,0.01260470412671566,-0.0007658387767150998,0.02239934541285038
0.026808131486177444,0.004295004066079855,-0.01695827953517437,0.013064447790384293,-0.0008863179828040302,0.022578971460461617
0.026607269421219826,0.004511353559792042,-0.017862830311059952,0.012883304618299007,-0.000872222997713834,0.02267553098499775
0.026808544993400574,0.004621680825948715,-0.017304688692092896,0.013695256784558296,-0.0008108704932965338,0.022589504718780518
0.027029382064938545,0.004783542826771736,-0.017561109736561775,0.013589724898338318,-0.0007652071071788669,0.022377854213118553
0.02558250166475773,0.004764781799167395,-0.01733698882162571,0.013033909723162651,-0.0007270695641636848,0.02270549349486828
0.027184009552001953,0.0046493844129145145,-0.0172735508531332,0.014112009666860104,-0.0007351678214035928,0.022612741217017174
0.027551453560590744,0.004340408835560083,-0.018083050847053528,0.01457553543150425,-0.0006810440099798143,0.022501347586512566
0.02725745178759098,0.004245596472173929,-0.018442628905177116,0.013964837417006493,-0.0006587853422388434,0.02283385396003723
0.026951102539896965,0.004440337885171175,-0.017984185367822647,0.014497051946818829,-0.0006839450215920806,0.022880565375089645
0.027299318462610245,0.004612901713699102,-0.01827322319149971,0.014110017567873001,-0.0006609579431824386,0.02283783257007599
0.027329133823513985,0.004744414705783129,-0.017840750515460968,0.014586826786398888,-0.0006807346362620592,0.02324729785323143
0.028202010318636894,0.004784019663929939,-0.01814871095120907,0.014077962376177311,-0.000845337868668139,0.02311246283352375
0.027827013283967972,0.004458470270037651,-0.01817631721496582,0.014400276355445385,-0.0008796749752946198,0.023059111088514328
0.027897128835320473,0.004401895683258772,-0.01784243807196617,0.01359584741294384,-0.0008753533475100994,0.023181220516562462
0.026773883029818535,0.004289254080504179,-0.018582658842206,0.01395078469067812,-0.0008779308409430087,0.023380374535918236
0.028439916670322418,0.004334284923970699,-0.018375664949417114,0.014702912420034409,-0.0008728309185244143,0.023369580507278442
0.02820609323680401,0.004588241223245859,-0.01919925957918167,0.01455960888415575,-0.0008122131694108248,0.02296745590865612
0.028370214626193047,0.005196463782340288,-0.018775539472699165,0.014523630030453205,-0.0008193370886147022,0.023173710331320763
0.028370214626193047,0.005196463782340288,-0.018775539472699165,0.014523630030453205,-0.0008193370886147022,0.023173710331320763
0.029124651104211807,0.0045624240301549435,-0.019233988597989082,0.014177230186760426,-0.0008212862885557115,0.023546723648905754
0.028946170583367348,0.0040220278315246105,-0.01950128749012947,0.014585944823920727,-0.0008095658267848194,0.023775871843099594
0.028964746743440628,0.004319370724260807,-0.01924888975918293,0.014393447898328304,-0.000847183691803366,0.024190671741962433
0.02809540554881096,0.004373492673039436,-0.018870025873184204,0.014758579432964325,-0.0007636889349669218,0.02393038384616375
0.02823755517601967,0.004804893862456083,-0.01909908652305603,0.0139758987352252,-0.0007745038019493222,0.023926110938191414
0.02927212230861187,0.0048259953036904335,-0.018702369183301926,0.01453447062522173,-0.0006957550067454576,0.024033941328525543
0.029255423694849014,0.0043390123173594475,-0.019357046112418175,0.013855155557394028,-0.0007099374779500067,0.024128444492816925
0.029144296422600746,0.004448050167411566,-0.020020093768835068,0.01453236024826765,-0.0006511184619739652,0.02430870570242405
0.029185550287365913,0.004120172467082739,-0.019488107413053513,0.014675958082079887,-0.0006029570940881968,0.02466237172484398
0.02890993095934391,0.004231617320328951,-0.018923409283161163,0.014965320937335491,-0.0005511273047886789,0.02337845042347908
0.029166484251618385,0.0040741246193647385,-0.019609663635492325,0.014542854391038418,-0.000583435466978699,0.023770533502101898
0.027850329875946045,0.004307168535888195,-0.019467884674668312,0.015350372530519962,-0.000614254386164248,0.024666672572493553
0.02958926185965538,0.004584936425089836,-0.01965573988854885,0.014818151481449604,-0.0006398729747161269,0.02488352544605732
0.029947107657790184,0.004580739885568619,-0.019604941830039024,0.015181832015514374,-0.0008524412987753749,0.023947423323988914
0.02986205369234085,0.004165643826127052,-0.01940668188035488,0.014484401792287827,-0.0007523300009779632,0.02340531535446644
0.02992626279592514,0.003925382159650326,-0.01961498148739338,0.0151145588606596,-0.0007661915733478963,0.024282261729240417
0.029782813042402267,0.0038230069912970066,-0.020104676485061646,0.014909896068274975,-0.0006778246606700122,0.025349441915750504
0.030026251450181007,0.004115478601306677,-0.019982030615210533,0.015328098088502884,-0.0006758103263564408,0.024663802236318588
0.030185576528310776,0.0045297215692698956,-0.01970428228378296,0.014899480156600475,-0.0006740611861459911,0.024519378319382668
0.03045441396534443,0.004279689397662878,-0.020326843485236168,0.015102825127542019,-0.0006535077700391412,0.02576252445578575
0.030324680730700493,0.004497827496379614,-0.02012726664543152,0.015354824252426624,-0.0005972282961010933,0.026159562170505524
0.030731450766324997,0.004109811503440142,-0.019992351531982422,0.015466168522834778,-0.0006066640489734709,0.02521619200706482
0.031158780679106712,0.004227075260132551,-0.020398084074258804,0.015737012028694153,-0.0006359017570503056,0.02424975484609604
0.031041966751217842,0.00427279993891716,-0.01998263970017433,0.01553307194262743,-0.0006610080017708242,0.02424730360507965
0.03108610026538372,0.004143489059060812,-0.020069969817996025,0.014774419367313385,-0.0009477063431404531,0.026081331074237823
0.03172635659575462,0.004423375707119703,-0.020464854314923286,0.015240881592035294,-0.0009542870102450252,0.0261085107922554
0.03138376399874687,0.004166110418736935,-0.019777875393629074,0.015140742063522339,-0.0009396836976520717,0.025756044313311577
0.03167295083403587,0.004393548704683781,-0.018912874162197113,0.015780407935380936,-0.0008438543882220984,0.02551915869116783
0.03167295083403587,0.004393548704683781,-0.018912874162197113,0.015780407935380936,-0.0008438543882220984,0.02551915869116783
0.03199499100446701,0.004298871848732233,-0.019396092742681503,0.015450602397322655,-0.0008384701795876026,0.025960860773921013
0.03153536096215248,0.004519287962466478,-0.01958203874528408,0.01604735106229782,-0.000720697920769453,0.025922926142811775
0.03206911310553551,0.004163590259850025,-0.019755791872739792,0.015522441826760769,-0.0007368442602455616,0.02621130645275116
0.03325392305850983,0.004245169460773468,-0.02000942826271057,0.015286802314221859,-0.0007344252662733197,0.025972982868552208
0.03370046243071556,0.004506359808146954,-0.02000948041677475,0.014787303283810616,-0.0007266463944688439,0.025885283946990967
0.030672196298837662,0.00450865039601922,-0.019628381356596947,0.015077771618962288,-0.0006995964795351028,0.025969035923480988
0.03204851225018501,0.004297303967177868,-0.01971053145825863,0.015302469953894615,-0.0006614032317884266,0.02604304626584053
0.03329597786068916,0.004503561649471521,-0.02050132304430008,0.016285181045532227,-0.0006380420527420938,0.02591521479189396
0.03246714919805527,0.004303656052798033,-0.020130358636379242,0.01624326780438423,-0.000615112017840147,0.026027029380202293
0.032445814460515976,0.004397613927721977,-0.019800635054707527,0.016017522662878036,-0.0006408936460502446,0.026207851245999336
0.03409333899617195,0.004459958989173174,-0.01999906450510025,0.016547899693250656,-0.0006483630277216434,0.02618204802274704
0.03374037891626358,0.00456739217042923,-0.01986396685242653,0.015604682266712189,-0.0006955674034543335,0.026590459048748016
0.03194335848093033,0.0045998962596058846,-0.019687099382281303,0.016170555725693703,-0.000775093212723732,0.02653067745268345
0.03265523910522461,0.00451675383374095,-0.020214242860674858,0.015634987503290176,-0.0007949167629703879,0.026526980102062225
0.03351658210158348,0.004846969619393349,-0.019967403262853622,0.015822499990463257,-0.0007311094086617231,0.02611316367983818
0.033312249928712845,0.00479845330119133,-0.01980360597372055,0.01573372259736061,-0.0007251945207826793,0.02596413716673851
0.03296280279755592,0.004754871595650911,-0.020361220464110374,0.01588117890059948,-0.0006780171534046531,0.026399215683341026
0.03358026593923569,0.004696432501077652,-0.020288579165935516,0.016110509634017944,-0.0006269796867854893,0.026723412796854973
0.03347807005047798,0.0049344939179718494,-0.01953558437526226,0.016113411635160446,-0.0006351156625896692,0.026676785200834274
0.03380267694592476,0.004821875598281622,-0.020071102306246758,0.01664741151034832,-0.0006158351898193359,0.025918366387486458
0.03341793641448021,0.004416831769049168,-0.02088300697505474,0.016338307410478592,-0.0005960571579635143,0.02574969083070755
0.03362489119172096,0.004640758037567139,-0.02126820757985115,0.016701867803931236,-0.0006230371654964983,0.026628125458955765
0.03362840786576271,0.005030237603932619,-0.020635472610592842,0.016667483374476433,-0.0006425135652534664,0.02705872617661953
0.0339961051940918,0.0048506418243050575,-0.02080002799630165,0.01740812510251999,-0.0007369418162852526,0.027789495885372162
0.03437139838933945,0.0046117836609482765,-0.01999667100608349,0.016740435734391212,-0.0006756145739927888,0.027346057817339897
0.033840615302324295,0.004776753950864077,-0.020868096500635147,0.01727876625955105,-0.0006951921968720853,0.027378441765904427
0.032713454216718674,0.00481391791254282,-0.021693019196391106,0.01681625097990036,-0.0006976155564188957,0.02673456072807312
0.03505947068333626,0.0047757746651768684,-0.0210547037422657,0.016929659992456436,-0.0006580695044249296,0.026253940537571907
0.03615512326359749,0.0046718530356884,-0.020353203639388084,0.016758568584918976,-0.0006975876749493182,0.02690521627664566
0.03615512326359749,0.0046718530356884,-0.020353203639388084,0.016758568584918976,-0.0006975876749493182,0.02690521627664566
0.033845771104097366,0.004827734082937241,-0.02193724736571312,0.017120875418186188,-0.0007387970108538866,0.02814585529267788
0.033845771104097366,0.004827734082937241,-0.02193724736571312,0.017120875418186188,-0.0007387970108538866,0.02814585529267788
0.03431781381368637,0.0044798641465604305,-0.021582521498203278,0.01640927605330944,-0.0007190776523202658,0.02764570154249668
0.03550419956445694,0.0044846259988844395,-0.020590925589203835,0.01670265942811966,-0.0006922786124050617,0.027491727843880653
0.035074442625045776,0.004436379764229059,-0.0214528888463974,0.016739685088396072,-0.0007264804444275796,0.02800062857568264
0.03570102900266647,0.0045120553113520145,-0.021478945389389992,0.016944682225584984,-0.0006552865379489958,0.028126133605837822
0.03560689836740494,0.004590502940118313,-0.020528996363282204,0.01705724559724331,-0.0006800192059017718,0.028023937717080116
0.034295618534088135,0.004660795442759991,-0.021078869700431824,0.01642177440226078,-0.0006589812110178173,0.027785414829850197
0.03449685499072075,0.004580924287438393,-0.021822601556777954,0.01690959371626377,-0.0006365116569213569,0.02778279222548008
0.03535660728812218,0.004537917673587799,-0.021830400452017784,0.016801632940769196,-0.0006576962186954916,0.028186306357383728
0.035433970391750336,0.004309662617743015,-0.02108924463391304,0.017315328121185303,-0.0006482430617325008,0.028384994715452194
0.034987673163414,0.004508997313678265,-0.020897161215543747,0.01727522723376751,-0.0006621823995374143,0.02789776399731636
0.03546251729130745,0.004590610507875681,-0.021407268941402435,0.017260717228055,-0.0007159624365158379,0.028260502964258194
0.03490419313311577,0.005095781292766333,-0.021620018407702446,0.017560623586177826,-0.0007496810867451131,0.027614250779151917
0.03518397733569145,0.004983572289347649,-0.021063877269625664,0.016816027462482452,-0.0009676588815636933,0.0281183160841465
0.035364095121622086,0.004580955021083355,-0.02149222232401371,0.0174192376434803,-0.0011212733807042241,0.028451938182115555
0.035557374358177185,0.004890952259302139,-0.02181183733046055,0.017567194998264313,-0.0011330829001963139,0.02865065261721611
0.03576961159706116,0.004848985932767391,-0.021464556455612183,0.01730320043861866,-0.0011463984847068787,0.028643609955906868
0.0358748584985733,0.004879179410636425,-0.020959556102752686,0.01776258461177349,-0.001171492738649249,0.02867347002029419
0.035660408437252045,0.00469268299639225,-0.021428758278489113,0.01722748950123787,-0.0010844027856364846,0.028389185667037964
0.0366409532725811,0.004836137872189283,-0.021647242829203606,0.017557013779878616,-0.0009693264146335423,0.028468476608395576
0.03625661879777908,0.004634785931557417,-0.021016303449869156,0.017125865444540977,-0.0009548307862132788,0.028577644377946854
0.03581225872039795,0.004389193840324879,-0.021713383495807648,0.017310036346316338,-0.0009844604646787047,0.02845279686152935
0.03593556582927704,0.004539072047919035,-0.02179393172264099,0.01689421758055687,-0.0009752219775691628,0.0283079594373703
0.03644411265850067,0.005042204633355141,-0.0215364508330822,0.017309676855802536,-0.0011098850518465042,0.028501451015472412
0.03608402982354164,0.004995290655642748,-0.02132224291563034,0.017741966992616653,-0.0011227300856262445,0.028498483821749687
0.03608402982354164,0.004995290655642748,-0.02132224291563034,0.017741966992616653,-0.0011227300856262445,0.028498483821749687
0.03668415918946266,0.004534036852419376,-0.02187780849635601,0.017426475882530212,-0.0010661276755854487,0.028828777372837067
0.03656890243291855,0.004292900674045086,-0.022076480090618134,0.01763402670621872,-0.000942313636187464,0.029454732313752174
0.03680579736828804,0.004710404202342033,-0.02099701389670372,0.017527412623167038,-0.0008298962493427098,0.028389332816004753
0.03680579736828804,0.004710404202342033,-0.02099701389670372,0.017527412623167038,-0.0008298962493427098,0.028389332816004753
0.03641868010163307,0.004177416674792767,-0.02146223932504654,0.01798003725707531,-0.0007129645091481507,0.028264565393328667
0.03694469481706619,0.004077543504536152,-0.023031078279018402,0.01826578564941883,-0.0006471301312558353,0.029028024524450302
0.03694469481706619,0.004077543504536152,-0.023031078279018402,0.01826578564941883,-0.0006471301312558353,0.029028024524450302
0.03800275921821594,0.00398519029840827,-0.02201402559876442,0.018326828256249428,-0.0006623804219998419,0.028977058827877045
0.037145018577575684,0.004321297165006399,-0.021614283323287964,0.018031759187579155,-0.0006095825810916722,0.030102694407105446
0.03578570485115051,0.004114051815122366,-0.021887991577386856,0.01780913770198822,-0.0006146675441414118,0.0300669576972723
0.0372435562312603,0.0042514014057815075,-0.022000368684530258,0.017224378883838654,-0.0005829232395626605,0.028270995244383812
0.0371754914522171,0.004088376648724079,-0.02213894948363304,0.017318613827228546,-0.0005874533671885729,0.02867620252072811
0.03843118995428085,0.004269239958375692,-0.022696679458022118,0.017567962408065796,-0.0006258885841816664,0.029886528849601746
0.03759397938847542,0.004524837248027325,-0.02217496559023857,0.017651859670877457,-0.0007002914207987487,0.030332114547491074
0.036845333874225616,0.0043796636164188385,-0.02227023057639599,0.01844847947359085,-0.0009306680876761675,0.029667872935533524
0.036746151745319366,0.004062659107148647,-0.02314314991235733,0.01882055401802063,-0.0011329554254189134,0.029509492218494415
0.03773104026913643,0.0038410492707043886,-0.022514253854751587,0.01872957870364189,-0.001105127390474081,0.029603639617562294
0.03695850446820259,0.0042341179214417934,-0.02195991575717926,0.019667062908411026,-0.0010746652260422707,0.029423827305436134
0.0380241684615612,0.004147019702941179,-0.023248016834259033,0.019147595390677452,-0.0009497098508290946,0.029410740360617638
0.03725596144795418,0.004127989988774061,-0.02182070165872574,0.018547754734754562,-0.0008157798438332975,0.029400711879134178
0.03788056597113609,0.0044673169031739235,-0.022243093699216843,0.018001867458224297,-0.0007629543542861938,0.02962332032620907
0.03868405148386955,0.004213000647723675,-0.023217590525746346,0.017797168344259262,-0.0007680264534428716,0.029734697192907333
0.03759055212140083,0.004018309526145458,-0.023050155490636826,0.01805827207863331,-0.0007440888439305127,0.03047790192067623
0.038072891533374786,0.0039477222599089146,-0.02262081205844879,0.01813107170164585,-0.0007139591034501791,0.03032899647951126
0.03847537189722061,0.004306088667362928,-0.022291433066129684,0.01907523348927498,-0.0006961910403333604,0.030192166566848755
0.03811975568532944,0.004311833530664444,-0.022566864266991615,0.019640931859612465,-0.0007249456830322742,0.03029755875468254
0.03760847821831703,0.004542757757008076,-0.022910920903086662,0.019295886158943176,-0.0007459367625415325,0.030100541189312935
0.03760847821831703,0.004542757757008076,-0.022910920903086662,0.019295886158943176,-0.0007459367625415325,0.030100541189312935
0.03963083401322365,0.004199684597551823,-0.02294064313173294,0.018954474478960037,-0.000755911401938647,0.030619768425822258
0.039206866174936295,0.004061815328896046,-0.022477122023701668,0.019060999155044556,-0.0008200115407817066,0.030391763895750046
0.03687244653701782,0.003936277236789465,-0.022435957565903664,0.01834156922996044,-0.0009106173529289663,0.030546093359589577
0.03855760022997856,0.0038532805629074574,-0.022639179602265358,0.01900980994105339,-0.0008802697993814945,0.03037850745022297
0.03838952258229256,0.003822383238002658,-0.02281329035758972,0.01912672258913517,-0.0008245069766417146,0.030485596507787704
0.03879117965698242,0.003807582426816225,-0.02301139570772648,0.018852727487683296,-0.0008293440332636237,0.03184932470321655
0.039708591997623444,0.004254336003214121,-0.02261238731443882,0.019217172637581825,-0.0008264118805527687,0.03136555850505829
0.0388747900724411,0.004626535810530186,-0.022487498819828033,0.019195809960365295,-0.0008295737789012492,0.0299955103546381
0.037405826151371,0.004503910895437002,-0.02265302650630474,0.018801694735884666,-0.0008388945134356618,0.02975364774465561
0.03908877819776535,0.004318359307944775,-0.022918937727808952,0.019113346934318542,-0.0008463953854516149,0.0307123064994812
0.03924388065934181,0.0040837558917701244,-0.023074058815836906,0.01903638243675232,-0.000936516560614109,0.030382493510842323
0.038757629692554474,0.004164594691246748,-0.022456688806414604,0.018664365634322166,-0.0009671457228250802,0.030970219522714615
0.039212264120578766,0.004052380565553904,-0.022238366305828094,0.01893065683543682,-0.0009058613795787096,0.03218470513820648
0.03907133266329765,0.004736681003123522,-0.022879865020513535,0.018844904378056526,-0.0008439545636065304,0.031118491664528847
0.0390813872218132,0.004527118988335133,-0.023159988224506378,0.01831267774105072,-0.0008392289746552706,0.03080698475241661
0.03926391527056694,0.0040066419169306755,-0.02270897850394249,0.018480151891708374,-0.0007711764192208648,0.030431516468524933
0.03922596946358681,0.003763214685022831,-0.022226829081773758,0.018391378223896027,-0.0007831627153791487,0.03204753249883652
0.04015696793794632,0.004143684636801481,-0.022924022749066353,0.01885831542313099,-0.0008132100920192897,0.03215658664703369
0.04015696793794632,0.004143684636801481,-0.022924022749066353,0.01885831542313099,-0.0008132100920192897,0.03215658664703369
0.04011734947562218,0.004043755121529102,-0.02253004163503647,0.019617877900600433,-0.0010200103279203176,0.03213486820459366
0.04016328975558281,0.004342980682849884,-0.02253158576786518,0.01974392496049404,-0.0010143121471628547,0.03178007900714874
0.04016328975558281,0.004342980682849884,-0.02253158576786518,0.01974392496049404,-0.0010143121471628547,0.03178007900714874
0.038777973502874374,0.004197210539132357,-0.022888386622071266,0.019248759374022484,-0.0009665368124842644,0.032116375863552094
0.04129141569137573,0.003959248773753643,-0.0231896061450243,0.01920897141098976,-0.0009077663416974247,0.03232775256037712
0.04141588136553764,0.003866872051730752,-0.023113971576094627,0.019495682790875435,-0.0008918796665966511,0.03254586085677147
0.04047641158103943,0.0043531074188649654,-0.02301444672048092,0.018895212560892105,-0.0008920179097913206,0.032457511872053146
0.04047900438308716,0.004169409163296223,-0.022840727120637894,0.018719155341386795,-0.0008672160911373794,0.03252338245511055
0.041196875274181366,0.004394089337438345,-0.02264956198632717,0.019307222217321396,-0.0008415324846282601,0.03223380446434021
0.04091200977563858,0.004345977213233709,-0.02250695414841175,0.020214136689901352,-0.0008513394859619439,0.03234328329563141
0.041316427290439606,0.004308103118091822,-0.023936666548252106,0.020229412242770195,-0.0008984244195744395,0.032181985676288605
0.04094743728637695,0.004416301846504211,-0.023529037833213806,0.020538462325930595,-0.0009102768381126225,0.03266509249806404
0.040377628058195114,0.00407765805721283,-0.022700637578964233,0.019553599879145622,-0.0009096267749555409,0.033065058290958405
0.04105895757675171,0.004406564868986607,-0.02283382974565029,0.018578151240944862,-0.001005444792099297,0.0330314040184021
0.04262728616595268,0.004191992804408073,-0.023459216579794884,0.019290175288915634,-0.0010060002095997334,0.033098991960287094
0.04116365313529968,0.004277630243450403,-0.023827753961086273,0.019505100324749947,-0.0008834218606352806,0.032819196581840515
0.0399351641535759,0.0043642581440508366,-0.02339763194322586,0.019586289301514626,-0.0008216860005632043,0.032229211181402206
0.04138925299048424,0.0046076225116848946,-0.023065989837050438,0.01984737627208233,-0.0007740044966340065,0.03280910104513168
0.0418495312333107,0.0044345371425151825,-0.023751385509967804,0.02043721452355385,-0.000777337932959199,0.0335635207593441
0.04337535426020622,0.004424469545483589,-0.024627117440104485,0.020244980230927467,-0.0007026304956525564,0.0334959551692009
0.04244095832109451,0.004654949996620417,-0.024570317938923836,0.02084069699048996,-0.0006934914272278547,0.03464331477880478
0.04037128761410713,0.004494776483625174,-0.023936409503221512,0.02068571373820305,-0.0007806535577401519,0.03394077345728874
0.042356714606285095,0.004900426138192415,-0.023121990263462067,0.01928660459816456,-0.0012779820244759321,0.032069891691207886
0.042356714606285095,0.004900426138192415,-0.023121990263462067,0.01928660459816456,-0.0012779820244759321,0.032069891691207886
0.04212290793657303,0.004482635762542486,-0.024346448481082916,0.01956355758011341,-0.0010327071649953723,0.03332953900098801
0.04212290793657303,0.004482635762542486,-0.024346448481082916,0.01956355758011341,-0.0010327071649953723,0.03332953900098801
0.04187430068850517,0.004306822549551725,-0.024122778326272964,0.019463256001472473,-0.0009960114257410169,0.034380435943603516
0.04271826893091202,0.004263527691364288,-0.023773571476340294,0.020274965092539787,-0.0008876263163983822,0.03426734730601311
0.042497601360082626,0.004469644278287888,-0.023470435291528702,0.020508354529738426,-0.0007359689916484058,0.03377477824687958
0.04182984679937363,0.005109082441776991,-0.02329162321984768,0.02047688327729702,-0.0007369139930233359,0.03245234861969948
0.042017824947834015,0.004678417928516865,-0.02370912954211235,0.02014852687716484,-0.0007554744370281696,0.033156868070364
0.04221535846590996,0.004504182375967503,-0.024228567257523537,0.019996032118797302,-0.00075844133971259,0.03446844965219498
0.04318771883845329,0.00453649228438735,-0.02417321689426899,0.019527480006217957,-0.0007068031700327992,0.034532561898231506
0.04162551462650299,0.004705000668764114,-0.023861700668931007,0.019852062687277794,-0.0007759180152788758,0.034104835242033005
0.04110970348119736,0.0047577619552612305,-0.023821072652935982,0.0202003326267004,-0.0007979552610777318,0.034049142152071
0.04191220551729202,0.004740670323371887,-0.02371217869222164,0.02017047069966793,-0.0008116239332593977,0.03380022943019867
0.041899021714925766,0.005088108591735363,-0.02418326772749424,0.01994350552558899,-0.0008312880527228117,0.034036457538604736
