davideferrari95/blind_handover_controller/data/Test 285 - [2024-02-08 -- 13-56-12]/joint_states_data.csv
shoulder_pan_joint,shoulder_lift_joint,elbow_joint,wrist_1_joint,wrist_2_joint,wrist_3_joint
0.006123277358710766,0.009372751228511333,-0.01117622572928667,0.001915696426294744,-0.0,0.007482520304620266
0.005784604698419571,0.009159299544990063,-0.01104365848004818,0.0019242602866142988,-0.0,0.007048021536320448
0.005784604698419571,0.009159299544990063,-0.01104365848004818,0.0019242602866142988,-0.0,0.007048021536320448
0.005784604698419571,0.009159299544990063,-0.01104365848004818,0.0019242602866142988,-0.0,0.007048021536320448
0.0059585487470030785,0.008872909471392632,-0.011862941086292267,0.001759439124725759,-0.0,0.005989165976643562
0.006177366245537996,0.009368522092700005,-0.011102027259767056,0.0017148487968370318,-0.0,0.005613165441900492
0.0057945288717746735,0.00911650899797678,-0.011272424831986427,0.0016826704377308488,-0.0,0.0059930793941020966
0.00580028910189867,0.009025342762470245,-0.011133860796689987,0.0017597326077520847,-0.0,0.006721712648868561
0.0056388708762824535,0.009471885859966278,-0.011248803697526455,0.0016586092533543706,-0.0,0.006864792201668024
0.006217649672180414,0.009562877006828785,-0.012154758907854557,0.0016720073763281107,-0.0,0.006713256239891052
0.00608673645183444,0.00902179442346096,-0.0112698869779706,0.001773628406226635,-0.0,0.006061873864382505
0.006004473194479942,0.009715069085359573,-0.011550691910088062,0.0016303099691867828,-0.0,0.005902956239879131
0.005906890146434307,0.010602233000099659,-0.011279712431132793,0.0016414468409493566,-0.0,0.006500937044620514
0.005687627010047436,0.009437133558094501,-0.010647681541740894,0.001677297754213214,-0.0,0.006753371562808752
0.0064399875700473785,0.009667218662798405,-0.011250466108322144,0.0016822457546368241,-0.0,0.006587521638721228
0.006470860447734594,0.009596655145287514,-0.011160613037645817,0.0015892395749688148,-4.2876934458035976e-05,0.006627198308706284
0.005694831721484661,0.009395099245011806,-0.011614158749580383,0.0015186590608209372,-4.9639878852758557e-05,0.006697109434753656
0.005802498664706945,0.009705877862870693,-0.012010264210402966,0.0015039090067148209,-2.5108309273491614e-05,0.006886711344122887
0.005801075138151646,0.009563007391989231,-0.011709267273545265,0.0015365993604063988,-1.6393929627156467e-06,0.007181094493716955
0.006261080037802458,0.009176422841846943,-0.011746971867978573,0.0016972654266282916,-1.0704065545041885e-07,0.007012826390564442
0.006561235059052706,0.010219674557447433,-0.011329416185617447,0.0016730958595871925,-6.988990275402784e-09,0.006420735269784927
0.0059057800099253654,0.009368376806378365,-0.011657839640974998,0.0016150563023984432,-2.9795162864720837e-11,0.006917344406247139
0.0059057800099253654,0.009368376806378365,-0.011657839640974998,0.0016150563023984432,-2.9795162864720837e-11,0.006917344406247139
0.005891982465982437,0.009718208573758602,-0.010944457724690437,0.0015218063490465283,-1.9454110631450527e-12,0.006866842042654753
0.006257231812924147,0.009455997496843338,-0.01164529100060463,0.0013741614529863,-1.2702144024101525e-13,0.006462658755481243
0.005929292645305395,0.009026437066495419,-0.011731474660336971,0.0013907495886087418,-8.293592659966605e-15,0.006247513461858034
0.005960805807262659,0.009646591730415821,-0.011099563911557198,0.0013705019373446703,-5.415123454048513e-16,0.006497763097286224
0.005945842247456312,0.009662766009569168,-0.011611520312726498,0.0014366817194968462,-3.535688568023596e-17,0.006278699729591608
0.005791798699647188,0.009432577528059483,-0.011172672733664513,0.001418898580595851,-2.3085521085897964e-18,0.0064067356288433075
0.00628619734197855,0.009503236971795559,-0.011315133422613144,0.0014747392851859331,-1.5073195314670978e-19,0.00661040423437953
0.006247891113162041,0.010013638995587826,-0.011339616030454636,0.0015513362595811486,-9.84171899556063e-21,0.006692436523735523
0.0061006392352283,0.009174133650958538,-0.01091739721596241,0.00153678422793746,-6.425938755153362e-22,0.007169922348111868
0.005800588522106409,0.009644892066717148,-0.01192339975386858,0.001803527818992734,-4.1956788400860795e-23,0.006532841362059116
0.005516094621270895,0.010748867876827717,-0.011135856620967388,0.0017255780985578895,-2.739478843282818e-24,0.006359574384987354
0.006041293498128653,0.009658525697886944,-0.011978622525930405,0.0017619298305362463,-1.7886838008373678e-25,0.00652673514559865
0.006623770110309124,0.01000488642603159,-0.01145103108137846,0.0017722322372719646,-1.1678827627184532e-26,0.006698006298393011
0.005956247448921204,0.009569931775331497,-0.011211647652089596,0.001549412147141993,-7.625440354959324e-28,0.006684630177915096
0.005827389657497406,0.009184380993247032,-0.011881613172590733,0.0015194000443443656,-4.9788674486140415e-29,0.006540271453559399
0.005826672539114952,0.009413215331733227,-0.011351625435054302,0.0014704911736771464,-3.250844861605823e-30,0.006378124468028545
0.006371586117893457,0.009708266705274582,-0.011106226593255997,0.0014395358739420772,-2.12256946057923e-31,0.006449067499488592
0.00648893928155303,0.009517055004835129,-0.01137328241020441,0.001412105979397893,-1.3858860929739868e-32,0.006735080387443304
0.006318714469671249,0.009280940517783165,-0.01132096629589796,0.0014827016275376081,-9.048846228389541e-34,0.0066323233768343925
0.005567796062678099,0.009718963876366615,-0.012166920118033886,0.0016524458769708872,-5.908249846676937e-35,0.006595107726752758
0.006432257127016783,0.009465466253459454,-0.011148033663630486,0.0015834234654903412,-3.857665169219025e-36,0.0061600045301020145
0.006432257127016783,0.009465466253459454,-0.011148033663630486,0.0015834234654903412,-3.857665169219025e-36,0.0061600045301020145
0.006856435444205999,0.009194961749017239,-0.011923481710255146,0.001824700739234686,-2.51877973134732e-37,0.006447143852710724
0.006297367624938488,0.010060676373541355,-0.011940541677176952,0.0016993163153529167,-1.644583215650413e-38,0.006702502258121967
0.006188805680721998,0.010653913952410221,-0.01074534934014082,0.0014753249706700444,-1.0737953950336068e-39,0.006751316133886576
0.006056584883481264,0.00974186323583126,-0.011759689077734947,0.0014247853541746736,-4.5780420829491774e-42,0.006565602496266365
0.0064869229681789875,0.009166396223008633,-0.011326011270284653,0.001322027761489153,-2.9847657290118604e-43,0.006735526490956545
0.006669207941740751,0.009628470987081528,-0.011226484552025795,0.001335302833467722,-1.961817850054744e-44,0.0064270347356796265
0.006205604877322912,0.01020832359790802,-0.010759405791759491,0.0013027375098317862,-1.401298464324817e-45,0.006520051974803209
0.006402254104614258,0.010050966404378414,-0.011269621551036835,0.001349879428744316,-0.0,0.007080543786287308
0.006674434989690781,0.009472472593188286,-0.011354038491845131,0.0014408569550141692,-0.0,0.006759943440556526
0.006261768285185099,0.00961399357765913,-0.010604682378470898,0.0014983155997470021,-0.0,0.006489963736385107
0.00624334579333663,0.00928330048918724,-0.011125140823423862,0.0016988327261060476,-0.0,0.00612212996929884
0.006142028607428074,0.00961400754749775,-0.010881009511649609,0.0016109357820823789,-0.0,0.006907171104103327
0.006034798454493284,0.01033021230250597,-0.010748479515314102,0.0015938918804749846,-0.0,0.006982740014791489
0.006495930254459381,0.010141615755856037,-0.011499565094709396,0.0015846028691157699,-0.0,0.006949811242520809
0.006590684875845909,0.009856609627604485,-0.010893524624407291,0.00162331887986511,-0.0,0.0064520989544689655
0.006558188237249851,0.010228293016552925,-0.011398081667721272,0.0015478945570066571,-0.0,0.00630137138068676
0.006065796595066786,0.010030901059508324,-0.011127347126603127,0.0014847057173028588,-0.0,0.006286064628511667
0.006345362868160009,0.01049327477812767,-0.01070139929652214,0.001554029295220971,-0.0,0.006490650121122599
0.006348093505948782,0.010176336392760277,-0.011243227869272232,0.0015812297351658344,-0.0,0.006738652009516954
0.006343043874949217,0.009549612179398537,-0.010891207493841648,0.0018953189719468355,-0.0,0.006382149178534746
0.006191209889948368,0.010248342528939247,-0.0110169043764472,0.0017964396392926574,-0.0,0.006332317367196083
0.006491992622613907,0.010078194551169872,-0.011981038376688957,0.0018425204325467348,-0.0,0.006579323671758175
0.00746734207496047,0.009878035634756088,-0.01059221476316452,0.0017873275792226195,-0.0,0.007106445729732513
0.006316067185252905,0.010324941948056221,-0.01088008750230074,0.0015875560929998755,-0.0,0.007012492511421442
0.006055267062038183,0.010025725699961185,-0.010685530491173267,0.001611987128853798,-0.0,0.0067992303520441055
0.006667582783848047,0.009980401955544949,-0.01060977578163147,0.001519006327725947,-0.0,0.00585884740576148
0.0069384705275297165,0.010381277650594711,-0.011375055648386478,0.0017335976008325815,-0.0,0.005857366137206554
0.0069384705275297165,0.010381277650594711,-0.011375055648386478,0.0017335976008325815,-0.0,0.005857366137206554
0.006731610279530287,0.010053453966975212,-0.011645609512925148,0.0017652083188295364,-0.0,0.0064222607761621475
0.006263763178139925,0.009843588806688786,-0.010858491063117981,0.0019786960911005735,-0.0,0.006338342558592558
0.006263763178139925,0.009843588806688786,-0.010858491063117981,0.0019786960911005735,-0.0,0.006338342558592558
0.006263763178139925,0.009843588806688786,-0.010858491063117981,0.0019786960911005735,-0.0,0.006338342558592558
0.006725778803229332,0.01076506357640028,-0.011436904780566692,0.0020778379403054714,-0.0,0.006429754663258791
0.006792761385440826,0.009770561940968037,-0.01159659679979086,0.002080978825688362,-0.0,0.006611229386180639
0.006385807413607836,0.009248604066669941,-0.011947178281843662,0.002085669431835413,-0.0,0.006192456930875778
0.006527847610414028,0.010012076236307621,-0.01147632859647274,0.0021742950193583965,-0.0,0.006060452666133642
0.0072259241715073586,0.009675076231360435,-0.011740313842892647,0.0021489509381353855,-0.0,0.006681438535451889
0.0067480518482625484,0.009506076574325562,-0.011263711377978325,0.0020851457957178354,-0.0,0.006623222026973963
0.006734560709446669,0.009691555984318256,-0.011255445890128613,0.0020324683282524347,-0.0,0.006542222108691931
0.006669524125754833,0.009438754990696907,-0.011186935938894749,0.0020061861723661423,-0.0,0.006237049121409655
0.007015243638306856,0.010036688297986984,-0.010818691924214363,0.0018195566954091191,-0.0,0.00770200602710247
0.007459656801074743,0.010003508068621159,-0.011329115368425846,0.0017658587312325835,-0.0,0.00664252694696188
0.007043522782623768,0.00981886126101017,-0.011293720453977585,0.0019448066595941782,-0.0,0.0060864947736263275
0.0063145277090370655,0.009707707911729813,-0.010809744708240032,0.002235296880826354,-0.0,0.006917355116456747
0.006557925138622522,0.009313661605119705,-0.011466976255178452,0.002229963894933462,-0.0,0.006870429031550884
0.006797053851187229,0.009531744755804539,-0.010870876722037792,0.002446270314976573,-0.0,0.007284179329872131
0.006696943659335375,0.008838793262839317,-0.011008327826857567,0.0022345285397022963,-0.0,0.007062573451548815
0.00632874108850956,0.009492850862443447,-0.011158399283885956,0.0023088213056325912,-0.0,0.0068245986476540565
0.006252173334360123,0.009876030497252941,-0.010843041352927685,0.0022652586922049522,-0.0,0.006692344788461924
0.006850921083241701,0.00934374239295721,-0.01143445074558258,0.00216534617356956,-0.0,0.0073415134102106094
0.007287633139640093,0.010008124634623528,-0.01095186173915863,0.002070666290819645,-0.0,0.006787308491766453
0.007103586569428444,0.009734217077493668,-0.010696097277104855,0.0020044532138854265,-0.0,0.006426698062568903
0.006522923242300749,0.00912870466709137,-0.011334185488522053,0.0019038408063352108,-0.0,0.006147177889943123
0.0069546811282634735,0.008742483332753181,-0.011677614413201809,0.0018806804437190294,-0.0,0.006145910359919071
0.006821196060627699,0.009592901915311813,-0.01155194453895092,0.0020718153100460768,-0.0,0.0067505137994885445
0.006899937521666288,0.009439491666853428,-0.011321192607283592,0.0021627433598041534,-0.0,0.006782942451536655
0.007049837149679661,0.009680367074906826,-0.011479166336357594,0.0024170863907784224,-0.0,0.006576324813067913
0.0068964166566729546,0.00963403657078743,-0.011087864637374878,0.002310614101588726,-0.0,0.006532422266900539
0.0068964166566729546,0.00963403657078743,-0.011087864637374878,0.002310614101588726,-0.0,0.006532422266900539
0.006726892199367285,0.009697899222373962,-0.011034498922526836,0.0022396144922822714,-0.0,0.006629535462707281
0.0065929521806538105,0.009856595657765865,-0.0116329500451684,0.002006852300837636,-0.0,0.0066577172838151455
0.006762512028217316,0.009718944318592548,-0.010989128611981869,0.001885614125058055,-0.0,0.006862359587103128
0.0074003408662974834,0.009645922109484673,-0.012073323130607605,0.0018251792062073946,-0.0,0.006891184486448765
0.00768626481294632,0.009866300038993359,-0.011462758295238018,0.0020268824882805347,-0.0,0.006919529754668474
0.00709951389580965,0.009707266464829445,-0.011457576416432858,0.0021360847167670727,-0.0,0.006390094757080078
0.006642946507781744,0.00951241422444582,-0.011573420837521553,0.002212448976933956,-0.0,0.0067018140107393265
0.006914067547768354,0.009730872698128223,-0.01105467602610588,0.0022855177521705627,-0.0,0.0069325389340519905
0.0071736713871359825,0.009472236037254333,-0.011488593183457851,0.002184053184464574,-0.0,0.0069922348484396935
0.007176871877163649,0.009223362430930138,-0.011625337414443493,0.002086508320644498,-9.645684258430265e-06,0.006729941349476576
0.007007202133536339,0.010038216598331928,-0.011924821883440018,0.002094194060191512,-6.297942718447302e-07,0.006417861673980951
0.006925107445567846,0.009217307902872562,-0.011495107784867287,0.0021185034420341253,-4.1121069216387696e-08,0.006588328164070845
0.007226722780615091,0.009287217631936073,-0.011134952306747437,0.002131551271304488,-2.684911848405136e-09,0.006654699333012104
0.007282122038304806,0.009738083928823471,-0.011543014086782932,0.0022432515397667885,-1.7530556173372958e-10,0.007117888890206814
0.006912326440215111,0.009852812625467777,-0.011762663722038269,0.0020965575240552425,-1.1446200758047365e-11,0.007542440667748451
0.007160685025155544,0.009569857269525528,-0.011269721202552319,0.0020636902190744877,-7.473550858033695e-13,0.007108923047780991
0.00732214841991663,0.00912492722272873,-0.0118959816172719,0.0022335206158459187,-4.879694806320285e-14,0.006514427717775106
0.007623840123414993,0.008848781697452068,-0.011349102482199669,0.002295586047694087,-3.1860917729657117e-15,0.0070604123175144196
0.007162363734096289,0.009015998803079128,-0.011849397793412209,0.0027155426796525717,-2.0802902867950022e-16,0.007179610896855593
0.007231479976326227,0.009328245185315609,-0.011262530460953712,0.0026419723872095346,-1.3582808583933147e-17,0.0069612786173820496
0.0073391348123550415,0.009080247953534126,-0.010623103007674217,0.0024907535407692194,-8.868603495802332e-19,0.007230920251458883
0.007616550661623478,0.00901950802654028,-0.011420023627579212,0.0024125566706061363,-5.790564140843244e-20,0.007021211087703705
0.007082672324031591,0.009327201172709465,-0.011043231934309006,0.002437272574752569,-3.7808248796135975e-21,0.007192051503807306
0.007369256112724543,0.0088748037815094,-0.011391296982765198,0.002412566216662526,-2.468608557781293e-22,0.007329344283789396
0.007678575813770294,0.008625066839158535,-0.011033177375793457,0.0023519741371273994,-1.0524064160580289e-24,0.007013774011284113
0.007678575813770294,0.008625066839158535,-0.011033177375793457,0.0023519741371273994,-1.0524064160580289e-24,0.007013774011284113
0.007118972018361092,0.00900308694690466,-0.0112479692324996,0.0024059766437858343,-6.871461045481878e-26,0.00743083655834198
0.0072669535875320435,0.00880842749029398,-0.011382084339857101,0.002419161843135953,-4.486573213106618e-27,0.007925530895590782
0.007447750307619572,0.008421594277024269,-0.01160293910652399,0.0023007451090961695,-2.9294119085271433e-28,0.007127464283257723
0.007714609149843454,0.008720685727894306,-0.01151115633547306,0.0024076513946056366,-1.912696699183419e-29,0.007043959107249975
0.006916693411767483,0.00879928283393383,-0.010395314544439316,0.0026538826059550047,-1.2488544141893087e-30,0.007343976758420467
0.007163948379456997,0.00886261835694313,-0.01116098277270794,0.0027301697991788387,-8.154126307240239e-32,0.007239030208438635
0.00780141819268465,0.009155124425888062,-0.011598696932196617,0.0027730027213692665,-5.324061503371782e-33,0.0069045512937009335
0.007641004864126444,0.008997262455523014,-0.010939570143818855,0.0027076262049376965,-3.4762315873241713e-34,0.007133571896702051
0.007125507574528456,0.008698808960616589,-0.011346990242600441,0.002491102321073413,-2.2697307892354687e-35,0.006960579659789801
0.007402683142572641,0.00859061349183321,-0.01088303979486227,0.002530683297663927,-1.4819720016431368e-36,0.007103967014700174
0.007428184151649475,0.00949729885905981,-0.01108506415039301,0.0025928139220923185,-9.67621812988644e-38,0.006901473272591829
0.00743228942155838,0.008919304236769676,-0.01157724391669035,0.0027469603810459375,-6.317878841971763e-39,0.007100092247128487
0.007223994005471468,0.008755851536989212,-0.011086789891123772,0.0027138597797602415,-4.125128406294753e-40,0.007037532981485128
0.007937530055642128,0.009286093525588512,-0.0112440325319767,0.0026482969988137484,-2.693435778278731e-41,0.006849738769233227
0.0083580007776618,0.008856055326759815,-0.011189085431396961,0.0025189195293933153,-1.7586295727276454e-42,0.006794278044253588
0.0077673038467764854,0.009099706076085567,-0.010968654416501522,0.00231751287356019,-1.14906474074635e-43,0.007007675711065531
0.007466407027095556,0.008715548552572727,-0.011218640021979809,0.002425806364044547,-7.006492321624085e-45,0.007438725791871548
0.008260590955615044,0.009118882939219475,-0.01088925264775753,0.0026860362850129604,-0.0,0.007165505085140467
0.007894057780504227,0.008766373619437218,-0.011143970303237438,0.002722538309171796,-0.0,0.007226851768791676
0.00789081584662199,0.008870424702763557,-0.0112489378079772,0.002848438685759902,-0.0,0.007454379927366972
0.007564666215330362,0.009572378359735012,-0.010682914406061172,0.00265957647934556,-0.0,0.007645158097147942
0.007759289350360632,0.009821346960961819,-0.011454412713646889,0.0025293626822531223,-0.0,0.007582004647701979
0.007875816896557808,0.009006821550428867,-0.010987220332026482,0.0026186839677393436,-0.0,0.00724532688036561
0.00816284865140915,0.009893633425235748,-0.010606355033814907,0.0027608706150203943,-0.0,0.007198167499154806
0.007824113592505455,0.0087544284760952,-0.011366085149347782,0.002592580858618021,-0.0,0.007969283498823643
0.0076849376782774925,0.008652296848595142,-0.01093774102628231,0.002636728109791875,-0.0,0.007160271517932415
0.007940671406686306,0.008865335956215858,-0.010501356795430183,0.002518466906622052,-0.0,0.007623470854014158
0.007675269618630409,0.008845739997923374,-0.010100841522216797,0.002692160429432988,-0.0,0.0077522192150354385
0.0076720560900866985,0.008881110697984695,-0.010843180119991302,0.0028319978155195713,-0.0,0.00850624032318592
0.00802139937877655,0.00949208065867424,-0.01084038894623518,0.0026923678815364838,-0.0,0.007043867837637663
0.007679067552089691,0.008890911005437374,-0.010242864489555359,0.0025751814246177673,-0.0,0.00643710745498538
0.007679067552089691,0.008890911005437374,-0.010242864489555359,0.0025751814246177673,-0.0,0.00643710745498538
0.007553756702691317,0.008891060017049313,-0.0106062525883317,0.0027582149486988783,-0.0,0.007074024993926287
0.007679436355829239,0.009346130304038525,-0.010835281573235989,0.0028679666575044394,-0.0,0.008037318475544453
0.008140441961586475,0.009657989256083965,-0.011559076607227325,0.0029465635307133198,-0.0,0.008000144734978676
0.00825541652739048,0.008799809031188488,-0.010543514043092728,0.0027611078694462776,-0.0,0.008016071282327175
0.007856236770749092,0.00915263220667839,-0.010481628589332104,0.0027024969458580017,-0.0,0.008427041582763195
0.008017350919544697,0.008798285387456417,-0.011260319501161575,0.0027655959129333496,-0.0,0.00801203865557909
0.007835100404918194,0.008601815439760685,-0.010807037353515625,0.002737028058618307,-0.0,0.007537216413766146
0.007483731489628553,0.009112424217164516,-0.010046524927020073,0.0028472235426306725,-0.0,0.007715425454080105
0.00783600565046072,0.008847173303365707,-0.010806553065776825,0.0030543922912329435,-0.0,0.0077628521248698235
0.008738534525036812,0.009220552630722523,-0.010486427694559097,0.0030402422416955233,-0.0,0.007867778651416302
0.007923326455056667,0.008844360709190369,-0.01063678041100502,0.003013360546901822,-0.0,0.0077745974995195866
0.00813671387732029,0.009878603741526604,-0.01090671494603157,0.0028881244361400604,-0.0,0.008055937476456165
0.008717628195881844,0.008819418027997017,-0.010435818694531918,0.002815030515193939,-0.0,0.007892471738159657
0.008568630553781986,0.00848474632948637,-0.010975044220685959,0.0028155934996902943,-0.0,0.007450789678841829
0.007851503789424896,0.008991600014269352,-0.010795687325298786,0.0024889137130230665,-0.0,0.007887601852416992
0.008204723708331585,0.008812286891043186,-0.010326535440981388,0.002341817133128643,-0.0,0.0078013744205236435
0.008865287527441978,0.008503547869622707,-0.010996785946190357,0.0023932887706905603,-0.0,0.007592446636408567
0.007931815460324287,0.009231682866811752,-0.010581329464912415,0.0024624483194202185,-0.0,0.007401274051517248
0.008458301424980164,0.009687928482890129,-0.010742215439677238,0.0028339107520878315,-0.0,0.007313542068004608
0.008411213755607605,0.008663663640618324,-0.010888844728469849,0.002897548256441951,-0.0,0.0078093004412949085
0.00844215601682663,0.008559473790228367,-0.01075040828436613,0.002818467328324914,-0.0,0.007634173147380352
0.008347644470632076,0.008778993040323257,-0.01132295373827219,0.002761686220765114,-0.0,0.007444753311574459
0.008306974545121193,0.008888627402484417,-0.010605208575725555,0.002778548514470458,-0.0,0.007660828065127134
0.00813725870102644,0.00867819506675005,-0.010906894691288471,0.0028912124689668417,-0.0,0.007627802435308695
0.008463991805911064,0.008661597035825253,-0.010805469006299973,0.0032533188350498676,-0.0,0.008085504174232483
0.008463991805911064,0.008661597035825253,-0.010805469006299973,0.0032533188350498676,-0.0,0.008085504174232483
0.008475751616060734,0.008543318137526512,-0.010907377116382122,0.0030685311648994684,-0.0,0.008501894772052765
0.008319188840687275,0.008797470480203629,-0.011072557419538498,0.003129239659756422,-0.0,0.008190634660422802
0.00817477609962225,0.008771859109401703,-0.010993974283337593,0.003020629519596696,-0.0,0.007536103017628193
0.008789271116256714,0.008797706104815006,-0.012232154607772827,0.0028645265847444534,-0.0,0.0076975529082119465
0.008520286530256271,0.008772606030106544,-0.010969014838337898,0.002782712457701564,-0.0,0.0076797897927463055
0.008144553750753403,0.008819077163934708,-0.010592688806355,0.002927552442997694,-0.0,0.0077420626766979694
0.009111356921494007,0.008500452153384686,-0.011520765721797943,0.0029755367431789637,-0.0,0.007848047651350498
0.008563723415136337,0.008396917954087257,-0.011618434451520443,0.0028703731950372458,-0.0,0.007774661295115948
0.008620025590062141,0.009080665186047554,-0.010797284543514252,0.002719503128901124,-0.0,0.008176509290933609
0.008923599496483803,0.00854481477290392,-0.011060982942581177,0.002691402565687895,-0.0,0.007907003164291382
0.008569280616939068,0.007875481620430946,-0.010672669857740402,0.00268850801512599,-0.0,0.008080980740487576
0.00851041916757822,0.008185849525034428,-0.01131645031273365,0.0027430036570876837,-0.0,0.007785411085933447
0.008932871744036674,0.008525998331606388,-0.011439132504165173,0.0027652692515403032,-0.0,0.007664613425731659
0.00827100407332182,0.008069503121078014,-0.010646224021911621,0.003182290820404887,-0.0,0.008169556967914104
0.008667593821883202,0.008309431374073029,-0.011262067593634129,0.0032698758877813816,-0.0,0.008660858497023582
0.008480781689286232,0.008432219736278057,-0.01085518579930067,0.0032050928566604853,-0.0,0.0085282102227211
0.00848995242267847,0.008266597986221313,-0.01100536622107029,0.003247691784054041,-0.0,0.008549816906452179
0.009058477357029915,0.008439193479716778,-0.011119887232780457,0.0031368709169328213,-0.0,0.008265863172709942
0.008960331790149212,0.007989190518856049,-0.010703448206186295,0.002962118247523904,-0.0,0.007666401565074921
0.008409869857132435,0.008229581639170647,-0.011305518448352814,0.003187332069501281,-0.0,0.008002999238669872
0.008567837998270988,0.007610689383000135,-0.010804548859596252,0.003299964591860771,-0.0,0.008350715972483158
0.008879103697836399,0.007764498703181744,-0.010915473103523254,0.003133776830509305,-0.0,0.008093236945569515
0.008879103697836399,0.007764498703181744,-0.010915473103523254,0.003133776830509305,-0.0,0.008093236945569515
0.008588534779846668,0.00774754211306572,-0.011137353256344795,0.0030290973372757435,-0.0,0.00792117789387703
0.008766555227339268,0.0074425651691854,-0.010909524746239185,0.003183869644999504,-0.0,0.008137119002640247
0.008851544931530952,0.007237282581627369,-0.011016042903065681,0.003370489226654172,-0.0,0.00825431291013956
0.009121295064687729,0.0074783070012927055,-0.010622093454003334,0.003440977307036519,-0.0,0.007818261161446571
0.008947674185037613,0.008190866559743881,-0.01121644675731659,0.0034531885758042336,-0.0,0.00782401766628027
0.00910054799169302,0.007685343734920025,-0.010817449539899826,0.0032577095553278923,-0.0,0.00823322031646967
0.00866974238306284,0.007559491321444511,-0.010248781181871891,0.0031531883869320154,-0.0,0.0084394421428442
0.009134961292147636,0.008231314830482006,-0.011090235784649849,0.0032268629875034094,-0.0,0.008019380271434784
0.009203354828059673,0.00813631433993578,-0.010777350515127182,0.003067260840907693,-0.0,0.008143141865730286
0.008821133524179459,0.008168620988726616,-0.01080123707652092,0.003208763198927045,-0.0,0.008118454366922379
0.009082741104066372,0.0084241246804595,-0.01104908436536789,0.0032792456913739443,-0.0,0.008346972987055779
0.009414411149919033,0.008560074493288994,-0.01049584336578846,0.003554985160008073,-0.0,0.008943125605583191
0.009116712026298046,0.007886219769716263,-0.010966339148581028,0.0033939797431230545,-0.0,0.008753699250519276
0.008528717793524265,0.007803340908139944,-0.010782584547996521,0.0035016052424907684,-0.0,0.007662950083613396
0.009446332231163979,0.008280087262392044,-0.01028482522815466,0.0032586543820798397,-0.0,0.0074353874661028385
0.009084785357117653,0.008467602543532848,-0.011335634626448154,0.0030393535271286964,-0.0,0.00814923644065857
0.009477010928094387,0.007839899510145187,-0.011201813817024231,0.003033895045518875,-0.0,0.008355128578841686
0.0092998668551445,0.00811374094337225,-0.010900580324232578,0.003383433213457465,-0.0,0.008736035786569118
0.009527892805635929,0.008311253041028976,-0.011030913330614567,0.0037748590111732483,-0.0,0.008445116691291332
0.009330506436526775,0.008089140057563782,-0.010699551552534103,0.0037905219942331314,-0.0,0.008459885604679585
0.0095179732888937,0.0076470812782645226,-0.011460582725703716,0.0036083832383155823,-0.0,0.008665620349347591
0.009713933803141117,0.00747705576941371,-0.011381472460925579,0.0035098721273243427,-0.0,0.008757511153817177
0.00916918646544218,0.008150444366037846,-0.010647071525454521,0.0033613501582294703,-0.0,0.00958963017910719
0.009970933198928833,0.007534967735409737,-0.011202997528016567,0.003605114296078682,-0.0,0.00864975992590189
0.00981826987117529,0.007387304212898016,-0.010895876213908195,0.0037968510296195745,-0.0,0.00856452900916338
0.00913177989423275,0.008102924562990665,-0.011047221720218658,0.003916576970368624,-0.0,0.009027528576552868
0.009576224721968174,0.0075989216566085815,-0.011254406534135342,0.0040077161975204945,-0.0,0.008546264842152596
0.009576224721968174,0.0075989216566085815,-0.011254406534135342,0.0040077161975204945,-0.0,0.008546264842152596
0.009327870793640614,0.007774005644023418,-0.011106079444289207,0.0034850467927753925,-0.0,0.00918093603104353
0.009327870793640614,0.007774005644023418,-0.011106079444289207,0.0034850467927753925,-0.0,0.00918093603104353
0.009668618440628052,0.007872034795582294,-0.010866704396903515,0.0034686573781073093,-0.0,0.008527613244950771
0.009599101729691029,0.0073681785725057125,-0.011374942027032375,0.003662919159978628,-0.0,0.008483766578137875
0.00965642649680376,0.00733009772375226,-0.0110773965716362,0.0037812564987689257,-0.0,0.009349077939987183
0.009931070730090141,0.008162868209183216,-0.011423464864492416,0.003418987849727273,-0.0,0.009066787548363209
0.00934869609773159,0.008126243948936462,-0.011479461565613747,0.0034781612921506166,-0.0,0.008856370113790035
0.009227012284100056,0.007760496344417334,-0.010826666839420795,0.0036942879669368267,-0.0,0.009070145897567272
0.009760990738868713,0.00783394556492567,-0.01133331935852766,0.0042498246766626835,-0.0,0.008938353508710861
0.009874090552330017,0.007794880773872137,-0.01139021385461092,0.004094276577234268,-0.0,0.00887440238147974
0.009503169916570187,0.00785154104232788,-0.011911341920495033,0.0034718720708042383,-0.0,0.00916983000934124
0.009853163734078407,0.007537201512604952,-0.01150436419993639,0.0034710499458014965,-0.0,0.009262317791581154
0.00969088077545166,0.007350217085331678,-0.011128177866339684,0.003893266199156642,-0.0,0.008871670812368393
0.010083043947815895,0.008065953850746155,-0.011886350810527802,0.0041939388029277325,-0.0,0.00893488060683012
0.00988380890339613,0.008276577107608318,-0.011646049097180367,0.004051368683576584,-0.0,0.008911234326660633
0.010085704736411572,0.007885000668466091,-0.011109091341495514,0.003866874147206545,-0.0,0.008642122149467468
0.00979053694754839,0.00834653526544571,-0.011441558599472046,0.004228612408041954,-0.0,0.008845191448926926
0.01007942482829094,0.008016237989068031,-0.011732382699847221,0.004142539110034704,-0.0,0.008795189671218395
0.009976002387702465,0.007728102151304483,-0.01151170115917921,0.003990162163972855,-0.0,0.008964122273027897
0.00989699736237526,0.007359811570495367,-0.01126211229711771,0.003930742386728525,-0.0,0.008660361170768738
0.010505455546081066,0.007571088150143623,-0.011222300119698048,0.0035670045763254166,-0.0,0.008549025282263756
0.009792933240532875,0.007654103916138411,-0.011745823547244072,0.0037797861732542515,-0.0,0.00922833289951086
0.010207335464656353,0.007265034131705761,-0.011412990279495716,0.004156842827796936,-0.0,0.009077503345906734
0.010207335464656353,0.007265034131705761,-0.011412990279495716,0.004156842827796936,-0.0,0.009077503345906734
0.010008860379457474,0.007854608818888664,-0.011669488623738289,0.004046337213367224,-0.0,0.009182668291032314
0.010086321271955967,0.008384715765714645,-0.011343462392687798,0.003544328734278679,-0.0,0.00890798307955265
0.010086321271955967,0.008384715765714645,-0.011343462392687798,0.003544328734278679,-0.0,0.00890798307955265
0.010150879621505737,0.007650245912373066,-0.011305959895253181,0.004075174685567617,-9.285553232984967e-07,0.009778887964785099
0.010297315195202827,0.007974203675985336,-0.011975442059338093,0.004040735308080912,-6.062803237227854e-08,0.009676950983703136
0.010717777535319328,0.00780920684337616,-0.011633484624326229,0.004286295268684626,-3.9585770217343e-09,0.009490127675235271
0.011238052509725094,0.007775437086820602,-0.011330347508192062,0.004172119777649641,-2.584667757599135e-10,0.009942208416759968
0.011314069852232933,0.006882377900183201,-0.01145519595593214,0.004442061763256788,-1.6876033556711967e-11,0.009756000712513924
0.01032758504152298,0.00733821839094162,-0.010988844558596611,0.004145452752709389,-1.1018844257165705e-12,0.009665691293776035
0.010847941040992737,0.008129932917654514,-0.011688850820064545,0.0039238943718373775,-7.194517605366851e-14,0.010100360959768295
0.011001636274158955,0.007172408513724804,-0.01235672552138567,0.004264594987034798,-4.697505388552526e-15,0.010008647106587887
0.010511929169297218,0.006846191827207804,-0.011558126658201218,0.0042510912753641605,-3.0671354187653834e-16,0.009815467521548271
0.010484025813639164,0.007283985149115324,-0.012079017236828804,0.004009957425296307,-2.0026203102947635e-17,0.01009056344628334
0.010347551666200161,0.007462949492037296,-0.011527901515364647,0.0047148484736680984,-1.3075678212447299e-18,0.010264269076287746
0.009808671660721302,0.0072357673197984695,-0.012575099244713783,0.005266301799565554,-8.537482321115531e-20,0.010959849692881107
0.010713544674217701,0.006904314272105694,-0.012227943167090416,0.004837930202484131,-5.574366109027019e-21,0.009704956784844398
0.011029642075300217,0.007509212475270033,-0.0119438162073493,0.004388876259326935,-3.639662852815533e-22,0.009124110452830791
0.01028301939368248,0.007692235056310892,-0.012278967536985874,0.004344591870903969,-2.376439848218134e-23,0.009534821845591068
0.010817578062415123,0.007371026556938887,-0.011806693859398365,0.0043518501333892345,-1.5516452243590378e-24,0.010112130083143711
0.01073025818914175,0.0072435601614415646,-0.012508573941886425,0.004540471825748682,-1.0131134146063416e-25,0.009885460138320923
0.010291095823049545,0.007446814328432083,-0.011863579042255878,0.004744776524603367,-6.614906839069286e-27,0.00969501119107008
0.010429413057863712,0.0074469419196248055,-0.012692531570792198,0.004630527459084988,-4.319061122851163e-28,0.010346272960305214
0.009984004311263561,0.007261938415467739,-0.012959492392838001,0.004445652477443218,-2.820038407170703e-29,0.010015664622187614
0.010629293508827686,0.0072619179263710976,-0.01248929277062416,0.00431628106161952,-1.8412836306195517e-30,0.009646277874708176
0.011034222319722176,0.007508555892854929,-0.012294339947402477,0.004127526190131903,-1.2022266205026424e-31,0.00991153996437788
0.011034222319722176,0.007508555892854929,-0.012294339947402477,0.004127526190131903,-1.2022266205026424e-31,0.00991153996437788
0.01113502774387598,0.007466448005288839,-0.011886432766914368,0.00437603984028101,-7.849680176406578e-33,0.009863761253654957
0.011233709752559662,0.007266175001859665,-0.012774047441780567,0.004471540916711092,-5.125279806682468e-34,0.010427054949104786
0.010906252078711987,0.008251680061221123,-0.012794684618711472,0.003968953620642424,-2.1849868946626308e-36,0.009912321344017982
0.011154172010719776,0.007962651550769806,-0.012235871516168118,0.004220130853354931,-1.426640330480807e-37,0.009758571162819862
0.011134156957268715,0.007731177844107151,-0.012432584539055824,0.0041414168663322926,-9.314940965008073e-39,0.01036155130714178
0.011788998730480671,0.006846168078482151,-0.012401984073221684,0.004391098394989967,-6.081985659785787e-40,0.009879914112389088
0.011372489854693413,0.0073454296216368675,-0.011983859352767467,0.004628111142665148,-3.971139718050099e-41,0.009585144929587841
0.010279275476932526,0.00814984180033207,-0.012696115300059319,0.004499610047787428,-2.5924021590009116e-42,0.01031211856752634
0.01107166986912489,0.007830081507563591,-0.011860397644340992,0.00451909564435482,-1.6955711418330287e-43,0.010131594724953175
0.01097056083381176,0.00766321225091815,-0.012292293831706047,0.00446246936917305,-1.1210387714598537e-44,0.009685475379228592
0.010140638798475266,0.0076722376979887486,-0.012192013673484325,0.0045014312490820885,-1.401298464324817e-45,0.01011228933930397
0.010707655921578407,0.007454021368175745,-0.012320084497332573,0.004649518523365259,-0.0,0.010014215484261513
0.010590705089271069,0.0075537944212555885,-0.012687187641859055,0.004394531715661287,-0.0,0.00997884664684534
0.011009239591658115,0.00765897985547781,-0.011924106627702713,0.00445148441940546,-0.0,0.010060950182378292
0.011182787828147411,0.008329956792294979,-0.012606504373252392,0.005076561123132706,-0.0,0.010488823056221008
0.01109453197568655,0.0078346012160182,-0.012629101052880287,0.00515219708904624,-0.0,0.01016260962933302
0.011346366256475449,0.007511555682867765,-0.013131756335496902,0.004526213742792606,-0.0,0.01050703227519989
0.011173555627465248,0.0074078114703297615,-0.012398009188473225,0.004172304645180702,-0.0,0.010185390710830688
0.010753598995506763,0.007985332049429417,-0.01079483050853014,0.004157263785600662,-0.0,0.010287067852914333
0.0113136051222682,0.007496013306081295,-0.012927480041980743,0.004484856966882944,-0.0,0.01026870310306549
0.011744658462703228,0.007247408851981163,-0.01309090107679367,0.004808507394045591,-8.066666487138718e-05,0.010739794000983238
0.01164944376796484,0.007341695483773947,-0.013189181685447693,0.004830943886190653,-9.880274592433125e-05,0.010444333776831627
0.011297112330794334,0.0075670829974114895,-0.012077076360583305,0.004731287248432636,-9.795220103114843e-05,0.010134375654160976
0.010998890735208988,0.007284251973032951,-0.012224254198372364,0.004530430305749178,-9.594855509931222e-05,0.010242956690490246
0.011364510282874107,0.007255385629832745,-0.01236442569643259,0.004577307496219873,-9.39508099691011e-05,0.010412211529910564
0.011364510282874107,0.007255385629832745,-0.01236442569643259,0.004577307496219873,-9.39508099691011e-05,0.010412211529910564
0.011389252729713917,0.007234229706227779,-0.01227861549705267,0.004232804756611586,-9.202975343214348e-05,0.010419599711894989
0.011780878528952599,0.00714530935510993,-0.011585350148379803,0.004268125165253878,-8.841338421916589e-05,0.010226950980722904
0.01095032412558794,0.007131150923669338,-0.012035730294883251,0.0044357916340231895,-8.670972601976246e-05,0.01009491179138422
0.011373589746654034,0.007050602696835995,-0.011905320920050144,0.004724432248622179,-8.507045276928693e-05,0.010361364111304283
0.011722448281943798,0.007356859743595123,-0.012662593275308609,0.004743417724967003,-8.349211566383019e-05,0.010423342697322369
0.011670360341668129,0.007384026888757944,-0.01201450265944004,0.0048561422154307365,-8.197117858799174e-05,0.010413972660899162
0.01200482714921236,0.007635247427970171,-0.011980429291725159,0.0047556147910654545,-8.050470933085307e-05,0.010725236497819424
0.011384062469005585,0.0074319723062217236,-0.012810624204576015,0.005228985100984573,-7.90897393017076e-05,0.01099451445043087
0.011313055641949177,0.007212886121124029,-0.011447876691818237,0.00540105439722538,-7.772380922688171e-05,0.011104928329586983
0.011854181066155434,0.007186080329120159,-0.012255549430847168,0.005398039240390062,-7.640408875886351e-05,0.011373636312782764
0.011546884663403034,0.007407204248011112,-0.012212028726935387,0.0053978003561496735,-7.512851880164817e-05,0.01107362937182188
0.011816911399364471,0.007599287200719118,-0.01285687368363142,0.004656895529478788,-8.117192919598892e-05,0.0103244474157691
0.011988304555416107,0.007855864241719246,-0.013081113807857037,0.004489778075367212,-8.675138815306127e-05,0.010306261479854584
0.01311737485229969,0.007112178951501846,-0.012187378481030464,0.005255670286715031,-8.582209557062015e-05,0.010572047904133797
0.013124643824994564,0.007388746831566095,-0.012760786339640617,0.005647420883178711,-8.450842142337933e-05,0.01048091147094965
0.012723960913717747,0.006906310096383095,-0.012009214609861374,0.005371679551899433,-8.320810593431816e-05,0.010884381830692291
0.012877663597464561,0.008031679317355156,-0.01275551039725542,0.0049878982827067375,-8.19455599412322e-05,0.011031477712094784
0.012723339721560478,0.007960273884236813,-0.012389713898301125,0.004858607891947031,-8.072065975284204e-05,0.01150865014642477
0.013076048344373703,0.006742121186107397,-0.012892846949398518,0.005020878277719021,-7.953179738251492e-05,0.011508009396493435
0.0125840799883008,0.00646201940253377,-0.01268365141004324,0.005101752933114767,-7.837739394744858e-05,0.011391323059797287
0.01316747721284628,0.007124464027583599,-0.012584095820784569,0.005951846018433571,-7.725618343101814e-05,0.011814943514764309
0.012826686725020409,0.0071861520409584045,-0.012827984988689423,0.00555326696485281,-7.616644143126905e-05,0.011423084884881973
0.013037359341979027,0.006671874318271875,-0.012298565357923508,0.005328776780515909,-7.510707655455917e-05,0.01130357850342989
0.012925274670124054,0.007272630464285612,-0.012838535010814667,0.005476244725286961,-8.560551214031875e-05,0.011174065060913563
0.013209085911512375,0.007530485279858112,-0.012454328127205372,0.005184605717658997,-8.520004485035315e-05,0.011175134219229221
0.01325017400085926,0.007521151099354029,-0.012647305615246296,0.005251412279903889,-8.41117071104236e-05,0.011153072118759155
0.013153423555195332,0.007353638764470816,-0.01264443714171648,0.005404581315815449,-8.300667104776949e-05,0.011454892344772816
0.013037660159170628,0.006848692428320646,-0.013008511625230312,0.005306249018758535,-8.087575406534597e-05,0.01144691277295351
0.013037660159170628,0.006848692428320646,-0.013008511625230312,0.005306249018758535,-8.087575406534597e-05,0.01144691277295351
0.013233735226094723,0.007088586688041687,-0.012685079127550125,0.005624930374324322,-8.83244356373325e-05,0.011586498469114304
0.012830963358283043,0.007080195937305689,-0.013113221153616905,0.0055079893209040165,-8.992417133413255e-05,0.01196917612105608
0.013409328646957874,0.006635679863393307,-0.012100985273718834,0.005929932929575443,-8.898932719603181e-05,0.011715898290276527
0.013245759531855583,0.006650533992797136,-0.012672366574406624,0.005868903361260891,-8.791423169896007e-05,0.011675556190311909
0.013294149190187454,0.007268091663718224,-0.012288580648601055,0.006087128538638353,-8.685442298883572e-05,0.011563408188521862
0.013054442591965199,0.007390333339571953,-0.012890865094959736,0.005450619384646416,-8.581930887885392e-05,0.01136026531457901
0.013339887373149395,0.006922286935150623,-0.012781575322151184,0.005443898029625416,-8.480844553560019e-05,0.011876353994011879
0.013456812128424644,0.007437821011990309,-0.012532918713986874,0.005738674197345972,-0.00010007728997152299,0.012008034624159336
0.01333937793970108,0.0077533964067697525,-0.012708055786788464,0.006155199836939573,-0.00010309248318662867,0.012197418138384819
0.01329919882118702,0.007573975250124931,-0.012536228634417057,0.0056704930029809475,-0.00010112252493854612,0.011841141618788242
0.013915556482970715,0.007628885097801685,-0.01302497647702694,0.0053545585833489895,-9.892215166473761e-05,0.011616429314017296
0.01372270192950964,0.006797933951020241,-0.012701123021543026,0.005587900523096323,-9.679576760390773e-05,0.012114433571696281
0.013574742712080479,0.007256798446178436,-0.012886562384665012,0.006173411384224892,-0.00010881476191570982,0.011448961682617664
0.013740275986492634,0.00737348897382617,-0.012545758858323097,0.006209788378328085,-0.0001110444645746611,0.011632738634943962
0.01330740936100483,0.00702256103977561,-0.013100179843604565,0.005513526499271393,-0.00010909287084359676,0.011730087921023369
0.01368601806461811,0.006777238100767136,-0.012936649844050407,0.0056076087057590485,-0.00010695122909964994,0.011533587239682674
0.013257334008812904,0.007390935905277729,-0.012875406071543694,0.005441304296255112,-0.0001134751146310009,0.012012540362775326
0.01333091501146555,0.007400125730782747,-0.013016714714467525,0.005838096607476473,-0.0001194436481455341,0.011974101886153221
0.013287187553942204,0.007056204602122307,-0.01266133226454258,0.006300054024904966,-0.00011774167069233954,0.011919286102056503
0.013450385071337223,0.007134964689612389,-0.013162011280655861,0.006057151593267918,-0.0001156155121861957,0.012053192593157291
0.013498147949576378,0.007247751113027334,-0.0124049112200737,0.005974760744720697,-0.00011353420268278569,0.011994857341051102
0.013815421611070633,0.007092080544680357,-0.013146449811756611,0.0058045173063874245,-0.00012639755732379854,0.012208589352667332
0.013661988079547882,0.007323289290070534,-0.012860143557190895,0.00638070423156023,-0.0001251704670721665,0.011911923065781593
0.013661988079547882,0.007323289290070534,-0.012860143557190895,0.00638070423156023,-0.0001251704670721665,0.011911923065781593
0.013123590499162674,0.007375993300229311,-0.012684977613389492,0.005731164012104273,-0.00018813191854860634,0.011803343892097473
0.013297001831233501,0.007407066877931356,-0.013334410265088081,0.005493981298059225,-0.00024106644559651613,0.011374186724424362
0.013926025480031967,0.007328823208808899,-0.013564051128923893,0.005578239448368549,-0.00023271865211427212,0.01177545078098774
0.014137497171759605,0.006962473038583994,-0.013488921336829662,0.006321404129266739,-0.00024772423785179853,0.012619932182133198
0.014137497171759605,0.006962473038583994,-0.013488921336829662,0.006321404129266739,-0.00024772423785179853,0.012619932182133198
0.013387564569711685,0.008032262325286865,-0.012724806554615498,0.00610261270776391,-0.00024165186914615333,0.012750890105962753
0.013712042942643166,0.007206446025520563,-0.01343788206577301,0.00593722565099597,-0.00023161266290117055,0.012693511322140694
0.013578546233475208,0.006745136808604002,-0.013285349123179913,0.006021551787853241,-0.0002221058966824785,0.012852797284722328
0.014315684325993061,0.006761619355529547,-0.01419917680323124,0.006603041663765907,-0.0002441525866743177,0.012585176154971123
0.013384423218667507,0.007340495940297842,-0.013168396428227425,0.006707284599542618,-0.00023911677999421954,0.01274626050144434
0.013849633745849133,0.007197879254817963,-0.013490832410752773,0.006432487163692713,-0.00023063799017108977,0.012231928296387196
0.013653256930410862,0.007005792576819658,-0.012847548350691795,0.006031983066350222,-0.0002380828809691593,0.012682574801146984
0.014161700382828712,0.00692247599363327,-0.013420423492789268,0.006542626768350601,-0.00024456263054162264,0.012167149223387241
0.013844314962625504,0.006858794018626213,-0.013620494864881039,0.00695295725017786,-0.00023744875215925276,0.012213335372507572
0.014236895367503166,0.00716330436989665,-0.013711941428482533,0.006666351109743118,-0.00022992696904111654,0.012444848194718361
0.013209979049861431,0.00750594912096858,-0.013412523083388805,0.006390073336660862,-0.00022281504061538726,0.01260629016906023
0.014363666996359825,0.006915090139955282,-0.013318180106580257,0.0061429338529706,-0.00021612636919599026,0.012776839546859264
0.013793577440083027,0.0069076912477612495,-0.014038029126822948,0.006776647176593542,-0.00025480499607510865,0.012618916109204292
0.01378486305475235,0.007183810230344534,-0.013318551704287529,0.006863524205982685,-0.0002474871289450675,0.012435480952262878
0.013860168866813183,0.006816151086241007,-0.013124218210577965,0.006529095582664013,-0.0002756828034762293,0.01223714742809534
0.014078079722821712,0.007083599921315908,-0.013001203536987305,0.006072960793972015,-0.0002676171134226024,0.012890917249023914
0.01383334118872881,0.007172471843659878,-0.013584407977759838,0.006194036919623613,-0.0002761113573797047,0.012989645823836327
0.014126862399280071,0.007516519166529179,-0.013040481135249138,0.006302452180534601,-0.0002830344601534307,0.013162706978619099
0.014206187799572945,0.006921728141605854,-0.01378299668431282,0.006545528303831816,-0.00027207256061956286,0.013248363509774208
0.014486555010080338,0.006722058169543743,-0.012900365516543388,0.006695310585200787,-0.0002791169681586325,0.013314676471054554
0.014435702003538609,0.006769021041691303,-0.013692742213606834,0.006542784161865711,-0.0002850604068953544,0.013112686574459076
0.014614827930927277,0.007194682955741882,-0.013409685343503952,0.006389544811099768,-0.00027555038104765117,0.012688662856817245
0.014368751086294651,0.006761955562978983,-0.013767215423285961,0.006703176070004702,-0.00040761660784482956,0.012829317711293697
0.01495079230517149,0.006814377848058939,-0.0132857421413064,0.007042617071419954,-0.00038319622399285436,0.013095326721668243
0.01505958940833807,0.007543647661805153,-0.013554459437727928,0.006580442655831575,-0.0003923330514226109,0.013237825594842434
0.014752493239939213,0.007548136170953512,-0.013233741745352745,0.007130086421966553,-0.0003667330020107329,0.013741370290517807
0.01512258592993021,0.007496336475014687,-0.013549825176596642,0.007537746336311102,-0.00039671576814725995,0.01350740622729063
0.01512258592993021,0.007496336475014687,-0.013549825176596642,0.007537746336311102,-0.00039671576814725995,0.01350740622729063
0.01444285549223423,0.007011624053120613,-0.013098064810037613,0.007097653113305569,-0.00040267177973873913,0.013447393663227558
0.014881013892591,0.007306692656129599,-0.013720445334911346,0.0064439415000379086,-0.00040443160105496645,0.01310680154711008
0.014830799773335457,0.0074293832294642925,-0.013075514696538448,0.006890424527227879,-0.0003852995578199625,0.012927819974720478
0.01526168268173933,0.006882669869810343,-0.013622291386127472,0.007325091399252415,-0.0004516914486885071,0.012861838564276695
0.014769063331186771,0.006868498865514994,-0.013340226374566555,0.007075685076415539,-0.0004569925367832184,0.013126462697982788
0.015261181630194187,0.0072685773484408855,-0.013621877878904343,0.006706657353788614,-0.00045534156379289925,0.014616483822464943
0.014740606769919395,0.007261576596647501,-0.013460829854011536,0.007161094341427088,-0.00042214186396449804,0.01331363245844841
0.01539553888142109,0.006916895508766174,-0.013961178250610828,0.006912708282470703,-0.00039165865746326745,0.013386809267103672
0.015536581166088581,0.006910394877195358,-0.013209476135671139,0.007079234346747398,-0.00042176415445283055,0.013540982268750668
0.01583479344844818,0.006995093543082476,-0.013701289892196655,0.007303169462829828,-0.0003987505624536425,0.013780459761619568
0.015365173108875751,0.007398059591650963,-0.013720132410526276,0.008042178116738796,-0.00041471680742688477,0.013241921551525593
0.01538943499326706,0.00751027325168252,-0.013666356913745403,0.007902637124061584,-0.0004038137849420309,0.014003725722432137
0.015513304620981216,0.007101268973201513,-0.013242186047136784,0.007181922905147076,-0.0003831280046142638,0.013914358802139759
0.015546719543635845,0.00664942804723978,-0.012975595891475677,0.006917103193700314,-0.00040051297401078045,0.014058648608624935
0.015379948541522026,0.00678365770727396,-0.013512461446225643,0.0073881810531020164,-0.00037974261795170605,0.01413283683359623
0.015275641344487667,0.006260165479034185,-0.01342711504548788,0.0076238494366407394,-0.0004024940135423094,0.014028177596628666
0.01577959954738617,0.005896981339901686,-0.013827024027705193,0.0073029049672186375,-0.00042109080823138356,0.013601246289908886
0.015667295083403587,0.005833659321069717,-0.013011613860726357,0.007275751791894436,-0.00042279920307919383,0.01418641023337841
0.016227977350354195,0.00616892334073782,-0.013487285003066063,0.008021877147257328,-0.0004472087020985782,0.014118270017206669
0.016034523025155067,0.0061279782094061375,-0.012922358699142933,0.00778556615114212,-0.0005503382999449968,0.013878085650503635
0.01626584865152836,0.006133540067821741,-0.013532356359064579,0.008051465265452862,-0.0006957407458685338,0.013780933804810047
0.01610128954052925,0.006303822621703148,-0.012849260121583939,0.007653635460883379,-0.000784477626439184,0.014395564794540405
0.015986215323209763,0.0061887651681900024,-0.013137327507138252,0.008089414797723293,-0.0013123664539307356,0.014380784705281258
0.01614277996122837,0.0064486125484108925,-0.013173297978937626,0.00804509874433279,-0.0015397657407447696,0.014912723563611507
0.016146410256624222,0.006005324423313141,-0.013399017974734306,0.007414075545966625,-0.0015110577223822474,0.014710761606693268
0.016191935166716576,0.006178326904773712,-0.013282788917422295,0.00821218267083168,-0.0015260748332366347,0.014413764700293541
0.016728073358535767,0.006794971879571676,-0.013333320617675781,0.008272777311503887,-0.0016567526618018746,0.014637586660683155
0.01685159094631672,0.006958220154047012,-0.012915029190480709,0.007683972362428904,-0.0017870136070996523,0.014399973675608635
0.01685159094631672,0.006958220154047012,-0.012915029190480709,0.007683972362428904,-0.0017870136070996523,0.014399973675608635
0.016817374154925346,0.006377135403454304,-0.013720189221203327,0.0075870174914598465,-0.0025452233385294676,0.014470021240413189
0.01708538644015789,0.006247096229344606,-0.01310821808874607,0.007769530173391104,-0.0032658742275089025,0.014443449676036835
0.01680510863661766,0.006826384458690882,-0.013598822057247162,0.00789803359657526,-0.0047424063086509705,0.014938940294086933
0.01663951203227043,0.0069979471154510975,-0.013260679319500923,0.007473313715308905,-0.0050286585465073586,0.015167576260864735
0.016436867415905,0.006652843207120895,-0.013420011848211288,0.007883763872087002,-0.004969038534909487,0.015024888329207897
0.017163913697004318,0.006163323298096657,-0.013225862756371498,0.007961771450936794,-0.00497936038300395,0.01471043936908245
0.01711457036435604,0.0062121241353452206,-0.014183004386723042,0.00804585125297308,-0.0041421931236982346,0.01452628429979086
0.017142323777079582,0.006059474777430296,-0.013747533783316612,0.007800305262207985,-0.0026911015156656504,0.01459866389632225
0.017193522304296494,0.0065939342603087425,-0.013608168810606003,0.00797126442193985,-0.0018231591675430536,0.014827150851488113
0.016810879111289978,0.006383145693689585,-0.013775667175650597,0.008397483266890049,-0.0013595300260931253,0.014873892068862915
0.017696697264909744,0.006042578257620335,-0.013890977948904037,0.00823206640779972,-0.0010839514434337616,0.015067935921251774
0.017494000494480133,0.006115293130278587,-0.014093412086367607,0.0078450171276927,-0.0009017992415465415,0.015228016301989555
0.017320984974503517,0.006351790390908718,-0.014050851576030254,0.007890984416007996,-0.0007722876616753638,0.016179976984858513
0.01755400374531746,0.007373651023954153,-0.013710166327655315,0.008244100958108902,-0.0006754072965122759,0.014269916340708733
0.0170498788356781,0.006773524917662144,-0.013580798171460629,0.008295846171677113,-0.0006001749425195158,0.01438367273658514
0.017978791147470474,0.006216507870703936,-0.014142845757305622,0.00787847675383091,-0.000540050386916846,0.014935793355107307
0.017415238544344902,0.0061142644844949245,-0.013396373949944973,0.008239972405135632,-0.0004908880218863487,0.015481621958315372
0.017179187387228012,0.007103424984961748,-0.015050414018332958,0.007937438786029816,-0.00044994158088229597,0.014864799566566944
0.017873317003250122,0.006816175766289234,-0.014343868009746075,0.007590321823954582,-0.00041530575254000723,0.01501353271305561
0.018564624711871147,0.006383189931511879,-0.014105948619544506,0.008724924176931381,-0.0003856240655295551,0.014776579104363918
0.018312912434339523,0.006495682988315821,-0.01463532168418169,0.00874307844787836,-0.00035990567994304,0.015135658904910088
0.017982738092541695,0.0069288527593016624,-0.01436494942754507,0.007775832433253527,-0.000317554222419858,0.01515395101159811
0.018675189465284348,0.0067126513458788395,-0.014751059003174305,0.008684135973453522,-0.0002999094722326845,0.015086020343005657
0.018109483644366264,0.006217144429683685,-0.014035338535904884,0.00807594507932663,-0.00028412393294274807,0.015586050227284431
0.01805366948246956,0.006486715283244848,-0.014234917238354683,0.008174337446689606,-0.00026991733466275036,0.01588905230164528
0.01805366948246956,0.006486715283244848,-0.014234917238354683,0.008174337446689606,-0.00026991733466275036,0.01588905230164528
0.0185318011790514,0.0063426378183066845,-0.014057504944503307,0.008491728454828262,-0.00025706435553729534,0.015545263886451721
0.018335821107029915,0.00666398461908102,-0.014247387647628784,0.008657979778945446,-0.0002453802735544741,0.015763096511363983
0.018636103719472885,0.006707982160151005,-0.014146941713988781,0.008675167337059975,-0.0002347117697354406,0.015783512964844704
0.01848072186112404,0.006442091893404722,-0.01454866398125887,0.009368031285703182,-0.00022493291180580854,0.015873942524194717
0.018186694011092186,0.006243458483368158,-0.014249355532228947,0.008833061903715134,-0.00021593633573502302,0.01542688813060522
0.018643880262970924,0.006990185473114252,-0.014201577752828598,0.008639432489871979,-0.00020763168868143111,0.015728069469332695
0.018870459869503975,0.006843081209808588,-0.014323083683848381,0.00873489398509264,-0.0001999430824071169,0.015602527186274529
0.01874564215540886,0.006472860462963581,-0.01476413942873478,0.0088142529129982,-0.00019280282140243798,0.01593855209648609
0.01855413243174553,0.0065633258782327175,-0.014154287986457348,0.008671052753925323,-0.0001861554483184591,0.01585841365158558
0.01864846795797348,0.007304778788238764,-0.014970269985496998,0.008587019518017769,-0.0001799512974685058,0.01583266444504261
0.018721463158726692,0.006746042054146528,-0.014619389548897743,0.008933916687965393,-0.00014896462380420417,0.01631019450724125
0.019239312037825584,0.006410123314708471,-0.015092479065060616,0.009381858631968498,-0.0001408393436577171,0.016213202849030495
0.019233044236898422,0.006693436298519373,-0.014776185154914856,0.009142149239778519,-0.00013634530478157103,0.01614941470324993
0.018917661160230637,0.006731701549142599,-0.014849180355668068,0.008829333819448948,-0.00013232069613877684,0.015870438888669014
0.019206412136554718,0.006729469634592533,-0.014797498472034931,0.009005784057080746,-0.0001285401958739385,0.016203053295612335
0.019371379166841507,0.006688886322081089,-0.014626073651015759,0.009065994061529636,-0.00012496991257648915,0.01601642183959484
0.01893356256186962,0.006576153449714184,-0.014843257144093513,0.008759049698710442,-0.00012159299512859434,0.016161231324076653
0.019227981567382812,0.00668635219335556,-0.014771833084523678,0.009246399626135826,-0.00011839366925414652,0.01643574796617031
0.019274091348052025,0.006754380185157061,-0.015453241765499115,0.00895757507532835,-0.00011535837256815284,0.0163385272026062
0.01913861744105816,0.006706961430609226,-0.015068931505084038,0.008916315622627735,-0.00011247499787714332,0.016524869948625565
0.019580453634262085,0.0066604288294911385,-0.01534102950245142,0.008650554344058037,-0.00010973215103149414,0.01757742092013359
0.0194521676748991,0.006416625343263149,-0.014882112853229046,0.009609200991690159,-0.00010711988579714671,0.016673697158694267
0.01971331238746643,0.0065367273055016994,-0.014499192126095295,0.00911648664623499,-0.00010225154983345419,0.016402531415224075
0.019224397838115692,0.006692393217235804,-0.015225652605295181,0.009386391378939152,-9.997973393183202e-05,0.01663375087082386
0.019430750980973244,0.0065247793681919575,-0.014867765828967094,0.00895426981151104,-7.955088221933693e-05,0.016766401007771492
0.019430750980973244,0.0065247793681919575,-0.014867765828967094,0.00895426981151104,-7.955088221933693e-05,0.016766401007771492
0.01965479552745819,0.00644731568172574,-0.015300181694328785,0.00900739710777998,-7.666592136956751e-05,0.017378052696585655
0.020287206396460533,0.005979303270578384,-0.014457693323493004,0.009248529560863972,-7.499117054976523e-05,0.017443949356675148
0.019645193591713905,0.006285561714321375,-0.015252307057380676,0.009122403338551521,-7.345596532104537e-05,0.017482884228229523
0.01976957358419895,0.006547529716044664,-0.014858012087643147,0.008542029187083244,-7.198674575192854e-05,0.017055414617061615
0.0194163229316473,0.006087453570216894,-0.01519765704870224,0.008882863447070122,-7.057545008137822e-05,0.017317313700914383
0.0194163229316473,0.006087453570216894,-0.01519765704870224,0.008882863447070122,-7.057545008137822e-05,0.017317313700914383
0.020544547587633133,0.006091726943850517,-0.014832625165581703,0.009484230540692806,-6.665520777460188e-05,0.016868947073817253
0.020544547587633133,0.006091726943850517,-0.014832625165581703,0.009484230540692806,-6.665520777460188e-05,0.016868947073817253
0.020204873755574226,0.006635291967540979,-0.01521914079785347,0.009100438095629215,-6.544341158587486e-05,0.017080172896385193
0.01959359273314476,0.006248387973755598,-0.015158127062022686,0.008981640450656414,-6.427506014006212e-05,0.01751130260527134
0.020617716014385223,0.005983575712889433,-0.015318332239985466,0.009449958801269531,-5.1430233725113794e-05,0.017625898122787476
0.02016623131930828,0.006108277011662722,-0.015189828351140022,0.0095857884734869,-4.6809942432446405e-05,0.01702040247619152
0.02029798924922943,0.006316004786640406,-0.015250047668814659,0.008769591338932514,-4.577279105433263e-05,0.017336826771497726
0.020596740767359734,0.0060039544478058815,-0.015730736777186394,0.00918977614492178,-4.4994121708441526e-05,0.017318150028586388
0.02085152082145214,0.005905345547944307,-0.015300493687391281,0.009164226241409779,-4.425558290677145e-05,0.017387546598911285
0.019955243915319443,0.00578260887414217,-0.015488292090594769,0.00970744714140892,-4.354182965471409e-05,0.017602136358618736
0.019894883036613464,0.006240063346922398,-0.015354844741523266,0.00976401474326849,-4.2850755562540144e-05,0.01750798523426056
0.02063295803964138,0.005705401301383972,-0.016160789877176285,0.009634777903556824,-4.2181309254374355e-05,0.01745012402534485
0.021273571997880936,0.005594595801085234,-0.015379502438008785,0.009703950956463814,-4.1532479372108355e-05,0.017076844349503517
0.02093469351530075,0.005526665598154068,-0.016276024281978607,0.009720302186906338,-4.090329457540065e-05,0.01733448915183544
0.020685119554400444,0.005718288943171501,-0.015246537514030933,0.009725895710289478,-4.029287811135873e-05,0.0175859946757555
0.020650535821914673,0.0058192359283566475,-0.0156945139169693,0.00978509895503521,-3.9125185139710084e-05,0.018247095867991447
0.020650535821914673,0.0058192359283566475,-0.0156945139169693,0.00978509895503521,-3.9125185139710084e-05,0.018247095867991447
0.021149981766939163,0.00580444373190403,-0.016869481652975082,0.0099789472296834,-3.8023175875423476e-05,0.017867717891931534
0.021311478689312935,0.005326363258063793,-0.015605022199451923,0.010654236190021038,-3.749515235540457e-05,0.017876962199807167
0.021311478689312935,0.005326363258063793,-0.015605022199451923,0.010654236190021038,-3.749515235540457e-05,0.017876962199807167
0.021065613254904747,0.005745865870267153,-0.016255859285593033,0.01124416384845972,-3.698158252518624e-05,0.017703119665384293
0.021048881113529205,0.005976232700049877,-0.015895288437604904,0.010292859748005867,-3.6481906136032194e-05,0.01775568723678589
0.021407173946499825,0.0058833579532802105,-0.016016410663723946,0.01004501897841692,-3.59955447493121e-05,0.018619535490870476
0.021242765709757805,0.005335512105375528,-0.015498267486691475,0.009829871356487274,-3.5521989047992975e-05,0.017444899305701256
0.021117597818374634,0.005691417492926121,-0.01644495129585266,0.00948268547654152,-3.506072607706301e-05,0.017329245805740356
0.02125794067978859,0.005498210899531841,-0.016146084293723106,0.0097658047452569,-3.4611282899277285e-05,0.01778135634958744
0.021540392190217972,0.006065655499696732,-0.016434382647275925,0.010225696489214897,-3.41731974913273e-05,0.018007399514317513
0.02159380353987217,0.005728994961827993,-0.016772108152508736,0.010344743728637695,-3.374612424522638e-05,0.018102215602993965
0.02130533754825592,0.005522247403860092,-0.016211990267038345,0.010056348517537117,-3.3329546567983925e-05,0.017901532351970673
0.02159207873046398,0.005247573368251324,-0.016763292253017426,0.010566574521362782,-3.292313340352848e-05,0.018213456496596336
0.02175181172788143,0.005383951123803854,-0.016208916902542114,0.010351388715207577,-3.2526542781852186e-05,0.018293071538209915
0.02171952836215496,0.005514823365956545,-0.01728319190442562,0.01077318750321865,-3.2139352697413415e-05,0.018229776993393898
0.02158706821501255,0.006192829459905624,-0.016957849264144897,0.0108502097427845,-3.1761304853716865e-05,0.0183002520352602
0.021693510934710503,0.005533312447369099,-0.017219342291355133,0.010764441452920437,-3.1392039090860635e-05,0.01837455853819847
0.02220509946346283,0.005282965023070574,-0.017378482967615128,0.01097576692700386,-3.103122435277328e-05,0.018372150138020515
0.02196628786623478,0.005391467362642288,-0.016185659915208817,0.010374198667705059,-3.067864599870518e-05,0.018544811755418777
0.021902374923229218,0.005689928308129311,-0.017014089971780777,0.010291148908436298,-3.03339784295531e-05,0.018327925354242325
0.02195906452834606,0.005689966958016157,-0.01676054485142231,0.010292282328009605,-2.9996983357705176e-05,0.018225818872451782
0.02254440449178219,0.005691808648407459,-0.017163962125778198,0.010015789419412613,-7.6226233431953005e-06,0.018167030066251755
0.022142497822642326,0.005580026190727949,-0.016811992973089218,0.01070698257535696,-3.249643754088538e-08,0.01800573617219925
0.022142497822642326,0.005580026190727949,-0.016811992973089218,0.01070698257535696,-3.249643754088538e-08,0.01800573617219925
0.022061726078391075,0.0056939213536679745,-0.01728406734764576,0.01029602624475956,-2.1217854140331838e-09,0.01811864972114563
0.02239762619137764,0.006072324234992266,-0.016972696408629417,0.010996469296514988,-1.3853743152658637e-10,0.018712956458330154
0.022304372861981392,0.00581457419320941,-0.017094356939196587,0.01107159722596407,-9.045503929216991e-12,0.01930289901793003
0.02239864692091942,0.0057414863258600235,-0.017252666875720024,0.010141252540051937,-5.906067735567122e-13,0.018891775980591774
0.021979860961437225,0.005200189538300037,-0.01691100001335144,0.010280155576765537,-3.856240142745965e-14,0.018407141789793968
0.022962497547268867,0.005219753365963697,-0.01712636463344097,0.01050471793860197,-2.517849481426665e-15,0.018031718209385872
0.02313261479139328,0.005549321882426739,-0.01667439378798008,0.011066356673836708,-1.6439759394282276e-16,0.01802816055715084
0.022792186588048935,0.006237343419343233,-0.01667691208422184,0.011357907205820084,-1.0733988628133169e-17,0.01839124597609043
0.022762680426239967,0.006296971812844276,-0.016343867406249046,0.010128087364137173,-7.008527622233167e-19,0.01898506097495556
0.02290491573512554,0.005425488576292992,-0.016371972858905792,0.010016506537795067,-4.5760675155721986e-20,0.019535990431904793
0.021865108981728554,0.0054588718339800835,-0.016780519858002663,0.010282031260430813,-2.9878450349947264e-21,0.01884530484676361
0.02228311076760292,0.005831423215568066,-0.016379989683628082,0.01031886599957943,-1.9508494845147068e-22,0.018548564985394478
0.023007219657301903,0.006336808670312166,-0.017085740342736244,0.011116234585642815,-1.2737651839625914e-23,0.018309304490685463
0.023030702024698257,0.0058562178164720535,-0.016448630020022392,0.010557679459452629,-8.316776127508532e-25,0.01901100017130375
0.02222175896167755,0.005646794103085995,-0.016731860116124153,0.01077025756239891,-5.430260859152084e-26,0.019485648721456528
0.022816160693764687,0.005408131051808596,-0.016801726073026657,0.011320565827190876,-3.545572701556759e-27,0.018429916352033615
0.023992840200662613,0.0058534941636025906,-0.01637878268957138,0.011488531716167927,-2.315005589528616e-28,0.01816757209599018
0.023462887853384018,0.005972551181912422,-0.016792889684438705,0.011654146015644073,-1.5115331653946798e-29,0.018291139975190163
0.022466594353318214,0.006066649686545134,-0.01652645505964756,0.011923872865736485,-9.869232397752413e-31,0.018560320138931274
0.022716771811246872,0.0061539458110928535,-0.01685386523604393,0.011684429831802845,-6.443903690459121e-32,0.01807401329278946
0.022922851145267487,0.005598508287221193,-0.016157766804099083,0.011912338435649872,-4.207408358989827e-33,0.018980668857693672
0.02303139492869377,0.005953026469796896,-0.01665269210934639,0.011549671180546284,-2.7471369559451574e-34,0.019262174144387245
0.023264020681381226,0.005983185023069382,-0.016951944679021835,0.011694743297994137,-1.793683988759066e-35,0.0192452073097229
0.02328702062368393,0.006117084063589573,-0.016475165262818336,0.011494305916130543,-1.1711475005651765e-36,0.018994301557540894
0.02327905222773552,0.005907999351620674,-0.016888903453946114,0.011244367808103561,-7.646756239842423e-38,0.01908671110868454
0.023442866280674934,0.00583144323900342,-0.016286583617329597,0.011379166506230831,-4.992785790733858e-39,0.019544081762433052
0.023442866280674934,0.00583144323900342,-0.016286583617329597,0.011379166506230831,-4.992785790733858e-39,0.019544081762433052
0.02353646233677864,0.005948938895016909,-0.016934789717197418,0.011538682505488396,-2.1285723673093971e-41,0.019715536385774612
0.023203251883387566,0.006511663552373648,-0.01649920456111431,0.011463325470685959,-1.3900880766102185e-42,0.019493509083986282
0.023346487432718277,0.005849640350788832,-0.016893330961465836,0.01102440431714058,-9.10844001811131e-44,0.01939408853650093
0.023133013397455215,0.0059331078082323074,-0.01688925363123417,0.011415793560445309,-5.605193857299268e-45,0.01938515156507492
0.023723658174276352,0.006232510786503553,-0.017061814665794373,0.011215148493647575,-0.0,0.01972445845603943
0.02360955812036991,0.0060866279527544975,-0.016353517770767212,0.011401388794183731,-0.0,0.019876843318343163
0.023593829944729805,0.006125110667198896,-0.016640562564134598,0.011584881693124771,-0.0,0.01961377076804638
0.02374100871384144,0.005851650144904852,-0.016901031136512756,0.011495484039187431,-0.0,0.019953256472945213
0.023330429568886757,0.005875488743185997,-0.016357148066163063,0.011606964282691479,-0.0,0.019954921677708626
0.023798489943146706,0.005608081817626953,-0.016870377585291862,0.011703706346452236,-0.0,0.019964516162872314
0.02401285618543625,0.005792444106191397,-0.016271959990262985,0.011463371105492115,-0.0,0.020184025168418884
0.02194792591035366,0.006056944373995066,-0.016948342323303223,0.011603285558521748,-6.825554009992629e-06,0.020283425226807594
0.024331960827112198,0.005455756094306707,-0.01662556454539299,0.011645890772342682,-4.4565990720002446e-07,0.019565949216485023
0.024348363280296326,0.005754947662353516,-0.016994111239910126,0.011595368385314941,-2.9098407239303015e-08,0.01984335482120514
0.02398984506726265,0.005807532463222742,-0.017107240855693817,0.011777750216424465,-1.8999182227474876e-09,0.020492149516940117
0.023650022223591805,0.006170505192130804,-0.016591021791100502,0.011861059814691544,-1.2405108884561145e-10,0.0203800480812788
0.024241933599114418,0.006532580591738224,-0.017044059932231903,0.012116185389459133,-8.09964942338759e-12,0.02027212269604206
0.02409142255783081,0.0060320403426885605,-0.016666702926158905,0.011783448979258537,-5.288492625592223e-13,0.020580489188432693
0.024143457412719727,0.005725079216063023,-0.017045067623257637,0.012257479131221771,-3.453007736513303e-14,0.020864026620984077
0.025241144001483917,0.005679306574165821,-0.017240913584828377,0.012130411341786385,-2.254567289222795e-15,0.02068783901631832
0.02439362369477749,0.006381482817232609,-0.016652166843414307,0.01265653781592846,-1.4720712645274574e-16,0.020767325535416603
0.024841690436005592,0.006841264199465513,-0.017369452863931656,0.01283368282020092,-9.611573192889552e-18,0.020521678030490875
0.023632951080799103,0.005988764110952616,-0.01724749244749546,0.01204990316182375,-6.275670414929561e-19,0.020392445847392082
0.024292174726724625,0.0060086920857429504,-0.017685290426015854,0.012592535465955734,-4.097564210725586e-20,0.02073284611105919
0.02486386150121689,0.006141637451946735,-0.017140964046120644,0.012333277612924576,-1.7468561128763052e-22,0.021257566288113594
0.02429177425801754,0.006254567299038172,-0.017646806314587593,0.012320186011493206,-1.1405720943449937e-23,0.021176408976316452
0.02429177425801754,0.006254567299038172,-0.017646806314587593,0.012320186011493206,-1.1405720943449937e-23,0.021176408976316452
0.02431526593863964,0.005603264085948467,-0.016893360763788223,0.01223463099449873,-0.00014161871513351798,0.020877210423350334
0.025422610342502594,0.005239059217274189,-0.017375709488987923,0.012073724530637264,-0.0002533230581320822,0.020889271050691605
0.02545163407921791,0.004905765410512686,-0.017811596393585205,0.01225892174988985,-0.00029010907746851444,0.02145458199083805
0.025827990844845772,0.005760566797107458,-0.017513573169708252,0.012321321293711662,-0.0003042783646378666,0.021127354353666306
0.024820953607559204,0.005470781587064266,-0.01745709590613842,0.01196565292775631,-0.0003109020763076842,0.02109488844871521
0.024940215051174164,0.005079157184809446,-0.017127016559243202,0.012305009178817272,-0.00031840044539421797,0.021060390397906303
0.025418318808078766,0.005125008057802916,-0.01744863949716091,0.012444814667105675,-0.00032347877277061343,0.021670693531632423
0.02581348828971386,0.004952931776642799,-0.017936231568455696,0.012342705391347408,-0.00031078155734576285,0.0205296128988266
0.02532474882900715,0.005156348925083876,-0.018014706671237946,0.012330815196037292,-0.0005216175923123956,0.02088272012770176
0.025806479156017303,0.005633208900690079,-0.018025381490588188,0.011975538916885853,-0.0005447216681204736,0.021915217861533165
0.02584979496896267,0.005604892503470182,-0.01763409934937954,0.012492964044213295,-0.0005357801564969122,0.02279151789844036
0.0259895920753479,0.00506536103785038,-0.01761568710207939,0.012252784334123135,-0.0004900740459561348,0.02229541353881359
0.02604685351252556,0.0048844171687960625,-0.01795108988881111,0.012494885362684727,-0.0005190118681639433,0.02110539749264717
0.025886109098792076,0.0050454288721084595,-0.016821015626192093,0.012271334417164326,-0.00048368683201260865,0.020896876230835915
0.02580828219652176,0.005254495423287153,-0.017805764451622963,0.012807500548660755,-0.0004494550230447203,0.021625755354762077
0.027013316750526428,0.005037294700741768,-0.01857745088636875,0.013220574706792831,-0.00046361220302060246,0.022208435460925102
0.026132691651582718,0.005525291431695223,-0.017635462805628777,0.012984334491193295,-0.0004484729142859578,0.021536100655794144
0.02651449479162693,0.005206489935517311,-0.01765916310250759,0.013540893793106079,-0.0004230151535011828,0.021760454401373863
0.026574036106467247,0.004767244216054678,-0.01740921288728714,0.013052431866526604,-0.00041077632340602577,0.02254190482199192
0.02623431757092476,0.004924489185214043,-0.017579160630702972,0.01365315169095993,-0.00044391799019649625,0.023161007091403008
0.02643604576587677,0.005401144735515118,-0.017790883779525757,0.013236953876912594,-0.0004887598333880305,0.02254038117825985
0.02643604576587677,0.005401144735515118,-0.017790883779525757,0.013236953876912594,-0.0004887598333880305,0.02254038117825985
0.027249157428741455,0.005542609374970198,-0.018107637763023376,0.012603000737726688,-0.0008947451133280993,0.021449606865644455
0.02716941572725773,0.004974623676389456,-0.017771175131201744,0.01309405267238617,-0.0010045137023553252,0.021876061335206032
0.02680007554590702,0.004851780366152525,-0.017704086378216743,0.013738477602601051,-0.0009757970692589879,0.02247805707156658
0.027316536754369736,0.005280813202261925,-0.018257157877087593,0.013811692595481873,-0.0009645043755881488,0.02275019884109497
0.02763090468943119,0.0050792149268090725,-0.01760622300207615,0.013398545794188976,-0.0009529739618301392,0.022539615631103516
0.027246369048953056,0.005436484236270189,-0.017945393919944763,0.012879494577646255,-0.000855275138746947,0.0225029606372118
0.027698595076799393,0.005326894111931324,-0.018194638192653656,0.013151714578270912,-0.0008563134470023215,0.022600391879677773
0.027767492458224297,0.00503039825707674,-0.0176750086247921,0.013151493854820728,-0.0009211286087520421,0.02263113111257553
0.027850786224007607,0.004865274298936129,-0.01817488856613636,0.01350528746843338,-0.0008702179766260087,0.022620199248194695
0.02787187322974205,0.004945662803947926,-0.01741526834666729,0.013237925246357918,-0.0008638395229354501,0.022334637120366096
0.028269382193684578,0.005738583393394947,-0.017802460119128227,0.013730254955589771,-0.0008661964093334973,0.022699588909745216
0.02854522131383419,0.005831549875438213,-0.018244674429297447,0.012803495861589909,-0.0008541115676052868,0.022595424205064774
0.02839193306863308,0.005585736129432917,-0.017562927678227425,0.013256235979497433,-0.0007776679703965783,0.022751590237021446
0.027740582823753357,0.005086489953100681,-0.017988840118050575,0.013136463239789009,-0.0007789607043378055,0.02249252237379551
0.028390388935804367,0.004887393210083246,-0.018110336735844612,0.012846225872635841,-0.0007511239964514971,0.022759143263101578
0.02909870259463787,0.005204562563449144,-0.017691411077976227,0.012424079701304436,-0.0007956202025525272,0.022764310240745544
0.029798775911331177,0.005192291457206011,-0.018409958109259605,0.012553829699754715,-0.000810844823718071,0.022716127336025238
0.028748953714966774,0.005836376454681158,-0.017871186137199402,0.013439700938761234,-0.0008213138207793236,0.023209255188703537
0.027854356914758682,0.00517449714243412,-0.01790093071758747,0.013083637692034245,-0.000978938420303166,0.023154716938734055
0.02931096777319908,0.0047788978554308414,-0.01849365234375,0.013446873985230923,-0.0011146256001666188,0.022814041003584862
0.029579540714621544,0.005015304312109947,-0.01761608198285103,0.012777619063854218,-0.0011264528147876263,0.022864919155836105
0.028883786872029305,0.0052957795560359955,-0.018499070778489113,0.01320122741162777,-0.0011234019184485078,0.02292424440383911
0.02946239709854126,0.005107013508677483,-0.01898363046348095,0.01246360968798399,-0.0010944813257083297,0.02298203483223915
0.030389266088604927,0.005448303651064634,-0.018691161647439003,0.013119860552251339,-0.0010602959664538503,0.023178180679678917
0.030389266088604927,0.005448303651064634,-0.018691161647439003,0.013119860552251339,-0.0010602959664538503,0.023178180679678917
0.030146818608045578,0.0051065306179225445,-0.019261490553617477,0.013467139564454556,-0.00103562546428293,0.02308439277112484
0.029283467680215836,0.005181404761970043,-0.018501363694667816,0.014237897470593452,-0.0010413611307740211,0.023766139522194862
0.030685830861330032,0.005035893525928259,-0.018595430999994278,0.013540352694690228,-0.0010012384736910462,0.02402750961482525
0.03014088235795498,0.004954885225743055,-0.018479181453585625,0.013318581506609917,-0.0009857426630333066,0.02395135536789894
0.03003007546067238,0.005328268278390169,-0.018837781623005867,0.013047058135271072,-0.001022646902129054,0.02348572574555874
0.03008207492530346,0.005257581826299429,-0.01944003999233246,0.013792743906378746,-0.0011223501060158014,0.023024026304483414
0.03013240173459053,0.005503222346305847,-0.01917904242873192,0.012713184580206871,-0.0011635797563940287,0.02278892509639263
0.030187994241714478,0.0053756083361804485,-0.018118927255272865,0.013349493034183979,-0.0016717453254386783,0.023668667301535606
0.030195539817214012,0.005165803711861372,-0.01903493143618107,0.013244898989796638,-0.0016003531636670232,0.024000149220228195
0.030353358015418053,0.005650014150887728,-0.019697541370987892,0.01412773597985506,-0.0014760199701413512,0.024142999202013016
0.029906325042247772,0.005430800374597311,-0.0193992517888546,0.01394201535731554,-0.0013586492277681828,0.02450133115053177
0.02978404052555561,0.005651789251714945,-0.018896158784627914,0.013390877284109592,-0.0013650540495291352,0.024387162178754807
0.030071107670664787,0.005389376077800989,-0.01934073679149151,0.014584939926862717,-0.0012768922606483102,0.024362832307815552
0.0300612635910511,0.005238354671746492,-0.01963001862168312,0.015277907252311707,-0.0012283213436603546,0.023993095383048058
0.02996777556836605,0.005129681900143623,-0.018996816128492355,0.01447074580937624,-0.0011681716423481703,0.023465067148208618
0.030051864683628082,0.005491881165653467,-0.018905073404312134,0.01479322463274002,-0.0011065112194046378,0.0240362286567688
0.02971099689602852,0.005514452233910561,-0.019193140789866447,0.014398081228137016,-0.0009870751528069377,0.02508065290749073
0.028350912034511566,0.00496036047115922,-0.019786443561315536,0.014929697848856449,-0.0008660391322337091,0.02535458281636238
0.031066473573446274,0.004875363316386938,-0.01960454322397709,0.014671370387077332,-0.0008004881674423814,0.025030354037880898
0.03171488642692566,0.004798585548996925,-0.01912742108106613,0.014986656606197357,-0.0007498991908505559,0.02449963428080082
0.03146106004714966,0.00487095769494772,-0.01933303475379944,0.01460510864853859,-0.0007564635016024113,0.02459181658923626
0.030101686716079712,0.00504447752609849,-0.01923953928053379,0.014869076199829578,-0.0007341013988479972,0.024571381509304047
0.029945967718958855,0.005250689573585987,-0.019201034680008888,0.01453015673905611,-0.0007053215522319078,0.024929868057370186
0.03126794844865799,0.004923448897898197,-0.019832251593470573,0.014928308315575123,-0.0006815959350205958,0.025187216699123383
0.03133169561624527,0.00492613622918725,-0.019821977242827415,0.014485654421150684,-0.0007023789221420884,0.025088433176279068
0.03170241788029671,0.0051062810234725475,-0.01974974013864994,0.014578904025256634,-0.0007066948455758393,0.0248335562646389
0.03134964033961296,0.004871706943958998,-0.019856225699186325,0.014836067333817482,-0.0006822406430728734,0.024876229465007782
0.030880460515618324,0.004639667458832264,-0.019401174038648605,0.01447046548128128,-0.0007422809721902013,0.025277765467762947
0.030880460515618324,0.004639667458832264,-0.019401174038648605,0.01447046548128128,-0.0007422809721902013,0.025277765467762947
0.03051084093749523,0.004646910820156336,-0.019443484023213387,0.015277644619345665,-0.0006741720717400312,0.02595081366598606
0.03077514097094536,0.004728230182081461,-0.01957802288234234,0.015221569687128067,-0.0006975440192036331,0.02521951124072075
0.03119799494743347,0.004966819658875465,-0.01944124884903431,0.015123263001441956,-0.0006999662145972252,0.024907249957323074
0.03163313493132591,0.004923366010189056,-0.019872089847922325,0.015050425194203854,-0.0006512257386930287,0.025592593476176262
0.03153151646256447,0.0047626434825360775,-0.01981799490749836,0.015420467592775822,-0.0006534179556183517,0.02564082480967045
0.03122526966035366,0.004651140421628952,-0.019177792593836784,0.015362524427473545,-0.0006166021339595318,0.025214117020368576
0.031025895848870277,0.004689340945333242,-0.01987743377685547,0.014956302009522915,-0.0005986759788356721,0.02539297193288803
0.031438689678907394,0.004658496472984552,-0.020095836371183395,0.015412316657602787,-0.0005399717483669519,0.025256024673581123
0.03176906704902649,0.004585630726069212,-0.019379448145627975,0.01542189996689558,-0.0005723139038309455,0.025391995906829834
0.03158476948738098,0.004734058864414692,-0.019409319385886192,0.015689563006162643,-0.0005978059489279985,0.025472059845924377
0.03132293373346329,0.005143860820680857,-0.019862959161400795,0.015202655456960201,-0.0006138517055660486,0.02555273473262787
0.03167928755283356,0.004667823668569326,-0.01945502497255802,0.015830019488930702,-0.0005828298744745553,0.025476202368736267
0.03194136917591095,0.00449005700647831,-0.019519025459885597,0.01537095196545124,-0.0006773117929697037,0.025515995919704437
0.030253136530518532,0.004417529329657555,-0.019872751086950302,0.015549791976809502,-0.0006968491361476481,0.025661299005150795
0.03197436407208443,0.004614666104316711,-0.019445501267910004,0.01503726001828909,-0.0006936937570571899,0.02557259052991867
0.03221621736884117,0.004688234068453312,-0.019493842497467995,0.015957511961460114,-0.0006678642239421606,0.025438252836465836
0.03190308436751366,0.0043297382071614265,-0.019807372242212296,0.015826063230633736,-0.0006870505167171359,0.025514191016554832
0.031567856669425964,0.004293140955269337,-0.019640346989035606,0.01594310626387596,-0.0007372663822025061,0.02568715251982212
0.03229953348636627,0.004031066782772541,-0.01930830255150795,0.01672176830470562,-0.0007653658394701779,0.025917083024978638
0.03244653344154358,0.004231105092912912,-0.01981843076646328,0.016220759600400925,-0.0007984212716110051,0.026487400755286217
0.032321348786354065,0.004494617693126202,-0.020416084676980972,0.0160533394664526,-0.0008111311472021043,0.026831641793251038
0.03264050558209419,0.0043876259587705135,-0.019775431603193283,0.015324949286878109,-0.000740635150577873,0.026134921237826347
0.03289307653903961,0.004558089189231396,-0.019825464114546776,0.01596875861287117,-0.0008262568735517561,0.025389228016138077
0.033343397080898285,0.004321325570344925,-0.019861802458763123,0.01634974032640457,-0.0008617369458079338,0.02665828913450241
0.033343397080898285,0.004321325570344925,-0.019861802458763123,0.01634974032640457,-0.0008617369458079338,0.02665828913450241
0.033597566187381744,0.004051308147609234,-0.020198281854391098,0.0163363516330719,-0.000858956016600132,0.02637610025703907
0.03321610763669014,0.00433241855353117,-0.019854309037327766,0.01594519428908825,-0.000779094232711941,0.02646731398999691
0.03314228728413582,0.004553473088890314,-0.019551992416381836,0.015917673707008362,-0.0007718431879766285,0.027451779693365097
0.033273257315158844,0.004340444691479206,-0.02038663998246193,0.015214755199849606,-0.0007486732210963964,0.02697049081325531
0.034595247358083725,0.004489763639867306,-0.02119159884750843,0.015657348558306694,-0.0007092172745615244,0.025623638182878494
0.035014331340789795,0.004276968538761139,-0.020939882844686508,0.01553255133330822,-0.0007274953532032669,0.025994783267378807
0.033220384269952774,0.0043120961636304855,-0.01997957192361355,0.016280220821499825,-0.000747537415008992,0.027016669511795044
0.032954685389995575,0.004117816220968962,-0.02010662667453289,0.015650151297450066,-0.0009187550167553127,0.027765505015850067
0.034364379942417145,0.004361413884907961,-0.020741179585456848,0.015521285124123096,-0.0008573787054046988,0.027588296681642532
0.03430198132991791,0.004164251498878002,-0.02007579244673252,0.015389185398817062,-0.0007444755756296217,0.026982324197888374
0.03537335246801376,0.004516382701694965,-0.0206290353089571,0.015815168619155884,-0.0007479609339497983,0.0268609169870615
0.03466310724616051,0.004532061517238617,-0.0202186182141304,0.015090158209204674,-0.0006798019167035818,0.026368115097284317
0.033821336925029755,0.004330001771450043,-0.02024182677268982,0.015528291463851929,-0.0006784318829886615,0.026731329038739204
0.03359709680080414,0.004256171174347401,-0.020242374390363693,0.01658836379647255,-0.0006380897248163819,0.02709740772843361
0.03458642214536667,0.0042190151289105415,-0.021025318652391434,0.01686515472829342,-0.0005815112381242216,0.027127865701913834
0.03543289005756378,0.004421401768922806,-0.02130461297929287,0.01715545356273651,-0.000512255821377039,0.02719677984714508
0.03433845937252045,0.0040566688403487206,-0.02040933631360531,0.016619175672531128,-0.0004596482904162258,0.027047492563724518
0.035520002245903015,0.004351166542619467,-0.020230155438184738,0.016969673335552216,-0.0004887972609139979,0.027008051052689552
0.03549089655280113,0.0043461937457323074,-0.021987823769450188,0.017133958637714386,-0.0004940339713357389,0.02747812308371067
0.03497864678502083,0.004579972475767136,-0.02000676468014717,0.01688559167087078,-0.0004897966864518821,0.027310125529766083
0.0354578010737896,0.004524216055870056,-0.0197977963835001,0.017167044803500175,-0.0005171740194782615,0.027744807302951813
0.03535660356283188,0.004203633405268192,-0.02124171145260334,0.017062539234757423,-0.0005494483630172908,0.02768762968480587
0.034673891961574554,0.004344252869486809,-0.021103162318468094,0.017479902133345604,-0.0005450588068924844,0.02784608118236065
0.035208094865083694,0.004187100101262331,-0.020586693659424782,0.017611363902688026,-0.0005612733075395226,0.0274664293974638
0.03558671474456787,0.004203628748655319,-0.02125757560133934,0.017570385709404945,-0.0005519941332750022,0.028133206069469452
0.03523455560207367,0.004453990142792463,-0.02065916359424591,0.01725795865058899,-0.0005162459565326571,0.027850227430462837
0.03660234436392784,0.0042300098575651646,-0.02025875262916088,0.017219800502061844,-0.0005365945398807526,0.02753383293747902
0.03756202012300491,0.004064482636749744,-0.020970603451132774,0.017018090933561325,-0.0005088569596409798,0.027727143839001656
0.03516038879752159,0.003995280712842941,-0.020660782232880592,0.017134984955191612,-0.0006004910683259368,0.029190927743911743
0.03516038879752159,0.003995280712842941,-0.020660782232880592,0.017134984955191612,-0.0006004910683259368,0.029190927743911743
0.036425262689590454,0.00440527219325304,-0.02076868712902069,0.01708565093576908,-0.0006198579212650657,0.028443582355976105
0.036425262689590454,0.00440527219325304,-0.02076868712902069,0.01708565093576908,-0.0006198579212650657,0.028443582355976105
0.03632013872265816,0.004221608862280846,-0.021178103983402252,0.017333941534161568,-0.0006368547328747809,0.027332542464137077
0.03703262284398079,0.004009211901575327,-0.021308451890945435,0.017431963235139847,-0.0008243093034252524,0.02780868113040924
0.036710940301418304,0.004341412335634232,-0.02083665132522583,0.017384156584739685,-0.0008755872258916497,0.028610536828637123
0.0354798249900341,0.004270643927156925,-0.021035902202129364,0.01759289763867855,-0.0007865196093916893,0.028233442455530167
0.03533497080206871,0.004481159616261721,-0.02111201174557209,0.017225485295057297,-0.0007947341655381024,0.028830887749791145
0.03692817687988281,0.004136105999350548,-0.020649803802371025,0.0177262332290411,-0.0007118877256289124,0.02994237095117569
0.03674694895744324,0.004058228339999914,-0.020089751109480858,0.017678463831543922,-0.0007185563445091248,0.028755778446793556
0.0358535498380661,0.004102054983377457,-0.02067246288061142,0.01737096719443798,-0.000663579034153372,0.028659725561738014
0.03678032383322716,0.003938301466405392,-0.02071559615433216,0.01740911602973938,-0.000616855570115149,0.0279700830578804
0.036625999957323074,0.004346427042037249,-0.02054130658507347,0.017138922587037086,-0.0006458595744334161,0.029064593836665154
0.036152541637420654,0.004135513678193092,-0.020789608359336853,0.017523903399705887,-0.0007196487858891487,0.030118007212877274
0.036696869879961014,0.0043437848798930645,-0.021236393600702286,0.017840702086687088,-0.0006981443148106337,0.0297092217952013
0.03666664659976959,0.004323271568864584,-0.0211285762488842,0.017345532774925232,-0.0010068175615742803,0.0292806439101696
0.03657449036836624,0.004073889460414648,-0.020953167229890823,0.017680993303656578,-0.0010065468959510326,0.029418865218758583
0.03639836236834526,0.0043739271350204945,-0.02111341431736946,0.017595717683434486,-0.0009286690037697554,0.029035737738013268
0.037133969366550446,0.00413888692855835,-0.020848968997597694,0.017761696130037308,-0.000920694088563323,0.028997618705034256
0.037171054631471634,0.003951432183384895,-0.02111103944480419,0.017812801524996758,-0.000925528584048152,0.029380224645137787
0.0371830090880394,0.00388483889400959,-0.021244632080197334,0.017591308802366257,-0.0010041599161922932,0.029585817828774452
0.035722266882658005,0.004058178514242172,-0.021720698103308678,0.0181678906083107,-0.0011149822967126966,0.029413992539048195
0.035722266882658005,0.004058178514242172,-0.021720698103308678,0.0181678906083107,-0.0011149822967126966,0.029413992539048195
0.037920381873846054,0.003951898775994778,-0.021597659215331078,0.01769396662712097,-0.0011154148960486054,0.029739979654550552
0.037609245628118515,0.004546628799289465,-0.0212726928293705,0.01812777854502201,-0.0009374325163662434,0.03020511195063591
0.03709099069237709,0.004765585996210575,-0.021466262638568878,0.01819799840450287,-0.0009258609497919679,0.029733549803495407
0.03709099069237709,0.004765585996210575,-0.021466262638568878,0.01819799840450287,-0.0009258609497919679,0.029733549803495407
0.037345096468925476,0.004344415385276079,-0.021513577550649643,0.018438106402754784,-0.000836058403365314,0.029955562204122543
0.03775756061077118,0.004305198788642883,-0.021039484068751335,0.01785823330283165,-0.0007114424952305853,0.030421238392591476
0.03805013373494148,0.00458062207326293,-0.021467771381139755,0.018186131492257118,-0.0007280934369191527,0.030130712315440178
0.037829943001270294,0.004677383694797754,-0.02264934405684471,0.018454907462000847,-0.0007267218315973878,0.0300428606569767
0.037862688302993774,0.004395036026835442,-0.022468317300081253,0.018628763034939766,-0.0006734777707606554,0.030104726552963257
0.03764285519719124,0.004393668379634619,-0.021327724680304527,0.01917690970003605,-0.0006906462367624044,0.03003101982176304
0.03819388523697853,0.004388431087136269,-0.022086119279265404,0.01872485876083374,-0.0006875625695101917,0.030148237943649292
0.03946210816502571,0.004468562081456184,-0.02189701423048973,0.018313609063625336,-0.0007063050288707018,0.030008098110556602
0.03765256702899933,0.004406284540891647,-0.021533286198973656,0.0181107260286808,-0.0006758638774044812,0.03094279207289219
0.03704287111759186,0.004196799825876951,-0.021265536546707153,0.01754576340317726,-0.0006972809787839651,0.03122502565383911
0.03825075179338455,0.00442325696349144,-0.022048452869057655,0.017786426469683647,-0.0007113361498340964,0.03198524937033653
0.0385546013712883,0.004392584320157766,-0.022208290174603462,0.018532229587435722,-0.0007580383098684251,0.03181086853146553
0.039661210030317307,0.004576387349516153,-0.022128362208604813,0.01877518743276596,-0.0007352659595198929,0.030874719843268394
0.039497993886470795,0.004306599032133818,-0.021812109276652336,0.01922159641981125,-0.0007466875249519944,0.030422281473875046
0.03753483667969704,0.004155850503593683,-0.02247104048728943,0.01955069974064827,-0.0006691499147564173,0.030949536710977554
0.03792990371584892,0.004136162344366312,-0.022197652608156204,0.01927703246474266,-0.0006814983207732439,0.03158647567033768
0.039480213075876236,0.0044574737548828125,-0.022346530109643936,0.02021249383687973,-0.0006684698746539652,0.03131406009197235
0.039063598960638046,0.004715379327535629,-0.021894903853535652,0.02018318697810173,-0.0006478969007730484,0.03213382512331009
0.038907017558813095,0.004499707370996475,-0.021620316430926323,0.019426759332418442,-0.0006297749932855368,0.03180476278066635
0.03928329795598984,0.004543604329228401,-0.02200419269502163,0.019139230251312256,-0.0006554232677444816,0.031070124357938766
0.03904377669095993,0.004617803264409304,-0.02234862558543682,0.019186176359653473,-0.0006819930858910084,0.030433690175414085
0.03933586925268173,0.004292317200452089,-0.02184162102639675,0.01895919442176819,-0.0007948168786242604,0.03217966854572296
0.03933586925268173,0.004292317200452089,-0.02184162102639675,0.01895919442176819,-0.0007948168786242604,0.03217966854572296
0.0386643223464489,0.004418538883328438,-0.022166403010487556,0.019614748656749725,-0.0008077553356997669,0.03172149136662483
0.0386643223464489,0.004418538883328438,-0.022166403010487556,0.019614748656749725,-0.0008077553356997669,0.03172149136662483
0.03920790180563927,0.004639546386897564,-0.02202942594885826,0.01953895576298237,-0.0008116307435557246,0.03163670375943184
0.040088899433612823,0.004659743048250675,-0.02216423861682415,0.020089371129870415,-0.0008077779784798622,0.031182898208498955
0.039291128516197205,0.005157467909157276,-0.022025225684046745,0.02035735920071602,-0.0008066623122431338,0.031372733414173126
0.03807659447193146,0.004553714767098427,-0.021991461515426636,0.020145926624536514,-0.0008414448238909245,0.031446266919374466
0.039360638707876205,0.004551418125629425,-0.02208469808101654,0.020366625860333443,-0.0008511195774190128,0.031617630273103714
0.039148978888988495,0.004325089044868946,-0.021986519917845726,0.020089998841285706,-0.0008295845473185182,0.031374864280223846
0.03998364135622978,0.005003647413104773,-0.022026246413588524,0.019672637805342674,-0.0007880478515289724,0.03154967725276947
0.03966096416115761,0.0049410732463002205,-0.022427566349506378,0.01980634219944477,-0.0008356625330634415,0.03204924613237381
0.038234416395425797,0.0048230430111289024,-0.022396519780158997,0.01972232200205326,-0.0008483993005938828,0.03224491700530052
0.03863879665732384,0.004653687588870525,-0.02193550579249859,0.019484978169202805,-0.0008557105320505798,0.032121747732162476
0.040124665945768356,0.00444193696603179,-0.021780721843242645,0.01964370347559452,-0.000868572446051985,0.0328935831785202
0.040336862206459045,0.004619149956852198,-0.022154219448566437,0.019863100722432137,-0.0009270409354940057,0.032358214259147644
0.03963983803987503,0.004791945684701204,-0.02242453210055828,0.019529907032847404,-0.0009310508030466735,0.03271989896893501
0.04004576802253723,0.004450961481779814,-0.0223077405244112,0.01956048421561718,-0.0008269140962511301,0.03249569609761238
0.03991280868649483,0.004975185729563236,-0.022101284936070442,0.0198215264827013,-0.0008217176073230803,0.03294214978814125
0.039984140545129776,0.0049860612489283085,-0.022173825651407242,0.019325999543070793,-0.0007898132316768169,0.032360948622226715
0.04036496952176094,0.004772583022713661,-0.022115608677268028,0.019367141649127007,-0.0007618641830049455,0.03298748657107353
0.04004749283194542,0.004241622053086758,-0.022493558004498482,0.020141946151852608,-0.0007934865425340831,0.03409387171268463
0.04049398750066757,0.004126640968024731,-0.022705327719449997,0.02043742500245571,-0.000808561802841723,0.03360345959663391
0.04071366414427757,0.004231046885251999,-0.022385694086551666,0.020181361585855484,-0.0008194883121177554,0.03182372450828552
0.04063333198428154,0.004942550323903561,-0.02280343882739544,0.02040586620569229,-0.0007586324354633689,0.031864725053310394
0.041068628430366516,0.0049685281701385975,-0.02307180128991604,0.0201470497995615,-0.0008688207599334419,0.03321186080574989
0.04105198383331299,0.004463350400328636,-0.02211107313632965,0.01998806558549404,-0.0008694675634615123,0.03428732603788376
0.04087856411933899,0.004429527558386326,-0.022922636941075325,0.02010887861251831,-0.000789960497058928,0.03378983214497566
0.04123122990131378,0.004646365996450186,-0.02260120026767254,0.019558273255825043,-0.0007966763223521411,0.0326978825032711
0.04160672798752785,0.004735094495117664,-0.022795597091317177,0.019731678068637848,-0.0007519128848798573,0.03193121775984764
0.04160672798752785,0.004735094495117664,-0.022795597091317177,0.019731678068637848,-0.0007519128848798573,0.03193121775984764
0.04105478152632713,0.0043581160716712475,-0.02255610190331936,0.020418252795934677,-0.0007382258190773427,0.03297580033540726
0.041517555713653564,0.0050064134411513805,-0.022808164358139038,0.021299786865711212,-0.0007571108289994299,0.03376898542046547
0.04154526814818382,0.004829383455216885,-0.022667620331048965,0.020716285333037376,-0.0007735794642940164,0.032190218567848206
0.04163598641753197,0.004279958084225655,-0.022949760779738426,0.020812757313251495,-0.0007419143803417683,0.03413908928632736
0.042210549116134644,0.004415867850184441,-0.022328006103634834,0.02023891918361187,-0.0008470521424897015,0.0346447192132473
0.04211537167429924,0.004439614713191986,-0.022241229191422462,0.019277893006801605,-0.0008647168870083988,0.03417256474494934
0.04109857231378555,0.004309342708438635,-0.022047346457839012,0.01983955316245556,-0.0008789984858594835,0.0339222252368927
0.043155737221241,0.004841656424105167,-0.02315468341112137,0.020630670711398125,-0.0008821338415145874,0.033959340304136276
0.04298771545290947,0.004524986259639263,-0.023229794576764107,0.020390570163726807,-0.001053845975548029,0.03408949077129364
0.04046732932329178,0.004537503235042095,-0.02247094176709652,0.02030389942228794,-0.0010920503409579396,0.0339510478079319
0.041605036705732346,0.004281329456716776,-0.022070975974202156,0.021369945257902145,-0.0010855623986572027,0.03383955359458923
0.04198344796895981,0.004496319685131311,-0.022871123626828194,0.02171613834798336,-0.0013085503596812487,0.03408342972397804
0.042827047407627106,0.005019650794565678,-0.022641802206635475,0.02155546098947525,-0.0011496454244479537,0.03451557829976082
0.04369696229696274,0.004488739185035229,-0.022695887833833694,0.020709682255983353,-0.0010285064345225692,0.034308888018131256
0.04159281402826309,0.004538101144134998,-0.022658437490463257,0.020936494693160057,-0.0009399940026924014,0.034557029604911804
0.0418480709195137,0.0046021719463169575,-0.022676846012473106,0.020674997940659523,-0.0008214295958168805,0.03449739143252373
