davideferrari95/blind_handover_controller/data/Test 160 - [2024-02-08 -- 11-02-55]/joint_states_data.csv
shoulder_pan_joint,shoulder_lift_joint,elbow_joint,wrist_1_joint,wrist_2_joint,wrist_3_joint
-0.0009031642694026232,-0.015872107818722725,-0.006534023676067591,0.018519006669521332,-0.0,-0.0015078086871653795
-0.0009031642694026232,-0.015872107818722725,-0.006534023676067591,0.018519006669521332,-0.0,-0.0015078086871653795
-0.0009394355001859367,-0.01662278175354004,-0.006532536819577217,0.018932458013296127,-0.0,-0.0013015143340453506
-0.0009403431904502213,-0.015945864841341972,-0.006604801397770643,0.019945815205574036,-0.0,-0.0011185064213350415
-0.0009403431904502213,-0.015945864841341972,-0.006604801397770643,0.019945815205574036,-0.0,-0.0011185064213350415
-0.0009343180572614074,-0.015988096594810486,-0.0060846819542348385,0.01986144296824932,-0.0,-0.000968824839219451
-0.0008510138723067939,-0.01559576764702797,-0.005687647499144077,0.0194101482629776,-0.0,-0.0008560442947782576
-0.0008557126275263727,-0.016024021431803703,-0.005462021101266146,0.019626647233963013,-0.0,-0.0006378753460012376
-0.0008723247447051108,-0.015795450657606125,-0.005614620167762041,0.019712958484888077,-0.0,-0.0007078995695337653
-0.0008762843790464103,-0.01646682620048523,-0.005479174200445414,0.019693154841661453,-0.0,-0.000756043300498277
-0.0008795624598860741,-0.016092440113425255,-0.005476363003253937,0.020931344479322433,-0.0,-0.0011466913856565952
-0.0008731790003366768,-0.015084696002304554,-0.005278713535517454,0.02074158936738968,-0.0,-0.0012757059885188937
-0.0008932487689889967,-0.01576763577759266,-0.00501883402466774,0.01992529071867466,-0.0,-0.0014618822606280446
-0.000927566725295037,-0.015374193899333477,-0.005298071540892124,0.02021283283829689,-0.0,-0.001474280608817935
-0.0009348223102279007,-0.015928028151392937,-0.0052231983281672,0.021071797236800194,-0.0,-0.001305879675783217
-0.0009210260468535125,-0.01558400597423315,-0.005748561583459377,0.020588690415024757,-0.0,-0.0011506234295666218
-0.0009665851248428226,-0.016115838661789894,-0.005367713514715433,0.019939640536904335,-0.0,-0.00097704550717026
-0.0009658052586019039,-0.015064879320561886,-0.004856807645410299,0.02003481797873974,-0.0,-0.0009492646204307675
-0.0008627607603557408,-0.015232411213219166,-0.004831777419894934,0.01945580169558525,-0.0,-0.0008508479222655296
-0.0008665262721478939,-0.014997068792581558,-0.005403970368206501,0.018766790628433228,-0.0,-0.0006585731753148139
-0.0008674352429807186,-0.015448040328919888,-0.005611044820398092,0.019074605777859688,-0.0,-0.000646194675937295
-0.0008383487001992762,-0.01538112573325634,-0.005112851969897747,0.01995190605521202,-0.0,-0.0006467128987424076
-0.0008598868735134602,-0.015471432358026505,-0.004803585819900036,0.019796166568994522,-0.0,-0.0006703079561702907
-0.0008369485149160028,-0.01569010317325592,-0.004764321260154247,0.020126687362790108,-0.0,-0.0006587976822629571
-0.0008444107952527702,-0.015386180020868778,-0.004966861568391323,0.019478093832731247,-0.0,-0.0008961097337305546
-0.0009440043359063566,-0.015410426072776318,-0.005129119381308556,0.01913551613688469,-0.0,-0.0009095778223127127
-0.0009430793579667807,-0.015728948637843132,-0.005161458160728216,0.019622979685664177,-0.0,-0.001030255458317697
-0.0009374000946991146,-0.015363074839115143,-0.0045847962610423565,0.019346371293067932,-0.0,-0.0010537870693951845
-0.0008702415507286787,-0.01576961576938629,-0.004580175969749689,0.019556762650609016,-0.0,-0.0009738872176967561
-0.0010900432243943214,-0.015535634011030197,-0.0049554952420294285,0.01950947567820549,-0.0,-0.0008983592852018774
-0.0010900432243943214,-0.015535634011030197,-0.0049554952420294285,0.01950947567820549,-0.0,-0.0008983592852018774
-0.0010604821145534515,-0.015599059872329235,-0.005272997543215752,0.019162693992257118,-0.0,-0.0008941268315538764
-0.0010476823663339019,-0.015294360928237438,-0.0050787306390702724,0.019156232476234436,-0.0,-0.0008302397327497602
-0.001100539811886847,-0.015582660213112831,-0.004750810097903013,0.019586095586419106,-0.0,-0.0008367813425138593
-0.001083528739400208,-0.015533994883298874,-0.004747414030134678,0.01941322349011898,-0.0,-0.0008451456087641418
-0.0010528583079576492,-0.015120584517717361,-0.005208407528698444,0.019483689218759537,-0.0,-0.0008662915206514299
-0.001027102000080049,-0.015485317446291447,-0.004932331386953592,0.018896520137786865,-0.0,-0.0011430707527324557
-0.0009662528173066676,-0.015552494674921036,-0.004880774300545454,0.018860675394535065,-0.0,-0.0011384234530851245
-0.0009586226078681648,-0.015649903565645218,-0.004837225191295147,0.019645923748612404,-0.0,-0.0011133744847029448
-0.0010418316815048456,-0.015214609913527966,-0.004633468110114336,0.02032790705561638,-0.0,-0.0009842781582847238
-0.0011556980898603797,-0.01571303978562355,-0.004591093864291906,0.02004075236618519,-0.0,-0.0009145399089902639
-0.0011931888293474913,-0.0150304501876235,-0.004648761358112097,0.01949744112789631,-0.0,-0.0008975046803243458
-0.0011456366628408432,-0.01555377896875143,-0.004623701795935631,0.019106416031718254,-0.0,-0.0008968556066974998
-0.0011076496448367834,-0.015164782293140888,-0.004666158929467201,0.019160687923431396,-0.0,-0.0008822869858704507
-0.0010534112807363272,-0.015820467844605446,-0.004723117686808109,0.019523154944181442,-0.0,-0.0008534593507647514
-0.0010274964151903987,-0.014868242666125298,-0.004751724656671286,0.020309656858444214,-0.0,-0.000867619935888797
-0.0010999225778505206,-0.015192176215350628,-0.004387781023979187,0.02000332437455654,-0.0,-0.0008728408138267696
-0.0010091589065268636,-0.015362570062279701,-0.0042425463907420635,0.019172625616192818,-0.0,-0.0008911713375709951
-0.0011232353281229734,-0.015188529156148434,-0.004455555696040392,0.019989456981420517,-0.0,-0.0009248758433386683
-0.0010988737922161818,-0.014755924232304096,-0.004563185386359692,0.020311782136559486,-0.0,-0.0010100919753313065
-0.0010692704236134887,-0.01530852634459734,-0.004605229012668133,0.019833702594041824,-0.0,-0.000998218427412212
-0.0010065174428746104,-0.015038308687508106,-0.0046570319682359695,0.018895024433732033,-0.0,-0.001003093202598393
-0.0010065174428746104,-0.015038308687508106,-0.0046570319682359695,0.018895024433732033,-0.0,-0.001003093202598393
-0.000972976500634104,-0.015045113861560822,-0.005343647673726082,0.020121846348047256,-0.0,-0.0007957274792715907
-0.0009631573338992894,-0.01464496273547411,-0.004682972561568022,0.02019719034433365,-0.0,-0.0008079626713879406
-0.0010508015984669328,-0.014877477660775185,-0.004523870535194874,0.01984943449497223,-0.0,-0.0008197547285817564
-0.0010295830434188247,-0.014635554514825344,-0.004556783474981785,0.020058926194906235,-0.0,-0.0008313452126458287
-0.0010045277886092663,-0.01496275793761015,-0.00507679209113121,0.020306559279561043,-0.0,-0.001039470313116908
-0.0009899548022076488,-0.014461243525147438,-0.004919765517115593,0.0205171387642622,-0.0,-0.0010678437538444996
-0.0010642148554325104,-0.014610125683248043,-0.005587195977568626,0.01999107375741005,-0.0,-0.0010460963239893317
-0.0010399229358881712,-0.014225544407963753,-0.005349875893443823,0.02024315856397152,-0.0,-0.001101261586882174
-0.0010498551419004798,-0.014658734202384949,-0.004694113042205572,0.020236868411302567,-0.0,-0.0010737109696492553
-0.0011608239728957415,-0.01436532475054264,-0.0048736752942204475,0.019935844466090202,-0.0,-0.0010057658655568957
-0.0011320648482069373,-0.014913449995219707,-0.005007985979318619,0.020162610337138176,-0.0,-0.0009245779365301132
-0.0010789758525788784,-0.01407939288765192,-0.004922520834952593,0.019930215552449226,-0.0,-0.0009169048862531781
-0.0010522210504859686,-0.014498517848551273,-0.005174544639885426,0.01944400928914547,-0.0,-0.0009281924576498568
-0.0009900706354528666,-0.014086452312767506,-0.005316419992595911,0.01955232582986355,-0.0,-0.0009827333269640803
-0.0009845817694440484,-0.014300636947154999,-0.004670256283134222,0.01944829151034355,-0.0,-0.0012684939429163933
-0.0009391909115947783,-0.013283256441354752,-0.004621697589755058,0.019257163628935814,-0.0,-0.0015252705197781324
-0.000854427576996386,-0.014128556475043297,-0.004939929582178593,0.019198214635252953,-0.0,-0.0014775670133531094
-0.0008429325534962118,-0.013691120781004429,-0.005344325210899115,0.01884910650551319,-0.0,-0.0012871910585090518
-0.0008571288199163973,-0.013769198209047318,-0.005469972733408213,0.018981507048010826,-0.0,-0.0011445508571341634
-0.000863074732478708,-0.01385609619319439,-0.0046538859605789185,0.01897452585399151,-0.0,-0.001029854523949325
-0.0008591877995058894,-0.013254232704639435,-0.0045808046124875546,0.018682748079299927,-0.0,-0.0010062995133921504
-0.0007825790089555085,-0.013710265047848225,-0.004987137857824564,0.018880819901823997,-0.0,-0.0009282793616876006
-0.0007825790089555085,-0.013710265047848225,-0.004987137857824564,0.018880819901823997,-0.0,-0.0009282793616876006
-0.0008046778384596109,-0.013833446428179741,-0.004996511619538069,0.018714487552642822,-0.0,-0.0009535912540741265
-0.0008190765511244535,-0.013478690758347511,-0.005275151692330837,0.01851685531437397,-0.0,-0.000982533791102469
-0.000712726206984371,-0.013801030814647675,-0.0055035874247550964,0.019005831331014633,-0.0,-0.001370420679450035
-0.000629591173492372,-0.013550913892686367,-0.004942064173519611,0.018959766253829002,-0.0,-0.0013229723554104567
-0.0005638125003315508,-0.013348089531064034,-0.004837556276470423,0.01880832575261593,-0.0,-0.001251112436875701
-0.0005104858428239822,-0.013128360733389854,-0.00483305100351572,0.018827693536877632,-0.0,-0.0012438626727089286
-0.0005168950301595032,-0.013864394277334213,-0.005118795670568943,0.01893068477511406,-0.0,-0.0011860397644340992
-0.0005004757549613714,-0.013021660037338734,-0.005567412357777357,0.01866276003420353,-0.0,-0.0011762817157432437
-0.00046394168748520315,-0.01319677010178566,-0.005127762909978628,0.01881822571158409,-0.0,-0.0011312768328934908
-0.0004321178130339831,-0.01251968089491129,-0.005201555788516998,0.018162531778216362,-0.0,-0.0011246581561863422
-0.0004043779626954347,-0.012984948232769966,-0.005086702760308981,0.01794354058802128,-0.0,-0.0011084357975050807
-0.0003799833357334137,-0.012882133945822716,-0.004941674880683422,0.018675802275538445,-0.0,-0.0010958550265058875
-0.00035836570896208286,-0.013280457817018032,-0.005149633623659611,0.018385201692581177,-0.0,-0.0012453054077923298
-0.0003390772908460349,-0.013238545507192612,-0.005505137145519257,0.01836501434445381,-0.0,-0.0012139640748500824
-0.00032175640808418393,-0.012724977917969227,-0.004790483508259058,0.01851978898048401,-0.0,-0.0011643387842923403
-0.0003061209281440824,-0.013198032043874264,-0.0045804730616509914,0.018301917240023613,-0.0,-0.001116425497457385
-0.000291936012217775,-0.01298991683870554,-0.0050062998197972775,0.01835828274488449,-0.0,-0.001088043674826622
-0.00027900529676117003,-0.013918694108724594,-0.00492310244590044,0.018703091889619827,-0.0,-0.0010566463461145759
-0.0002671722031664103,-0.01350894384086132,-0.004578179679811001,0.01821916177868843,-0.0,-0.001035901135765016
-0.0002563025045674294,-0.013704455457627773,-0.005102557595819235,0.01820738986134529,-0.0,-0.001149983610957861
-0.0002693718997761607,-0.013120762072503567,-0.005259145516902208,0.01831834577023983,-0.0,-0.0011355391470715404
-0.00026105259894393384,-0.013318189419806004,-0.004440346732735634,0.0187953170388937,-0.0,-0.0013862240593880415
-0.00025192066095769405,-0.013829297386109829,-0.0044361138716340065,0.01871320977807045,-0.0,-0.0012955416459590197
-0.000243404385400936,-0.013603451661765575,-0.004638414364308119,0.01859140582382679,-0.0,-0.001227073254995048
-0.0002354447788093239,-0.0141451396048069,-0.00484734820201993,0.01876547932624817,-0.0,-0.0010961010120809078
-0.0002354447788093239,-0.0141451396048069,-0.00484734820201993,0.01876547932624817,-0.0,-0.0010961010120809078
-0.0002279890759382397,-0.013193277642130852,-0.005116501823067665,0.01859278790652752,-3.2176382092075073e-07,-0.0010300427675247192
-0.00022099159832578152,-0.012999222613871098,-0.004816986154764891,0.018755685538053513,-2.1008878192674274e-08,-0.0010065360693261027
-0.0002144104364560917,-0.013514549471437931,-0.0048346915282309055,0.018678734079003334,-1.3717295077597669e-09,-0.0010080166393890977
-0.00020821021462325007,-0.01343904621899128,-0.004805321805179119,0.018144141882658005,-8.956413388716555e-11,-0.0011561816791072488
-0.00020235899137333035,-0.013701210729777813,-0.0047289221547544,0.01856294274330139,-5.847897686928061e-12,-0.0012310473248362541
-0.00019682638230733573,-0.013356500305235386,-0.005114457570016384,0.01860678941011429,-3.818258914340539e-13,-0.0014805113896727562
-0.00019158910436090082,-0.014049996621906757,-0.005060566123574972,0.018228691071271896,-2.4930500507969536e-14,-0.0016175148775801063
-0.00018662326328922063,-0.013407410122454166,-0.005427912808954716,0.018495552241802216,-1.6277834488035835e-15,-0.0015087833162397146
-0.00018190841365139931,-0.014008214697241783,-0.005053416360169649,0.01886562630534172,-1.0628261710959091e-16,-0.0014772232389077544
-0.00017742556519806385,-0.013499218970537186,-0.004816274158656597,0.017887502908706665,-6.939495264212554e-18,-0.0012622581562027335
-0.00017315871082246304,-0.013870973140001297,-0.004922442138195038,0.017517469823360443,-4.530994508617669e-19,-0.0011867809807881713
-0.00016909214900806546,-0.01334275584667921,-0.005317017436027527,0.017260879278182983,-2.9584156613224516e-20,-0.0011300445767119527
-0.00016521215729881078,-0.013642917387187481,-0.005300974939018488,0.017621498554944992,-1.9316339435796775e-21,-0.0009660536306910217
-0.00011838183127110824,-0.013321558944880962,-0.005325544159859419,0.01797967217862606,-1.2612188245815943e-22,-0.0010103683453053236
-0.00010996704804711044,-0.013237133622169495,-0.004590435419231653,0.017779724672436714,-8.234857458451535e-24,-0.0010586255230009556
-0.00010727142944233492,-0.013270938768982887,-0.004658749792724848,0.017695380374789238,-5.376773378068738e-25,-0.0014932990306988358
-0.00010477292380528525,-0.013383133336901665,-0.005066032987087965,0.01711704209446907,-3.5106485812800205e-26,-0.0016099173808470368
-0.00010238914546789601,-0.013718666508793831,-0.004932237323373556,0.017325686290860176,-2.2922025308388226e-27,-0.0015467924531549215
-0.00010011123958975077,-0.013404333963990211,-0.0050945281982421875,0.01765083149075508,-1.4966444931256959e-28,-0.0015487244818359613
-9.584679355612025e-05,-0.013341814279556274,-0.004842780530452728,0.018064845353364944,-6.380429581602289e-31,-0.001433106604963541
-9.3847957032267e-05,-0.01373432856053114,-0.004821836482733488,0.01751529425382614,-4.1659643220048706e-32,-0.0015012020012363791
-9.193068399326876e-05,-0.013051912188529968,-0.004762799013406038,0.016729246824979782,-2.720076846400488e-33,-0.001493189251050353
-7.418025779770687e-05,-0.01341690681874752,-0.005178888328373432,0.01676001586019993,-1.776015958543378e-34,-0.0017646400956436992
-7.068595732562244e-05,-0.013236897066235542,-0.005187665112316608,0.016590049490332603,-1.1596115452547257e-35,-0.001738789607770741
-7.068595732562244e-05,-0.013236897066235542,-0.005187665112316608,0.016590049490332603,-1.1596115452547257e-35,-0.001738789607770741
-6.929805385880172e-05,-0.01352560892701149,-0.004707201384007931,0.017204662784934044,-7.571435774761701e-37,-0.0018473872914910316
-6.798896356485784e-05,-0.01325016189366579,-0.004882132634520531,0.017220910638570786,-4.943606660608993e-38,-0.0017279150197282434
-6.672873860225081e-05,-0.013529939576983452,-0.004862034227699041,0.01729855127632618,-3.227820947649e-39,-0.0016314464155584574
-6.551461410708725e-05,-0.012982056476175785,-0.004860607907176018,0.01756744645535946,-2.1075388773598816e-40,-0.0015807446325197816
-6.434351962525398e-05,-0.013205553404986858,-0.0047394149005413055,0.017023252323269844,4.812989573110826e-06,-0.0014032553881406784
-6.32138762739487e-05,-0.013286978006362915,-0.005223775282502174,0.016249874606728554,0.00013746024342253804,-0.0013354899128898978
-6.212315201992169e-05,-0.01296235341578722,-0.0050938124768435955,0.01709725148975849,0.00014179055870044976,-0.0013486772077158093
-6.106926593929529e-05,-0.013244128786027431,-0.004768368788063526,0.01811407506465912,0.0001515520561952144,-0.0015464542666450143
-6.0050628235330805e-05,-0.012989865615963936,-0.004664052277803421,0.017848609015345573,0.00015980639727786183,-0.001656514243222773
-5.9065419918624684e-05,-0.013054640032351017,-0.00473235547542572,0.017316890880465508,0.00015602109488099813,-0.0018798216478899121
-5.811200389871374e-05,-0.012962998822331429,-0.004797639790922403,0.017110904678702354,0.0001516924676252529,-0.0019248408498242497
-5.7188881328329444e-05,-0.013241011649370193,-0.005056803580373526,0.016735931858420372,0.00017049175221472979,-0.0017131991917267442
-5.6294586102012545e-05,-0.01250721886754036,-0.005242919083684683,0.01658814214169979,0.00016745636821724474,-0.0016582142561674118
-5.45874354429543e-05,-0.01266442984342575,-0.005071439314633608,0.016327407211065292,0.000181726340088062,-0.0015898016281425953
-5.45874354429543e-05,-0.01266442984342575,-0.005071439314633608,0.016327407211065292,0.000181726340088062,-0.0015898016281425953
-5.377212801249698e-05,-0.012757900170981884,-0.0050629074685275555,0.01653384044766426,0.00038244013558141887,-0.0017045739805325866
-5.2980798500357196e-05,-0.013017602264881134,-0.004834877792745829,0.01623465307056904,0.00037928426172584295,-0.0022003354970365763
-5.221241372055374e-05,-0.013119853101670742,-0.004794369451701641,0.016697505488991737,0.0004122283135075122,-0.002321734791621566
-5.1465995056787506e-05,-0.01297742035239935,-0.005284064915031195,0.017203547060489655,0.0004224194854032248,-0.0022619774099439383
-5.0740723963826895e-05,-0.012390230782330036,-0.005022758152335882,0.016384679824113846,0.0004235312808305025,-0.002112988382577896
-5.003547266824171e-05,-0.012883861549198627,-0.004805718548595905,0.016663752496242523,0.0004478988121263683,-0.001800487283617258
-4.934958997182548e-05,-0.012354397214949131,-0.0051034484058618546,0.0161637794226408,0.00043067167280241847,-0.001641589216887951
-4.8682304623071104e-05,-0.01293068565428257,-0.005105368793010712,0.01628979668021202,0.0005683097988367081,-0.0013410596875473857
-4.740034637507051e-05,-0.012034300714731216,-0.005658555775880814,0.01625967212021351,0.0006001825677230954,-0.0013323803432285786
-4.678433469962329e-05,-0.012562766671180725,-0.005126864183694124,0.01655557192862034,0.0005850151646882296,-0.0017236515413969755
-4.61841955257114e-05,-0.011690564453601837,-0.00490820687264204,0.016631150618195534,0.000609063368756324,-0.002422151854261756
-3.465310510364361e-05,-0.01259423978626728,-0.005208258517086506,0.01634754240512848,0.0006991074769757688,-0.00264597125351429
-3.377774919499643e-05,-0.012570364400744438,-0.0049753328785300255,0.015776660293340683,0.0007396623841486871,-0.0025076346937566996
-3.377774919499643e-05,-0.012570364400744438,-0.0049753328785300255,0.015776660293340683,0.0007396623841486871,-0.0025076346937566996
-3.3354579500155523e-05,-0.0122484490275383,-0.005476581398397684,0.016468768939375877,0.0006782462587580085,-0.0020985621958971024
-3.2947471481747925e-05,-0.01215586718171835,-0.005302200093865395,0.016472233459353447,0.0006976196891628206,-0.0015224587405100465
-3.2550298783462495e-05,-0.011934914626181126,-0.005137613043189049,0.016986504197120667,0.0006998076569288969,-0.0014493438648059964
-3.216256300220266e-05,-0.012389144860208035,-0.005423723254352808,0.016068529337644577,0.0006595813320018351,-0.0014263975899666548
-3.1783969461685047e-05,-0.011969615705311298,-0.005156234838068485,0.015403324738144875,0.0006874534883536398,-0.0015846072928979993
-3.141420165775344e-05,-0.012107672169804573,-0.0052688405849039555,0.01554542500525713,0.000707069004420191,-0.0021106030326336622
-3.105287760263309e-05,-0.012110005132853985,-0.005285346880555153,0.015430332161486149,0.0006379305850714445,-0.002394695533439517
-3.069983722525649e-05,-0.012124492786824703,-0.0049823252484202385,0.015365359373390675,0.000659555196762085,-0.0024581339675933123
-3.0354702175827697e-05,-0.012052427046000957,-0.005193410441279411,0.01511817891150713,0.0006022569141350687,-0.0021602408960461617
-3.0066867111600004e-05,-0.01149781420826912,-0.005215299781411886,0.015187019482254982,0.0006229515420272946,-0.0018175687873736024
3.407641997910105e-05,-0.011779239401221275,-0.00529013155028224,0.015003296546638012,0.0005827905843034387,-0.0016372472746297717
3.428028867347166e-05,-0.011634956113994122,-0.005048989783972502,0.01580985076725483,0.0005700777401216328,-0.001611243700608611
3.365086377016269e-05,-0.011799290776252747,-0.005674470216035843,0.015077936463057995,0.0005970252677798271,-0.0018136599101126194
3.303352787042968e-05,-0.011934740468859673,-0.005349339451640844,0.015207821503281593,0.0005924957804381847,-0.0022294747177511454
3.243822720833123e-05,-0.011624876409769058,-0.005306570790708065,0.014918609522283077,0.0005785392713733017,-0.0023073412012308836
3.186400135746226e-05,-0.012342993170022964,-0.005358648952096701,0.015247129835188389,0.0006029147771187127,-0.0023340960033237934
4.513543171924539e-05,-0.011799579486250877,-0.005118657369166613,0.014937975443899632,0.0006480117444880307,-0.0021391597110778093
4.5385491830529645e-05,-0.011707843281328678,-0.005463988520205021,0.014977378770709038,0.0006702131940983236,-0.002196852583438158
4.4635500671574846e-05,-0.011570518836379051,-0.0055251456797122955,0.015024335123598576,0.0006758393719792366,-0.00219636014662683
4.39096984337084e-05,-0.012234076857566833,-0.005148261319845915,0.014803603291511536,0.0006310213357210159,-0.0022824197076261044
4.320700827520341e-05,-0.011859976686537266,-0.004873553290963173,0.014639580622315407,0.0006456261617131531,-0.0022479863837361336
4.252650251146406e-05,-0.012134685181081295,-0.0050979130901396275,0.014607521705329418,0.0006013719830662012,-0.002309099305421114
4.252650251146406e-05,-0.012134685181081295,-0.0050979130901396275,0.014607521705329418,0.0006013719830662012,-0.002309099305421114
4.186708611086942e-05,-0.011923817917704582,-0.005754703190177679,0.014776088297367096,0.0006165732629597187,-0.0021582948975265026
5.442238034447655e-05,-0.011881818063557148,-0.00587642565369606,0.014923139475286007,0.0005523613072000444,-0.002276192419230938
5.4136380640557036e-05,-0.01237801369279623,-0.005197394173592329,0.01453693863004446,0.00058384845033288,-0.0021496943663805723
5.3341398597694933e-05,-0.011685425415635109,-0.005423356778919697,0.014501649886369705,0.000532247475348413,-0.0020654972176998854
5.2562711061909795e-05,-0.011446983553469181,-0.005263954866677523,0.01452100370079279,0.0005598048446699977,-0.0020936685614287853
5.180632069823332e-05,-0.01133221760392189,-0.005599780473858118,0.014350171200931072,0.0005729886470362544,-0.00204946706071496
6.234973261598498e-05,-0.011635453440248966,-0.00576586602255702,0.014293821528553963,0.0005466357688419521,-0.002027111826464534
6.292633042903617e-05,-0.012167321518063545,-0.005916606169193983,0.01396667119115591,0.0005745806265622377,-0.002074258401989937
6.207767728483304e-05,-0.011751135811209679,-0.005388964898884296,0.014092393219470978,0.0005202012835070491,-0.0024055305402725935
6.12332732998766e-05,-0.01194645743817091,-0.005035073030740023,0.014263179153203964,0.0005351549480110407,-0.0027265087701380253
0.00014319104957394302,-0.01164303719997406,-0.005825044587254524,0.014095020480453968,0.0005059873219579458,-0.0025268697645515203
0.0001787436194717884,-0.012960270047187805,-0.006518391892313957,0.013792911544442177,0.0005356647307053208,-0.002519398694857955
0.00017244782065972686,-0.011134826578199863,-0.0056018042378127575,0.013935890980064869,0.0005594850517809391,-0.0023152451030910015
0.0001660902489675209,-0.010554049164056778,-0.005269001703709364,0.013607467524707317,0.0006407334003597498,-0.0022441509645432234
0.000188435340533033,-0.011430414393544197,-0.005441456567496061,0.013591766357421875,0.0006835060776211321,-0.0023711861576884985
0.00018555649148765951,-0.012011288665235043,-0.0051956200040876865,0.013223022222518921,0.0006832145736552775,-0.002568503376096487
0.00017943879356607795,-0.011573879979550838,-0.005929803941398859,0.01324111595749855,0.0006588967517018318,-0.002565467730164528
0.00019268118194304407,-0.011596591211855412,-0.005273142829537392,0.01279769092798233,0.0006729786400683224,-0.002629626542329788
0.00019616729696281254,-0.011198975145816803,-0.004542948678135872,0.013591697439551353,0.0007190061151050031,-0.0026559995021671057
0.00021436327369883657,-0.011374729685485363,-0.004582751076668501,0.013001304119825363,0.0008012854377739131,-0.002534326398745179
0.00021113963157404214,-0.011453305371105671,-0.004825322888791561,0.012901322916150093,0.000787966011557728,-0.002527698175981641
0.0002051640913123265,-0.011450309306383133,-0.005862509366124868,0.012905668467283249,0.0007996736094355583,-0.002594712423160672
0.00019948085537180305,-0.011925066821277142,-0.005351716186851263,0.013278564438223839,0.000898322556167841,-0.002516820328310132
0.00019948085537180305,-0.011925066821277142,-0.005351716186851263,0.013278564438223839,0.000898322556167841,-0.002516820328310132
0.00035213338560424745,-0.01136745885014534,-0.004674592986702919,0.012923306785523891,0.0009962784824892879,-0.0026883778627961874
0.0003327005833853036,-0.011213860474526882,-0.0051974160596728325,0.012532546184957027,0.0010788101935759187,-0.0025890611577779055
0.0003476111451163888,-0.011429185047745705,-0.00555031094700098,0.013140805996954441,0.0010658269748091698,-0.002470451407134533
0.0003453522513154894,-0.010789358988404274,-0.005285121500492096,0.013024162501096725,0.0010392885887995362,-0.0024147890508174896
0.0003688526339828968,-0.01059719081968069,-0.004666267894208431,0.013086637482047081,0.001019210321828723,-0.002538353204727173
0.0003688526339828968,-0.01059719081968069,-0.004666267894208431,0.013086637482047081,0.001019210321828723,-0.002538353204727173
0.0005049867322668433,-0.010839019902050495,-0.005443186964839697,0.012819429859519005,0.001063388423062861,-0.0024450926575809717
0.0005049867322668433,-0.010839019902050495,-0.005443186964839697,0.012819429859519005,0.001063388423062861,-0.0024450926575809717
0.0005413914914242923,-0.010903759859502316,-0.005148669704794884,0.012237712740898132,0.0010566978016868234,-0.0026900507509708405
0.0005012515466660261,-0.010715796612203121,-0.004887784831225872,0.011992748826742172,0.0010373855475336313,-0.0029349783435463905
0.0005259954486973584,-0.009819957427680492,-0.004780140705406666,0.012509409338235855,0.0010442787315696478,-0.003013288602232933
0.0005392052698880434,-0.010418463498353958,-0.004783499054610729,0.011919061653316021,0.0010464846855029464,-0.002853250131011009
0.0005243482301011682,-0.010597595945000648,-0.005148364696651697,0.011825758963823318,0.0010259809205308557,-0.0027011798229068518
0.0006634353194385767,-0.010535011067986488,-0.005457388702780008,0.011778702028095722,0.001009407453238964,-0.00257920753210783
0.0006917815189808607,-0.010839586146175861,-0.004800986032932997,0.011677077040076256,0.001003118115477264,-0.00247750012204051
0.0006171169807203114,-0.009863605722784996,-0.005013090558350086,0.012091446667909622,0.0009650717256590724,-0.002657516859471798
0.0006447694031521678,-0.010946783237159252,-0.005553583614528179,0.01185870636254549,0.0008832134190015495,-0.0028924148064106703
0.0006405399763025343,-0.010669711045920849,-0.0051771849393844604,0.012040850706398487,0.0008719409233890474,-0.00298599386587739
0.0006123327766545117,-0.00977806281298399,-0.0049263969995081425,0.011540268547832966,0.0008600133005529642,-0.003012153087183833
0.0006365693989209831,-0.010055222548544407,-0.00478754285722971,0.01169565785676241,0.0008358104969374835,-0.0031042522750794888
0.0006660534418188035,-0.01042165420949459,-0.004754349589347839,0.012202829122543335,0.0008728641550987959,-0.0031687505543231964
0.0006038953433744609,-0.01055897306650877,-0.005213011987507343,0.01151260081678629,0.0008784919627942145,-0.003108413890004158
0.0006227691192179918,-0.01008309330791235,-0.005700202193111181,0.012255416251718998,0.0008812727173790336,-0.0029178292024880648
0.000575708516407758,-0.010012781247496605,-0.005102082155644894,0.011652011424303055,0.0009817186510190368,-0.0027146870270371437
0.0007956778281368315,-0.009779596701264381,-0.004770311061292887,0.011560510843992233,0.0009389682090841234,-0.00292130745947361
0.0009318420779891312,-0.009890957735478878,-0.004941355437040329,0.01114701945334673,0.0009313016198575497,-0.0030113793909549713
0.0018077761633321643,-0.009656968526542187,-0.00573427090421319,0.011187386699020863,0.0008748222608119249,-0.0033746392000466585
0.0017809534911066294,-0.00890961941331625,-0.0054324050433933735,0.010529912076890469,0.0008355203317478299,-0.0036813539918512106
0.0014872098108753562,-0.0098424656316638,-0.0049605476669967175,0.010683390311896801,0.0008383998647332191,-0.0038979272358119488
0.0014872098108753562,-0.0098424656316638,-0.0049605476669967175,0.010683390311896801,0.0008383998647332191,-0.0038979272358119488
0.0012120287865400314,-0.00941520556807518,-0.004634310491383076,0.010839405469596386,0.0008463647682219744,-0.0034900852479040623
0.0013097446644678712,-0.009265937842428684,-0.005094452761113644,0.010040353052318096,0.0008528033504262567,-0.0033642228227108717
0.0012830753112211823,-0.008768193423748016,-0.00505139259621501,0.009523562155663967,0.0009509090450592339,-0.003264061873778701
0.0015788320451974869,-0.008649705909192562,-0.005421486683189869,0.010739204473793507,0.0009624521480873227,-0.0030865550506860018
0.00215729558840394,-0.008431863971054554,-0.005248499568551779,0.011086116544902325,0.0010194418719038367,-0.0034292417112737894
0.002290504751726985,-0.008067681454122066,-0.0050547756254673,0.010553868487477303,0.0010840577306225896,-0.003872268833220005
0.002222389215603471,-0.008539154194295406,-0.004817414563149214,0.009805874899029732,0.0012459058780223131,-0.003958927001804113
0.0020421233493834734,-0.007686205208301544,-0.004948080983012915,0.009484135545790195,0.0012492401292547584,-0.0039063068106770515
0.0016535143367946148,-0.008261854760348797,-0.004944916814565659,0.00991449411958456,0.001243076752871275,-0.0034438164439052343
0.0016584089025855064,-0.008534213528037071,-0.00505025452002883,0.009557007811963558,0.0010880581103265285,-0.003547105472534895
0.0020973363425582647,-0.007941149175167084,-0.004874699283391237,0.00861369539052248,0.0010454201838001609,-0.0033972773235291243
0.0022315657697618008,-0.007406409829854965,-0.00452939048409462,0.008868035860359669,0.0010105777764692903,-0.003448491683229804
0.002772284671664238,-0.007575110532343388,-0.004973383154720068,0.00835872907191515,0.000977653544396162,-0.0034267541486769915
0.002815755782648921,-0.007620610296726227,-0.0049368697218596935,0.008381018415093422,0.0008773619192652404,-0.0032824359368532896
0.0024963209871202707,-0.007294758688658476,-0.0047894613817334175,0.007900122553110123,0.0008570076897740364,-0.0034876903519034386
0.0025511838030070066,-0.007319302763789892,-0.004516214597970247,0.008115915581583977,0.0008613993413746357,-0.003771114395931363
0.0027367440052330494,-0.007605338469147682,-0.004926534369587898,0.007677295245230198,0.0008660124731250107,-0.003909572958946228
0.002875984413549304,-0.007725066039711237,-0.00530241196975112,0.008104550652205944,0.0009076001588255167,-0.003899255068972707
0.002817916451022029,-0.007527296897023916,-0.0050578941591084,0.008154184557497501,0.0009371250052936375,-0.0038834745064377785
0.002898857230320573,-0.007235921453684568,-0.004807967226952314,0.00866719614714384,0.0008647011127322912,-0.0034806050825864077
0.0028362860903143883,-0.00803784653544426,-0.004675780422985554,0.008171485736966133,0.000865021429490298,-0.003581719473004341
0.0031207434367388487,-0.007857278920710087,-0.004636671859771013,0.007500137202441692,0.0008688856614753604,-0.003310374217107892
0.003348809666931629,-0.007618974894285202,-0.00591515377163887,0.008168607950210571,0.0009411194478161633,-0.0035510463640093803
0.0031944478396326303,-0.007083580829203129,-0.005262765567749739,0.007649126462638378,0.0009904468897730112,-0.004112867638468742
0.0033118589781224728,-0.007075438275933266,-0.004901817999780178,0.007430924568325281,0.0012611041311174631,-0.004219832364469767
0.00340119912289083,-0.00701944762840867,-0.004789701197296381,0.007633511442691088,0.0012261249357834458,-0.003984047565609217
0.0036110514774918556,-0.006765591446310282,-0.004772490821778774,0.007092822343111038,0.0011716893641278148,-0.0037765437737107277
0.0036110514774918556,-0.006765591446310282,-0.004772490821778774,0.007092822343111038,0.0011716893641278148,-0.0037765437737107277
0.003748431568965316,-0.006806555204093456,-0.005591208580881357,0.00674012117087841,0.0010758810676634312,-0.003695151535794139
0.0036966910120099783,-0.007060743402689695,-0.005312296561896801,0.00682285288348794,0.0009537014411762357,-0.003312061307951808
0.0037015113048255444,-0.0074160778895020485,-0.005196516402065754,0.0073412503115832806,0.0009380673291161656,-0.0034409661311656237
0.004005186725407839,-0.006910719443112612,-0.004927655216306448,0.007398541551083326,0.0009224900277331471,-0.0037196017801761627
0.0040175337344408035,-0.006720436736941338,-0.004866519942879677,0.007228754460811615,0.0009036115952767432,-0.0038664541207253933
0.003910042345523834,-0.006901747081428766,-0.005776423495262861,0.00679581705480814,0.0008694504504092038,-0.0039120144210755825
0.004260511137545109,-0.007123212795704603,-0.005557338707149029,0.007496888283640146,0.0008994964882731438,-0.004324853885918856
0.004520634654909372,-0.006555205676704645,-0.005213552620261908,0.007802300155162811,0.0009102490730583668,-0.004173464607447386
0.00431522773578763,-0.0069087231531739235,-0.0047964248806238174,0.0072127440944314,0.0009180495981127024,-0.003717276034876704
0.004530796315521002,-0.006914876401424408,-0.004688789136707783,0.006887716706842184,0.0011500362306833267,-0.0034433847758919
0.0043325889855623245,-0.006720507517457008,-0.005395045503973961,0.0072947279550135136,0.001161282416433096,-0.003616573754698038
0.004179646261036396,-0.006690406706184149,-0.005822937004268169,0.007931549102067947,0.001122904708608985,-0.0039027875754982233
0.0045463694259524345,-0.006688643246889114,-0.005277903284877539,0.0074028330855071545,0.001097788568586111,-0.004001416731625795
0.004734628368169069,-0.00710053788498044,-0.004575501196086407,0.007071911823004484,0.0010771737433969975,-0.00440412200987339
0.0048520187847316265,-0.007172768469899893,-0.004598924890160561,0.007122001610696316,0.001048147794790566,-0.004570930730551481
0.0045576090924441814,-0.007043852470815182,-0.005142897833138704,0.007220493629574776,0.0011674333363771439,-0.004250265192240477
0.004284220281988382,-0.006936183199286461,-0.0055070254020392895,0.007118988782167435,0.0012243310920894146,-0.004272627178579569
0.004359854385256767,-0.007403580471873283,-0.005477034021168947,0.006944221910089254,0.0012626972747966647,-0.004108833614736795
0.004993107635527849,-0.006866971496492624,-0.004972842521965504,0.006816261913627386,0.001284519792534411,-0.004316096194088459
0.0056275189854204655,-0.006609792355448008,-0.004840852227061987,0.006993529852479696,0.0013807929353788495,-0.004461000673472881
0.005373633000999689,-0.006726196501404047,-0.005734446458518505,0.006191179156303406,0.0013494358863681555,-0.004559981171041727
0.004981038626283407,-0.007233325392007828,-0.005395730957388878,0.005307361483573914,0.0012923358008265495,-0.004448827356100082
0.005321507342159748,-0.00706924544647336,-0.0059173996560275555,0.0059117516502738,0.0012180666672065854,-0.00435507670044899
0.005235731136053801,-0.007301191333681345,-0.004854430444538593,0.006295659579336643,0.0011656909482553601,-0.0044242204166948795
0.005126780830323696,-0.0067344410344958305,-0.00471809646114707,0.005860127508640289,0.0011142821749672294,-0.004119984805583954
0.005796576850116253,-0.007141735404729843,-0.0056615713983774185,0.005632257554680109,0.0011193582322448492,-0.0039689247496426105
0.005479434970766306,-0.007217890117317438,-0.005747966468334198,0.005430557299405336,0.0011183886090293527,-0.004032510798424482
0.00575552461668849,-0.0067676217295229435,-0.005609916057437658,0.006142466329038143,0.0015444231685250998,-0.004551519174128771
0.00575552461668849,-0.0067676217295229435,-0.005609916057437658,0.006142466329038143,0.0015444231685250998,-0.004551519174128771
0.005385096184909344,-0.006639584433287382,-0.005207883659750223,0.005895562469959259,0.0015005815075710416,-0.004863773938268423
0.005262134131044149,-0.007261183578521013,-0.0054806931875646114,0.005475147161632776,0.001641883747652173,-0.005052509251981974
0.005784941371530294,-0.00695995707064867,-0.005603410303592682,0.004905565641820431,0.0015524178743362427,-0.004367852117866278
0.006027147173881531,-0.006583718582987785,-0.005321897566318512,0.004626666195690632,0.0014971705386415124,-0.004280328284949064
0.006146342493593693,-0.00631289416924119,-0.005158506333827972,0.005059333518147469,0.0014781442005187273,-0.004168903920799494
0.005429173354059458,-0.006569020915776491,-0.005333606153726578,0.0052613988518714905,0.0014660805463790894,-0.005125115625560284
0.0054809716530144215,-0.006601647473871708,-0.005666451994329691,0.005691970698535442,0.0014192407252267003,-0.005082574672996998
0.006253114435821772,-0.006551168393343687,-0.005589271895587444,0.005139841698110104,0.0013396928552538157,-0.004801501054316759
0.006533874198794365,-0.006178795825690031,-0.005481742322444916,0.004567378666251898,0.0013381900498643517,-0.0047318278811872005
0.0063513764180243015,-0.00650907214730978,-0.005091296508908272,0.004563046153634787,0.0012650827411562204,-0.004259421490132809
0.005597726907581091,-0.006597177125513554,-0.0046895635314285755,0.004912764299660921,0.001333047286607325,-0.004360497463494539
0.005995465908199549,-0.006422501988708973,-0.00541956489905715,0.005162352230399847,0.0013384746853262186,-0.004675157368183136
0.006209002807736397,-0.006763899233192205,-0.005335117690265179,0.005804527085274458,0.001609724247828126,-0.004898137878626585
0.006326735485345125,-0.006397502962499857,-0.004990346264094114,0.005321388132870197,0.0016320801805704832,-0.00501841027289629
0.006653670221567154,-0.006042384076863527,-0.0049933078698813915,0.0043860855512320995,0.001551528344862163,-0.004993992391973734
0.005950372200459242,-0.0060397787019610405,-0.004848923534154892,0.003911565523594618,0.0016043157083913684,-0.004966919310390949
0.006970538757741451,-0.006603137589991093,-0.0056901597417891026,0.004091958981007338,0.00154343422036618,-0.004146667197346687
0.006907353177666664,-0.0059601315297186375,-0.005392333026975393,0.004410633817315102,0.0016005937941372395,-0.0046883984468877316
0.006482494529336691,-0.006796490866690874,-0.004729000851511955,0.00454108789563179,0.001804626313969493,-0.004721797537058592
0.0061994995921850204,-0.006299990229308605,-0.004191202577203512,0.004741268698126078,0.0018347770674154162,-0.004968557041138411
0.006601876579225063,-0.005808967165648937,-0.004423858132213354,0.0045710233971476555,0.001652692211791873,-0.0055761029943823814
0.0067122927866876125,-0.005953698884695768,-0.005226984620094299,0.003614365356042981,0.0016126782866194844,-0.0052748629823327065
0.0067122927866876125,-0.005953698884695768,-0.005226984620094299,0.003614365356042981,0.0016126782866194844,-0.0052748629823327065
0.006534095853567123,-0.006163007114082575,-0.004797914996743202,0.003273426555097103,0.0014502526028081775,-0.005001895595341921
0.006450791377574205,-0.005632143002003431,-0.004520802292972803,0.003102622227743268,0.001396980951540172,-0.004930406343191862
0.007014366798102856,-0.005833797622472048,-0.004507771227508783,0.003296639071777463,0.0015380822587758303,-0.005114536266773939
0.007014366798102856,-0.005833797622472048,-0.004507771227508783,0.003296639071777463,0.0015380822587758303,-0.005114536266773939
0.007320707198232412,-0.0054354798048734665,-0.004929308779537678,0.0028851679526269436,0.0015369657194241881,-0.005671755876392126
0.007336413022130728,-0.005271392408758402,-0.005346444435417652,0.0024908152408897877,0.0015639506746083498,-0.00586642837151885
0.006958541925996542,-0.00551357539370656,-0.0050992295145988464,0.002570539712905884,0.0014325843658298254,-0.005567506887018681
0.0073841651901602745,-0.006040970794856548,-0.0046428232453763485,0.003091315273195505,0.001495041185989976,-0.005280114244669676
0.007569978944957256,-0.005476620979607105,-0.0049109444953501225,0.0030598484445363283,0.001431788201443851,-0.004972354043275118
0.007516622543334961,-0.005299722775816917,-0.005505191162228584,0.002659757621586323,0.001641260925680399,-0.004776171408593655
0.007695862557739019,-0.005070824641734362,-0.005331350024789572,0.002430568914860487,0.0016241477569565177,-0.005512855015695095
0.007182902656495571,-0.005404297728091478,-0.004805911798030138,0.002075721975415945,0.0019404696067795157,-0.0055647906847298145
0.00803293939679861,-0.005579822696745396,-0.004600430838763714,0.0017553293146193027,0.0018536032875999808,-0.0059303417801856995
0.007256838958710432,-0.005420333240181208,-0.00491028418764472,0.001749649178236723,0.0019237174419686198,-0.005477021913975477
0.006985715124756098,-0.005638362839818001,-0.005879655946046114,0.0019147550920024514,0.0018271968001499772,-0.0056352876126766205
0.007221956271678209,-0.00526422867551446,-0.00532173179090023,0.0018421390559524298,0.002013220451772213,-0.005577660631388426
0.005395714193582535,-0.004731001332402229,-0.004873550962656736,0.0019579450599849224,0.002005812944844365,-0.005851369816809893
0.0048104277811944485,-0.004663384053856134,-0.004612456541508436,0.001888343715108931,0.0019785622134804726,-0.005620254669338465
0.004954104777425528,-0.004977150820195675,-0.005104209296405315,0.0015695259207859635,0.0018164778593927622,-0.005349214654415846
0.00572514533996582,-0.005602334626019001,-0.005452294368296862,0.0015047676861286163,0.0016880312468856573,-0.005092493258416653
0.005839838180691004,-0.005285785999149084,-0.00579924788326025,0.0014456354547291994,0.0017068750457838178,-0.0056385803036391735
0.00559249660000205,-0.004647352267056704,-0.00488683395087719,0.001357048167847097,0.0019197213696315885,-0.00590230617672205
0.005727708339691162,-0.0053823054768145084,-0.004841051064431667,0.0013584981206804514,0.0021032842341810465,-0.005432465113699436
0.005266609601676464,-0.005308660678565502,-0.005328929051756859,0.0015713439788669348,0.0019231752958148718,-0.005292894784361124
0.005768998991698027,-0.005306372418999672,-0.006209969520568848,0.0014351140707731247,0.001664376468397677,-0.005398074630647898
0.0058969296514987946,-0.004568872973322868,-0.005294486880302429,0.00120886682998389,0.0015326648717746139,-0.005728365853428841
0.00567919434979558,-0.004519240465015173,-0.0048919664695858955,0.0011211237870156765,0.0014075471553951502,-0.005953364539891481
0.00605632271617651,-0.0042057461105287075,-0.005272002890706062,0.000997203984297812,0.001219955156557262,-0.006405675783753395
0.005885516293346882,-0.004187594633549452,-0.005218074657022953,0.0008774725720286369,0.0012952829711139202,-0.005792644806206226
0.006285322830080986,-0.004197252914309502,-0.005379475187510252,0.0007824645726941526,0.0015260035870596766,-0.005751737393438816
0.006285322830080986,-0.004197252914309502,-0.005379475187510252,0.0007824645726941526,0.0015260035870596766,-0.005751737393438816
0.006208011414855719,-0.004376549739390612,-0.005027174483984709,0.0005822411039844155,0.0019402619218453765,-0.00592394033446908
0.00653444416821003,-0.004063532687723637,-0.004369007423520088,0.0005095711094327271,0.0021449578925967216,-0.006019148509949446
0.00641239620745182,-0.004374983720481396,-0.004939031321555376,0.0004572653560899198,0.002213079249486327,-0.00638812268152833
0.006292426493018866,-0.004264202434569597,-0.005468468647450209,0.00041500863153487444,0.00209804461337626,-0.00580569077283144
0.006357019301503897,-0.004415745381265879,-0.005308404564857483,0.0003799294354394078,0.0019587997812777758,-0.005784153938293457
0.006750627886503935,-0.0040926518850028515,-0.005345118697732687,0.0003503240004647523,0.001850151689723134,-0.006098715588450432
0.006711461115628481,-0.003976025618612766,-0.004973460920155048,0.00032500168890692294,0.0019417095463722944,-0.00603743689134717
0.006682869046926498,-0.0038884193636476994,-0.004775485023856163,0.0003325474390294403,0.002582949586212635,-0.00609990768134594
0.0065661026164889336,-0.003879417199641466,-0.005031991750001907,0.00033871791674755514,0.00265330309048295,-0.005885500926524401
0.0072254943661391735,-0.00409572571516037,-0.005365592893213034,0.0003203841915819794,0.002444295212626457,-0.0055593689903616905
0.006896678823977709,-0.004017441067844629,-0.005548633635044098,0.00030254325247369707,0.0021001764107495546,-0.005661368370056152
0.006679394282400608,-0.00373367709107697,-0.005057969130575657,0.0002864935959223658,0.002002763794735074,-0.005942909978330135
0.006631888914853334,-0.003477150574326515,-0.004479861352592707,0.00027205521473661065,0.0017994242953136563,-0.005944055505096912
0.007312489207834005,-0.003460243809968233,-0.004623154178261757,0.0002590035437606275,0.0017814874881878495,-0.005855850875377655
0.007235840894281864,-0.0036769420839846134,-0.00559632433578372,0.0002471460902597755,0.001976738218218088,-0.006066054571419954
0.007009199820458889,-0.004070945084095001,-0.005425647832453251,0.00023632725060451776,0.0020148607436567545,-0.00567164272069931
0.007624160964041948,-0.0036251225974410772,-0.0048950775526463985,0.0002173033426515758,0.002065082546323538,-0.005854646675288677
0.007597760297358036,-0.0034108227118849754,-0.004744735546410084,0.00020889639563392848,0.002016379963606596,-0.006160590797662735
0.00757744861766696,-0.003527608932927251,-0.005266157910227776,0.0002011145988944918,0.0019203427946195006,-0.0057241590693593025
0.007010461296886206,-0.003791265655308962,-0.005192509852349758,0.00019389238150324672,0.0019748606719076633,-0.005997936241328716
0.008067618124186993,-0.003781562903895974,-0.005049542523920536,0.00018717088096309453,0.001974852290004492,-0.006260032765567303
0.007983094081282616,-0.0038448814302682877,-0.004960307851433754,0.00016611891624052078,0.00219738925807178,-0.006285894196480513
0.007652496453374624,-0.003834232920780778,-0.005293588154017925,0.0001468666159780696,0.0022694433573633432,-0.006130416411906481
0.007652496453374624,-0.003834232920780778,-0.005293588154017925,0.0001468666159780696,0.0022694433573633432,-0.006130416411906481
0.007542374078184366,-0.0038314261473715305,-0.005561047699302435,0.00014134887896943837,0.0022787945345044136,-0.006259665824472904
0.007587332744151354,-0.0038364341016858816,-0.005156076047569513,0.00013698672410100698,0.0023651164956390858,-0.006148303858935833
0.008082925342023373,-0.003920526243746281,-0.004884614143520594,0.00013293561642058194,0.0021406353916972876,-0.006045734975486994
0.00804744753986597,-0.003928511869162321,-0.005188022740185261,0.00012912081729155034,0.001984726870432496,-0.006307133939117193
0.007608132902532816,-0.0035017540212720633,-0.005185392219573259,0.00010692040814319625,0.0019194032065570354,-0.005879909731447697
0.0082683265209198,-0.0031332646030932665,-0.005243474151939154,9.811486961552873e-05,0.0020875437185168266,-0.005903242621570826
0.008430812507867813,-0.0034444122575223446,-0.005132707767188549,9.513680561212823e-05,0.0023368068505078554,-0.006065817549824715
0.007690193597227335,-0.0037597231566905975,-0.004888690076768398,9.266290726372972e-05,0.0022838038858026266,-0.006240334827452898
0.007814857177436352,-0.0033814001362770796,-0.004989145323634148,6.926440255483612e-05,0.0023558943066745996,-0.006652005948126316
0.00810905173420906,-0.003319596638903022,-0.005370570812374353,6.619197665713727e-05,0.0021979722660034895,-0.006048297975212336
0.007920175790786743,-0.0033754375763237476,-0.005415408872067928,7.415505933749955e-06,0.002145872451364994,-0.005935624707490206
0.00813044048845768,-0.003412553807720542,-0.005357422400265932,-4.648538015317172e-05,0.002282027155160904,-0.006535977590829134
0.008359887637197971,-0.0031782363075762987,-0.004909181036055088,-6.999060860835016e-05,0.0023429568391293287,-0.0066328332759439945
0.008849676698446274,-0.0035253085661679506,-0.004733653273433447,-8.300799527205527e-05,0.002730518812313676,-0.007151124533265829
0.008567987941205502,-0.0032803425565361977,-0.005654312204569578,-9.20995807973668e-05,0.002631860552355647,-0.006455149967223406
0.008335757069289684,-0.003488191869109869,-0.005591469816863537,-0.00011188512871740386,0.0024486712645739317,-0.006382366176694632
0.008914249949157238,-0.003069405909627676,-0.005393643397837877,-0.000891140487510711,0.002256362698972225,-0.00649555679410696
0.009190156124532223,-0.003071586601436138,-0.004975850693881512,-0.0009973207488656044,0.001975611550733447,-0.006759874988347292
0.008154469542205334,-0.003141203662380576,-0.005175859201699495,-0.0019587462302297354,0.0018272326560691,-0.006592962890863419
0.00941030029207468,-0.0033597887959331274,-0.00537608889862895,-0.003009315114468336,0.0021772305481135845,-0.006614679004997015
0.008342857472598553,-0.003403331618756056,-0.005283410660922527,-0.0028838934376835823,0.0026460669469088316,-0.006310474593192339
0.008342857472598553,-0.003403331618756056,-0.005283410660922527,-0.0028838934376835823,0.0026460669469088316,-0.006310474593192339
0.008552738465368748,-0.003147800685837865,-0.005001237615942955,-0.0029407350812107325,0.0026208055205643177,-0.006557278335094452
0.009316678158938885,-0.003046617843210697,-0.0051838308572769165,-0.0033791165333241224,0.002710781991481781,-0.006437831558287144
0.00902638677507639,-0.0028172607999294996,-0.0055412654764950275,-0.004182881209999323,0.0027708366978913546,-0.006336546037346125
0.008951089344918728,-0.002936435164883733,-0.005473298020660877,-0.004891525488346815,0.0025977957993745804,-0.006265794858336449
0.009056733921170235,-0.0029574171639978886,-0.005284023005515337,-0.005196599755436182,0.0026463260874152184,-0.0065931351855397224
0.009319927543401718,-0.0029617154505103827,-0.0050731985829770565,-0.005277956835925579,0.0026551438495516777,-0.007062241435050964
0.008762139827013016,-0.0027678662445396185,-0.005721012596040964,-0.005963476374745369,0.0024082385934889317,-0.006877297069877386
0.008984572254121304,-0.002739762654528022,-0.00539580499753356,-0.006240371614694595,0.0024856978561729193,-0.0068021356128156185
0.009310256689786911,-0.002470602747052908,-0.005926253739744425,-0.006654204335063696,0.002468931023031473,-0.006789799779653549
0.009187343530356884,-0.0023383507505059242,-0.005427383352071047,-0.00692781014367938,0.0025744060985744,-0.007277417927980423
0.00923985242843628,-0.002179954433813691,-0.0050434209406375885,-0.007077456917613745,0.0027856118977069855,-0.007353549357503653
0.009698356501758099,-0.002198602072894573,-0.005708241835236549,-0.006862184032797813,0.003103658091276884,-0.007307900115847588
0.009409386664628983,-0.0020128784235566854,-0.006490073632448912,-0.0075468942523002625,0.003049250226467848,-0.007163062691688538
0.009321286343038082,-0.0021436712704598904,-0.0057212598621845245,-0.008171027526259422,0.0029314737766981125,-0.006962771527469158
0.009666362777352333,-0.0020784942898899317,-0.005288601387292147,-0.00735078239813447,0.002630909439176321,-0.006666253320872784
0.009365921840071678,-0.0020456984639167786,-0.00535616185516119,-0.007049882784485817,0.0025606758426874876,-0.006615117192268372
0.009880086407065392,-0.001945086638443172,-0.005348890088498592,-0.007704690098762512,0.002321760170161724,-0.007069101557135582
0.009499908424913883,-0.0019432317931205034,-0.005942014046013355,-0.008182045072317123,0.0023082117550075054,-0.007545461878180504
0.009598957374691963,-0.001754884491674602,-0.0055587561801075935,-0.00705081969499588,0.0023269285447895527,-0.006865964271128178
0.009212580509483814,-0.0016493002185598016,-0.005565212573856115,-0.006770846899598837,0.002236343454569578,-0.0065472363494336605
0.009293727576732635,-0.0016646262956783175,-0.005259184632450342,-0.007546221371740103,0.002449250081554055,-0.007006230764091015
0.010070182383060455,-0.0016582596581429243,-0.005362937226891518,-0.007890348322689533,0.0024338155053555965,-0.007118991110473871
0.00897993054240942,-0.0015404088189825416,-0.005875692702829838,-0.008077740669250488,0.002713342197239399,-0.0071546901017427444
0.00981665588915348,-0.0014282123884186149,-0.005852504633367062,-0.008373083546757698,0.003155369544401765,-0.006845931988209486
0.009743581525981426,-0.001427077571861446,-0.005442049354314804,-0.008371763862669468,0.0030444064177572727,-0.007068415638059378
0.010202283971011639,-0.0012927838834002614,-0.005171597469598055,-0.008784483186900616,0.002484275959432125,-0.007037445902824402
0.009837056510150433,-0.0013545320834964514,-0.006105668377131224,-0.009456326253712177,0.0022367648780345917,-0.007068602368235588
0.009338319301605225,-0.001264853053726256,-0.005729076452553272,-0.009170184843242168,0.002184835495427251,-0.00729270139709115
0.00972006656229496,-0.0012373217614367604,-0.005344054661691189,-0.008992519229650497,0.0023810528218746185,-0.007301179692149162
0.00972006656229496,-0.0012373217614367604,-0.005344054661691189,-0.008992519229650497,0.0023810528218746185,-0.007301179692149162
0.010132184252142906,-0.0011454912601038814,-0.005101330578327179,-0.009291522204875946,0.0026570588815957308,-0.008090781047940254
0.009522623382508755,-0.001127246767282486,-0.005690918304026127,-0.009519699960947037,0.0026975253131240606,-0.0068337214179337025
0.010645526461303234,-0.0010880498448386788,-0.005587297957390547,-0.009372697211802006,0.002841685665771365,-0.006940038874745369
0.010163950733840466,-0.0010601038811728358,-0.006003791932016611,-0.009872833266854286,0.002797325374558568,-0.0075705270282924175
0.009566682390868664,-0.0010423030471429229,-0.005757167004048824,-0.00994038488715887,0.002841275418177247,-0.007762794848531485
0.010036902502179146,-0.0010260536801069975,-0.0053653414361178875,-0.008835511282086372,0.0026787000242620707,-0.0077062551863491535
0.009947859682142735,-0.00110333610791713,-0.005009621847420931,-0.008959515020251274,0.0026963797863572836,-0.007817979902029037
0.009518911130726337,-0.001180540770292282,-0.0052906302735209465,-0.009407994337379932,0.00264753052033484,-0.0076306466944515705
0.010106316767632961,-0.001188355265185237,-0.005875119939446449,-0.009462296031415462,0.0025515013840049505,-0.007979365065693855
0.010347798466682434,-0.001136335893534124,-0.006392036564648151,-0.00961750652641058,0.0027550910599529743,-0.007532064337283373
0.010071620345115662,-0.001099682878702879,-0.005569903180003166,-0.009998916648328304,0.0029021126683801413,-0.008002410642802715
0.010329149663448334,-0.0009761494002304971,-0.005302466917783022,-0.00947931781411171,0.0029351096600294113,-0.007701917551457882
0.009884555824100971,-0.0008755296585150063,-0.005206698086112738,-0.009150193072855473,0.002777773654088378,-0.007523600477725267
0.010044424794614315,-0.0008620035368949175,-0.005725848954170942,-0.010204559192061424,0.002734687179327011,-0.007842248305678368
0.010654540732502937,-0.0007567001739516854,-0.005901699420064688,-0.009825539775192738,0.002742666518315673,-0.008108791895210743
0.011023462750017643,-0.0007727538468316197,-0.006026525516062975,-0.009731852449476719,0.002633430762216449,-0.007968157529830933
0.010265915654599667,-0.000786626129411161,-0.005409578792750835,-0.010126607492566109,0.0028535746969282627,-0.008050648495554924
0.010338067077100277,-0.0007449227850884199,-0.00493762269616127,-0.009485128335654736,0.0031468933448195457,-0.007979475893080235
0.010303459130227566,-0.0006452693487517536,-0.005323172081261873,-0.01045502070337534,0.003311019390821457,-0.007674002554267645
0.010450880974531174,-0.0005643639015033841,-0.005780891515314579,-0.010421182960271835,0.0033309897407889366,-0.008143587037920952
0.01017486210912466,-0.0006002011941745877,-0.006178278010338545,-0.010267050005495548,0.0030997649300843477,-0.007829127833247185
0.01092873327434063,-0.0005413391045294702,-0.005297848489135504,-0.010101037099957466,0.0028036830481141806,-0.00804530642926693
0.01118770893663168,-0.0004920134670101106,-0.004888082388788462,-0.009962502866983414,0.0026505489367991686,-0.007880175486207008
0.010119223035871983,-0.00048516166862100363,-0.005681958515197039,-0.010269908234477043,0.002517997520044446,-0.008076814003288746
0.010888069868087769,-0.0004507598641794175,-0.005823717452585697,-0.010613358579576015,0.0025252532213926315,-0.007795236073434353
0.010888069868087769,-0.0004507598641794175,-0.005823717452585697,-0.010613358579576015,0.0025252532213926315,-0.007795236073434353
0.010298977605998516,-0.00047989122685976326,-0.00550013966858387,-0.010939950123429298,0.0027912890072911978,-0.008110633119940758
0.010253618471324444,-0.0003894019464496523,-0.005160604603588581,-0.010850089602172375,0.002998462412506342,-0.007877216674387455
0.010253618471324444,-0.0003894019464496523,-0.005160604603588581,-0.010850089602172375,0.002998462412506342,-0.007877216674387455
0.010317250154912472,-0.0003506965294945985,-0.005295787937939167,-0.0109674371778965,0.003137081628665328,-0.008237498812377453
0.010150217451155186,-0.00033198599703609943,-0.005749570205807686,-0.011412420310080051,0.003119473345577717,-0.008506380952894688
0.01068019401282072,-0.000355059775756672,-0.005968294572085142,-0.010913955047726631,0.0029487391002476215,-0.00852392427623272
0.009967874735593796,-0.0003431594814173877,-0.0052778152748942375,-0.010837187990546227,0.0027402432169765234,-0.008397855795919895
0.010285019874572754,-0.00032761137117631733,-0.005455597769469023,-0.010263265110552311,0.002749245148152113,-0.008226570673286915
0.010409186594188213,-0.0003133536665700376,-0.005157256964594126,-0.010665802285075188,0.0027539394795894623,-0.00842758547514677
0.010446438565850258,-0.00030028438777662814,-0.005948908161371946,-0.011179949156939983,0.0030398734379559755,-0.00788623932749033
0.011098755523562431,-0.00028826171183027327,-0.0054383957758545876,-0.010870756581425667,0.0032193739898502827,-0.008143874816596508
0.010259346105158329,-0.0002771642175503075,-0.00535843288525939,-0.009741784073412418,0.00296006235294044,-0.007985396310687065
0.009891613386571407,-0.00026689088554121554,-0.005701824091374874,-0.010521641001105309,0.00303447712212801,-0.00807629618793726
0.010669216513633728,-0.00013061003119219095,-0.005279398988932371,-0.01041434332728386,0.0035097680520266294,-0.008077431470155716
0.010139744728803635,-2.7804744604509324e-06,-0.00515716103836894,-0.010174357332289219,0.003382395952939987,-0.00790117122232914
0.010557415895164013,0.003633486106991768,-0.005556614138185978,-0.010137048549950123,0.0030913620721548796,-0.008131977170705795
0.010266776196658611,0.002965342253446579,-0.006098007317632437,-0.010097005404531956,0.0029139993712306023,-0.008184337057173252
0.010556621477007866,0.001270026434212923,-0.0055917189456522465,-0.010755215771496296,0.0028723194263875484,-0.008217740803956985
0.010025457479059696,5.047872036811896e-05,-0.005390900652855635,-0.011595579795539379,0.0028606243431568146,-0.00785776786506176
0.010083962231874466,6.772364713469869e-07,-0.004991160240024328,-0.010567311197519302,0.002802147064357996,-0.007970040664076805
0.010685903020203114,9.085992402901866e-09,-0.0056916228495538235,-0.011548943817615509,0.002625097054988146,-0.008117526769638062
0.011525594629347324,1.2190017051327828e-10,-0.00542035885155201,-0.011467133648693562,0.0026736774016171694,-0.008426494896411896
0.010362903587520123,1.6354464440690442e-12,-0.005135105457156897,-0.011174187995493412,0.0027982345782220364,-0.008674022741615772
0.009406301192939281,0.001515946933068335,-0.005627957172691822,-0.011756768450140953,0.0030613928101956844,-0.008877070620656013
0.010190344415605068,0.0014452433679252863,-0.005334705580025911,-0.01237874198704958,0.0030538144055753946,-0.008329135365784168
0.009760681539773941,0.000958374235779047,-0.0051858145743608475,-0.012521939352154732,0.0033400908578187227,-0.00842763390392065
0.009760681539773941,0.000958374235779047,-0.0051858145743608475,-0.012521939352154732,0.0033400908578187227,-0.00842763390392065
0.010152418166399002,0.000783869531005621,-0.005973208695650101,-0.012795806862413883,0.00324182934127748,-0.008681080304086208
0.010654219426214695,0.0007841134793125093,-0.005525092128664255,-0.012712262570858002,0.0030915618408471346,-0.008684885688126087
0.009985009208321571,0.0008082251297309995,-0.005370514001697302,-0.012230494990944862,0.0029724363703280687,-0.008930038660764694
0.010223780758678913,0.0006563163478858769,-0.005155561957508326,-0.012800299562513828,0.003283824771642685,-0.008244398050010204
0.010223780758678913,0.0006563163478858769,-0.005155561957508326,-0.012800299562513828,0.003283824771642685,-0.008244398050010204
0.009996295906603336,0.0007529275608249009,-0.005518489517271519,-0.013163194060325623,0.003422094974666834,-0.007857650518417358
0.01105126179754734,0.0012097563594579697,-0.0054901898838579655,-0.0132069680839777,0.0033251012209802866,-0.00819419790059328
0.01042941864579916,0.001350773498415947,-0.0056361365132033825,-0.013642948120832443,0.00343709927983582,-0.008572938852012157
0.009858157485723495,0.0012625253293663263,-0.005265842191874981,-0.013758674263954163,0.003247304121032357,-0.008779771625995636
0.01070728525519371,0.001057272544130683,-0.00504300557076931,-0.013583227060735226,0.0034636601340025663,-0.009046832099556923
0.010539022274315357,0.00102884357329458,-0.00570200989022851,-0.013775384053587914,0.0037021953612565994,-0.008645507507026196
0.010111830197274685,0.0008585274335928261,-0.005787853617221117,-0.01378979068249464,0.003362623741850257,-0.00854906439781189
0.010688124224543571,0.0009530989336781204,-0.005749419331550598,-0.014238283038139343,0.0033589510712772608,-0.008755204267799854
0.009990728460252285,0.0009973038686439395,-0.005572622176259756,-0.013662699609994888,0.0032954083289951086,-0.008680463768541813
0.010552819818258286,0.0017222149763256311,-0.005575421266257763,-0.014037540182471275,0.003076416440308094,-0.008791700936853886
0.010950877331197262,0.0016232227208092809,-0.005493044853210449,-0.013900449499487877,0.0034046792425215244,-0.00838934164494276
0.010305074043571949,0.0017577048856765032,-0.005952994339168072,-0.014249921776354313,0.0036850895266979933,-0.008535964414477348
0.010719719342887402,0.0017100879922509193,-0.00566917285323143,-0.014199679717421532,0.0038009698037058115,-0.008807159960269928
0.01075628399848938,0.0015109303640201688,-0.005797769874334335,-0.014587100595235825,0.003742189146578312,-0.009206199087202549
0.009993267245590687,0.0015871282666921616,-0.005207826383411884,-0.013956180773675442,0.003667303826659918,-0.008924601599574089
0.010698409751057625,0.0014942397829145193,-0.005154178943485022,-0.01419132575392723,0.0037261389661580324,-0.00887933000922203
0.0107389185577631,0.0017842795932665467,-0.005220759194344282,-0.014131628908216953,0.003438099753111601,-0.008777650073170662
0.010920664295554161,0.001684953342191875,-0.005807461682707071,-0.014564663171768188,0.0031928301323205233,-0.008789468556642532
0.011245927773416042,0.001962867099791765,-0.005437064915895462,-0.014137225225567818,0.0030716233886778355,-0.00923934020102024
0.01151980459690094,0.002005206886678934,-0.005340991076081991,-0.014241418801248074,0.0031370907090604305,-0.008903667330741882
0.01151980459690094,0.002005206886678934,-0.005340991076081991,-0.014241418801248074,0.0031370907090604305,-0.008903667330741882
0.011579190380871296,0.00195681257173419,-0.004983945749700069,-0.014911470003426075,0.0035366860684007406,-0.008902452886104584
0.011540297418832779,0.0019689113833010197,-0.005313051864504814,-0.015188935212790966,0.003433976788073778,-0.008839055895805359
0.011374682188034058,0.002288601826876402,-0.005141898524016142,-0.015630146488547325,0.0035135732032358646,-0.009221126325428486
0.011118128895759583,0.00224078050814569,-0.005891863256692886,-0.01582401990890503,0.004196131601929665,-0.00962138082832098
0.010954842902719975,0.002143317833542824,-0.005438789259642363,-0.015982216224074364,0.004137530457228422,-0.009336006827652454
0.011123294942080975,0.002050163922831416,-0.0049059404991567135,-0.01600281149148941,0.003569464897736907,-0.008778348565101624
0.010796678252518177,0.0021815388463437557,-0.005297061987221241,-0.016300663352012634,0.0035119098611176014,-0.00904820952564478
0.01103226188570261,0.00261798407882452,-0.005149004515260458,-0.017155777662992477,0.003405449679121375,-0.009355703368782997
0.011227189563214779,0.003046615980565548,-0.0053848079405725,-0.016916975378990173,0.003414689563214779,-0.009393462911248207
0.011127843521535397,0.0032721611205488443,-0.005697252694517374,-0.017055973410606384,0.003528117435052991,-0.009267313405871391
0.011465292423963547,0.0034811277873814106,-0.005535328295081854,-0.017206860706210136,0.003582462202757597,-0.009624175727367401
0.011362344026565552,0.003382866969332099,-0.005727884825319052,-0.017013031989336014,0.0035032446030527353,-0.009632077999413013
0.01132520567625761,0.003277455922216177,-0.005383756011724472,-0.017655493691563606,0.0033516876865178347,-0.009540707804262638
0.011747987940907478,0.003136402927339077,-0.0051645152270793915,-0.017286954447627068,0.0035351081751286983,-0.009527764283120632
0.011175311170518398,0.0038556482177227736,-0.004915348254144192,-0.017625069245696068,0.003744069952517748,-0.009351225569844246
0.011533535085618496,0.004220392554998398,-0.00516306608915329,-0.017690137028694153,0.0038917106576263905,-0.009728134609758854
0.011593620292842388,0.004081065766513348,-0.005605015438050032,-0.017790310084819794,0.004084939602762461,-0.009786291979253292
0.011337067000567913,0.003983327187597752,-0.005243884865194559,-0.017935248091816902,0.004230494145303965,-0.009590612724423409
0.012284484691917896,0.004010538570582867,-0.005144329741597176,-0.017928602173924446,0.004399738274514675,-0.009767545387148857
0.011475687846541405,0.004442162811756134,-0.004952090792357922,-0.018065642565488815,0.004108337685465813,-0.010596435517072678
0.013370523229241371,0.005046844016760588,-0.004722219426184893,-0.017929740250110626,0.003979895263910294,-0.010202077217400074
0.0137550737708807,0.004935412667691708,-0.005423909984529018,-0.017842883244156837,0.003535299329087138,-0.009719645604491234
0.013709375634789467,0.00473678158596158,-0.005233284085988998,-0.018526362255215645,0.003467073431238532,-0.01012748759239912
0.013553733937442303,0.005218298174440861,-0.00498381070792675,-0.01811709813773632,0.003612046130001545,-0.009873728267848492
0.013457633554935455,0.005425735376775265,-0.00473700650036335,-0.018506526947021484,0.0035726965870708227,-0.009969188831746578
0.013457633554935455,0.005425735376775265,-0.00473700650036335,-0.018506526947021484,0.0035726965870708227,-0.009969188831746578
0.013670423999428749,0.005652925930917263,-0.004648811649531126,-0.018504684790968895,0.003367458935827017,-0.010608279146254063
0.013781101442873478,0.0053439754992723465,-0.005115176551043987,-0.017916908487677574,0.003454364137724042,-0.010155604220926762
0.013880536891520023,0.0058785537257790565,-0.00532306544482708,-0.018431730568408966,0.003691192949190736,-0.009688733145594597
0.013827940449118614,0.0063375793397426605,-0.005612991284579039,-0.018421310931444168,0.0041417330503463745,-0.010322523303329945
0.013804744929075241,0.006390887778252363,-0.005215052980929613,-0.018954265862703323,0.004608112387359142,-0.01014330331236124
0.013980009593069553,0.006205093581229448,-0.004687388427555561,-0.01879102550446987,0.004714940674602985,-0.00988983828574419
0.013841423206031322,0.005746735259890556,-0.005436314735561609,-0.018153801560401917,0.004431481938809156,-0.009931666776537895
0.014499380253255367,0.006265613250434399,-0.005379310343414545,-0.019051728770136833,0.004024391528218985,-0.010547099635004997
0.01484349649399519,0.006829535122960806,-0.005443902220577002,-0.01999753527343273,0.00376823078840971,-0.010010219179093838
0.014628189615905285,0.006827467121183872,-0.005704945884644985,-0.019853651523590088,0.0035281116142868996,-0.010029434226453304
0.013928567059338093,0.006656014826148748,-0.005062098614871502,-0.019873224198818207,0.003457667538896203,-0.010288134217262268
0.014006364159286022,0.006614442449063063,-0.00469239754602313,-0.020307118073105812,0.004135555122047663,-0.009905010461807251
0.013834722340106964,0.006636131554841995,-0.0052911145612597466,-0.019484704360365868,0.004123203456401825,-0.009874239563941956
0.01417793333530426,0.007289606612175703,-0.00524437939748168,-0.019312314689159393,0.0039947680197656155,-0.009748999029397964
0.01400868222117424,0.007241492625325918,-0.005619799718260765,-0.02007751725614071,0.004347986541688442,-0.009715989232063293
0.014262363314628601,0.006904165260493755,-0.005421556998044252,-0.020160647109150887,0.004459016490727663,-0.010279691778123379
0.01372508704662323,0.007291034795343876,-0.005116176325827837,-0.019813425838947296,0.004183302633464336,-0.009949388913810253
0.014255641959607601,0.007579031400382519,-0.00487129483371973,-0.01973750628530979,0.003922578413039446,-0.009388956241309643
0.014139536768198013,0.007683247793465853,-0.005264683626592159,-0.02006714977324009,0.0037648093421012163,-0.009507201611995697
0.014275189489126205,0.007577552460134029,-0.005680126138031483,-0.020522523671388626,0.004295276012271643,-0.00958285853266716
0.013816890306770802,0.007503730244934559,-0.005608723498880863,-0.020463792607188225,0.004526501055806875,-0.009569338522851467
0.01452542096376419,0.00805456843227148,-0.005638273432850838,-0.020137926563620567,0.004626034293323755,-0.010437252931296825
0.015137622132897377,0.008173264563083649,-0.005215571727603674,-0.020970409736037254,0.004100925754755735,-0.009901950135827065
0.014591393992304802,0.00810879748314619,-0.005620335694402456,-0.02160262130200863,0.0035172884818166494,-0.010245995596051216
0.014591393992304802,0.00810879748314619,-0.005620335694402456,-0.02160262130200863,0.0035172884818166494,-0.010245995596051216
0.014499073848128319,0.008518670685589314,-0.0062071215361356735,-0.021147558465600014,0.0038427456747740507,-0.01055989507585764
0.014207914471626282,0.00840990524739027,-0.00583856413140893,-0.0207364484667778,0.004243041388690472,-0.010464014485478401
0.014920417219400406,0.008420351892709732,-0.0055188387632369995,-0.020931361243128777,0.004991642199456692,-0.010755201801657677
0.014076794497668743,0.008432012982666492,-0.005073742475360632,-0.021525079384446144,0.004949663765728474,-0.01106977742165327
0.014485020190477371,0.008946986868977547,-0.00549694849178195,-0.022192327305674553,0.004569870885461569,-0.0105003472417593
0.014347182586789131,0.008742216043174267,-0.00546848401427269,-0.02245873212814331,0.004304623696953058,-0.010654320940375328
0.014652259647846222,0.009174829348921776,-0.006383872125297785,-0.021834619343280792,0.0040730866603553295,-0.010301643051207066
0.01418378110975027,0.009047594852745533,-0.005911457818001509,-0.02119044028222561,0.004278926644474268,-0.010438783094286919
0.013870924711227417,0.009016210213303566,-0.00566003005951643,-0.021275857463479042,0.00409461697563529,-0.010501641780138016
0.01471632905304432,0.009397752583026886,-0.005392925348132849,-0.021740060299634933,0.004291848745197058,-0.010459679178893566
0.015134422108530998,0.010932478122413158,-0.005797041580080986,-0.022536877542734146,0.004527368117123842,-0.010760248638689518
0.014492177404463291,0.009260418824851513,-0.006627323571592569,-0.022492460906505585,0.004567794967442751,-0.010787809267640114
0.01467102114111185,0.008950515650212765,-0.006288589909672737,-0.02171894535422325,0.004208259750157595,-0.01074891071766615
0.01437229011207819,0.00972321443259716,-0.006153126712888479,-0.021887145936489105,0.003881588112562895,-0.011139683425426483
0.01469817291945219,0.00976698286831379,-0.00561652984470129,-0.022644812241196632,0.003785387147217989,-0.011123215779662132
0.015018031001091003,0.009601805359125137,-0.005797116551548243,-0.02341405861079693,0.004153022076934576,-0.01133866235613823
0.015347865410149097,0.010211930610239506,-0.00652521476149559,-0.02268187142908573,0.004946951288729906,-0.011314084753394127
0.014871309511363506,0.00972161628305912,-0.0063327280804514885,-0.02243988774716854,0.004990721121430397,-0.011353114619851112
0.015022249892354012,0.010174408555030823,-0.005854184273630381,-0.02284845896065235,0.004575702361762524,-0.011311170645058155
0.015131344087421894,0.010146629996597767,-0.005774666089564562,-0.02333173342049122,0.004098918288946152,-0.01123092882335186
0.015172671526670456,0.010260378941893578,-0.005864264909178019,-0.0244938712567091,0.003856502939015627,-0.01112817507237196
0.015301884151995182,0.010371376760303974,-0.006150258705019951,-0.025178786367177963,0.004029850009828806,-0.011215691454708576
0.015296601690351963,0.010803050361573696,-0.006119996774941683,-0.02481425181031227,0.004060724750161171,-0.011303055100142956
0.015319314785301685,0.010310049168765545,-0.005949834827333689,-0.024851996451616287,0.003987397998571396,-0.011245056986808777
0.014843003824353218,0.010440675541758537,-0.006183474324643612,-0.024601858109235764,0.004281190689653158,-0.010957661084830761
0.015035148710012436,0.01071828231215477,-0.006529033184051514,-0.025132596492767334,0.004766130819916725,-0.011434612795710564
0.015409758314490318,0.01113385520875454,-0.006267762277275324,-0.025448404252529144,0.004686374682933092,-0.011787322349846363
0.015064447186887264,0.010501108132302761,-0.0059647210873663425,-0.02534535340964794,0.0045462497510015965,-0.011504123918712139
0.015064447186887264,0.010501108132302761,-0.0059647210873663425,-0.02534535340964794,0.0045462497510015965,-0.011504123918712139
0.015103918500244617,0.00987845566123724,-0.005922021809965372,-0.025874894112348557,0.0043707299046218395,-0.011473889462649822
0.015103918500244617,0.00987845566123724,-0.005922021809965372,-0.025874894112348557,0.0043707299046218395,-0.011473889462649822
0.015868062153458595,0.009701715782284737,-0.0064664557576179504,-0.02618429623544216,0.004877219442278147,-0.011633181013166904
0.015688369050621986,0.010559183545410633,-0.006596912629902363,-0.02645515464246273,0.005399301648139954,-0.011854724027216434
0.015706581994891167,0.01004498079419136,-0.0057346574030816555,-0.025622552260756493,0.005042210686951876,-0.011473467573523521
0.01574319414794445,0.009647199884057045,-0.0059828003868460655,-0.025475963950157166,0.004605080466717482,-0.01150519773364067
0.01563425362110138,0.010107395239174366,-0.006047713104635477,-0.026139499619603157,0.004134918097406626,-0.011599820107221603
0.01590084843337536,0.010850275866687298,-0.006392624694854021,-0.026254871860146523,0.0041006035171449184,-0.011902553029358387
0.015763334929943085,0.01100000087171793,-0.006697253789752722,-0.026628989726305008,0.004545390140265226,-0.012303445488214493
0.016446653753519058,0.011094165034592152,-0.005411284975707531,-0.026783103123307228,0.004871940240263939,-0.012097909115254879
0.015904081985354424,0.010836517438292503,-0.005656576249748468,-0.026709670200943947,0.00503775617107749,-0.011965465731918812
0.015993168577551842,0.011060331016778946,-0.006171287968754768,-0.02716265805065632,0.004922312684357166,-0.011896591633558273
0.01587948389351368,0.01147144753485918,-0.006771348882466555,-0.027863644063472748,0.00487287575379014,-0.011563721112906933
0.01640268601477146,0.010916370898485184,-0.006329812575131655,-0.027246013283729553,0.004527551122009754,-0.011518836952745914
0.01618756353855133,0.010961572639644146,-0.005676879081875086,-0.02695169858634472,0.004551174584776163,-0.011455832049250603
0.016239458695054054,0.011108786799013615,-0.006036914885044098,-0.02690020576119423,0.004656441044062376,-0.011973836459219456
0.016010457649827003,0.010483292862772942,-0.006704207044094801,-0.026976462453603745,0.0047918749041855335,-0.012039678171277046
0.016127169132232666,0.010976436547935009,-0.006860800087451935,-0.027358533814549446,0.0052010612562298775,-0.012052854523062706
0.016567427664995193,0.010598888620734215,-0.006241184193640947,-0.02734188921749592,0.00518991332501173,-0.01252454612404108
0.01603861339390278,0.01068106573075056,-0.005945906974375248,-0.027088060975074768,0.0048809959553182125,-0.012279571034014225
0.016481194645166397,0.011221800930798054,-0.006462510675191879,-0.02745070867240429,0.004734524991363287,-0.011814656667411327
0.01615588553249836,0.011066748760640621,-0.00653014937415719,-0.027460778132081032,0.004796620458364487,-0.011767033487558365
0.016409391537308693,0.011316335760056973,-0.006762309465557337,-0.027846239507198334,0.0049748048186302185,-0.012669166550040245
0.01639539934694767,0.011568558402359486,-0.005600981879979372,-0.027988428249955177,0.005415676161646843,-0.01209502387791872
0.016957154497504234,0.01188522856682539,-0.006267237011343241,-0.028371218591928482,0.005035178270190954,-0.01225036010146141
0.016957154497504234,0.01188522856682539,-0.006267237011343241,-0.028371218591928482,0.005035178270190954,-0.01225036010146141
0.016839616000652313,0.011396526359021664,-0.006835807580500841,-0.029280828312039375,0.0049995495937764645,-0.012344262562692165
0.016839616000652313,0.011396526359021664,-0.006835807580500841,-0.029280828312039375,0.0049995495937764645,-0.012344262562692165
0.01640169508755207,0.011679640039801598,-0.005757083185017109,-0.028919508680701256,0.004684332758188248,-0.012294757179915905
0.016426004469394684,0.011507506482303143,-0.006339813116937876,-0.02883966825902462,0.004821334965527058,-0.012638648971915245
0.01688447967171669,0.012065405026078224,-0.0068331132642924786,-0.030204081907868385,0.005446612369269133,-0.012438612058758736
0.0167658980935812,0.011463566683232784,-0.006386596243828535,-0.030627302825450897,0.005408566910773516,-0.012466964311897755
0.01721319742500782,0.011275697499513626,-0.00622421782463789,-0.02943267859518528,0.005302681587636471,-0.012653055600821972
0.016921721398830414,0.011373505927622318,-0.005911988206207752,-0.02873474732041359,0.004893048200756311,-0.012389912270009518
0.016644073650240898,0.0112106092274189,-0.006018311716616154,-0.029127003625035286,0.004535226617008448,-0.012737165205180645
0.017292270436882973,0.01214408129453659,-0.0065599908120930195,-0.03045363910496235,0.004561267327517271,-0.012353155761957169
0.017265940085053444,0.011592039838433266,-0.007205631583929062,-0.030189335346221924,0.0052030677907168865,-0.012507942505180836
0.017879342660307884,0.011771630495786667,-0.006313093937933445,-0.03019121289253235,0.005380363669246435,-0.012397593818604946
0.017549194395542145,0.011645126156508923,-0.0058990600518882275,-0.03074476309120655,0.005443241447210312,-0.012612694874405861
0.017514962702989578,0.01068330742418766,-0.0060601383447647095,-0.030073614791035652,0.005010353866964579,-0.012560681439936161
0.01758745312690735,0.011846362613141537,-0.006360894534736872,-0.029200175777077675,0.004600999411195517,-0.012674778699874878
0.017385507002472878,0.011910764500498772,-0.006738340947777033,-0.029610132798552513,0.004961641039699316,-0.012803188525140285
0.017474723979830742,0.011644602753221989,-0.006412568502128124,-0.03098946064710617,0.005502526182681322,-0.012898551300168037
0.017356008291244507,0.011601661331951618,-0.006295314058661461,-0.030394889414310455,0.005456055514514446,-0.012765402905642986
0.017733212560415268,0.011157018132507801,-0.005782661028206348,-0.030441954731941223,0.005621669348329306,-0.012647347524762154
0.018435560166835785,0.01190677098929882,-0.006638428196310997,-0.030914679169654846,0.005459183361381292,-0.012785558588802814
0.017965545877814293,0.012048667296767235,-0.006537124514579773,-0.030915183946490288,0.005613221786916256,-0.012654042802751064
0.018409565091133118,0.011802577413618565,-0.005909069906920195,-0.030838072299957275,0.005261100362986326,-0.0128956763073802
0.018331101164221764,0.012060518376529217,-0.005540032871067524,-0.030854923650622368,0.005123613402247429,-0.013139313086867332
0.017518408596515656,0.011345386505126953,-0.005810823757201433,-0.030934035778045654,0.00501233572140336,-0.013386483304202557
0.0185320433229208,0.012276985682547092,-0.006317960098385811,-0.031333379447460175,0.004887677263468504,-0.01293425727635622
0.01846095733344555,0.012251791544258595,-0.006509234197437763,-0.03128238767385483,0.005155902821570635,-0.01299214269965887
0.018375104293227196,0.012174454517662525,-0.005770741496235132,-0.032183535397052765,0.005195036996155977,-0.013280845247209072
0.018957097083330154,0.012024498544633389,-0.0058563812635838985,-0.03401503339409828,0.005094589665532112,-0.013484402559697628
0.01892992854118347,0.012609458528459072,-0.006455465219914913,-0.033098720014095306,0.00546942139044404,-0.013061360456049442
0.019074631854891777,0.011932370252907276,-0.006376841105520725,-0.032540008425712585,0.005601147655397654,-0.013066315092146397
0.018908260390162468,0.012362617999315262,-0.006245789118111134,-0.03356035053730011,0.005335452500730753,-0.013071218505501747
0.018908260390162468,0.012362617999315262,-0.006245789118111134,-0.03356035053730011,0.005335452500730753,-0.013071218505501747
0.019278518855571747,0.012365791015326977,-0.00605081208050251,-0.03396470844745636,0.004963118117302656,-0.013152002356946468
0.019577376544475555,0.01268683560192585,-0.006348717492073774,-0.035290565341711044,0.005213144235312939,-0.013423310592770576
0.019361743703484535,0.012797880917787552,-0.006705467589199543,-0.03611915931105614,0.005212937947362661,-0.013687287457287312
0.019316965714097023,0.012364020571112633,-0.006537378299981356,-0.034628137946128845,0.0051778024062514305,-0.013665792532265186
0.019780106842517853,0.012769097462296486,-0.006064401473850012,-0.033684711903333664,0.005641230847686529,-0.013566548004746437
0.01974719576537609,0.012757170014083385,-0.0063160923309624195,-0.03547137230634689,0.005516677163541317,-0.013974607922136784
0.0196582842618227,0.013034932315349579,-0.006852638442069292,-0.03584863990545273,0.005894754081964493,-0.013854707591235638
0.019747838377952576,0.013128665275871754,-0.006514227017760277,-0.035651106387376785,0.005470078904181719,-0.01371452584862709
0.019890010356903076,0.013320600613951683,-0.006332909222692251,-0.035200335085392,0.005582284182310104,-0.013485467992722988
0.01963624358177185,0.013249232433736324,-0.00608074152842164,-0.03600568324327469,0.005398517940193415,-0.013864675536751747
0.020197654142975807,0.01376141794025898,-0.006144219543784857,-0.035980548709630966,0.005230636801570654,-0.013641702011227608
0.020322710275650024,0.013875187374651432,-0.0068175601772964,-0.03619886189699173,0.005067816935479641,-0.013672496192157269
0.020436957478523254,0.012183276005089283,-0.006452166009694338,-0.03622598946094513,0.005361093208193779,-0.01368306390941143
0.020542681217193604,0.013159067369997501,-0.00607493007555604,-0.03666037321090698,0.00552400853484869,-0.013886800035834312
0.020452506840229034,0.013274095952510834,-0.005871916655451059,-0.036881398409605026,0.005372294224798679,-0.013710345141589642
0.020712025463581085,0.014000813476741314,-0.006449393928050995,-0.036463409662246704,0.005901158321648836,-0.014156213961541653
0.020434988662600517,0.013651999644935131,-0.006898286286741495,-0.03682238981127739,0.006221364252269268,-0.014310142956674099
0.020642537623643875,0.014128162525594234,-0.006623958237469196,-0.03722551465034485,0.005641908384859562,-0.014315048232674599
0.021096281707286835,0.013905296102166176,-0.006165782455354929,-0.03703685477375984,0.005717418156564236,-0.013864980079233646
0.021426718682050705,0.01431156974285841,-0.006484440062195063,-0.037209074944257736,0.005394670180976391,-0.014156813733279705
0.02137855440378189,0.01380742434412241,-0.006963732186704874,-0.037887558341026306,0.005843253340572119,-0.014081272296607494
0.02174273319542408,0.014006239362061024,-0.006564782001078129,-0.03787512704730034,0.005752927158027887,-0.014264414086937904
0.021245207637548447,0.013635649345815182,-0.0061336359940469265,-0.03745909780263901,0.005887399893254042,-0.014011101797223091
0.02235511690378189,0.013985836878418922,-0.006823115516453981,-0.03787809982895851,0.006104081403464079,-0.015216470696032047
0.02271716482937336,0.01482949499040842,-0.00697033666074276,-0.03741871193051338,0.006196590140461922,-0.014693978242576122
0.022109922021627426,0.014375214464962482,-0.006641262210905552,-0.037785470485687256,0.005816389806568623,-0.014136758632957935
0.021101810038089752,0.014598079025745392,-0.006229734513908625,-0.0372733399271965,0.006280411500483751,-0.014708089642226696
0.021891476586461067,0.014202016405761242,-0.0065335603430867195,-0.03742597624659538,0.005961091257631779,-0.014900780282914639
0.021891476586461067,0.014202016405761242,-0.0065335603430867195,-0.03742597624659538,0.005961091257631779,-0.014900780282914639
0.022217674180865288,0.01519699115306139,-0.006677927449345589,-0.03759639710187912,0.005979955196380615,-0.015113573521375656
0.02213604375720024,0.014910764060914516,-0.006423241924494505,-0.037866875529289246,0.005687634460628033,-0.015184424817562103
0.021683260798454285,0.015624037012457848,-0.006168306339532137,-0.03724846616387367,0.005728708580136299,-0.014913198538124561
0.021102745085954666,0.01494534406810999,-0.00647667795419693,-0.03831042721867561,0.006086534820497036,-0.015044942498207092
0.021385828033089638,0.01539382804185152,-0.006619904190301895,-0.03889026120305061,0.006154141388833523,-0.015481745824217796
0.021756939589977264,0.014615106396377087,-0.006448785774409771,-0.03786946460604668,0.00643007131293416,-0.015359340235590935
0.021950334310531616,0.01494513638317585,-0.006240880582481623,-0.03670307993888855,0.006664992775768042,-0.015692584216594696
0.022080397233366966,0.01488368771970272,-0.006273674312978983,-0.03820663318037987,0.006030091550201178,-0.015878383070230484
0.022213511168956757,0.015100517310202122,-0.006242603529244661,-0.03867136314511299,0.005936019588261843,-0.015534665435552597
0.02215019054710865,0.015202019363641739,-0.006419353187084198,-0.03971715644001961,0.0060560149140655994,-0.01546026486903429
0.021977145224809647,0.015794998034834862,-0.006702919956296682,-0.040416888892650604,0.005769781768321991,-0.015476295724511147
0.021787764504551888,0.015625962987542152,-0.00628334004431963,-0.0382266603410244,0.0058494568802416325,-0.01572658121585846
0.022318899631500244,0.015173404477536678,-0.006101333070546389,-0.03874379023909569,0.005820402875542641,-0.01571672223508358
0.022479845210909843,0.015984490513801575,-0.006219413131475449,-0.040541619062423706,0.006000807508826256,-0.016033921390771866
0.022488441318273544,0.01580137014389038,-0.006828403100371361,-0.04066196829080582,0.005885286722332239,-0.015239127911627293
0.02247784473001957,0.016536934301257133,-0.006656033452600241,-0.04070555791258812,0.005810136906802654,-0.015448463149368763
0.0226646326482296,0.015579119324684143,-0.0062355524860322475,-0.04122169315814972,0.005970806814730167,-0.015305237844586372
0.02275206334888935,0.015593569725751877,-0.006099051795899868,-0.040945764631032944,0.005904044024646282,-0.015600278042256832
0.023155521601438522,0.015601648949086666,-0.006889778655022383,-0.04136710613965988,0.006058931350708008,-0.015626749023795128
0.023398088291287422,0.016668196767568588,-0.007027005311101675,-0.04122219607234001,0.006107186432927847,-0.016266759485006332
0.0229142177850008,0.016052844002842903,-0.0062725660391151905,-0.04211348295211792,0.006087263580411673,-0.01626119762659073
0.02256948873400688,0.015676133334636688,-0.006259441841393709,-0.04115297272801399,0.006440032739192247,-0.016002334654331207
0.023097142577171326,0.016358764842152596,-0.0059893145225942135,-0.042816922068595886,0.006052048876881599,-0.016095919534564018
0.023227155208587646,0.015770884230732918,-0.006359470542520285,-0.04170044884085655,0.006060291081666946,-0.015823019668459892
0.022708475589752197,0.016312414780259132,-0.006353982724249363,-0.041473984718322754,0.006534253712743521,-0.016367491334676743
0.02326461672782898,0.016706759110093117,-0.0060308086685836315,-0.042542073875665665,0.006519983988255262,-0.01634320430457592
0.02333538606762886,0.01615106500685215,-0.006229229271411896,-0.04331258311867714,0.006275944411754608,-0.016049828380346298
0.02299579046666622,0.016306346282362938,-0.006718839518725872,-0.04445112869143486,0.006343481130897999,-0.016171051189303398
0.023043598979711533,0.016536811366677284,-0.0063955700024962425,-0.04283793270587921,0.0061613270081579685,-0.01636170968413353
0.02328122965991497,0.016330791637301445,-0.006388666573911905,-0.04275280237197876,0.0063893613405525684,-0.016529671847820282
0.023345261812210083,0.016995780169963837,-0.006303417030721903,-0.04369021952152252,0.006045682821422815,-0.016537576913833618
0.023061374202370644,0.01644434779882431,-0.006217405200004578,-0.043710220605134964,0.0058419667184352875,-0.016091354191303253
0.0233224555850029,0.016633668914437294,-0.006791993044316769,-0.04398763179779053,0.006054495926946402,-0.016371438279747963
0.0233224555850029,0.016633668914437294,-0.006791993044316769,-0.04398763179779053,0.006054495926946402,-0.016371438279747963
0.023451952263712883,0.017174100503325462,-0.0064469920471310616,-0.044709667563438416,0.00641609076410532,-0.016817748546600342
0.023451952263712883,0.017174100503325462,-0.0064469920471310616,-0.044709667563438416,0.00641609076410532,-0.016817748546600342
0.023309966549277306,0.017446639016270638,-0.0060273162089288235,-0.04431456699967384,0.0066138021647930145,-0.016527267172932625
0.0219801627099514,0.016816312447190285,-0.006332130171358585,-0.04409652203321457,0.006328349467366934,-0.016444282606244087
0.024182772263884544,0.017353467643260956,-0.0064961593598127365,-0.044927068054676056,0.0062232231721282005,-0.018231511116027832
0.02410753257572651,0.017165817320346832,-0.006228249054402113,-0.044580042362213135,0.006861644797027111,-0.01649753376841545
0.023976093158125877,0.017117267474532127,-0.006067975889891386,-0.043890394270420074,0.007028667256236076,-0.016368025913834572
0.02399503067135811,0.017815427854657173,-0.006650914438068867,-0.043958842754364014,0.006673711817711592,-0.016505615785717964
0.024094263091683388,0.017267724499106407,-0.0069118645042181015,-0.04357214272022247,0.006240412592887878,-0.017051614820957184
0.02352944388985634,0.017787683755159378,-0.006591723766177893,-0.04344011843204498,0.006390923168510199,-0.016979064792394638
0.023535240441560745,0.01790570095181465,-0.006219057831913233,-0.04481489211320877,0.006841891910880804,-0.017102152109146118
0.024295231327414513,0.0177436675876379,-0.006589732598513365,-0.04335362836718559,0.0068521639332175255,-0.01709654927253723
0.024208635091781616,0.01762094534933567,-0.006711925379931927,-0.0431450679898262,0.0069817774929106236,-0.016755269840359688
0.02358894608914852,0.017315708100795746,-0.007464802358299494,-0.04384397715330124,0.006536823697388172,-0.017019961029291153
0.024341726675629616,0.01789749786257744,-0.0065275863744318485,-0.04413827508687973,0.006637632381170988,-0.01715884357690811
0.025291532278060913,0.018168406561017036,-0.006492999382317066,-0.044561952352523804,0.007149935234338045,-0.016965767368674278
0.024534372612833977,0.018044382333755493,-0.006431616377085447,-0.04444703832268715,0.00653010094538331,-0.01714206486940384
0.024515222758054733,0.018525106832385063,-0.006482528056949377,-0.04416254162788391,0.006166418083012104,-0.017288032919168472
0.024144085124135017,0.02029505744576454,-0.006496192887425423,-0.0468892902135849,0.006665988825261593,-0.01708144135773182
0.024005649611353874,0.018266847357153893,-0.006401346530765295,-0.0446026474237442,0.007088254205882549,-0.016810087487101555
0.02507159300148487,0.01869792677462101,-0.006323898211121559,-0.0461907759308815,0.006902329623699188,-0.01721106469631195
0.024918122217059135,0.019762491807341576,-0.006862020585685968,-0.04749168083071709,0.007053066045045853,-0.017424326390028
0.024763857945799828,0.020150907337665558,-0.006620991509407759,-0.048657502979040146,0.006636625621467829,-0.01788644678890705
0.024670438840985298,0.019317520782351494,-0.006647692993283272,-0.04665520042181015,0.006663140840828419,-0.017585663124918938
0.025058312341570854,0.0193922221660614,-0.00671974616125226,-0.04636475443840027,0.006633513141423464,-0.01751057617366314
0.024713024497032166,0.02030934952199459,-0.007454553619027138,-0.04778924211859703,0.007048238534480333,-0.017742149531841278
0.024656010791659355,0.01992824487388134,-0.007409667130559683,-0.04822655767202377,0.006993079092353582,-0.01797986775636673
0.024656010791659355,0.01992824487388134,-0.007409667130559683,-0.04822655767202377,0.006993079092353582,-0.01797986775636673
0.024782059714198112,0.01965854875743389,-0.007286038715392351,-0.04783528298139572,0.00667397677898407,-0.018327847123146057
0.02510358951985836,0.019747212529182434,-0.006666913628578186,-0.048202693462371826,0.006841679569333792,-0.018387071788311005
0.024885540828108788,0.02012595161795616,-0.006818655878305435,-0.04789701849222183,0.006836147513240576,-0.017753593623638153
0.024966435506939888,0.01989721693098545,-0.006854264065623283,-0.04840506985783577,0.007162334397435188,-0.017765963450074196
0.025224978104233742,0.020030612125992775,-0.006732323206961155,-0.04885173216462135,0.007070148829370737,-0.01743568293750286
0.02473709173500538,0.020295260474085808,-0.006419854704290628,-0.04929255321621895,0.0072041223756968975,-0.017314618453383446
0.024785678833723068,0.02000543661415577,-0.007116727996617556,-0.04905957356095314,0.0072885314002633095,-0.01766876131296158
0.024576498195528984,0.019696881994605064,-0.007583520375192165,-0.0506502203643322,0.006955170538276434,-0.01816687174141407
0.024681514129042625,0.01983926072716713,-0.006817014887928963,-0.049867697060108185,0.006542040500789881,-0.018227549269795418
0.026194434612989426,0.019930399954319,-0.006674813572317362,-0.04805351048707962,0.006760763470083475,-0.018053775653243065
0.025787731632590294,0.020375464111566544,-0.0069257114082574844,-0.048680711537599564,0.007037886418402195,-0.01967427507042885
0.025449002161622047,0.020275592803955078,-0.007828468456864357,-0.05038701370358467,0.007341372314840555,-0.017749948427081108
0.025253279134631157,0.020078876987099648,-0.006829303223639727,-0.050798557698726654,0.0071613783948123455,-0.017192859202623367
0.024870367720723152,0.019898759201169014,-0.006757847033441067,-0.04802422598004341,0.007108829915523529,-0.017526822164654732
0.025102440267801285,0.02129645086824894,-0.007110392674803734,-0.049167048186063766,0.0077570965513587,-0.018116289749741554
0.02600155398249626,0.020961949601769447,-0.008241352625191212,-0.05045655369758606,0.00737212598323822,-0.018487198278307915
0.02653435245156288,0.020575320348143578,-0.006677757482975721,-0.050228964537382126,0.007081464398652315,-0.01836356893181801
0.025639595463871956,0.02049158327281475,-0.006950517185032368,-0.04925641044974327,0.007702047470957041,-0.01853780262172222
0.026213515549898148,0.020652085542678833,-0.00799881387501955,-0.0499168261885643,0.007925756275653839,-0.018892724066972733
0.02651447430253029,0.020706549286842346,-0.007552584633231163,-0.050463926047086716,0.007670260965824127,-0.01865621656179428
0.02651447430253029,0.020706549286842346,-0.007552584633231163,-0.050463926047086716,0.007670260965824127,-0.01865621656179428
0.026445142924785614,0.020953821018338203,-0.007135143503546715,-0.04972891882061958,0.007100385148078203,-0.018745943903923035
0.026505857706069946,0.021021965891122818,-0.007233853451907635,-0.04980750009417534,0.007114994805306196,-0.019108422100543976
0.027035292237997055,0.020815657451748848,-0.007617725990712643,-0.05032097548246384,0.006978142540901899,-0.019006581977009773
0.027257228270173073,0.020910123363137245,-0.0069988081231713295,-0.05077214166522026,0.006942517589777708,-0.01864464022219181
0.02699277177453041,0.021256281062960625,-0.006666185334324837,-0.05095900967717171,0.007174869533628225,-0.019215524196624756
0.02681068331003189,0.021281084045767784,-0.007147057447582483,-0.051150232553482056,0.006970228627324104,-0.019203832373023033
0.02650473825633526,0.020702512934803963,-0.007681104354560375,-0.05133851245045662,0.006940307095646858,-0.01880774460732937
0.026791516691446304,0.02160225436091423,-0.00697579188272357,-0.05201488733291626,0.00720282131806016,-0.019226588308811188
0.027603697031736374,0.02179678902029991,-0.006425531581044197,-0.05301621928811073,0.007501705549657345,-0.019440365955233574
0.027285203337669373,0.021575236693024635,-0.006881370209157467,-0.051945798099040985,0.007461353205144405,-0.018985290080308914
0.02751016430556774,0.021277623251080513,-0.007406893186271191,-0.05416884273290634,0.007305495906621218,-0.019212156534194946
0.027434293180704117,0.02157624438405037,-0.007305706851184368,-0.05413343384861946,0.007104977965354919,-0.01918628253042698
0.027565065771341324,0.022372743114829063,-0.007102667819708586,-0.05141322314739227,0.006926333531737328,-0.019357522949576378
0.0278395377099514,0.022036120295524597,-0.00710155488923192,-0.052310504019260406,0.007078044582158327,-0.01963454857468605
0.02823091298341751,0.02211226150393486,-0.007559876423329115,-0.05366387590765953,0.007393041625618935,-0.019299088045954704
0.028390144929289818,0.022383369505405426,-0.00793788768351078,-0.055763375014066696,0.007629908621311188,-0.019344575703144073
0.028998959809541702,0.02253589779138565,-0.007197896018624306,-0.05297607183456421,0.006927367299795151,-0.019948340952396393
0.028577927500009537,0.022741416469216347,-0.00708827655762434,-0.05325976386666298,0.007105487398803234,-0.01994478330016136
0.028718337416648865,0.022782104089856148,-0.007638812065124512,-0.05515540391206741,0.007267442066222429,-0.020470237359404564
0.028609925881028175,0.022552160546183586,-0.007608902174979448,-0.05552748963236809,0.007117246277630329,-0.0192180797457695
0.028813203796744347,0.02284291200339794,-0.007703551556915045,-0.055305320769548416,0.0072359200567007065,-0.01936005987226963
0.028984447941184044,0.023105092346668243,-0.007469760719686747,-0.05587891489267349,0.007724265567958355,-0.01980086788535118
0.028984447941184044,0.023105092346668243,-0.007469760719686747,-0.05587891489267349,0.007724265567958355,-0.01980086788535118
0.029066365212202072,0.023151515051722527,-0.008007720112800598,-0.05649421736598015,0.008199374191462994,-0.02023185044527054
0.029550425708293915,0.02335115522146225,-0.007686566561460495,-0.05481487512588501,0.008297840133309364,-0.020079243928194046
0.029550425708293915,0.02335115522146225,-0.007686566561460495,-0.05481487512588501,0.008297840133309364,-0.020079243928194046
0.0292802844196558,0.023486483842134476,-0.008195926435291767,-0.05537654086947441,0.007668383419513702,-0.020301297307014465
0.02945488691329956,0.023454351350665092,-0.008049839176237583,-0.05661165714263916,0.00757330609485507,-0.020529109984636307
0.029706019908189774,0.023632772266864777,-0.008159978315234184,-0.05375925451517105,0.007657776586711407,-0.020929468795657158
0.02953442558646202,0.023933475837111473,-0.006745200138539076,-0.05387577787041664,0.007837067358195782,-0.02072581648826599
0.029869863763451576,0.02463645301759243,-0.007531784474849701,-0.055406276136636734,0.0076209320686757565,-0.020352788269519806
0.030007919296622276,0.024408048018813133,-0.00829173531383276,-0.0561194010078907,0.007604518905282021,-0.01987239345908165
