davideferrari95/blind_handover_controller/data/Test 175 - [2024-02-08 -- 11-15-37]/joint_states_data.csv
shoulder_pan_joint,shoulder_lift_joint,elbow_joint,wrist_1_joint,wrist_2_joint,wrist_3_joint
-0.004682614002376795,-0.016796866431832314,1.0323038708841704e-14,0.019986411556601524,-0.0,-0.004747516475617886
-0.004746670834720135,-0.016019804403185844,1.3849674254899494e-16,0.019077308475971222,-0.0,-0.004668694455176592
-0.004746670834720135,-0.016019804403185844,1.3849674254899494e-16,0.019077308475971222,-0.0,-0.004668694455176592
-0.004716751165688038,-0.015865508466959,1.858110492433739e-18,0.018844420090317726,-0.0,-0.004590809345245361
-0.004433141555637121,-0.01646319031715393,2.492892306626959e-20,0.017966117709875107,-0.0,-0.004405106417834759
-0.004215105902403593,-0.016380824148654938,3.3445332012122892e-22,0.018236929550766945,-0.0,-0.004487860947847366
-0.005019437987357378,-0.01604224368929863,6.020041621584094e-26,0.01906396821141243,-0.0,-0.004415543284267187
-0.004512064158916473,-0.016412049531936646,8.076653481602685e-28,0.019010767340660095,-0.0,-0.0048857079818844795
-0.004513084422796965,-0.016240490600466728,1.083586039842229e-29,0.019082019105553627,-0.0,-0.004560640547424555
-0.004515102598816156,-0.01624145172536373,1.4537688933935775e-31,0.01851801946759224,-0.0,-0.00457649165764451
-0.0041165719740092754,-0.01650206558406353,1.950416593740818e-33,0.017764106392860413,-0.0,-0.0045951665379107
-0.004421149380505085,-0.016347546130418777,2.616732502905103e-35,0.019206693395972252,-0.0,-0.0050183432176709175
-0.0046701072715222836,-0.016564225777983665,3.5106808899443644e-37,0.01920860819518566,-0.0,-0.005032888613641262
-0.004628543276339769,-0.01605554297566414,4.710026181408539e-39,0.01903211511671543,-0.0,-0.004771531093865633
-0.004473571665585041,-0.016453484073281288,6.319155424872763e-41,0.018504798412322998,-0.0,-0.0044341799803078175
-0.004549889359623194,-0.01806214079260826,8.477855709165143e-43,0.018118472769856453,-0.0,-0.0047327009961009026
-0.004492645151913166,-0.01608482375741005,1.1210387714598537e-44,0.018069971352815628,-0.0,-0.0049809920601546764
-0.004368861671537161,-0.016447825357317924,0.0,0.017731517553329468,-0.0,-0.004743979312479496
-0.004521711729466915,-0.016828302294015884,-0.0,0.017444204539060593,-0.0,-0.004893069621175528
-0.004521711729466915,-0.016828302294015884,-0.0,0.017444204539060593,-0.0,-0.004893069621175528
-0.00498719559982419,-0.017053769901394844,-0.0,0.018020134419202805,-0.0,-0.004864995367825031
-0.004503293428570032,-0.016257142648100853,-0.0,0.01834089122712612,-0.0,-0.004788166377693415
-0.004550321493297815,-0.016907192766666412,-0.0,0.01869010366499424,-0.0,-0.004399680998176336
-0.004581198561936617,-0.016607319936156273,-0.0,0.019475748762488365,-0.0,-0.004921945743262768
-0.004712396766990423,-0.016470665112137794,-0.0,0.018747182562947273,-0.0,-0.004858261439949274
-0.004764607176184654,-0.016792071983218193,-0.0,0.018663739785552025,-0.0,-0.004943948704749346
-0.004687304608523846,-0.01654798537492752,-0.0,0.018385831266641617,-0.0,-0.004876026418060064
-0.004541297443211079,-0.017007576301693916,-0.0,0.017847923561930656,-0.0,-0.004852708429098129
-0.004713424947112799,-0.016528047621250153,-0.0,0.018498821184039116,-0.0,-0.004757771268486977
-0.0047903782688081264,-0.016909264028072357,-0.0,0.01855243369936943,-0.0,-0.004770627245306969
-0.00441243639215827,-0.016878291964530945,-0.0,0.01792929135262966,-0.0,-0.004491964355111122
-0.0046312808990478516,-0.016792936250567436,-0.0,0.01799054630100727,-0.0,-0.004325431305915117
-0.00457255681976676,-0.01662389561533928,-0.0,0.018160074949264526,-0.0,-0.004579797852784395
-0.004549524746835232,-0.017054418101906776,-0.0,0.01858341135084629,-0.0,-0.004651929251849651
-0.004594396334141493,-0.016660958528518677,-0.0,0.017969897016882896,-0.0,-0.004471540916711092
-0.0044081611558794975,-0.01658179797232151,-0.0,0.017908969894051552,-0.0,-0.0043986402451992035
-0.004317316226661205,-0.01720527559518814,-0.0,0.01791694201529026,-0.0,-0.004416489973664284
-0.004936101846396923,-0.017109323292970657,-0.0,0.017037441954016685,-0.0,-0.0045447140000760555
-0.004565312527120113,-0.017404835671186447,-0.0,0.017310524359345436,-0.0,-0.004746824968606234
-0.004545303992927074,-0.016781959682703018,-0.0,0.017437022179365158,-0.0,-0.0045157321728765965
-0.004294903948903084,-0.0169279333204031,-0.0,0.017226766794919968,-0.0,-0.004261961206793785
-0.004262246657162905,-0.01693502999842167,-0.0,0.017930692061781883,-0.0,-0.004213199019432068
-0.004405344370752573,-0.016460876911878586,-0.0,0.01721850037574768,-0.0,-0.004451266489923
-0.0045127649791538715,-0.016909677535295486,-0.0,0.017510581761598587,-0.0,-0.004203869961202145
-0.004740073345601559,-0.016624370589852333,-0.0,0.017334716394543648,-0.0,-0.0044655692763626575
-0.0045498874969780445,-0.016736242920160294,-0.0,0.0170351043343544,-0.0,-0.004648204892873764
-0.0045498874969780445,-0.016736242920160294,-0.0,0.0170351043343544,-0.0,-0.004648204892873764
-0.004440316930413246,-0.016565430909395218,-0.0,0.01703847013413906,-0.0,-0.004758399911224842
-0.004461598116904497,-0.016414957121014595,-0.0,0.016715623438358307,-0.0,-0.005032166838645935
-0.0045772455632686615,-0.017087336629629135,-0.0,0.017358021810650826,-0.0,-0.0050697289407253265
-0.0043197316117584705,-0.016708508133888245,-0.0,0.016945520415902138,-0.0,-0.004417847376316786
-0.00452319486066699,-0.016807978972792625,-0.0,0.016956334933638573,-0.0,-0.004389512352645397
-0.0046312701888382435,-0.016175635159015656,-0.0,0.017435062676668167,-0.0,-0.004574329126626253
-0.0045847599394619465,-0.01651245728135109,-0.0,0.017162462696433067,-0.0,-0.004963185638189316
-0.004511355888098478,-0.016683470457792282,-0.0,0.017070231959223747,-0.0,-0.0046964846551418304
-0.004192582331597805,-0.0156419575214386,-0.0,0.0165223628282547,-0.0,-0.005013890098780394
-0.004457524046301842,-0.0161079540848732,-0.0,0.016855834051966667,-0.0,-0.004472651518881321
-0.0044513544999063015,-0.015787042677402496,-0.0,0.017017807811498642,-0.0,-0.004408104810863733
-0.004834403283894062,-0.016604386270046234,-0.0,0.01718403957784176,-0.0,-0.004208977334201336
-0.004377234261482954,-0.015889104455709457,-0.0,0.016267701983451843,-0.0,-0.004547540098428726
-0.004469042178243399,-0.015773115679621696,-0.0,0.01661953143775463,-0.0,-0.004705021623522043
-0.004290837328881025,-0.01612742431461811,-0.0,0.01665620692074299,-0.0,-0.004788998980075121
-0.004277328960597515,-0.015803338959813118,-0.0,0.016586100682616234,-0.0,-0.004701550118625164
-0.0039871386252343655,-0.016016317531466484,-0.0,0.016496630385518074,-0.0,-0.004158787429332733
-0.004318291321396828,-0.01653151959180832,-0.0,0.016074076294898987,-0.0,-0.0043024104088544846
-0.004701199475675821,-0.015437789261341095,-0.0,0.01632627844810486,-0.0,-0.0046065314672887325
-0.0046350532211363316,-0.015590121038258076,-0.0,0.016104204580187798,-0.0,-0.004678885452449322
-0.004332120530307293,-0.015257937833666801,-0.0,0.016497153788805008,-0.0,-0.004681773018091917
-0.0035306273493915796,-0.015791762620210648,-0.0,0.01592886634171009,-0.0,-0.00458197295665741
-0.00316413096152246,-0.015322583727538586,-0.0,0.016111304983496666,-0.0,-0.0041722506284713745
-0.00316413096152246,-0.015322583727538586,-0.0,0.016111304983496666,-0.0,-0.0041722506284713745
-0.003273902228102088,-0.01589268445968628,-0.0,0.016232363879680634,-0.0,-0.003834738861769438
-0.0036924094893038273,-0.015923798084259033,-0.0,0.0155415628105402,-0.0,-0.004215032793581486
-0.003852897323668003,-0.01590321958065033,-0.0,0.01607450097799301,-0.0,-0.004128606989979744
-0.003457438200712204,-0.01576235517859459,-0.0,0.015643376857042313,-0.0,-0.004287928342819214
-0.003246735781431198,-0.01527421548962593,-0.0,0.016298629343509674,-0.0,-0.004237105138599873
-0.003195655532181263,-0.015526680275797844,-0.0,0.015845565125346184,-0.0,-0.004511947277933359
-0.00350113189779222,-0.015354448929429054,-0.0,0.015924910083413124,-0.0,-0.004573254380375147
-0.003355072345584631,-0.015608430840075016,-0.0,0.015376641415059566,-0.0,-0.004329016897827387
-0.0031931644771248102,-0.015320336446166039,-0.0,0.01578802429139614,-0.0,-0.00474282493814826
-0.003263816935941577,-0.015732264146208763,-0.0,0.01584981381893158,-0.0,-0.0045532723888754845
-0.0030661961063742638,-0.015515396371483803,-0.0,0.015774212777614594,-0.0,-0.004383511375635862
-0.003122079186141491,-0.01576114259660244,-0.0,0.015501698479056358,-0.0,-0.004346681758761406
-0.00322505715303123,-0.015298261307179928,-0.0,0.015069659799337387,-0.0,-0.004571523983031511
-0.003979796543717384,-0.015422001481056213,-0.0,0.015343202278017998,-0.0,-0.005003960803151131
-0.0038613358046859503,-0.016583364456892014,-0.0,0.015157363377511501,-0.0,-0.004899204708635807
-0.002646270440891385,-0.01469422411173582,-0.0,0.015253985300660133,-0.0,-0.00437552435323596
-0.0030478115659207106,-0.01514569390565157,-0.0,0.01584038697183132,-0.0,-0.004171338863670826
-0.0032570266630500555,-0.01564694382250309,-0.0,0.01547184307128191,-0.0,-0.004402236081659794
-0.0035191341303288937,-0.015336407348513603,-0.0,0.01537229958921671,-0.0,-0.004639874678105116
-0.0032743324991315603,-0.01567883975803852,-0.0,0.014805581420660019,-0.0,-0.004698731936514378
-0.0030345201957970858,-0.015502440743148327,-0.0,0.015189990401268005,-0.0,-0.004596992861479521
-0.0030113589018583298,-0.01605059765279293,-0.0,0.01491610798984766,-0.0,-0.004610405303537846
-0.0029585640877485275,-0.0153771648183465,-0.0,0.014945057220757008,-0.0,-0.00461021950468421
-0.0032048928551375866,-0.015812288969755173,-0.0,0.014790472574532032,-0.0,-0.00482166139408946
-0.0031414791010320187,-0.015126149170100689,-0.0,0.014524444937705994,-0.0,-0.004938364494591951
-0.002900925697758794,-0.015584919601678848,-0.0,0.013076176866889,-0.0,-0.004764222074300051
-0.00296608405187726,-0.01519824005663395,-0.0,0.014631729573011398,-0.0,-0.004758936818689108
-0.0029359280597418547,-0.01529610250145197,-0.0,0.014527497813105583,-6.476849421233055e-07,-0.004639444872736931
-0.0029410698916763067,-0.015243357047438622,-0.0,0.014021097682416439,-4.228919792126362e-08,-0.004419390112161636
-0.003300200682133436,-0.014749125577509403,-0.0,0.01352251973003149,-2.7611826158846497e-09,-0.004309250041842461
-0.002972147660329938,-0.015148290432989597,-0.0,0.013556724414229393,-1.8028552262183695e-10,-0.004523107316344976
-0.002972147660329938,-0.015148290432989597,-0.0,0.013556724414229393,-1.8028552262183695e-10,-0.004523107316344976
-0.003063732525333762,-0.015137892216444016,-0.0,0.013110416010022163,-1.177135645902272e-11,-0.004600536078214645
-0.0030107032507658005,-0.015235747210681438,-0.0,0.01350380014628172,-7.685854990641117e-13,-0.004688284359872341
-0.0030377318616956472,-0.01481521688401699,-0.0,0.013493731617927551,-5.018314119830704e-14,-0.005200470797717571
-0.002976503688842058,-0.015026189386844635,-0.0,0.014043526723980904,-3.2766006315116227e-15,-0.005117506254464388
-0.002963102189823985,-0.014676235616207123,-0.0,0.013434162363409996,-2.1393861873381586e-16,-0.004908706992864609
-0.00314495712518692,-0.015380950644612312,-0.0,0.013771707192063332,-1.3968661869909532e-17,-0.005023045931011438
-0.0031289823818951845,-0.014991001226007938,-0.0,0.013223706744611263,-9.120537894967608e-19,-0.005310033448040485
-0.002994071925058961,-0.015352201648056507,-0.0,0.013064760714769363,-5.955059991641924e-20,-0.0050330935046076775
-0.0027914459351450205,-0.014564462006092072,-0.0,0.013191421516239643,-3.888228708377996e-21,-0.005383764859288931
-0.0028933605644851923,-0.014869275502860546,-0.0,0.013814307749271393,-2.5387356416827996e-22,-0.005112133454531431
-0.002875428879633546,-0.014042628929018974,-0.0,0.013647666200995445,4.558231466944562e-06,-0.0046247621066868305
-0.0029171474743634462,-0.01433324534446001,-0.0,0.013912368565797806,0.000271991069894284,-0.004901268053799868
-0.002946440828964114,-0.014486962929368019,-0.0,0.013690322637557983,0.00028360981377772987,-0.005258930381387472
-0.0026752008125185966,-0.013835765421390533,-0.0,0.013503525406122208,0.0002916197117883712,-0.005265562329441309
-0.002627765294164419,-0.014195812866091728,-0.0,0.012988610193133354,0.0002781231887638569,-0.005045845173299313
-0.0026550758630037308,-0.013780687935650349,-0.0,0.01302975695580244,0.0002971380017697811,-0.004751438274979591
-0.0027335297781974077,-0.014441350474953651,-0.0,0.012467799708247185,0.0002935209486167878,-0.0047455886378884315
-0.0027935304678976536,-0.013995599001646042,-0.0,0.012997702695429325,0.0002810896548908204,-0.004923142958432436
-0.002593541517853737,-0.013819636777043343,-0.0,0.012934436090290546,0.00030243961373344064,-0.004921722691506147
-0.0027118094731122255,-0.013280007056891918,-0.0,0.013308197259902954,0.00029463457758538425,-0.0051723867654800415
-0.002822322305291891,-0.013746439479291439,-0.0,0.01309578213840723,0.0002833371690940112,-0.004997330717742443
-0.0031889488454908133,-0.013950475491583347,-0.0,0.013221636414527893,0.0003472991520538926,-0.00484142079949379
-0.0028755422681570053,-0.014024840667843819,-0.0,0.012728758156299591,0.00034553490695543587,-0.004732303787022829
-0.0026981409173458815,-0.014007669873535633,-0.0,0.012679718434810638,0.00036980706499889493,-0.0049199797213077545
-0.002378607401624322,-0.014028306119143963,-0.0,0.013175097294151783,0.00036000338150188327,-0.004918437916785479
-0.0024505038745701313,-0.013548688031733036,-0.0,0.012597092427313328,0.0003384060983080417,-0.005187811329960823
-0.0024505038745701313,-0.013548688031733036,-0.0,0.012597092427313328,0.0003384060983080417,-0.005187811329960823
-0.0027696387842297554,-0.013573192991316319,-0.0,0.01275432575494051,0.00036790058948099613,-0.005049517843872309
-0.002929654438048601,-0.013722658157348633,-0.0,0.012764818966388702,0.0003506422508507967,-0.004854400176554918
-0.0027254873421043158,-0.013024261221289635,-0.0,0.013000257313251495,0.0003734447236638516,-0.005123413633555174
-0.0027336592320352793,-0.013666973449289799,-0.0,0.012609560042619705,0.00036038635880686343,-0.005584399215877056
-0.0025275181978940964,-0.01358545571565628,-0.0,0.011926308274269104,0.00044162580161355436,-0.005163536872714758
-0.0024005770683288574,-0.013726392760872841,-0.0,0.012075204402208328,0.00047377010923810303,-0.004847597796469927
-0.002605097135528922,-0.013638576492667198,-0.0,0.011678153648972511,0.0004722974554169923,-0.005033769179135561
-0.002861355897039175,-0.014002327807247639,-0.0,0.012047935277223587,0.0004996132338419557,-0.004964737221598625
-0.002630553673952818,-0.013701871037483215,-0.0,0.011707081459462643,0.0004709989298135042,-0.005496203433722258
-0.0026386354584246874,-0.01386434119194746,-0.0,0.012064178474247456,0.00048471742775291204,-0.005370451603084803
-0.0023510134778916836,-0.013456192798912525,-0.0,0.011798343621194363,0.00046771092456765473,-0.005773286335170269
-0.00231818831525743,-0.01385530550032854,-0.0,0.012012207880616188,0.0005151330842636526,-0.005387729965150356
-0.0026867890264838934,-0.013616295531392097,-0.0,0.012299303896725178,0.0005278525641188025,-0.005059332121163607
-0.0025001419708132744,-0.013971050269901752,-0.0,0.01164270844310522,0.0005223898333497345,-0.005591897293925285
-0.0024345875717699528,-0.013731678947806358,-0.0,0.011517433449625969,0.0004720102879218757,-0.005251218564808369
-0.002567391376942396,-0.01384857390075922,-0.0,0.011540542356669903,0.0005014281487092376,-0.005111137870699167
-0.0024445143062621355,-0.013911379501223564,-0.0,0.01170536782592535,0.0005177140701562166,-0.0048988014459609985
-0.00245044962503016,-0.013599047437310219,-0.0,0.01132334303110838,0.0004975061747245491,-0.004785364959388971
-0.0022496571764349937,-0.013936778530478477,-0.0,0.01127613428980112,0.0005079549155198038,-0.005130636040121317
-0.002352812560275197,-0.01370421051979065,-0.0,0.010910370387136936,0.0004947969573549926,-0.0054649850353598595
-0.002200473565608263,-0.013348204083740711,-0.0,0.010810370557010174,0.0005314484587870538,-0.005640609655529261
-0.0021636986639350653,-0.013830146752297878,-0.0,0.011095205321907997,0.0005591590306721628,-0.005195505917072296
-0.002087271772325039,-0.015316622331738472,-0.0,0.01077668834477663,0.0005226546782068908,-0.004964388906955719
-0.0020535520743578672,-0.013513253070414066,-0.0,0.010137852281332016,0.0005473339115269482,-0.005162739660590887
-0.0019315129611641169,-0.013202332891523838,-0.0,0.010663589462637901,0.0005165371112525463,-0.005148364696651697
-0.0018743601394817233,-0.014016292057931423,-0.0,0.010120144113898277,0.0006862208829261363,-0.005926678888499737
-0.0018039052374660969,-0.013359097763895988,-0.0,0.01006540097296238,0.0006673139869235456,-0.005866931285709143
-0.0018043705495074391,-0.01387107651680708,-0.0,0.010300513356924057,0.0006900444277562201,-0.005815462209284306
-0.0020709014497697353,-0.013661275617778301,-0.0,0.00953366793692112,0.0007047409890219569,-0.005232551135122776
-0.0020709014497697353,-0.013661275617778301,-0.0,0.00953366793692112,0.0007047409890219569,-0.005232551135122776
-0.0019155873451381922,-0.013844111002981663,-0.0,0.009394427761435509,0.0008264631032943726,-0.005102105438709259
-0.0021075827535241842,-0.01324400957673788,-0.0,0.010328616015613079,0.0008607258787378669,-0.00551570625975728
-0.001896440633572638,-0.013601566664874554,-0.0,0.010058575309813023,0.0008679573656991124,-0.005574247799813747
-0.0018011735519394279,-0.013104884885251522,-0.0,0.010273597203195095,0.0008868006989359856,-0.005582336336374283
-0.0017796976026147604,-0.013333437032997608,-0.0,0.010428270325064659,0.0010968210408464074,-0.005497338715940714
-0.001717504346743226,-0.013312013819813728,-0.0,0.009846790693700314,0.0011322208447381854,-0.0054929121397435665
-0.0015793846687301993,-0.013796077109873295,-0.0,0.010392705909907818,0.0011002132669091225,-0.005600620526820421
-0.001657436485402286,-0.01336522027850151,-0.0,0.009599247016012669,0.001082077855244279,-0.005666815210133791
-0.0017599258571863174,-0.012834121473133564,-0.0,0.00843892339617014,0.001097307656891644,-0.0059790294617414474
-0.0016071728896349669,-0.012967154383659363,-0.0,0.00884898193180561,0.0010590637102723122,-0.005342958495020866
-0.001602821983397007,-0.01317770965397358,-0.0,0.0081422608345747,0.0010724281892180443,-0.00517675606533885
-0.0015228925039991736,-0.012664428912103176,-0.0,0.00789570715278387,0.001301893382333219,-0.005885197315365076
-0.0015373154310509562,-0.012922419235110283,-0.0,0.008352483622729778,0.0012902525486424565,-0.005692535080015659
-0.0014668168732896447,-0.012494189664721489,-0.0,0.00854638870805502,0.001317336456850171,-0.00591711699962616
-0.0014981769490987062,-0.01245231181383133,-0.0,0.007978579960763454,0.0013647795422002673,-0.005465900059789419
-0.0014164333697408438,-0.012706340290606022,-0.0,0.00791918020695448,0.0012889011995866895,-0.005803895648568869
-0.0013435857836157084,-0.01265544630587101,-0.0,0.008083662949502468,0.0012291169259697199,-0.005551171954721212
-0.0014237755676731467,-0.013208501040935516,-0.0,0.007952180691063404,0.0010706011671572924,-0.005978795699775219
-0.0015032177325338125,-0.012061700224876404,-0.0,0.008113045245409012,0.0010034189326688647,-0.005600801669061184
-0.001494547468610108,-0.012337873689830303,-0.0,0.008190637454390526,0.0010035362793132663,-0.005728133954107761
-0.0015216375468298793,-0.01193155162036419,-0.0,0.008078381419181824,0.0012020496651530266,-0.005362830590456724
-0.0015216375468298793,-0.01193155162036419,-0.0,0.008078381419181824,0.0012020496651530266,-0.005362830590456724
-0.0012635638704523444,-0.012627099640667439,-0.0,0.007926387712359428,0.0013789094518870115,-0.005647122394293547
-0.0012635638704523444,-0.012627099640667439,-0.0,0.007926387712359428,0.0013789094518870115,-0.005647122394293547
-0.0011864228872582316,-0.01234392262995243,-0.0,0.008349728770554066,0.0013213051715865731,-0.006017620675265789
-0.001281420816667378,-0.01226134691387415,-0.0,0.007846079766750336,0.0012249641586095095,-0.006002741400152445
-0.0012739687226712704,-0.011602653190493584,-0.0,0.00745184812694788,0.0010756722185760736,-0.005455269478261471
-0.0013437250163406134,-0.012191996909677982,-0.0,0.0070696547627449036,0.0010297509143128991,-0.005470359697937965
-0.001157936523668468,-0.011322561651468277,-0.0,0.008163673803210258,0.0009931504027917981,-0.006038495805114508
-0.0011162033770233393,-0.011544529348611832,-0.0,0.008186757564544678,0.000879572588019073,-0.005668706260621548
-0.0010051779681816697,-0.011939790099859238,-0.0,0.0075391437858343124,0.0008027293952181935,-0.0058633433654904366
-0.0009818103862926364,-0.011329714208841324,-0.0,0.007303643971681595,0.0008111237548291683,-0.005669982172548771
-0.0009577160817570984,-0.011295566335320473,-0.0,0.007448876276612282,0.000821790483314544,-0.005690662655979395
-0.0009498507715761662,-0.012014955282211304,-0.0,0.00734545337036252,0.0007886411622166634,-0.006255920045077801
-0.0008802880183793604,-0.01173353474587202,-0.0,0.0067631821148097515,0.0009993120329454541,-0.0065008895471692085
-0.0007970862207002938,-0.011468561366200447,-0.0,0.007222658488899469,0.000988398096524179,-0.006175706163048744
-0.0008090793271549046,-0.011306291446089745,-0.0,0.007052095606923103,0.0010725755710154772,-0.005722916219383478
-0.0008165130857378244,-0.011261912994086742,-0.0,0.006860646884888411,0.0011788364499807358,-0.006076136603951454
-0.0008192972745746374,-0.011190635152161121,-0.0,0.006864775437861681,0.0011408396530896425,-0.0060138157568871975
-0.0008237066795118153,-0.011669555678963661,-0.0,0.007388119585812092,0.0012198133626952767,-0.006362048909068108
-0.0007530809380114079,-0.010539288632571697,-0.0,0.007185401860624552,0.0013039152836427093,-0.006991613190621138
-0.0007699087727814913,-0.010539820417761803,-0.0,0.006477565970271826,0.0012810495682060719,-0.00644072936847806
-0.0007734938990324736,-0.0110154515132308,-0.0,0.0056211757473647594,0.0012842945288866758,-0.005449263378977776
-0.000708077335730195,-0.010646820068359375,-0.0,0.006273352075368166,0.0013975610490888357,-0.00541022140532732
-0.0007176964427344501,-0.011281425133347511,-0.0,0.006737940479069948,0.0013480468187481165,-0.0063644153997302055
-0.0006224556709639728,-0.010570844635367393,-0.0,0.006291608791798353,0.001482993713580072,-0.006444361060857773
-0.0006514221895486116,-0.010261974297463894,-0.0,0.005992621649056673,0.0013682357966899872,-0.00607860554009676
-0.0006514221895486116,-0.010261974297463894,-0.0,0.005992621649056673,0.0013682357966899872,-0.00607860554009676
-0.0005278130993247032,-0.010451841168105602,-0.0,0.005640610586851835,0.0011526154121384025,-0.006512731779366732
-0.0005278130993247032,-0.010451841168105602,-0.0,0.005640610586851835,0.0011526154121384025,-0.006512731779366732
-0.0005512163043022156,-0.010843250900506973,-0.0,0.005853684619069099,0.001197436242364347,-0.0064811259508132935
-0.0005149281350895762,-0.011487944051623344,-0.0,0.00619067158550024,0.0011526987655088305,-0.006189748644828796
-0.00047611762420274317,-0.010298039764165878,-0.0,0.005783691070973873,0.0010530923027545214,-0.00649181567132473
-0.0004135912749916315,-0.010302694514393806,-0.0,0.005946665070950985,0.0010703373700380325,-0.006231562700122595
-0.0004135912749916315,-0.010302694514393806,-0.0,0.005946665070950985,0.0010703373700380325,-0.006231562700122595
-0.0003881078155245632,-0.01000187173485756,-0.0,0.0056549981236457825,0.0010795786511152983,-0.006780907046049833
-0.00039976657717488706,-0.010596297681331635,-0.0,0.005517172161489725,0.0010712876683101058,-0.0065025812946259975
-0.0003946482902392745,-0.010623359121382236,-0.0,0.0061300648376345634,0.0011117066023871303,-0.006414309144020081
-0.00037435279227793217,-0.009832317009568214,-0.0,0.005743534304201603,0.0011649340158328414,-0.006309738382697105
-0.00035585154546424747,-0.010558261536061764,-0.0,0.0056493221782147884,0.001290947780944407,-0.00660921074450016
-0.0002916795783676207,-0.01075263787060976,-0.0,0.0057799844071269035,0.0013752171071246266,-0.0061952355317771435
-0.00026856453041546047,-0.009920691139996052,-0.0,0.0056451475247740746,0.0013383978512138128,-0.006314822938293219
-0.00025336406542919576,-0.010166151449084282,-0.0,0.005265663377940655,0.0012959606247022748,-0.00664416141808033
-0.00022771800286136568,-0.010160115547478199,-0.0,0.004653531592339277,0.0011843063402920961,-0.00654227240011096
-0.0002167486381949857,-0.010227218270301819,-0.0,0.005167555529624224,0.0011393072782084346,-0.0065253362990915775
-0.00020678753207903355,-0.009724589064717293,-1.6210438843700103e-05,0.0055311075411736965,0.0011297438759356737,-0.006740501616150141
-0.0002356299664825201,-0.009909498505294323,-6.656593177467585e-05,0.005572477355599403,0.0010938014602288604,-0.006879888009279966
-0.00022723546135239303,-0.00983812753111124,-6.626497633988038e-05,0.005502921994775534,0.0010991381714120507,-0.006773168686777353
-0.00021807858138345182,-0.009634368121623993,-6.531197141157463e-05,0.005122500006109476,0.001079021254554391,-0.006466623395681381
-0.00020961299014743418,-0.009723858907818794,-6.437766569433734e-05,0.004942201543599367,0.0010926203103736043,-0.006242124363780022
-0.0002017803053604439,-0.009739112108945847,-6.346969166770577e-05,0.005280532408505678,0.0011578002013266087,-0.006559465080499649
-0.00019451166735962033,-0.009416411630809307,-6.258692155824974e-05,0.005303579848259687,0.0014661152381449938,-0.006649542599916458
-0.00020829509594477713,-0.00940597802400589,-7.358287257375196e-05,0.0051957364194095135,0.001615961897186935,-0.006656876765191555
-0.0002115358947776258,-0.009676064364612103,-7.306566112674773e-05,0.005216273944824934,0.001954407198354602,-0.006389337126165628
-0.0002115358947776258,-0.009676064364612103,-7.306566112674773e-05,0.005216273944824934,0.001954407198354602,-0.006389337126165628
-0.00020479665545281023,-0.010128228925168514,-8.271152182715014e-05,0.005109858233481646,0.002003683242946863,-0.006617843639105558
-0.00019229597819503397,-0.009556896984577179,-8.192507812054828e-05,0.0052301352843642235,0.001524540944956243,-0.0071686808951199055
-0.00019229597819503397,-0.009556896984577179,-8.192507812054828e-05,0.0052301352843642235,0.001524540944956243,-0.0071686808951199055
-0.0001866005768533796,-0.00970747321844101,-8.087365131359547e-05,0.004692450165748596,0.0014932838967069983,-0.006614563520997763
-0.000181232433533296,-0.009194644168019295,-7.984863623278216e-05,0.004200615920126438,0.0013554940233007073,-0.006432401016354561
-0.00017616453988011926,-0.009096699766814709,-8.626710041426122e-05,0.0039461711421608925,0.0013824226334691048,-0.0064467694610357285
-0.00017137244867626578,-0.009218821302056313,-8.894797065295279e-05,0.00417814776301384,0.0013768663629889488,-0.006373248528689146
-0.00016253032663371414,-0.008829852566123009,-0.0002617590653244406,0.004500216338783503,0.0016935907769948244,-0.006664056796580553
-0.00016253032663371414,-0.008829852566123009,-0.0002617590653244406,0.004500216338783503,0.0016935907769948244,-0.006664056796580553
-0.00015844247536733747,-0.008946995250880718,-0.0002496427623555064,0.004576331004500389,0.0015536354621872306,-0.006798238027840853
-5.08895464008674e-05,-0.009100752882659435,-0.00023655005497857928,0.0038823175709694624,0.0014128094771876931,-0.0066151986829936504
-4.2269707591913175e-06,-0.008616209030151367,-0.00022473598073702306,0.003515178570523858,0.0013052521971985698,-0.007051126565784216
-5.671020986142139e-08,-0.009202081710100174,-0.00021404560538940132,0.0035893197637051344,0.0012570602120831609,-0.0066710710525512695
-7.608398910896597e-10,-0.008531730622053146,-0.00024461650173179805,0.0034773226361721754,0.0011967220343649387,-0.006909405812621117
-1.0207637686499016e-11,-0.008550702594220638,-0.0002601653104647994,0.0033630419056862593,0.0011643554316833615,-0.006761887110769749
-1.837338764679587e-15,-0.008632853627204895,-0.0002753513981588185,0.0032957957591861486,0.0013454058207571507,-0.007145077921450138
-2.4650241988792566e-17,-0.00822740700095892,-0.0002765026583801955,0.003507553832605481,0.0014168850611895323,-0.006995755713433027
-3.3071443446997244e-19,-0.008541111834347248,-0.00026642816374078393,0.0034778467379510403,0.0016947503900155425,-0.006693383678793907
-4.43695601215931e-21,-0.008536006323993206,-0.0002569226489868015,0.0033010568004101515,0.0017557407263666391,-0.006922774016857147
-5.952742497531583e-23,-0.00809465628117323,-0.00034050288377329707,0.003288618056103587,0.0019083028892055154,-0.006835149601101875
-7.98636420254704e-25,-0.008824490010738373,-0.00036210965481586754,0.003149650990962982,0.0019085941603407264,-0.006731290835887194
-1.0714726356323725e-26,-0.008663525804877281,-0.00035853672306984663,0.002988252090290189,0.001832361682318151,-0.007201653905212879
-1.437517360497414e-28,-0.007800472434610128,-0.0003902263706550002,0.0029457700438797474,0.0016873852582648396,-0.007144177332520485
-1.9286130807726488e-30,-0.007614267989993095,-0.00036949070636183023,0.002631432143971324,0.00164553034119308,-0.007179598324000835
-2.587480532614757e-32,-0.007601508870720863,-0.00038168829632923007,0.002398824319243431,0.001643926603719592,-0.006823286414146423
-3.4714350193598394e-34,-0.007643581833690405,-0.0003777365491259843,0.00226647243835032,0.001555224764160812,-0.0067423321306705475
-4.657372974551695e-36,-0.0076527949422597885,-0.000556615530513227,0.001984587637707591,0.0015670839929953218,-0.006939899642020464
-4.657372974551695e-36,-0.0076527949422597885,-0.000556615530513227,0.001984587637707591,0.0015670839929953218,-0.006939899642020464
-6.248459917347576e-38,-0.00705772265791893,-0.0006094237323850393,0.0018135204445570707,0.001638926798477769,-0.007547530811280012
-8.383099907007499e-40,-0.007249121554195881,-0.0005580070428550243,0.0017290652031078935,0.0015923717292025685,-0.007458969950675964
-1.1246821474670982e-41,-0.007642312906682491,-0.0005889324238523841,0.0015821825945749879,0.001724204164929688,-0.0067924014292657375
0.00023376313038170338,-0.006974420975893736,-0.0005395928747020662,0.0014759976183995605,0.0017637488199397922,-0.0068987226113677025
0.00029777668532915413,-0.006815304048359394,-0.0005594618269242346,0.0013545032124966383,0.0018704283284023404,-0.007241914980113506
0.000298783095786348,-0.00708285765722394,-0.0005263650673441589,0.0012614919105544686,0.0018641484202817082,-0.0075509496964514256
0.0003256527706980705,-0.0069593037478625774,-0.0005872312467545271,0.0010892010759562254,0.0018467588815838099,-0.007557629141956568
0.0009057635325007141,-0.006663430482149124,-0.0006247650599107146,0.0008810427971184254,0.001703372923657298,-0.007702002301812172
0.0009208871051669121,-0.006164741236716509,-0.0006614538142457604,0.0007271827198565006,0.0016747344052419066,-0.007816562429070473
0.0008287819800898433,-0.006719575263559818,-0.0006843555020168424,0.0007320377044379711,0.0017080748220905662,-0.007710492704063654
0.0007189881289377809,-0.006426433101296425,-0.000867352937348187,0.0007512724259868264,0.001744341105222702,-0.007050476502627134
0.0006344481953419745,-0.007038078736513853,-0.0008249079692177474,0.0007546902634203434,0.0018509355140849948,-0.007377317640930414
0.0006582700880244374,-0.0065766205079853535,-0.0008317427709698677,0.0007699435809627175,0.0021829656325280666,-0.007562729530036449
0.0006327465525828302,-0.006822998635470867,-0.000814510160125792,0.000831606681458652,0.002259388566017151,-0.007936404086649418
0.0005973646766506135,-0.007362469099462032,-0.0007616660441271961,0.0008129184134304523,0.002047887770459056,-0.007170246448367834
0.0006283242837525904,-0.006959274876862764,-0.0007232451462186873,0.0007739033317193389,0.0018051944207400084,-0.007294913288205862
0.0006541918264701962,-0.006303061731159687,-0.0007481630891561508,0.000836579711176455,0.001702681533060968,-0.008052609860897064
0.0006294375634752214,-0.006599353160709143,-0.0007666374440304935,0.0008316202438436449,0.0014689791714772582,-0.007707319688051939
0.0009951882530003786,-0.0067856148816645145,-0.0007783656474202871,0.0007493209559470415,0.001333263935521245,-0.0070268320851027966
0.0009840544080361724,-0.007016377989202738,-0.0008972178911790252,0.0006597635219804943,0.0013433003332465887,-0.007381158415228128
0.0009723473340272903,-0.006317996885627508,-0.0009178753825835884,0.0006787345628254116,0.0015086798230186105,-0.007706657517701387
0.0008921929402276874,-0.006087067071348429,-0.0009192421566694975,0.0006180141936056316,0.0016713024815544486,-0.007122302893549204
0.0010133993346244097,-0.0064753638580441475,-0.00091676035663113,0.0005630979430861771,0.0019099600613117218,-0.007082177791744471
0.0010307144839316607,-0.006065205670893192,-0.0009943683398887515,0.0005168769275769591,0.001903841970488429,-0.00789620541036129
0.0010324862087145448,-0.005822899751365185,-0.000983836012892425,0.0004776563437189907,0.0016809719381853938,-0.008358861319720745
0.0013573342002928257,-0.0058918483555316925,-0.0009708040161058307,0.000498744600918144,0.0017065216088667512,-0.007999933324754238
0.0013573342002928257,-0.0058918483555316925,-0.0009708040161058307,0.000498744600918144,0.0017065216088667512,-0.007999933324754238
0.0014075633371248841,-0.005525639280676842,-0.0009637069306336343,0.00047345447819679976,0.0017547078896313906,-0.007836493663489819
0.0014035102212801576,-0.005878733936697245,-0.001108852680772543,0.0004446498060133308,0.0020072017796337605,-0.007742976304143667
0.001503830193541944,-0.006346122361719608,-0.001188285881653428,0.000418803101638332,0.002218323526903987,-0.007682377938181162
0.001447120914235711,-0.006372346077114344,-0.0013613320188596845,0.0003957831650041044,0.0022672777995467186,-0.00781986117362976
0.0015778361121192575,-0.0057412744499742985,-0.0013758445857092738,0.0003751467738766223,0.0022944374941289425,-0.007950415834784508
0.0016345968469977379,-0.005663189571350813,-0.0012854394735768437,0.00035659500281326473,0.0021117408759891987,-0.007931762374937534
0.0020462896209210157,-0.006339672952890396,-0.0012337691150605679,0.00033973483368754387,0.00212041730992496,-0.00814097560942173
0.0021537942811846733,-0.006438314914703369,-0.0012377363163977861,0.0003244483668822795,0.0018940364243462682,-0.008137708529829979
0.0021404444705694914,-0.006277116015553474,-0.0013035839656367898,0.0003104375791735947,0.0017110551707446575,-0.007852579466998577
0.001928124693222344,-0.005806679837405682,-0.00145537534262985,0.00029761952464468777,0.0017174545209854841,-0.007627169135957956
0.0020936017390340567,-0.005862150341272354,-0.0015029278583824635,0.00028580109938047826,0.0018548074876889586,-0.00782268587499857
0.002270973054692149,-0.005847023334354162,-0.0013841916806995869,0.0002748908009380102,0.0019544216338545084,-0.007846708409488201
0.002257478190585971,-0.006162908859550953,-0.0012059197761118412,0.0002647800138220191,0.002066133078187704,-0.007577110081911087
0.0025667573790997267,-0.005748647265136242,-0.0011358028277754784,0.0002466347359586507,0.0018919159192591906,-0.007712061051279306
0.0024508326314389706,-0.005336972884833813,-0.0011241481406614184,0.00023846827389206737,0.0018813252681866288,-0.008111543953418732
0.0025978090707212687,-0.005459093954414129,-0.0015398304676637053,0.00020578813564497977,0.0020454463083297014,-0.008281352929770947
0.002856258302927017,-0.005708447657525539,-0.0014629506040364504,0.00019594495825003833,0.0020177429541945457,-0.007974868640303612
0.0034202930983155966,-0.006107136607170105,-0.0014610991347581148,0.0001898156333481893,0.002478544134646654,-0.0075467671267688274
0.0034870419185608625,-0.005448102485388517,-0.0013284446904435754,0.00018424906011205167,0.0026737614534795284,-0.007846071384847164
0.0030097917187958956,-0.005347848404198885,-0.0012572517152875662,0.0001790125243132934,0.0027300845831632614,-0.008154942654073238
0.0029745663050562143,-0.005651262588799,-0.0012265563709661365,0.00017406603728886694,0.0025225572753697634,-0.007972095161676407
0.0031513636931777,-0.006215724628418684,-0.0013580664526671171,7.035348971839994e-05,0.002139975316822529,-0.008097740821540356
0.003450258169323206,-0.006150145549327135,-0.0013505519600585103,5.46314477105625e-05,0.001976975006982684,-0.008265879936516285
0.003450258169323206,-0.006150145549327135,-0.0013505519600585103,5.46314477105625e-05,0.001976975006982684,-0.008265879936516285
0.0036819176748394966,-0.006286841817200184,-0.001936093671247363,5.215975033934228e-05,0.0018676023464649916,-0.008109495043754578
0.0034593467134982347,-0.005494601558893919,-0.001767631503753364,2.8659695090027526e-05,0.001892921980470419,-0.007985671050846577
0.003541851183399558,-0.005381695926189423,-0.0016985760303214192,2.4840812329784967e-05,0.002191108651459217,-0.008165916427969933
0.004164562560617924,-0.005535154137760401,-0.0015570654068142176,1.6219274812101503e-06,0.002155737020075321,-0.008651239797472954
0.00442271726205945,-0.006047972943633795,-0.0015342949191108346,1.0590027699208804e-07,0.0023595213424414396,-0.008320764638483524
0.004360586870461702,-0.005829766392707825,-0.001633495674468577,6.914530725765644e-09,0.0023901183158159256,-0.008263288997113705
0.0043927025981247425,-0.0050760116428136826,-0.0018624879885464907,4.514694729174096e-10,0.0025602674577385187,-0.008513961918652058
0.003982179332524538,-0.005227059591561556,-0.0019790588412433863,-0.00036985918995924294,0.0024389580357819796,-0.008658569306135178
0.004333998076617718,-0.005524350330233574,-0.0017401756485924125,-0.0017432952299714088,0.002260379260405898,-0.00829964131116867
0.004712867084890604,-0.005620559677481651,-0.0015745569253340364,-0.002790207974612713,0.0022060838527977467,-0.009260394610464573
0.005168763920664787,-0.005404606461524963,-0.0014662918401882052,-0.0029876993503421545,0.002084901323541999,-0.007938452996313572
0.005365421064198017,-0.0051088179461658,-0.0015155564760789275,-0.0028003533370792866,0.002380159916356206,-0.00862833857536316
0.005076185334473848,-0.00571578461676836,-0.0017969019245356321,-0.002821780974045396,0.0023273176047950983,-0.00825386680662632
0.005085604730993509,-0.0060136932879686356,-0.001627878868021071,-0.0038362564519047737,0.0020566086750477552,-0.009014194831252098
0.004940781742334366,-0.005486569367349148,-0.0014347336255013943,-0.004533504601567984,0.002078991150483489,-0.008773992769420147
0.006168256979435682,-0.005404127761721611,-0.0013335535768419504,-0.005290472414344549,0.002390657551586628,-0.00869896449148655
0.006000488065183163,-0.005480229388922453,-0.0011721294140443206,-0.006293191574513912,0.00257126591168344,-0.008753779344260693
0.005848224740475416,-0.005162255372852087,-0.001150919240899384,-0.005879638250917196,0.0024967724457383156,-0.008884735405445099
0.005297712981700897,-0.005479748826473951,-0.001931651378981769,-0.005701759830117226,0.0021891684737056494,-0.008812622167170048
0.0058240401558578014,-0.005269738845527172,-0.0018014356028288603,-0.005973961669951677,0.002069117734208703,-0.008363485336303711
0.006504950579255819,-0.005013721529394388,-0.0016240575350821018,-0.006912160664796829,0.0020811494905501604,-0.008457456715404987
0.006318765692412853,-0.005120325367897749,-0.0015022368170320988,-0.007117536850273609,0.00238641444593668,-0.008727277629077435
0.0060764942318201065,-0.005053970962762833,-0.0014132491778582335,-0.006511199753731489,0.00250298366881907,-0.00894536729902029
0.0060764942318201065,-0.005053970962762833,-0.0014132491778582335,-0.006511199753731489,0.00250298366881907,-0.00894536729902029
0.006089980248361826,-0.0051540047861635685,-0.001506463740952313,-0.0075859008356928825,0.0023841876536607742,-0.008868684992194176
0.006089980248361826,-0.0051540047861635685,-0.001506463740952313,-0.0075859008356928825,0.0023841876536607742,-0.008868684992194176
0.006580607499927282,-0.005066759884357452,-0.0018529299413785338,-0.007408476900309324,0.0023616908583790064,-0.009023203514516354
0.0069121853448450565,-0.0049604312516748905,-0.0019273448269814253,-0.007168008480221033,0.002355566481128335,-0.0090823695063591
0.006838337052613497,-0.005063103046268225,-0.0017318758182227612,-0.007463845424354076,0.0023415617179125547,-0.009673704393208027
0.007127764634788036,-0.004448675084859133,-0.0014230397064238787,-0.00782072078436613,0.0025987643748521805,-0.00962532963603735
0.007659438066184521,-0.0048921192064881325,-0.0014396192273125052,-0.007677511312067509,0.0025287531316280365,-0.009232547134160995
0.0067348540760576725,-0.005587581545114517,-0.0013769629877060652,-0.007326450664550066,0.0023550137411803007,-0.008427280932664871
0.007486595306545496,-0.005223702639341354,-0.0015031155198812485,-0.007482185028493404,0.002423264319077134,-0.008647819980978966
0.006492457818239927,-0.004809799138456583,-0.0015739499358460307,-0.007772195618599653,0.0025479441974312067,-0.009215213358402252
0.007222301792353392,-0.004695843439549208,-0.0019033501157537103,-0.008396996185183525,0.0025342581793665886,-0.009566937573254108
0.0075134593062102795,-0.004759384784847498,-0.0018899511778727174,-0.007821435108780861,0.002852962352335453,-0.009454656392335892
0.007414954714477062,-0.004831020720303059,-0.0015848007751628757,-0.007447774522006512,0.002948722103610635,-0.00962000247091055
0.007501800078898668,-0.004714043345302343,-0.001422748900949955,-0.007648117374628782,0.002805645577609539,-0.009018947370350361
0.007592861074954271,-0.004472892265766859,-0.0014827814884483814,-0.008591723628342152,0.0024936157278716564,-0.009546389803290367
0.007633194327354431,-0.004531617276370525,-0.001497898017987609,-0.009035005234181881,0.002289109630510211,-0.009378123097121716
0.007747551426291466,-0.004574289545416832,-0.001998296706005931,-0.008921045809984207,0.0025948183611035347,-0.008823961019515991
0.00842008925974369,-0.00416428130120039,-0.001960350200533867,-0.008290190249681473,0.00287053850479424,-0.009402778930962086
0.008582417853176594,-0.004216920118778944,-0.0016339129069820046,-0.00895307119935751,0.00278326403349638,-0.009757919237017632
0.008231819607317448,-0.003991119563579559,-0.0014558335533365607,-0.009154916740953922,0.0024933884851634502,-0.009400798939168453
0.00812612660229206,-0.003776874393224716,-0.0015098433941602707,-0.009503244422376156,0.0022899231407791376,-0.00865807756781578
0.009094923734664917,-0.0037354608066380024,-0.0015699330251663923,-0.009888882748782635,0.0022705565206706524,-0.00929308868944645
0.008446929045021534,-0.004298101179301739,-0.0016777189448475838,-0.009861258789896965,0.002742501674219966,-0.009559710510075092
0.008417950943112373,-0.0040285647846758366,-0.00224375375546515,-0.009467936120927334,0.0031494663562625647,-0.009267079643905163
0.009190070442855358,-0.003768752794712782,-0.001938754110597074,-0.00959030818194151,0.0034932754933834076,-0.009393586777150631
0.008863642811775208,-0.0033680754713714123,-0.0016896378947421908,-0.010349960997700691,0.0032676481641829014,-0.009536977857351303
0.008915566839277744,-0.0033572448883205652,-0.0015452351653948426,-0.010108180344104767,0.0027496579568833113,-0.009754478000104427
0.008915566839277744,-0.0033572448883205652,-0.0015452351653948426,-0.010108180344104767,0.0027496579568833113,-0.009754478000104427
0.009006161242723465,-0.0034392611123621464,-0.0014664905611425638,-0.010401199571788311,0.0026196229737251997,-0.010609828867018223
0.01017608493566513,-0.0033953236415982246,-0.00156971940305084,-0.011286844499409199,0.002634279429912567,-0.010251300409436226
0.009653505869209766,-0.0031310266349464655,-0.0021618525497615337,-0.010846470482647419,0.0027606268413364887,-0.00986604206264019
0.009225394576787949,-0.0032753869891166687,-0.002237902721390128,-0.010518867522478104,0.002873025368899107,-0.009846409782767296
0.009541139006614685,-0.003296160837635398,-0.001940869027748704,-0.010509231127798557,0.0029598481487482786,-0.00972331315279007
0.009474331513047218,-0.0029687504284083843,-0.0018259354401379824,-0.010183315724134445,0.0030903201550245285,-0.0098350178450346
0.009858503937721252,-0.002823685761541128,-0.0016600885428488255,-0.011084824800491333,0.0030302456580102444,-0.009889540262520313
0.011105176992714405,-0.002405270002782345,-0.0015326286666095257,-0.010800773277878761,0.0027131130918860435,-0.010316203348338604
0.010131455957889557,-0.0023051821626722813,-0.0016110638389363885,-0.012563991360366344,0.002807116834446788,-0.010018215514719486
0.009413272142410278,-0.0025355464313179255,-0.002454881090670824,-0.012536786496639252,0.0030520830769091845,-0.009868313558399677
0.01055506058037281,-0.0025735399685800076,-0.0025156408082693815,-0.01177219022065401,0.003058700356632471,-0.009833157993853092
0.010028282180428505,-0.0023712392430752516,-0.0021237090695649385,-0.011724545620381832,0.0030756292399019003,-0.010407581925392151
0.0098799467086792,-0.002353404415771365,-0.0018207534449175,-0.010878773406147957,0.002912315307185054,-0.010252514854073524
0.010173877701163292,-0.0022270281333476305,-0.0015437847469002008,-0.011488855816423893,0.0028266252484172583,-0.00986862275749445
0.010140519589185715,-0.002355156233534217,-0.0016483147628605366,-0.011916045099496841,0.0026827200781553984,-0.010085122659802437
0.010087450966238976,-0.0023169282358139753,-0.0023788283579051495,-0.01169516146183014,0.0027831122279167175,-0.010122573003172874
0.010074407793581486,-0.0022577696945518255,-0.00244518811814487,-0.010748389177024364,0.0031250189058482647,-0.010222131386399269
0.010620818473398685,-0.001976686529815197,-0.0021441327407956123,-0.010361437685787678,0.00326876575127244,-0.010016998276114464
0.009123822674155235,-0.001813604962080717,-0.00191722740419209,-0.010843944735825062,0.0032175190281122923,-0.009831704199314117
0.007888153195381165,-0.0018081036396324635,-0.0018758944934234023,-0.01066681183874607,0.002833247883245349,-0.010666484013199806
0.008006710559129715,-0.0017469380982220173,-0.0026312496047466993,-0.011048962362110615,0.0025870190002024174,-0.010501246899366379
0.008548393845558167,-0.0016004596836864948,-0.0032161963172256947,-0.011166447773575783,0.0026820809580385685,-0.010096250101923943
0.008854558691382408,-0.0016580234514549375,-0.0029473581817001104,-0.010421562008559704,0.0029778846073895693,-0.010243698954582214
0.009144463576376438,-0.0016944287344813347,-0.002334263874217868,-0.010752139613032341,0.003501599421724677,-0.010226757265627384
0.0086680231615901,-0.0015275737969204783,-0.002142892684787512,-0.010852126404643059,0.003652561455965042,-0.010556014254689217
0.009299296885728836,-0.0013674196088686585,-0.0018227646360173821,-0.011345073580741882,0.003352430881932378,-0.010224174708127975
0.009299296885728836,-0.0013674196088686585,-0.0018227646360173821,-0.011345073580741882,0.003352430881932378,-0.010224174708127975
0.008640405721962452,-0.0012656052131205797,-0.0022800189908593893,-0.012308762408792973,0.0029404794331640005,-0.010435725562274456
0.008932198397815228,-0.0011950194602832198,-0.002645355649292469,-0.012300554662942886,0.002869273070245981,-0.010014255531132221
0.009212927892804146,-0.0011472374899312854,-0.0031699396204203367,-0.012573431245982647,0.0028610248118638992,-0.011077744886279106
0.00881893839687109,-0.0010439188918098807,-0.0026175333186984062,-0.012171763926744461,0.0027194826398044825,-0.00988065917044878
0.009493660181760788,-0.0010287754703313112,-0.002122253645211458,-0.01220947690308094,0.0025482659693807364,-0.009218554012477398
0.009610474109649658,-0.0010080955689772964,-0.0018276016926392913,-0.012800700962543488,0.0024315405171364546,-0.01044584158807993
0.0095863351598382,-0.0009829917689785361,-0.001969143282622099,-0.01303995680063963,0.002553969854488969,-0.011067263782024384
0.010254357010126114,-0.0009734928025864065,-0.002635293174535036,-0.013192405924201012,0.002591111231595278,-0.010382303036749363
0.010028257966041565,-0.0008433403563685715,-0.0032874480821192265,-0.013203984126448631,0.002939764875918627,-0.01025489903986454
0.00988431740552187,-0.0008024104172363877,-0.0031460034660995007,-0.013449608348309994,0.0030111009255051613,-0.010588825680315495
0.009812181815505028,-0.0007356987916864455,-0.0026925629936158657,-0.012711203657090664,0.003312616143375635,-0.010792694054543972
0.011072074063122272,-0.0006479296134784818,-0.002014205325394869,-0.013098946772515774,0.0036133131943643093,-0.01100766658782959
0.010168364271521568,-0.0006707559223286808,-0.0020874207839369774,-0.01331384014338255,0.004159553907811642,-0.010619275271892548
0.01009873952716589,-0.0006095022545196116,-0.0024556524585932493,-0.014286966994404793,0.0037613785825669765,-0.010371432639658451
0.010376602411270142,-0.0005835226620547473,-0.003303589764982462,-0.01441294327378273,0.003212976036593318,-0.010512800887227058
0.010446760803461075,-0.0005398739594966173,-0.0029059506487101316,-0.013938472606241703,0.003013069275766611,-0.010766761377453804
0.010761275887489319,-0.0004487712576519698,-0.0026271361857652664,-0.014308054931461811,0.0031888142693787813,-0.011020789854228497
0.010551156476140022,-0.00040246310527436435,-0.0022782187443226576,-0.01459954958409071,0.0029534134082496166,-0.011099858209490776
0.011018592864274979,-0.00036933767842128873,-0.002440745010972023,-0.015687284991145134,0.0027797080110758543,-0.01107261423021555
0.010992279276251793,-0.00034131345455534756,-0.0033339662477374077,-0.015463661402463913,0.002736974274739623,-0.01111636497080326
0.010081577114760876,-0.0003172454016748816,-0.003448654431849718,-0.016063163056969643,0.0030571718234568834,-0.010952727869153023
0.01087299082428217,-0.0002963501901831478,-0.0031319253612309694,-0.015538161620497704,0.003415849059820175,-0.010809013620018959
0.010712172836065292,-0.00027803602279163897,-0.002715765731409192,-0.016159825026988983,0.003414130536839366,-0.01072827260941267
0.010807566344738007,-0.00026185528258793056,-0.002513705985620618,-0.015482848510146141,0.0034814216196537018,-0.01089082658290863
0.010990703478455544,-0.00024745380505919456,-0.0026519375387579203,-0.014936653897166252,0.0033270062413066626,-0.01093318685889244
0.010708976536989212,-0.0002345544780837372,-0.002635748591274023,-0.01546728890389204,0.0034014855045825243,-0.011044549755752087
0.011287295259535313,-0.00022293302754405886,-0.003096594475209713,-0.01582925207912922,0.0036856874357908964,-0.011170710436999798
0.011287295259535313,-0.00022293302754405886,-0.003096594475209713,-0.01582925207912922,0.0036856874357908964,-0.011170710436999798
0.011327475309371948,-0.00017622981977183372,-0.0031006159260869026,-0.015910400077700615,0.003551675006747246,-0.011170758865773678
0.011327475309371948,-0.00017622981977183372,-0.0031006159260869026,-0.015910400077700615,0.003551675006747246,-0.011170758865773678
0.011337658390402794,-0.00015545629139523953,-0.0029640437569469213,-0.016067326068878174,0.003960772417485714,-0.011481138877570629
0.011517127975821495,-0.00014885103155393153,-0.0026680107694119215,-0.01563730649650097,0.004253190476447344,-0.011101734824478626
0.011845787055790424,-0.00014293822459876537,-0.0026989381294697523,-0.016743700951337814,0.0041130888275802135,-0.011909843422472477
0.012210427783429623,-0.00013747988850809634,-0.0031906806398183107,-0.01664823666214943,0.003539880970492959,-0.011730453930795193
0.011483886279165745,-0.00013242254499346018,-0.0031603905372321606,-0.017114751040935516,0.0036060239654034376,-0.011708170175552368
0.011454383842647076,-0.00012772378977388144,-0.0030208341777324677,-0.01761733926832676,0.0033302870579063892,-0.011823664419353008
0.01113093737512827,-9.293909533880651e-05,-0.0030895648524165154,-0.0174423661082983,0.003525958163663745,-0.011782357469201088
0.011282656341791153,-8.945185254560784e-05,-0.002852384001016617,-0.017456436529755592,0.003596216207370162,-0.011845110915601254
0.011546002700924873,-8.657806756673381e-05,-0.002746592741459608,-0.016663024201989174,0.00365907303057611,-0.01144946925342083
0.011471656151115894,-8.388791320612654e-05,-0.002561344997957349,-0.01713169924914837,0.004163502249866724,-0.011595585383474827
0.01233845017850399,5.788381531601772e-05,-0.0029381862841546535,-0.0178083349019289,0.004058293532580137,-0.011843024753034115
0.011416369117796421,7.316863775486127e-05,-0.0034695046488195658,-0.017888592556118965,0.003868567757308483,-0.012027334421873093
0.01153325755149126,9.36860014917329e-05,-0.0037014419212937355,-0.018330607563257217,0.0037023103795945644,-0.011720252223312855
0.011424534022808075,0.004102635197341442,-0.002684174105525017,-0.017886195331811905,0.0041463072411715984,-0.011270669288933277
0.011679260060191154,0.004585538990795612,-0.002693357178941369,-0.018229739740490913,0.004243032541126013,-0.01176366675645113
0.01160112302750349,0.003199797822162509,-0.003015691414475441,-0.018396172672510147,0.0040086405351758,-0.011316705495119095
0.011820586398243904,0.002040619496256113,-0.0035738227888941765,-0.019012613222002983,0.00380940199829638,-0.011850127950310707
0.011833417229354382,0.0008621807210147381,-0.0037452548276633024,-0.01911727897822857,0.004263418260961771,-0.011602251790463924
0.011556819081306458,0.0005744770751334727,-0.003427396062761545,-0.018621981143951416,0.004178707022219896,-0.011741425842046738
0.01220744475722313,0.000748863851185888,-0.0030057444237172604,-0.016881154850125313,0.004294413607567549,-0.011989845894277096
0.011769463308155537,0.001394735649228096,-0.0027561462484300137,-0.01933249458670616,0.003994666505604982,-0.012036951258778572
0.01376635767519474,0.0030296172481030226,-0.0028811993543058634,-0.019979339092969894,0.0037181831430643797,-0.012044384144246578
0.011168553493916988,0.002315914025530219,-0.003402312519028783,-0.019284047186374664,0.0036586092319339514,-0.012018149718642235
0.011252031661570072,0.00204140180721879,-0.003631744533777237,-0.019799835979938507,0.0037632768508046865,-0.012334060855209827
0.012351659126579762,0.0018060753354802728,-0.003503446001559496,-0.019604472443461418,0.003805719781666994,-0.012877242639660835
0.012351659126579762,0.0018060753354802728,-0.003503446001559496,-0.019604472443461418,0.003805719781666994,-0.012877242639660835
0.012040163390338421,0.0013027808163315058,-0.003112293314188719,-0.01928715966641903,0.0036803879775106907,-0.012186004780232906
0.01259378157556057,0.001370014506392181,-0.002948017790913582,-0.019971786066889763,0.003610607935115695,-0.011533026583492756
0.011909574270248413,0.0018667106050997972,-0.00278367567807436,-0.020417675375938416,0.0037087183445692062,-0.011671824380755424
0.01192218717187643,0.001996447565034032,-0.0032278914004564285,-0.020841334015130997,0.00421670638024807,-0.012005498632788658
0.012759597972035408,0.002525018062442541,-0.003496898338198662,-0.021334407851099968,0.004501746967434883,-0.012129434384405613
0.011585698463022709,0.002242523245513439,-0.0033952228259295225,-0.021106800064444542,0.00419187918305397,-0.012153729796409607
0.012006581760942936,0.002171621657907963,-0.0031018347945064306,-0.02111034095287323,0.003921691328287125,-0.012389898300170898
0.012124855071306229,0.001898665213957429,-0.0029841619543731213,-0.02154541015625,0.004214787855744362,-0.012703398242592812
0.012556669302284718,0.0016808478394523263,-0.003141645807772875,-0.021950839087367058,0.004201522562652826,-0.012829691171646118
0.012501447461545467,0.0017031101742759347,-0.0033235405571758747,-0.02174091339111328,0.003994577098637819,-0.012711282819509506
0.01232440210878849,0.0017962323036044836,-0.0035199327394366264,-0.021747702732682228,0.004084642976522446,-0.012797195464372635
0.012505457736551762,0.0019152704626321793,-0.0035250731743872166,-0.02143753692507744,0.0041303797625005245,-0.012757616117596626
0.012500348500907421,0.0031837529968470335,-0.003361260751262307,-0.022167542949318886,0.0046373289078474045,-0.012441850267350674
0.012819914147257805,0.003581048222258687,-0.0032103757839649916,-0.02234937623143196,0.004706123843789101,-0.012588408775627613
0.012781231664121151,0.003696863539516926,-0.003339376300573349,-0.022392485290765762,0.004325221758335829,-0.012847664766013622
0.012727486900985241,0.0032856471370905638,-0.0036564660258591175,-0.022617649286985397,0.0042874775826931,-0.012805652804672718
0.012407722882926464,0.002839393448084593,-0.0038024792447686195,-0.022274721413850784,0.004541723057627678,-0.01266041025519371
0.012878088280558586,0.0029571850318461657,-0.0034576330799609423,-0.022084331139922142,0.004294904880225658,-0.012698199599981308
0.012366542592644691,0.003117536660283804,-0.0033875128719955683,-0.021906696259975433,0.004466544836759567,-0.01285792887210846
0.013124474324285984,0.0041061704978346825,-0.003134189173579216,-0.022413592785596848,0.00416865199804306,-0.012866589240729809
0.012778609991073608,0.004120319616049528,-0.003566660452634096,-0.02292388118803501,0.004441312979906797,-0.012968978844583035
0.01288274023681879,0.0042507038451731205,-0.00385725568048656,-0.02338958904147148,0.0043452223762869835,-0.012956383638083935
0.01320914551615715,0.004078075755387545,-0.0034033481497317553,-0.023736651986837387,0.0043690442107617855,-0.012985789217054844
0.01325027272105217,0.004324211739003658,-0.003487237496301532,-0.02327290177345276,0.004535221494734287,-0.012770215980708599
0.013145592994987965,0.004527885001152754,-0.0033428941387683153,-0.023372333496809006,0.004579463973641396,-0.012880509719252586
0.013181615620851517,0.004387121181935072,-0.0032604041043668985,-0.02389073185622692,0.004439462907612324,-0.0131742674857378
0.013458679430186749,0.0046414658427238464,-0.0033212897833436728,-0.024059252813458443,0.004597348626703024,-0.013287284411489964
0.013458679430186749,0.0046414658427238464,-0.0033212897833436728,-0.024059252813458443,0.004597348626703024,-0.013287284411489964
0.013388529419898987,0.005697665270417929,-0.003121577203273773,-0.02406466193497181,0.004603396635502577,-0.01320794876664877
0.013771775178611279,0.005491874646395445,-0.0032526343129575253,-0.0249799732118845,0.004641315899789333,-0.01303402055054903
0.013540571555495262,0.005432465113699436,-0.0035478095524013042,-0.025098135694861412,0.004191925749182701,-0.013369127176702023
0.013824944384396076,0.0054677873849868774,-0.003775841323658824,-0.02521076798439026,0.0044043357484042645,-0.013271964155137539
0.013345598243176937,0.005510835442692041,-0.003577732713893056,-0.02546181157231331,0.004491820000112057,-0.013151587918400764
0.01357390359044075,0.0056223031133413315,-0.0032939929515123367,-0.025167686864733696,0.004748269449919462,-0.013153658248484135
0.01350683718919754,0.006074979901313782,-0.00337330368347466,-0.02573399432003498,0.004949352238327265,-0.013360152952373028
0.013627080246806145,0.006136372685432434,-0.003759479383006692,-0.025962570682168007,0.004835262428969145,-0.013490960001945496
0.013547337613999844,0.0062119439244270325,-0.004015469923615456,-0.026884688064455986,0.0046770935878157616,-0.013173946179449558
0.013738137669861317,0.006083777640014887,-0.0035492710303515196,-0.027457280084490776,0.004617132246494293,-0.01346955168992281
0.01365753822028637,0.00644576596096158,-0.0036094074603170156,-0.026774505153298378,0.004730856511741877,-0.013624744489789009
0.01386190764605999,0.007303144782781601,-0.0038589504547417164,-0.02606866881251335,0.0049594370648264885,-0.013857140205800533
0.01428372785449028,0.008051813580095768,-0.0038943751715123653,-0.02595486119389534,0.004904096480458975,-0.014769271947443485
0.01433649007230997,0.007674159947782755,-0.0039504701271653175,-0.026743529364466667,0.004724787548184395,-0.013801886700093746
0.013933214358985424,0.0074594817124307156,-0.003470670199021697,-0.026030443608760834,0.004232210107147694,-0.013017842546105385
0.013989479281008244,0.008015947416424751,-0.003571808338165283,-0.026191413402557373,0.004409302491694689,-0.013216941617429256
0.014384876005351543,0.008013144135475159,-0.0036545514594763517,-0.027157288044691086,0.004550990182906389,-0.014075319282710552
0.014474180527031422,0.008356420323252678,-0.003671009559184313,-0.02750076726078987,0.004886700306087732,-0.013980725780129433
0.015026257373392582,0.008426133543252945,-0.0042333947494626045,-0.027057331055402756,0.005122282076627016,-0.01406098436564207
0.014613009989261627,0.008200058713555336,-0.004117157775908709,-0.026300925761461258,0.004902704618871212,-0.013881409540772438
0.014496317133307457,0.008429679088294506,-0.0039673554711043835,-0.026889992877840996,0.004957927856594324,-0.013923194259405136
0.014550872147083282,0.009489567019045353,-0.003855358809232712,-0.028131064027547836,0.004830159246921539,-0.014108110219240189
0.014528675936162472,0.008907231502234936,-0.004225603304803371,-0.02793136052787304,0.004729017615318298,-0.014359009452164173
0.014812342822551727,0.008701244369149208,-0.0036172368563711643,-0.027516771107912064,0.00476058479398489,-0.014078947715461254
0.014812342822551727,0.008701244369149208,-0.0036172368563711643,-0.027516771107912064,0.00476058479398489,-0.014078947715461254
0.014743258245289326,0.009555939584970474,-0.003582601435482502,-0.027910364791750908,0.005127578042447567,-0.01430948730558157
0.01463446207344532,0.00933067873120308,-0.0038054040633141994,-0.02818189188838005,0.0052803512662649155,-0.014541498385369778
0.015217202715575695,0.00922652892768383,-0.004025083500891924,-0.027168381959199905,0.005673827603459358,-0.014466988854110241
0.014856021851301193,0.010097609832882881,-0.003969506360590458,-0.02891889400780201,0.005257617216557264,-0.014474501833319664
0.015129514038562775,0.010588274337351322,-0.004266532137989998,-0.028974398970603943,0.004461051430553198,-0.014378324151039124
0.014735703356564045,0.009872885420918465,-0.004164951853454113,-0.028425727039575577,0.00443195691332221,-0.01430757436901331
0.015189578756690025,0.011041585355997086,-0.003537831362336874,-0.02901500277221203,0.004953776951879263,-0.014452854171395302
0.014832833781838417,0.010877073742449284,-0.003562513506039977,-0.030033163726329803,0.005415820982307196,-0.014420709572732449
0.015530440025031567,0.010076270438730717,-0.003774999175220728,-0.030281780287623405,0.005559714511036873,-0.014423084445297718
0.015363577753305435,0.010865709744393826,-0.003945004194974899,-0.029255274683237076,0.005301177501678467,-0.014693954959511757
0.015673363581299782,0.010406987741589546,-0.003994944039732218,-0.02831318974494934,0.005284694954752922,-0.014913490042090416
0.015336086973547935,0.010540000163018703,-0.003919775597751141,-0.029018448665738106,0.00541224330663681,-0.014923273585736752
0.015851689502596855,0.010760798119008541,-0.004317255690693855,-0.029767131432890892,0.005114471539855003,-0.015221343375742435
0.015552126802504063,0.011064356192946434,-0.0039033887442201376,-0.02920551784336567,0.00536184199154377,-0.015023784711956978
0.015533802099525928,0.011040809564292431,-0.0036263782531023026,-0.03030325099825859,0.004897689446806908,-0.01514887809753418
0.016291901469230652,0.011149994097650051,-0.0036273605655878782,-0.02939959615468979,0.004551853518933058,-0.014832377433776855
0.017397357150912285,0.011414594948291779,-0.003879345953464508,-0.028874432668089867,0.00459216209128499,-0.014536706730723381
0.016880786046385765,0.011442741379141808,-0.004346223082393408,-0.02957957610487938,0.004824430216103792,-0.014984076842665672
0.017119916155934334,0.011477951891720295,-0.004201322328299284,-0.031044412404298782,0.0050702388398349285,-0.015020129270851612
0.016933999955654144,0.011561864987015724,-0.0042681521736085415,-0.03156004473567009,0.005270218010991812,-0.015634775161743164
0.017494572326540947,0.011501101776957512,-0.0041135079227387905,-0.031063435599207878,0.00503674428910017,-0.015363505110144615
0.01826186291873455,0.012122146785259247,-0.00349897681735456,-0.03144867718219757,0.005353088490664959,-0.014964208006858826
0.016444973647594452,0.011800548061728477,-0.0034091174602508545,-0.031773269176483154,0.005411152262240648,-0.014551845379173756
0.01751636527478695,0.011849775910377502,-0.003643395844846964,-0.03132482245564461,0.005859370343387127,-0.01537953782826662
0.017681369557976723,0.0121378842741251,-0.004390997346490622,-0.03145238757133484,0.005374380853027105,-0.014778438955545425
0.017542287707328796,0.012256113812327385,-0.004485304467380047,-0.032086778432130814,0.005331580061465502,-0.015387432649731636
0.017473069950938225,0.012610475532710552,-0.004278847947716713,-0.032285988330841064,0.005531261675059795,-0.015410441905260086
0.01761033944785595,0.012522106990218163,-0.0035404919181019068,-0.03239751234650612,0.005536623299121857,-0.015226396732032299
0.01761033944785595,0.012522106990218163,-0.0035404919181019068,-0.03239751234650612,0.005536623299121857,-0.015226396732032299
0.0184871107339859,0.012717931531369686,-0.0036111604422330856,-0.03299253433942795,0.0056031751446425915,-0.014959389343857765
0.017824076116085052,0.012442235834896564,-0.0037424543406814337,-0.033040255308151245,0.00590462377294898,-0.01500491239130497
0.01719728484749794,0.012522051110863686,-0.0037775845266878605,-0.03324303776025772,0.005546756088733673,-0.014773130416870117
0.017875950783491135,0.012346625328063965,-0.00417834660038352,-0.03273337334394455,0.005781985819339752,-0.015218274667859077
0.0177388247102499,0.01238963007926941,-0.004290771204978228,-0.03317856043577194,0.005370311439037323,-0.015484628267586231
0.01771066151559353,0.012640763074159622,-0.004512662999331951,-0.03364158794283867,0.005093233194202185,-0.015491164289414883
0.01783672347664833,0.012249588035047054,-0.004207028541713953,-0.03351061791181564,0.0055450922809541225,-0.01550997607409954
0.017399193719029427,0.012930456548929214,-0.0035024515818804502,-0.03395596891641617,0.005468061659485102,-0.01534121111035347
0.01803453639149666,0.01228613406419754,-0.0035581805277615786,-0.03378205746412277,0.00542382663115859,-0.015535465441644192
0.017877737060189247,0.011816080659627914,-0.004221803043037653,-0.03403116762638092,0.005492448341101408,-0.01561207789927721
0.01777619682252407,0.011470957659184933,-0.004108133260160685,-0.03410085663199425,0.005855980329215527,-0.01566949114203453
0.017544731497764587,0.011211978271603584,-0.00387324346229434,-0.033918239176273346,0.005483027547597885,-0.015165424905717373
0.018240906298160553,0.011559932492673397,-0.004044573288410902,-0.03414515405893326,0.00520741194486618,-0.015736261382699013
0.018258677795529366,0.011836130172014236,-0.003843117505311966,-0.03413163870573044,0.005361553281545639,-0.015163173899054527
0.017860092222690582,0.011919759213924408,-0.004215067718178034,-0.034838415682315826,0.005765749607235193,-0.015224614180624485
0.01826515607535839,0.011574126780033112,-0.004192751366645098,-0.03588248789310455,0.006008664146065712,-0.01550247147679329
0.018140463158488274,0.011783146299421787,-0.004431404639035463,-0.03560038283467293,0.005716015584766865,-0.016048742458224297
0.01855185069143772,0.011767597869038582,-0.0043649026192724705,-0.035585686564445496,0.005672421772032976,-0.015756670385599136
0.018267448991537094,0.011949737556278706,-0.004598270170390606,-0.03581736236810684,0.0053623090498149395,-0.015931719914078712
0.01811886951327324,0.011358591727912426,-0.004250968340784311,-0.03519383817911148,0.005781343672424555,-0.015785658732056618
0.01811886951327324,0.011358591727912426,-0.004250968340784311,-0.03519383817911148,0.005781343672424555,-0.015785658732056618
0.018833300098776817,0.012490617111325264,-0.003967649303376675,-0.037642255425453186,0.005781202111393213,-0.016011225059628487
0.018787754699587822,0.01216854713857174,-0.004869100637733936,-0.03723129257559776,0.005509161856025457,-0.016279002651572227
0.019075527787208557,0.01181106548756361,-0.005445174872875214,-0.03580471873283386,0.005787842441350222,-0.016010170802474022
0.01844150945544243,0.01206490769982338,-0.0050466652028262615,-0.03573056310415268,0.005783573258668184,-0.016105888411402702
0.01842503249645233,0.011982463300228119,-0.005210196599364281,-0.03653886914253235,0.005982162896543741,-0.01718686893582344
0.01842503249645233,0.011982463300228119,-0.005210196599364281,-0.03653886914253235,0.005982162896543741,-0.01718686893582344
0.019588034600019455,0.011949160136282444,-0.004600049462169409,-0.03809766843914986,0.005792147479951382,-0.015268368646502495
0.019349707290530205,0.012599875219166279,-0.005080942530184984,-0.03680431842803955,0.005594782996922731,-0.015526284463703632
0.019349707290530205,0.012599875219166279,-0.005080942530184984,-0.03680431842803955,0.005594782996922731,-0.015526284463703632
0.019057920202612877,0.012082123197615147,-0.005468697752803564,-0.03535372018814087,0.0057441857643425465,-0.01629013381898403
0.01916119083762169,0.012420089915394783,-0.005352740176022053,-0.03695007413625717,0.006106732413172722,-0.016475053504109383
0.019270308315753937,0.012728686444461346,-0.005394743289798498,-0.03733712062239647,0.005872329697012901,-0.01683869957923889
0.020576195791363716,0.012349260970950127,-0.005033750552684069,-0.03705150634050369,0.005710897501558065,-0.017226053401827812
0.01988797076046467,0.012352937832474709,-0.0052503980696201324,-0.03716909885406494,0.005259048659354448,-0.016914885491132736
0.019077617675065994,0.011981943622231483,-0.004948507063090801,-0.03718463331460953,0.005250219255685806,-0.01636994257569313
0.01973588578402996,0.013182212598621845,-0.005035963375121355,-0.03731153905391693,0.005511535331606865,-0.01638832874596119
0.019780583679676056,0.0129009410738945,-0.005596911534667015,-0.03780039772391319,0.006085528060793877,-0.01642427407205105
0.019789569079875946,0.01306410226970911,-0.005414706189185381,-0.03779191896319389,0.006380030419677496,-0.01637077145278454
0.02043100632727146,0.012854810804128647,-0.005279812961816788,-0.039120085537433624,0.006503591313958168,-0.016711244359612465
0.020146697759628296,0.012928796000778675,-0.004835174884647131,-0.040505532175302505,0.006185977719724178,-0.01693587750196457
0.019897252321243286,0.01308506540954113,-0.00520504591986537,-0.03887873515486717,0.00596072431653738,-0.016900768503546715
0.020735042169690132,0.01390207838267088,-0.00525720976293087,-0.03862177953124046,0.00562102859839797,-0.01662016473710537
0.020665563642978668,0.013343604281544685,-0.0053486209362745285,-0.04042710363864899,0.005823756102472544,-0.016762157902121544
0.020007319748401642,0.01391526497900486,-0.005519643425941467,-0.040642283856868744,0.006072006653994322,-0.016936639323830605
0.020744962617754936,0.013479640707373619,-0.0051672752015292645,-0.04218674823641777,0.005954069551080465,-0.01740102656185627
0.02117876522243023,0.014303268864750862,-0.005127481184899807,-0.040840838104486465,0.006245407275855541,-0.01749315857887268
0.020817287266254425,0.01377952191978693,-0.005124250426888466,-0.03936595842242241,0.006222920957952738,-0.01679408736526966
0.020635833963751793,0.01442127488553524,-0.005701760295778513,-0.04042521119117737,0.005625982768833637,-0.01665017008781433
0.021510763093829155,0.013514652848243713,-0.0052863797172904015,-0.040773987770080566,0.006275567691773176,-0.01650320738554001
0.021270258352160454,0.013946464285254478,-0.005218700971454382,-0.04093598946928978,0.0066770100966095924,-0.016686875373125076
0.021095044910907745,0.013896583579480648,-0.005466035567224026,-0.04054967314004898,0.006344462279230356,-0.016978221014142036
0.021424883976578712,0.014429689384996891,-0.005558208096772432,-0.041057899594306946,0.006247804965823889,-0.01715089939534664
0.021649803966283798,0.014020499773323536,-0.0057701533660292625,-0.04148242622613907,0.006387439556419849,-0.01745978742837906
0.02165754698216915,0.015030206181108952,-0.005141899921000004,-0.0414469838142395,0.005884253885596991,-0.018064504489302635
0.02165754698216915,0.015030206181108952,-0.005141899921000004,-0.0414469838142395,0.005884253885596991,-0.018064504489302635
0.021538937464356422,0.014425141736865044,-0.005113524384796619,-0.04226363077759743,0.006321929395198822,-0.017097020521759987
0.021879807114601135,0.015085361897945404,-0.005291816778481007,-0.0418107807636261,0.006685908418148756,-0.016373850405216217
0.022358709946274757,0.014476211741566658,-0.005801980849355459,-0.04210030287504196,0.006320057436823845,-0.016984963789582253
0.022214774042367935,0.015134228393435478,-0.0058522955514490604,-0.04250551760196686,0.0063962191343307495,-0.017468905076384544
0.022038672119379044,0.014983189292252064,-0.005931980907917023,-0.04270343855023384,0.0065897246822714806,-0.01760760322213173
0.021740593016147614,0.015419851057231426,-0.0052485219202935696,-0.042382437735795975,0.006086223293095827,-0.017739752307534218
0.022556304931640625,0.014525108970701694,-0.005447933450341225,-0.04282449185848236,0.006057332269847393,-0.0177011601626873
0.022455425933003426,0.014574332162737846,-0.005318773910403252,-0.042666688561439514,0.006183935794979334,-0.01733931340277195
0.022309601306915283,0.015819784253835678,-0.005887753330171108,-0.04267815500497818,0.0069159576669335365,-0.0176666509360075
0.022280827164649963,0.01516356784850359,-0.0058111282996833324,-0.04232430085539818,0.006601210217922926,-0.017952891066670418
0.022776680067181587,0.015155550092458725,-0.005308165214955807,-0.04272414743900299,0.006381511688232422,-0.018228372558951378
0.022807994857430458,0.015306560322642326,-0.005410297308117151,-0.042881131172180176,0.0065580205991864204,-0.01793568953871727
0.022651061415672302,0.015375283546745777,-0.005024306941777468,-0.043079979717731476,0.0063035087659955025,-0.01773711107671261
0.02300640381872654,0.01564437337219715,-0.005348142236471176,-0.043194353580474854,0.006425486411899328,-0.017714187502861023
0.022902540862560272,0.015789726749062538,-0.005636447574943304,-0.04249446094036102,0.006382295396178961,-0.01769399456679821
0.022933945059776306,0.015961090102791786,-0.005387891549617052,-0.042506612837314606,0.006291294004768133,-0.017938895151019096
0.023017970845103264,0.01545911468565464,-0.005576140712946653,-0.04411213472485542,0.00673631438985467,-0.01779531128704548
0.024020150303840637,0.016043316572904587,-0.005191017873585224,-0.04366901144385338,0.0067506274208426476,-0.018062841147184372
0.023789532482624054,0.01583152450621128,-0.005192302167415619,-0.04179846867918968,0.006823806557804346,-0.018052347004413605
0.023095905780792236,0.01606886461377144,-0.005567334592342377,-0.043307434767484665,0.006675658747553825,-0.017784953117370605
0.022923626005649567,0.015252983197569847,-0.00608495669439435,-0.04332428798079491,0.0064844111911952496,-0.018240608274936676
0.023497920483350754,0.016108520328998566,-0.005503072403371334,-0.04448092356324196,0.00693056033924222,-0.01816452480852604
0.02394099533557892,0.0163535438477993,-0.005354607943445444,-0.04424234852194786,0.006854850333184004,-0.018076032400131226
0.023793792352080345,0.016440849751234055,-0.005546697415411472,-0.042453691363334656,0.006846577860414982,-0.0182231105864048
0.023136144503951073,0.016786839812994003,-0.00626184931024909,-0.04449839144945145,0.006608736235648394,-0.018171321600675583
0.02374371513724327,0.016598915681242943,-0.00564557733014226,-0.04587501287460327,0.007204391062259674,-0.0194756668061018
0.02374371513724327,0.016598915681242943,-0.00564557733014226,-0.04587501287460327,0.007204391062259674,-0.0194756668061018
0.024549145251512527,0.016831405460834503,-0.0051019880920648575,-0.04519353061914444,0.0067619988694787025,-0.018307607620954514
0.024088222533464432,0.016656944528222084,-0.005090845748782158,-0.045630794018507004,0.006947549991309643,-0.017782652750611305
0.024528294801712036,0.017028028145432472,-0.005690740421414375,-0.04564078152179718,0.006782226264476776,-0.01842174120247364
0.023111747577786446,0.017328748479485512,-0.005975136533379555,-0.046114835888147354,0.006823074538260698,-0.01872972957789898
0.023543810471892357,0.017452653497457504,-0.006269019562751055,-0.04617766663432121,0.006708226632326841,-0.018874147906899452
0.0239483080804348,0.016604045405983925,-0.00624340632930398,-0.045758672058582306,0.0073352837935090065,-0.01866905577480793
0.024864811450242996,0.017099915072321892,-0.006018591579049826,-0.04706225171685219,0.007499293889850378,-0.018707653507590294
0.024350937455892563,0.017622774466872215,-0.006609464529901743,-0.04537792131304741,0.0069709280505776405,-0.01926727034151554
0.024082275107502937,0.017366623505949974,-0.00642352644354105,-0.04558835178613663,0.0070970142260193825,-0.019080962985754013
0.023893067613244057,0.017639247700572014,-0.006084652617573738,-0.04637141153216362,0.007014953065663576,-0.018992220982909203
0.024632751941680908,0.017459657043218613,-0.006168718915432692,-0.0472993366420269,0.007047879043966532,-0.01922452077269554
0.024700773879885674,0.017829053103923798,-0.006125320214778185,-0.04880388826131821,0.0070475321263074875,-0.019158408045768738
0.024991044774651527,0.018274640664458275,-0.006347312591969967,-0.04685407504439354,0.007362674456089735,-0.01929849572479725
0.025401512160897255,0.017848128452897072,-0.005975972395390272,-0.047714345157146454,0.0076224105432629585,-0.01952793449163437
0.025183552876114845,0.0182233564555645,-0.005837820004671812,-0.04840381443500519,0.007043030112981796,-0.018973635509610176
0.02447611466050148,0.017922785133123398,-0.006123038940131664,-0.0485665537416935,0.006160279735922813,-0.018454773351550102
0.02488669753074646,0.018160920590162277,-0.0063283867202699184,-0.04830319806933403,0.006289001554250717,-0.01902884989976883
0.02526818960905075,0.018695153295993805,-0.007102462463080883,-0.04903438314795494,0.007015744689851999,-0.019208481535315514
0.02526818960905075,0.018695153295993805,-0.007102462463080883,-0.04903438314795494,0.007015744689851999,-0.019208481535315514
0.025288591161370277,0.01869339309632778,-0.006371682975441217,-0.04889141395688057,0.007311734836548567,-0.01898972876369953
0.025207657366991043,0.018848413601517677,-0.0055676293559372425,-0.04888824373483658,0.0073409718461334705,-0.018933286890387535
0.025453945621848106,0.019930901005864143,-0.005664113909006119,-0.04901953041553497,0.007172074168920517,-0.018653668463230133
0.025123555213212967,0.018928350880742073,-0.006673759315162897,-0.04790745675563812,0.007101228926330805,-0.019439227879047394
0.025123555213212967,0.018928350880742073,-0.006673759315162897,-0.04790745675563812,0.007101228926330805,-0.019439227879047394
0.02499968744814396,0.018955903127789497,-0.0065219709649682045,-0.04867732152342796,0.006993961986154318,-0.019946524873375893
0.025221778079867363,0.018446344882249832,-0.005847761407494545,-0.047763653099536896,0.007141898386180401,-0.02027115784585476
0.024899490177631378,0.018457556143403053,-0.0058722407557070255,-0.04717757925391197,0.007417747285217047,-0.019079294055700302
0.02537977136671543,0.019205639138817787,-0.006306496448814869,-0.048250433057546616,0.007502120453864336,-0.019026517868041992
0.02559495158493519,0.019424766302108765,-0.006171341519802809,-0.0469050295650959,0.0075695752166211605,-0.018373800441622734
0.025371160358190536,0.018683571368455887,-0.006386591121554375,-0.04770520702004433,0.0070678540505468845,-0.019400790333747864
0.024998674169182777,0.01921253837645054,-0.00587060023099184,-0.047425441443920135,0.007438282016664743,-0.019271088764071465
0.02548419125378132,0.01969641074538231,-0.006053719203919172,-0.0477629192173481,0.0076947882771492004,-0.019642584025859833
0.02616366557776928,0.019602885469794273,-0.006789472885429859,-0.04835991933941841,0.006540347822010517,-0.019386818632483482
0.025636984035372734,0.019459601491689682,-0.005696352571249008,-0.051002729684114456,0.006940804421901703,-0.019694983959197998
0.025044307112693787,0.01954362913966179,-0.005333833862096071,-0.050244707614183426,0.00736173614859581,-0.020412806421518326
0.02574538253247738,0.019814571365714073,-0.005679318215698004,-0.04908658564090729,0.0073481230065226555,-0.020641382783651352
0.026293305680155754,0.019181324169039726,-0.0067334482446312904,-0.05068942904472351,0.00708935409784317,-0.01992393285036087
0.026096943765878677,0.019016828387975693,-0.006651478819549084,-0.05276704207062721,0.007169784978032112,-0.019526593387126923
0.025686457753181458,0.019901497289538383,-0.00568451639264822,-0.05193161591887474,0.007543607614934444,-0.019218718633055687
0.026929538697004318,0.019869664683938026,-0.0057891192846000195,-0.05008794739842415,0.00762937543913722,-0.019767671823501587
0.02710697054862976,0.01967923901975155,-0.0059783803299069405,-0.051482416689395905,0.007586274296045303,-0.020166732370853424
0.026414092630147934,0.01984444446861744,-0.006299386732280254,-0.05228756368160248,0.007496296893805265,-0.020775247365236282
0.025662794709205627,0.020017070695757866,-0.00653859693557024,-0.05189010873436928,0.007915032096207142,-0.02043992653489113
0.02565125748515129,0.0198123287409544,-0.0058250888250768185,-0.05218888446688652,0.00766293378546834,-0.019855352118611336
0.02595503441989422,0.019771484658122063,-0.005953508894890547,-0.05153154209256172,0.007796446792781353,-0.01991957239806652
0.02595503441989422,0.019771484658122063,-0.005953508894890547,-0.05153154209256172,0.007796446792781353,-0.01991957239806652
0.025303978472948074,0.020298117771744728,-0.00630025053396821,-0.05235010012984276,0.007723368238657713,-0.019883569329977036
0.027050944045186043,0.0197446309030056,-0.007120050955563784,-0.052749983966350555,0.008860895410180092,-0.01973026432096958
0.026575010269880295,0.020045168697834015,-0.0061561972834169865,-0.05242277681827545,0.00777382543310523,-0.019922034814953804
0.026209307834506035,0.020504217594861984,-0.0057343775406479836,-0.052913032472133636,0.0072650182992219925,-0.02129368484020233
0.02660008892416954,0.02009960636496544,-0.00581689178943634,-0.054571472108364105,0.007816648110747337,-0.020294737070798874
0.026761217042803764,0.020310942083597183,-0.006536676548421383,-0.052224017679691315,0.007862716913223267,-0.01968744955956936
0.026606928557157516,0.020670078694820404,-0.0068066720850765705,-0.052107349038124084,0.008068090304732323,-0.020249612629413605
0.0269655492156744,0.020864857360720634,-0.006404649466276169,-0.05273151397705078,0.008190067484974861,-0.02025778964161873
0.02695555053651333,0.02072863280773163,-0.005625095684081316,-0.054663848131895065,0.0077469972893595695,-0.0201091505587101
0.026404621079564095,0.021734528243541718,-0.0058273812755942345,-0.05204453691840172,0.007190955802798271,-0.02000519260764122
0.02654694952070713,0.020439591258764267,-0.006013508886098862,-0.05270456522703171,0.0072783539071679115,-0.020174121484160423
0.02651003748178482,0.020598549395799637,-0.00638222973793745,-0.053382497280836105,0.007106006611138582,-0.020118994638323784
0.02615193836390972,0.021131545305252075,-0.006059282459318638,-0.05458294600248337,0.007237005513161421,-0.02014339156448841
0.026430463418364525,0.021366175264120102,-0.006050959695130587,-0.05300622060894966,0.007739617023617029,-0.020659130066633224
0.026466161012649536,0.021732402965426445,-0.006067110225558281,-0.052160799503326416,0.007675437722355127,-0.02101401798427105
0.026834797114133835,0.021738290786743164,-0.006692981813102961,-0.052125778049230576,0.007302956189960241,-0.021186716854572296
0.027121491730213165,0.021756866946816444,-0.006338757462799549,-0.05311049893498421,0.0073989820666611195,-0.020564625039696693
0.027229195460677147,0.02211424894630909,-0.0064632222056388855,-0.052947234362363815,0.007909325882792473,-0.020263180136680603
0.026888685300946236,0.021422004327178,-0.006427096668630838,-0.052908316254615784,0.007976834662258625,-0.020608603954315186
0.027187509462237358,0.021353833377361298,-0.006474780384451151,-0.05299557000398636,0.007750800810754299,-0.020483847707509995
0.027363214641809464,0.022210564464330673,-0.005921659991145134,-0.05336364731192589,0.007960774935781956,-0.020885217934846878
0.02742762863636017,0.022952226921916008,-0.0060127596370875835,-0.053973156958818436,0.007905343547463417,-0.02078637108206749
0.027352096512913704,0.022839592769742012,-0.006021132692694664,-0.054765600711107254,0.007919217459857464,-0.020762743428349495
0.027097254991531372,0.022015061229467392,-0.006396984215825796,-0.05530138313770294,0.007730777841061354,-0.02059539407491684
0.02747814916074276,0.021864423528313637,-0.006364529021084309,-0.055519651621580124,0.00786681566387415,-0.02111501805484295
0.027761496603488922,0.02219439297914505,-0.006070187781006098,-0.05547676607966423,0.007795246317982674,-0.021370863541960716
0.027893640100955963,0.022612297907471657,-0.006023208145052195,-0.05651886761188507,0.008055011741816998,-0.020869582891464233
0.027685977518558502,0.022685730829834938,-0.0062895664013922215,-0.0538172610104084,0.00783377792686224,-0.020521895959973335
0.026732057332992554,0.022035060450434685,-0.006292698904871941,-0.05443650484085083,0.007666890975087881,-0.019477348774671555
0.027262315154075623,0.02278115414083004,-0.006813406944274902,-0.05592827871441841,0.0077332970686256886,-0.02001645229756832
0.027262315154075623,0.02278115414083004,-0.006813406944274902,-0.05592827871441841,0.0077332970686256886,-0.02001645229756832
0.02803100273013115,0.023333894088864326,-0.006410764530301094,-0.057821888476610184,0.008254647254943848,-0.021041935309767723
0.027487047016620636,0.023199530318379402,-0.0064963991753757,-0.05507473275065422,0.007918312214314938,-0.021289607509970665
0.02807920053601265,0.02260926179587841,-0.006080898456275463,-0.05526962876319885,0.00794871523976326,-0.021163195371627808
0.028393253684043884,0.022670457139611244,-0.006275294814258814,-0.05690677464008331,0.008088507689535618,-0.021058199927210808
0.0285003911703825,0.022583801299333572,-0.006455672904849052,-0.05722668021917343,0.008263971656560898,-0.021140042692422867
0.027951961383223534,0.02312512695789337,-0.0062844217754900455,-0.05737448111176491,0.008142869919538498,-0.02139020711183548
0.027470212429761887,0.023480581119656563,-0.006348196882754564,-0.05767197161912918,0.00795931275933981,-0.02155783586204052
0.027915451675653458,0.023084886372089386,-0.0067588044330477715,-0.057701751589775085,0.00822797603905201,-0.021763432770967484
0.02899004891514778,0.02267557568848133,-0.006280959118157625,-0.05842050164937973,0.008219038136303425,-0.02153960056602955
0.028849545866250992,0.023275524377822876,-0.006054590456187725,-0.05797787383198738,0.007740023545920849,-0.02166222594678402
0.02885146625339985,0.023266378790140152,-0.0066015529446303844,-0.05664323642849922,0.008128474466502666,-0.021488649770617485
0.02892371453344822,0.023104118183255196,-0.006683461833745241,-0.058522045612335205,0.008295724168419838,-0.021790677681565285
0.028934771195054054,0.023214899003505707,-0.007358958013355732,-0.05770638957619667,0.008358445949852467,-0.022131239995360374
0.0290205180644989,0.023514626547694206,-0.006114948075264692,-0.056032292544841766,0.008623415604233742,-0.021856000646948814
0.029374057427048683,0.02416948787868023,-0.006455538794398308,-0.058318931609392166,0.008219519630074501,-0.022338690236210823
0.029548538848757744,0.023985907435417175,-0.006389583460986614,-0.05646064504981041,0.008115057833492756,-0.022147295996546745
0.029729224741458893,0.0237751342356205,-0.007037867326289415,-0.05605756491422653,0.00869984645396471,-0.021808290854096413
0.02988729439675808,0.023574069142341614,-0.006625105626881123,-0.05718575417995453,0.00871378555893898,-0.021905306726694107
0.029674187302589417,0.023473314940929413,-0.006721926853060722,-0.05721701681613922,0.008240832947194576,-0.02229287289083004
0.03008672595024109,0.02418258786201477,-0.007006959058344364,-0.057252489030361176,0.008081058971583843,-0.02213490754365921
0.030027072876691818,0.024409912526607513,-0.008025330491364002,-0.05844678357243538,0.008220342919230461,-0.022892244160175323
0.030053243041038513,0.02440946362912655,-0.007610091473907232,-0.0575016513466835,0.008480731397867203,-0.02198013849556446
0.030335787683725357,0.02422873117029667,-0.006892106495797634,-0.056827057152986526,0.008668514899909496,-0.021650947630405426
0.030842522159218788,0.02406013198196888,-0.007426910568028688,-0.057401157915592194,0.008598392829298973,-0.021989690139889717
0.030842522159218788,0.02406013198196888,-0.007426910568028688,-0.057401157915592194,0.008598392829298973,-0.021989690139889717
0.030793823301792145,0.024245820939540863,-0.007758334744721651,-0.058136261999607086,0.008541753515601158,-0.022122718393802643
0.031155139207839966,0.024260027334094048,-0.008099713362753391,-0.05806624889373779,0.008466481231153011,-0.021828165277838707
0.030738886445760727,0.02573615312576294,-0.007144676521420479,-0.058295272290706635,0.008522680029273033,-0.02197238802909851
0.03092060424387455,0.024732224643230438,-0.007260885555297136,-0.05782084912061691,0.008794436231255531,-0.021966388449072838
0.03203395754098892,0.024229541420936584,-0.008228096179664135,-0.058091674000024796,0.00848634447902441,-0.022274933755397797
0.032117169350385666,0.024569429457187653,-0.0077825975604355335,-0.0585363395512104,0.00842464528977871,-0.02233242057263851
0.02911648154258728,0.02430965006351471,-0.007307374384254217,-0.05823754891753197,0.008677211590111256,-0.022091388702392578
0.03101220913231373,0.02427148073911667,-0.007361161056905985,-0.06052212044596672,0.008744221180677414,-0.022143609821796417
0.032470110803842545,0.024885114282369614,-0.007685249205678701,-0.05840839818120003,0.008779644966125488,-0.022335784509778023
0.03148854523897171,0.025009749457240105,-0.007542110979557037,-0.059047579765319824,0.008642693981528282,-0.022213444113731384
0.03195619210600853,0.024764757603406906,-0.007618047297000885,-0.06195889040827751,0.008943376131355762,-0.022203942760825157
0.03234703093767166,0.02461918070912361,-0.007335949223488569,-0.06020412966609001,0.00900381151586771,-0.022382235154509544
0.03236602619290352,0.024943111464381218,-0.0077960859052836895,-0.05856139957904816,0.008358852006494999,-0.022440100088715553
0.031196286901831627,0.02493354119360447,-0.007468824740499258,-0.060642752796411514,0.00864946935325861,-0.02232120931148529
0.032728299498558044,0.024429433047771454,-0.007489411160349846,-0.06039375811815262,0.008745290338993073,-0.02242298424243927
0.03255344182252884,0.0246626827865839,-0.008221322670578957,-0.06055697798728943,0.008714335970580578,-0.0226131659001112
0.03206324577331543,0.024946624413132668,-0.008128330111503601,-0.060227882117033005,0.008934680372476578,-0.022721266373991966
0.03181843087077141,0.025245504453778267,-0.007195573765784502,-0.05967653915286064,0.009074724279344082,-0.022646304219961166
0.03275035694241524,0.024774901568889618,-0.007167147938162088,-0.059975095093250275,0.008626706898212433,-0.02260342240333557
0.03247358649969101,0.024943072348833084,-0.008731710724532604,-0.05969559773802757,0.008783780969679356,-0.022299600765109062
0.03282153606414795,0.025820937007665634,-0.007929855957627296,-0.059323281049728394,0.008947223424911499,-0.02279605343937874
0.032427817583084106,0.025277381762862206,-0.0074623157270252705,-0.06110468879342079,0.008820287883281708,-0.02213897369801998
0.032782182097435,0.025283947587013245,-0.007297180593013763,-0.059079546481370926,0.008856821805238724,-0.022365735843777657
0.03281325474381447,0.025080746039748192,-0.008365648798644543,-0.060089435428380966,0.00868145376443863,-0.02215326949954033
0.03256245329976082,0.025059714913368225,-0.007851534523069859,-0.059843387454748154,0.008688373491168022,-0.022228753194212914
0.03260013833642006,0.025753270834684372,-0.007206565234810114,-0.062030620872974396,0.008505393750965595,-0.021877719089388847
0.03275543078780174,0.0259507168084383,-0.007423332892358303,-0.05970298498868942,0.008802508004009724,-0.022354064509272575
0.03275543078780174,0.0259507168084383,-0.007423332892358303,-0.05970298498868942,0.008802508004009724,-0.022354064509272575
0.03294652700424194,0.025637943297624588,-0.008192154578864574,-0.06112223491072655,0.009271485731005669,-0.023197829723358154
0.0329362154006958,0.025351349264383316,-0.00822826661169529,-0.06167307496070862,0.00892105046659708,-0.02289155125617981
0.03288492187857628,0.025668160989880562,-0.007754938211292028,-0.061948906630277634,0.009398373775184155,-0.02255672961473465
0.03300466388463974,0.02579077146947384,-0.008217377588152885,-0.061959993094205856,0.00917357299476862,-0.022700926288962364
0.03260194510221481,0.02602761797606945,-0.007836361415684223,-0.06253469735383987,0.008901038207113743,-0.023218555375933647
0.03324262052774429,0.02604406699538231,-0.008147366344928741,-0.06274130195379257,0.008895005099475384,-0.022996434941887856
0.03324262052774429,0.02604406699538231,-0.008147366344928741,-0.06274130195379257,0.008895005099475384,-0.022996434941887856
0.031908582895994186,0.0264419075101614,-0.008098211139440536,-0.06323034316301346,0.008557029068470001,-0.022398557513952255
0.031908582895994186,0.0264419075101614,-0.008098211139440536,-0.06323034316301346,0.008557029068470001,-0.022398557513952255
0.033530015498399734,0.026143178343772888,-0.007687424775213003,-0.06353572010993958,0.009289848618209362,-0.02308393083512783
0.03420768678188324,0.026923885568976402,-0.00828555691987276,-0.06360659003257751,0.00916539691388607,-0.023695098236203194
0.03430240973830223,0.027489574626088142,-0.008788598701357841,-0.06357093155384064,0.00887203961610794,-0.023574650287628174
0.03337619826197624,0.02670367807149887,-0.008302868343889713,-0.06541577726602554,0.008630734868347645,-0.023132318630814552
0.03244559466838837,0.026469381526112556,-0.00811541173607111,-0.06278567016124725,0.008452369831502438,-0.02297019027173519
0.0333738699555397,0.026941724121570587,-0.008710517548024654,-0.0640530064702034,0.009092528373003006,-0.02304893173277378
0.03369593247771263,0.02732205204665661,-0.00782139040529728,-0.06561408936977386,0.009508694522082806,-0.023121098056435585
0.03444638103246689,0.027055591344833374,-0.00823802687227726,-0.061789073050022125,0.009109924547374249,-0.023516666144132614
0.03404511138796806,0.027700522914528847,-0.008928162045776844,-0.06275488436222076,0.008855554275214672,-0.02430776134133339
0.03380414843559265,0.02782372757792473,-0.008596660569310188,-0.06336663663387299,0.008767472580075264,-0.022874727845191956
0.03319412097334862,0.027793381363153458,-0.00827257800847292,-0.06264273077249527,0.009008047170937061,-0.022110363468527794
0.03367861732840538,0.027448752894997597,-0.008751517161726952,-0.06151501461863518,0.009190894663333893,-0.02284419722855091
0.03409235179424286,0.028048032894730568,-0.008333790116012096,-0.06180266663432121,0.008922332897782326,-0.023313937708735466
0.03385116532444954,0.02914307452738285,-0.008696640841662884,-0.062331557273864746,0.009020925499498844,-0.024025537073612213
0.03411882370710373,0.029272018000483513,-0.009197911247611046,-0.06333823502063751,0.009210916236042976,-0.023587841540575027
0.033883754163980484,0.02765841968357563,-0.008698441088199615,-0.06338104605674744,0.009034414775669575,-0.0233943909406662
0.03375611826777458,0.027771275490522385,-0.008732695132493973,-0.06373145431280136,0.009133539162576199,-0.023143872618675232
0.03375611826777458,0.027771275490522385,-0.008732695132493973,-0.06373145431280136,0.009133539162576199,-0.023143872618675232
0.033899128437042236,0.02895163930952549,-0.008543531410396099,-0.06401380896568298,0.009407592006027699,-0.02334529533982277
0.03356640785932541,0.028927285224199295,-0.009085681289434433,-0.06659948080778122,0.010108515620231628,-0.023773007094860077
0.033921804279088974,0.028384992852807045,-0.008488223887979984,-0.06384684890508652,0.009146256372332573,-0.024400603026151657
0.033887263387441635,0.029774624854326248,-0.008193401619791985,-0.06434432417154312,0.008671782910823822,-0.023840248584747314
0.03394141420722008,0.030124852433800697,-0.008799158968031406,-0.06692437082529068,0.008981388993561268,-0.023904625326395035
0.0332517996430397,0.02893446385860443,-0.008409302681684494,-0.06457852572202682,0.008956017903983593,-0.024396201595664024
0.03487140312790871,0.028344696387648582,-0.008261781185865402,-0.0654224380850792,0.009165449067950249,-0.024790901690721512
0.034845463931560516,0.028848957270383835,-0.008934122510254383,-0.06683380156755447,0.009124803356826305,-0.023488029837608337
0.03413401544094086,0.02996848337352276,-0.008730017580091953,-0.0672614574432373,0.010222002863883972,-0.023028407245874405
0.033920034766197205,0.030606651678681374,-0.00843946635723114,-0.06735730171203613,0.00912691093981266,-0.02310638129711151
0.034856993705034256,0.029043588787317276,-0.008450348861515522,-0.06705228984355927,0.00895572267472744,-0.023667998611927032
0.03539485111832619,0.02920636534690857,-0.008937938138842583,-0.06684380769729614,0.009502662345767021,-0.02454557456076145
0.03529796376824379,0.029562264680862427,-0.00860932469367981,-0.0673820823431015,0.009540160186588764,-0.02451559528708458
0.03408598154783249,0.03011448122560978,-0.008870117366313934,-0.06757611781358719,0.010091648437082767,-0.024492457509040833
0.03515953570604324,0.03010007180273533,-0.008899370208382607,-0.06804843246936798,0.009397928602993488,-0.0241403728723526
0.03515614941716194,0.030229346826672554,-0.00899152085185051,-0.06801065802574158,0.009523004293441772,-0.023990565910935402
0.03653254359960556,0.029804883524775505,-0.008091716095805168,-0.06967738270759583,0.010124493390321732,-0.02379218116402626
0.0363442525267601,0.03027387708425522,-0.008614066056907177,-0.06623198837041855,0.00928796548396349,-0.02441112883388996
0.03497118130326271,0.029780397191643715,-0.00892722886055708,-0.06693798303604126,0.009229248389601707,-0.024458207190036774
0.035509929060935974,0.029809659346938133,-0.008549945428967476,-0.06991859525442123,0.009426874108612537,-0.02339886501431465
0.03665090724825859,0.029577910900115967,-0.008769268169999123,-0.06662680953741074,0.009621311910450459,-0.02387324906885624
0.03656066209077835,0.029801292344927788,-0.008664106018841267,-0.06695922464132309,0.009633766487240791,-0.024051718413829803
0.03659489005804062,0.03000384196639061,-0.008366703055799007,-0.0684972032904625,0.010206367820501328,-0.024300768971443176
0.036301448941230774,0.030385097488760948,-0.00847543217241764,-0.06902839988470078,0.010029694996774197,-0.02454635500907898
0.03652552515268326,0.030336709693074226,-0.008865728974342346,-0.06944650411605835,0.009579846635460854,-0.024585232138633728
0.03669256344437599,0.030248504132032394,-0.008314386010169983,-0.06946846842765808,0.009840303100645542,-0.024505773559212685
0.03762250393629074,0.030574709177017212,-0.008137467317283154,-0.06974644958972931,0.009913980029523373,-0.024684356525540352
0.03782025724649429,0.030755190178751945,-0.009332227520644665,-0.07003126293420792,0.010053629986941814,-0.024672431871294975
0.03782025724649429,0.030755190178751945,-0.009332227520644665,-0.07003126293420792,0.010053629986941814,-0.024672431871294975
0.03723730891942978,0.03068636916577816,-0.00876530073583126,-0.07012078166007996,0.009789606556296349,-0.02430674433708191
0.03737984225153923,0.03038022853434086,-0.008216476999223232,-0.07099034637212753,0.00965922325849533,-0.02447444573044777
0.03788169473409653,0.030433202162384987,-0.008562647737562656,-0.07125764340162277,0.010365084744989872,-0.024722255766391754
0.03835274279117584,0.031639523804187775,-0.008604953065514565,-0.07137876749038696,0.010258346796035767,-0.024990638718008995
0.037962015718221664,0.03220079839229584,-0.008454421535134315,-0.07049976289272308,0.00991016998887062,-0.025256600230932236
0.038282811641693115,0.03038189187645912,-0.008456824347376823,-0.07296770811080933,0.009816056117415428,-0.024640539661049843
0.038355156779289246,0.029898209497332573,-0.00891641341149807,-0.07217568904161453,0.009732459671795368,-0.02465011179447174
0.03865474462509155,0.030870025977492332,-0.008669298142194748,-0.07157697528600693,0.009701911360025406,-0.025014420971274376
0.03859338164329529,0.03035876341164112,-0.008735280483961105,-0.07197351008653641,0.009864181280136108,-0.0250492375344038
0.0387505367398262,0.030373327434062958,-0.009049697779119015,-0.0723278596997261,0.010456757619976997,-0.025207143276929855
