davideferrari95/blind_handover_controller/data/Test 58 - [2024-02-07 -- 15-42-21]/joint_states_data.csv
shoulder_pan_joint,shoulder_lift_joint,elbow_joint,wrist_1_joint,wrist_2_joint,wrist_3_joint
0.005960886366665363,1.7696009990686434e-08,-0.00813992414623499,0.007635078858584166,0.0,0.0052006724290549755
0.005960886366665363,1.7696009990686434e-08,-0.00813992414623499,0.007635078858584166,0.0,0.0052006724290549755
0.005751342047005892,-0.0015804264694452286,-0.007866292260587215,0.00790571328252554,0.0,0.004894482437521219
0.005510998889803886,-0.0012616007588803768,-0.00697952089831233,0.007755664177238941,0.0,0.004791654646396637
0.005515281576663256,-0.0007980377995409071,-0.008066372014582157,0.007000624667853117,0.0,0.005041078664362431
0.005321973469108343,-0.0006468524225056171,-0.008573171682655811,0.0070508611388504505,0.0,0.005365139804780483
0.005813689902424812,-0.0005481078405864537,-0.008007311262190342,0.007525402121245861,0.0,0.00531973410397768
0.005821790546178818,-0.00027438014512881637,-0.007587659638375044,0.007277507800608873,0.0,0.005253128707408905
0.00576156098395586,-0.00013963431410957128,-0.008572014048695564,0.0069041140377521515,0.0,0.005415117368102074
0.005527630914002657,-0.00023426390544045717,-0.007715269923210144,0.007181474938988686,0.0,0.005539879202842712
0.005527630914002657,-0.00023426390544045717,-0.007715269923210144,0.007181474938988686,0.0,0.005539879202842712
0.005568356718868017,-0.0002112739166477695,-0.0070432815700769424,0.007543413899838924,0.0,0.005359269678592682
0.005215667653828859,-0.00018912400992121547,-0.0067799994722008705,0.007526469882577658,0.0,0.005449374206364155
0.0061801583506166935,-0.00017113459762185812,-0.0074238902889192104,0.007457271683961153,0.0,0.005478994455188513
0.004990818910300732,-0.0002311101125087589,-0.007373970467597246,0.007012033369392157,0.0,0.004949580412358046
0.004650203976780176,-0.00021563173504546285,-0.007278558798134327,0.007827485911548138,0.0,0.005311871413141489
0.005131354555487633,-0.00019971831352449954,-0.007201236207038164,0.007864746265113354,0.0,0.005238113459199667
0.0051059420220553875,-0.00018595944857224822,-0.007742312271147966,0.007499946281313896,0.0,0.005412645637989044
0.00589752895757556,-0.00017397415649611503,-0.007102246396243572,0.007500176317989826,0.0,0.005547334440052509
0.005480119027197361,-0.00016344230971299112,-0.006805174518376589,0.008218902163207531,0.0,0.005413125269114971
0.005377983208745718,-0.00015411140338983387,-0.006062041036784649,0.008286510594189167,0.0,0.005423117429018021
0.005723604466766119,-0.00014578911941498518,-0.00757210049778223,0.007323164958506823,0.0,0.005291314329952002
0.005306529346853495,-0.00013157828652765602,-0.0071098413318395615,0.007110824808478355,0.0,0.00505180424079299
0.005221005529165268,-0.0001254635426448658,-0.007179844658821821,0.007126196287572384,0.0,0.005238738376647234
0.00539355119690299,-0.00011989254562649876,-0.0075208041816949844,0.007279769983142614,0.0,0.0054086074233055115
0.005614912137389183,-0.00011479441309347749,-0.007305517792701721,0.007750495336949825,0.0,0.005037345923483372
0.005184701643884182,-0.00011011251626769081,-0.006744720973074436,0.007690018974244595,0.0,0.004953861702233553
0.005058483220636845,-0.00010579803347354755,-0.0063271960243582726,0.007234666496515274,0.0,0.005200536921620369
0.00504183117300272,-0.00010180834942730144,-0.006781921721994877,0.00657258415594697,0.0,0.005276158452033997
0.005936721805483103,-9.810894698603079e-05,-0.007253019604831934,0.006729124579578638,0.0,0.005390365608036518
0.005362133961170912,-9.466886695008725e-05,-0.00698905298486352,0.007523391395807266,0.0,0.005042594391852617
0.004926700610667467,-9.146195225184783e-05,-0.007176653947681189,0.0077645001001656055,0.0,0.005066670477390289
0.0051773604936897755,-8.846518903737888e-05,-0.0073962705209851265,0.007031826768070459,0.0,0.005347849801182747
0.0051773604936897755,-8.846518903737888e-05,-0.0073962705209851265,0.007031826768070459,0.0,0.005347849801182747
0.005123251583427191,-8.565859025111422e-05,-0.007561230566352606,0.007309617940336466,0.0,0.005582291167229414
0.004940214101225138,-8.302449714392424e-05,-0.0070648654364049435,0.007736062631011009,0.0,0.00477616349235177
0.005245070438832045,-8.054785575950518e-05,-0.00688139395788312,0.007456518709659576,0.0,0.0046313852071762085
0.005073209293186665,-7.821433246135712e-05,-0.00711147440597415,0.007237193174660206,0.0,0.0050322324968874454
0.00516241742298007,-7.601237302878872e-05,-0.00810353271663189,0.007322331424802542,0.0,0.005320888943970203
0.00523774791508913,-7.393112173303962e-05,-0.0074827163480222225,0.007947107776999474,0.0,0.005925324745476246
0.005042313132435083,-7.196090155048296e-05,-0.006802752614021301,0.00793848093599081,0.0,0.005608458537608385
0.005345387849956751,-7.009262481005862e-05,-0.007188964635133743,0.007684390526264906,0.0,0.00555081944912672
0.005213241092860699,-6.831898645032197e-05,-0.007441247347742319,0.007513141725212336,0.0,0.005207906477153301
0.005360779818147421,-6.663291424047202e-05,-0.00719476817175746,0.00787651352584362,0.0,0.004852312617003918
0.005556636955589056,-6.502839823951945e-05,-0.007312926929444075,0.007744606118649244,0.0,0.005142885725945234
0.004878196865320206,-6.349911564029753e-05,-0.007775245234370232,0.007752805482596159,0.0,0.005238546524196863
0.0049284095875918865,-6.203998782439157e-05,-0.008600416593253613,0.007769389543682337,0.0,0.005357058718800545
0.0054199425503611565,-6.064626359147951e-05,-0.008124400861561298,0.008205486461520195,0.0,0.005501748528331518
0.005485523957759142,-5.931430132477544e-05,-0.007961197756230831,0.008350174874067307,0.0,0.005536527372896671
0.0055145868100225925,-5.8039018767885864e-05,-0.0079728402197361,0.007947181351482868,0.0,0.005229612346738577
0.004823937080800533,-5.5646931286901236e-05,-0.008035309612751007,0.008486119098961353,0.0,0.005487425718456507
0.005356263369321823,-5.452319237519987e-05,-0.0078076450154185295,0.00792079046368599,0.0,0.0053739771246910095
0.005290556699037552,-5.344404780771583e-05,-0.008946353569626808,0.007510979659855366,0.0,0.005528600886464119
0.005684428848326206,-5.2406710892682895e-05,-0.00849673431366682,0.007975371554493904,0.0,0.0052710711024701595
0.005232952069491148,-5.1408831495791674e-05,-0.008262417279183865,0.007737638894468546,0.0,0.005545304622501135
0.0054327575489878654,-5.0448325055185705e-05,-0.007899872027337551,0.007499611470848322,0.0,0.005392731633037329
0.005050164647400379,-4.952303788741119e-05,-0.008501976728439331,0.007361546158790588,0.0,0.005720470100641251
0.004859108943492174,-4.8631067329552025e-05,-0.0078028105199337006,0.0077083478681743145,0.0,0.005683101247996092
0.005542670842260122,-4.7770747187314555e-05,-0.008097327314317226,0.0075460500083863735,0.0,0.005664139054715633
0.005542670842260122,-4.7770747187314555e-05,-0.008097327314317226,0.0075460500083863735,0.0,0.005664139054715633
0.005289653316140175,-4.694021481554955e-05,-0.008656659163534641,0.0074198199436068535,0.0,0.005438871681690216
0.004845107905566692,-4.5362987293628976e-05,-0.008184448815882206,0.007607129402458668,0.0,0.0054773748852312565
0.004789349623024464,-4.4613425416173413e-05,-0.007753703277558088,0.007794603239744902,0.0,0.005865599028766155
0.004789349623024464,-4.4613425416173413e-05,-0.007753703277558088,0.007794603239744902,0.0,0.005865599028766155
0.005080912262201309,-4.3888252548640594e-05,-0.008704614825546741,0.007619534619152546,0.0,0.005366508383303881
0.0055887121707201,-4.3186308175791055e-05,-0.007896176539361477,0.007674403488636017,0.0,0.005505646578967571
0.005247568245977163,-4.250638448866084e-05,-0.007561252918094397,0.008266833610832691,0.0,0.005345828831195831
0.005052945576608181,-4.1847604734357446e-05,-0.007697214372456074,0.008360380306839943,0.0,0.005627891048789024
0.005190073046833277,-4.120895391679369e-05,-0.008259952999651432,0.007886501960456371,0.0,0.005404673982411623
0.004905352368950844,-4.058946797158569e-05,-0.00795124750584364,0.007732165977358818,0.0,0.005361996591091156
0.005190908443182707,-3.9988331991480663e-05,-0.008070911280810833,0.007714258506894112,0.0,0.005234080832451582
0.005657346919178963,-3.940473834518343e-05,-0.008374120108783245,0.007702769711613655,0.0,0.004807370714843273
0.005166865419596434,-3.883792305714451e-05,-0.007791947107762098,0.007609770633280277,0.0,0.004966051783412695
0.005201663821935654,-3.828722765319981e-05,-0.007631085813045502,0.007666554767638445,0.0,0.005347775761038065
0.005144125781953335,-3.775191362365149e-05,-0.007098410278558731,0.00790051743388176,0.0,0.005317627917975187
0.0051347194239497185,-3.723134068422951e-05,-0.007828187197446823,0.00770283630117774,0.0,0.005242468323558569
0.005397770553827286,-3.672493403428234e-05,-0.008185174316167831,0.007607950828969479,0.0,0.005116359796375036
0.005489505361765623,-3.623211523517966e-05,-0.007604922167956829,0.007732309866696596,0.0,0.0055569009855389595
0.005514495074748993,-3.528518936946057e-05,-0.0077223461121320724,0.007993170991539955,0.0,0.004868536256253719
0.0054372744634747505,-3.4830001823138446e-05,-0.008108324371278286,0.007914277724921703,0.0,0.005438658874481916
0.005021677818149328,-3.438644125708379e-05,-0.007800830993801355,0.007698104716837406,0.0,0.005370683968067169
0.005467562470585108,-3.395400563022122e-05,-0.007619666401296854,0.008005189709365368,0.0,0.005886096972972155
0.005200650542974472,-3.353233478264883e-05,-0.008330763317644596,0.007738914806395769,0.0,0.005503491498529911
0.005275357980281115,-3.316597212688066e-05,-0.007727296091616154,0.007704524789005518,0.0,0.0050732772797346115
0.005430563818663359,-2.343002961424645e-05,-0.007553522475063801,0.008378779515624046,0.0,0.005152253899723291
0.005137115251272917,-2.300570486113429e-05,-0.007515909615904093,0.008509177714586258,0.0,0.005590884480625391
0.0057981000281870365,-2.2713738871971145e-05,-0.007522721774876118,0.008503194898366928,0.0,0.006086761597543955
0.00561003340408206,-2.2430682292906567e-05,-0.007269017864018679,0.008421518839895725,0.0,0.005996572319418192
0.005774930585175753,-2.2154605176183395e-05,-0.007250106427818537,0.008212179876863956,0.0,0.005864483769983053
0.0053497361950576305,-2.1885252863285132e-05,-0.007456048391759396,0.007537167984992266,0.0,0.00555006368085742
0.005322278011590242,-2.1622361600748263e-05,-0.00767381489276886,0.0072582489810884,0.0,0.005693965591490269
0.005322278011590242,-2.1622361600748263e-05,-0.00767381489276886,0.0072582489810884,0.0,0.005693965591490269
0.006033701356500387,-2.111510002578143e-05,-0.0073010362684726715,0.008282945491373539,0.0,0.005665695294737816
0.006033701356500387,-2.111510002578143e-05,-0.0073010362684726715,0.008282945491373539,0.0,0.005665695294737816
0.005468545947223902,-2.087028042296879e-05,-0.007498142775148153,0.007956656627357006,0.0,0.005793355405330658
0.005951481405645609,-2.0631081497413106e-05,-0.0075748679228127,0.008036057464778423,0.0,0.0053733340464532375
0.0054354374296963215,-2.0397310436237603e-05,-0.0071928235702216625,0.007916226051747799,0.0,0.005649571772664785
0.005463528912514448,-2.016876715060789e-05,-0.006987813860177994,0.00802590698003769,0.0,0.005471942480653524
0.005764706991612911,-1.994528793147765e-05,-0.007354353554546833,0.007973762229084969,0.0,0.005687026772648096
0.00623950082808733,-2.2975070805841824e-06,-0.007656741887331009,0.007890408858656883,0.0,0.005955265369266272
0.005702972877770662,-3.082399047116269e-08,-0.0073143551126122475,0.008103448897600174,0.0,0.005925237666815519
0.005906731355935335,-4.13543116417614e-10,-0.0071866936050355434,0.008212368935346603,0.0,0.005633045919239521
0.005315583664923906,-5.5482081602609146e-12,-0.007317219860851765,0.008193410001695156,0.0,0.005695477593690157
0.00536419078707695,-7.443628639901625e-14,-0.0076434719376266,0.008262479677796364,0.0,0.00539048295468092
0.005764276720583439,-9.986577740434509e-16,-0.0069520012475550175,0.008233508095145226,0.0,0.0053548687137663364
0.005726922769099474,-1.797548644831428e-19,-0.007155007217079401,0.00805805716663599,0.0,0.005758537910878658
0.005493823438882828,-2.4116410369305175e-21,-0.008037046529352665,0.0078950896859169,0.0,0.005645309574902058
0.0055899606086313725,-3.235524362361015e-23,-0.007409854792058468,0.007535605225712061,0.0,0.005795122589915991
0.0062727914191782475,-4.3408693405022535e-25,-0.0069263470359146595,0.007804292719811201,0.0,0.00566609064117074
0.0057708038948476315,-5.823829573668273e-27,-0.0070235226303339005,0.00832265242934227,0.0,0.0056382580660283566
0.005793024320155382,-7.813411117531518e-29,-0.007625787518918514,0.008452941663563251,0.0,0.0052201938815414906
0.0053115771152079105,-1.048268810481378e-30,-0.007032928988337517,0.008014824241399765,0.0,0.005811356008052826
0.005859350319951773,-1.4063864205787397e-32,-0.00712792482227087,0.00702808378264308,0.0,0.005508177448064089
0.005859350319951773,-1.4063864205787397e-32,-0.00712792482227087,0.00702808378264308,0.0,0.005508177448064089
0.006355301011353731,-1.8868468235210583e-34,-0.007560246624052525,0.00803759228438139,0.0,0.005416181869804859
0.00585817638784647,-3.3962575835802286e-38,-0.0074932267889380455,0.007731451187282801,0.0,0.005914488807320595
0.00585817638784647,-3.3962575835802286e-38,-0.0074932267889380455,0.007731451187282801,0.0,0.005914488807320595
0.00564204715192318,-4.556518138537148e-40,-0.007467139512300491,0.007462511770427227,0.0,0.005943520925939083
0.005709769669920206,-6.112463901384852e-42,-0.0076997363939881325,0.008446634747087955,0.0,0.005934609100222588
0.005731368437409401,-8.267660939516421e-44,-0.007806762587279081,0.007945466786623001,0.0,0.005503789987415075
0.0061262515373528,-1.401298464324817e-45,-0.007026167120784521,0.008096610195934772,0.0,0.005701025482267141
0.005646089557558298,-0.0,-0.007261713966727257,0.008566245436668396,0.0,0.005580211523920298
0.0054152836091816425,0.0,-0.007860682904720306,0.008400078862905502,0.0,0.005955608561635017
0.0053993226028978825,0.0,-0.007848325185477734,0.008451420813798904,0.0,0.0057094404473900795
0.006163318641483784,0.0,-0.007409282959997654,0.007940007373690605,0.0,0.005724032409489155
0.005958933848887682,0.0,-0.0073249139823019505,0.008704295381903648,0.0,0.006026776507496834
0.005842740181833506,0.0,-0.007475872058421373,0.008343184366822243,0.0,0.0057241348549723625
0.006205621175467968,0.0,-0.007463039830327034,0.008337308652698994,0.0,0.005939340218901634
0.005607769824564457,0.0,-0.00723003875464201,0.00796173233538866,0.0,0.005978595931082964
0.005839577876031399,0.0,-0.0073990109376609325,0.00880924891680479,0.0,0.006033195182681084
0.006069103255867958,0.0,-0.0077815488912165165,0.007984361611306667,0.0,0.006092865951359272
0.005835035815834999,0.0,-0.00812698807567358,0.00805995799601078,0.0,0.006540840025991201
0.005695316009223461,0.0,-0.007804580964148045,0.008220767602324486,0.0,0.006180719472467899
0.006046229507774115,0.0,-0.0077333697117865086,0.008208571001887321,0.0,0.005896768998354673
0.0061236657202243805,0.0,-0.008059995248913765,0.008088948205113411,0.0,0.006061702501028776
0.006093207746744156,0.0,-0.007740376982837915,0.008337477222084999,0.0,0.005750600714236498
0.0062619284726679325,0.0,-0.0071714455261826515,0.008429483510553837,0.0,0.006669618654996157
0.005693804007023573,0.0,-0.007222404703497887,0.00787211675196886,0.0,0.005870548076927662
0.005693804007023573,0.0,-0.007222404703497887,0.00787211675196886,0.0,0.005870548076927662
0.006757939234375954,0.0,-0.008036823943257332,0.008125639520585537,0.0,0.005282501224428415
0.006757939234375954,0.0,-0.008036823943257332,0.008125639520585537,0.0,0.005282501224428415
0.006137872114777565,0.0,-0.008164622820913792,0.0077229891903698444,0.0,0.005436332896351814
0.005739518906921148,0.0,-0.00804261863231659,0.00779459485784173,0.0,0.00585201708599925
0.005707177799195051,0.0,-0.00787986721843481,0.0077002509497106075,0.0,0.0064742364920675755
0.006172592751681805,0.0,-0.007434258237481117,0.00784305203706026,0.0,0.005985999945551157
0.006825719960033894,0.0,-0.00731117557734251,0.007703929673880339,0.0,0.005762459244579077
0.006037753541022539,0.0,-0.007792466785758734,0.007469062693417072,0.0,0.00604218291118741
0.005946353077888489,0.0,-0.007949168793857098,0.007701799273490906,0.0,0.006036175414919853
0.005712983664125204,0.0,-0.007155208382755518,0.008109129033982754,0.0,0.00651654414832592
0.006209945771843195,0.0,-0.0085694445297122,0.008174825459718704,0.0,0.006379472091794014
0.006399455480277538,0.0,-0.008678712882101536,0.007946074940264225,0.0,0.006052268669009209
0.00658942898735404,0.0,-0.008086636662483215,0.008593970909714699,0.0,0.006157274357974529
0.0056828698143363,0.0,-0.007420974317938089,0.008871492929756641,0.0,0.00647477013990283
0.005955101456493139,0.0,-0.007362165488302708,0.008120909333229065,0.0,0.006666821893304586
0.005699547007679939,0.0,-0.007681235671043396,0.0078123873099684715,0.0,0.006325692404061556
0.006360291037708521,0.0,-0.008137901313602924,0.008619414642453194,0.0,0.006102842278778553
0.00581298116594553,0.0,-0.008320895954966545,0.007418963126838207,0.0,0.006192748434841633
0.0058175940066576,0.0,-0.00831550732254982,0.008065322414040565,0.0,0.006341658532619476
0.006382832303643227,0.0,-0.00773063488304615,0.008281857706606388,0.0,0.006118163466453552
0.006525189615786076,0.0,-0.008107295259833336,0.007967115379869938,0.0,0.006346025038510561
0.006170338951051235,0.0,-0.00849761813879013,0.007553176023066044,0.0,0.006704030558466911
0.006012151017785072,0.0,-0.008076610043644905,0.008065132424235344,0.0,0.006777351256459951
0.006081301253288984,0.0,-0.007671142462641001,0.008307010866701603,0.0,0.006460348144173622
0.006808568723499775,0.0,-0.00807605218142271,0.008370314724743366,0.0,0.006441725417971611
0.006808568723499775,0.0,-0.00807605218142271,0.008370314724743366,0.0,0.006441725417971611
0.006952881813049316,0.0,-0.008246440440416336,0.007984294556081295,0.0,0.0067554013803601265
0.006286384537816048,0.0,-0.008167898282408714,0.008188377134501934,0.0,0.006605172995477915
0.006319894455373287,0.0,-0.007778657600283623,0.008262739516794682,0.0,0.006679234094917774
0.006736909504979849,0.0,-0.008745908737182617,0.00757184810936451,0.0,0.006393192335963249
0.007418094202876091,0.0,-0.008987157605588436,0.008082035928964615,0.0,0.006560396868735552
0.006707959808409214,0.0,-0.007984575815498829,0.008411645889282227,0.0,0.006598581559956074
0.006508719176054001,0.0,-0.008287307806313038,0.007681297603994608,0.0,0.0064924610778689384
0.006663481704890728,0.0,-0.009592344053089619,0.007457068655639887,0.0,0.006332850083708763
0.0068113007582724094,0.0,-0.008226337842643261,0.008356506004929543,0.0,0.006546839140355587
0.007223434280604124,0.0,-0.007954391650855541,0.007982200011610985,0.0,0.006707016844302416
0.006832699757069349,0.0,-0.008602946065366268,0.007486852817237377,0.0,0.006495082750916481
0.006060359533876181,0.0,-0.008760122582316399,0.0072533669881522655,0.0,0.0066367341205477715
0.006629465147852898,0.0,-0.008352064527571201,0.008574428968131542,0.0,0.0065812012180686
0.006901273503899574,0.0,-0.008381794206798077,0.008137041702866554,0.0,0.007084256503731012
0.006461298558861017,0.0,-0.008988842368125916,0.00771523779258132,0.0,0.006951548624783754
0.006358901970088482,0.0,-0.008156890980899334,0.007702959701418877,0.0,0.007397821173071861
0.006949206814169884,0.0,-0.00953840184956789,0.007843662053346634,0.0,0.006334951147437096
0.007524908985942602,0.0,-0.008478671312332153,0.007496469188481569,0.0,0.006497289054095745
0.006612755358219147,0.0,-0.008046025410294533,0.008605845272541046,0.0,0.006667142268270254
0.00616142014041543,0.0,-0.008798869326710701,0.008722284808754921,0.0,0.006932721473276615
0.007170200813561678,0.0,-0.008622124791145325,0.008132502436637878,0.0,0.006527582183480263
0.007006742991507053,0.0,-0.008494965732097626,0.0075192321091890335,0.0,0.006600084714591503
0.007192134857177734,0.0,-0.007932069711387157,0.007737746462225914,0.0,0.006791104096919298
0.0065549397841095924,0.0,-0.008881242014467716,0.00812009908258915,0.0,0.006638591643422842
0.006566841620951891,0.0,-0.008720788173377514,0.008388405665755272,0.0,0.006547118071466684
0.006566841620951891,0.0,-0.008720788173377514,0.008388405665755272,0.0,0.006547118071466684
0.0069032637402415276,0.0,-0.008712626062333584,0.008172396570444107,0.0,0.006512555293738842
0.007044570054858923,0.0,-0.008624499663710594,0.008799346163868904,0.0,0.006989046931266785
0.006861390545964241,0.0,-0.008160313591361046,0.00887488853186369,0.0,0.00698582548648119
0.0074710301123559475,0.0,-0.008300858549773693,0.008814655244350433,0.0,0.007367994636297226
0.007910442538559437,0.0,-0.009187216870486736,0.008654464967548847,0.0,0.0074444725178182125
0.007087914273142815,0.0,-0.008988065645098686,0.008572697639465332,0.0,0.00692889466881752
0.006900263950228691,0.0,-0.008202639408409595,0.008628872223198414,0.0,0.0070186094380915165
0.006835234817117453,0.0,-0.00828883983194828,0.008894070982933044,0.0,0.007413994055241346
0.007551561575382948,0.0,-0.008930401876568794,0.008529423736035824,0.0,0.0072521427646279335
0.007458045147359371,0.0,-0.008750858716666698,0.008693346753716469,0.0,0.00691613182425499
0.006953307427465916,0.0,-0.008156814612448215,0.008676868863403797,0.0,0.007207888178527355
0.006958215497434139,0.0,-0.008211889304220676,0.009022864513099194,0.0,0.007588283158838749
0.007529528811573982,0.0,-0.008360659703612328,0.00915346946567297,0.0,0.0072669414803385735
0.007558521814644337,0.0,-0.008183729834854603,0.008218799717724323,0.0,0.007137669250369072
0.0076165529899299145,0.0,-0.008026445284485817,0.008817500434815884,0.0,0.00684617692604661
0.007811490911990404,0.0,-0.0082055339589715,0.00832246895879507,0.0,0.007070028688758612
0.0073440116830170155,0.0,-0.008332280442118645,0.008989336900413036,0.0,0.006377388257533312
0.0073440116830170155,0.0,-0.008332280442118645,0.008989336900413036,0.0,0.006377388257533312
0.007483169436454773,0.0,-0.008518772199749947,0.008559766225516796,0.0,0.006841844879090786
0.008428110741078854,0.0,-0.008025890216231346,0.007780584506690502,0.0,0.0070135751739144325
0.00859805103391409,0.0,-0.007731061894446611,0.008141575381159782,0.0,0.006863838993012905
0.007902632467448711,0.0,-0.00823280494660139,0.008627405390143394,0.0,0.007030604872852564
0.007832890376448631,0.0,-0.008895131759345531,0.00794659648090601,0.0,0.007488586939871311
0.007832890376448631,0.0,-0.008895131759345531,0.00794659648090601,0.0,0.007488586939871311
0.008224420249462128,0.0,-0.008127574808895588,0.008122449740767479,0.0,0.0076423403806984425
0.008104892447590828,0.0,-0.008010861463844776,0.008816230110824108,0.0,0.007389796432107687
0.008684000000357628,0.00010615919018164277,-0.008623089641332626,0.008650016970932484,0.0,0.007346840109676123
0.008175895549356937,0.00013817108992952853,-0.008423920720815659,0.00845838151872158,0.0,0.008416449651122093
0.008697065524756908,0.000134514324599877,-0.007873141206800938,0.008465385995805264,0.0,0.00765225337818265
0.008434209041297436,0.0001306163176195696,-0.008408594876527786,0.008494727313518524,0.0,0.0065975612960755825
0.008266285993158817,0.0001269320782739669,-0.008629350923001766,0.00806888472288847,0.0,0.006697837729007006
0.008462077006697655,0.00012344986316747963,-0.00846999790519476,0.008215847425162792,0.0,0.007172673009335995
0.008745988830924034,0.00012015375978080556,-0.007637187838554382,0.00885495450347662,0.0,0.007607554085552692
0.008311435580253601,0.0001170291070593521,-0.008304182440042496,0.008474092930555344,2.9315040137589676e-06,0.007308923173695803
0.008259997703135014,0.00011406272824387997,-0.008348620496690273,0.007914219051599503,1.9140625795444066e-07,0.00707981688901782
0.00882031861692667,0.00013259793922770768,-0.008167849853634834,0.008232884109020233,1.2497459955795875e-08,0.007543566171079874
0.008639552630484104,0.00013025921361986548,-0.008267289027571678,0.008865658193826675,8.159948272634665e-10,0.007826846092939377
0.008677246980369091,0.00012720239465124905,-0.008734098635613918,0.009053068235516548,5.3278631506614715e-11,0.007634031120687723
0.009219746105372906,0.00012427505862433463,-0.008305804803967476,0.008502384647727013,3.4787138447622823e-12,0.00793022196739912
0.008796922862529755,0.00012147943925810978,-0.008159885182976723,0.008816779591143131,2.271351645178124e-13,0.007898976095020771
0.008440637029707432,0.0001362889161100611,-0.008513808250427246,0.008916368708014488,1.483030346205623e-14,0.007839782163500786
0.008841506205499172,0.00013559310173150152,-0.008205892518162727,0.008451485075056553,9.683128187080656e-16,0.007434112019836903
0.009162685833871365,0.00013276566460262984,-0.007837304845452309,0.008942480199038982,6.322390899415537e-17,0.007416622247546911
0.009249691851437092,0.0001300258154515177,-0.007735693361610174,0.008679557591676712,4.128069662364261e-18,0.007428177632391453
0.008706053718924522,0.00014270069368649274,-0.008484742604196072,0.009257135912775993,1.759861003653805e-20,0.008200805634260178
0.008918439969420433,0.0001399367320118472,-0.007832835428416729,0.00896376557648182,1.1490634278386725e-21,0.007683508098125458
0.008470196276903152,0.00020933295309077948,-0.008189840242266655,0.00870906375348568,7.502562613300301e-23,0.007571361027657986
0.008741307072341442,0.0002029013994615525,-0.008708206005394459,0.008710773661732674,4.8986376836661355e-24,0.007857858203351498
0.008866441436111927,0.00019418504962231964,-0.00852711871266365,0.00912226177752018,3.198460452564782e-25,0.007594133727252483
0.008673274889588356,0.00022286162129603326,-0.00805468950420618,0.008863464929163456,2.088366111459162e-26,0.007955893874168396
0.008958389982581139,0.00021450173517223448,-0.008851736783981323,0.008252231404185295,1.3635538746907937e-27,0.008759496733546257
0.009018677286803722,0.0002063125284621492,-0.008764533326029778,0.008889698423445225,8.90303306695844e-29,0.008466591127216816
0.009018677286803722,0.0002063125284621492,-0.008764533326029778,0.008889698423445225,8.90303306695844e-29,0.008466591127216816
0.009085540659725666,0.00023137914831750095,-0.008186670951545238,0.008874984458088875,5.813044883573377e-30,0.007884832099080086
0.008953402750194073,0.00022360503498930484,-0.008268739096820354,0.008669319562613964,3.7955029280141286e-31,0.00799268577247858
0.00948939099907875,0.0002455475623719394,-0.008791468106210232,0.008854278363287449,2.4781921779565195e-32,0.008728708140552044
0.009404354728758335,0.00023860004148446023,-0.008779319003224373,0.009255227632820606,1.6180824839152717e-33,0.00861901231110096
0.009305128827691078,0.00023123485152609646,-0.008659910410642624,0.008897609077394009,1.0564921929852095e-34,0.008177028968930244
0.009042945690453053,0.00038478084024973214,-0.009130990132689476,0.008588013239204884,6.898139350524303e-36,0.008397459052503109
0.008960362523794174,0.00035662215668708086,-0.009052686393260956,0.00904989242553711,4.503992091108151e-37,0.008522382006049156
0.008945406414568424,0.0003304563870187849,-0.008420993573963642,0.008623259142041206,2.9407851359299474e-38,0.008418590761721134
0.009131556376814842,0.0003480917075648904,-0.00901082530617714,0.008398487232625484,1.920122214248759e-39,0.008376512676477432
0.009117554873228073,0.00034547041286714375,-0.007980138063430786,0.009108039550483227,1.253699697077484e-40,0.008731739595532417
0.00898162554949522,0.00032494295737706125,-0.009358149021863937,0.008914352394640446,8.186385628585581e-42,0.00821348000317812
0.009284792467951775,0.0003065018099732697,-0.009812557138502598,0.008577761240303516,5.338947149077553e-43,0.008059828542172909
0.009190373122692108,0.000336389901349321,-0.009688977152109146,0.009121659211814404,3.5032461608120427e-44,0.008068743161857128
0.00936028640717268,0.0003210999129805714,-0.00859050266444683,0.009621244855225086,2.802596928649634e-45,0.008665094152092934
0.00939785037189722,0.00034858507569879293,-0.009374639950692654,0.009360888972878456,0.0,0.008187707513570786
0.009928814135491848,0.0003330382169224322,-0.009102016687393188,0.00859057530760765,0.0,0.008097969926893711
0.009602440521121025,0.0003481105377431959,-0.008786317892372608,0.008707478642463684,0.0,0.008175491355359554
0.009665951132774353,0.0003869019274134189,-0.009415335953235626,0.008200264535844326,0.0,0.008237647823989391
0.00931147113442421,0.00041490982403047383,-0.00933296699076891,0.008630413562059402,0.0,0.008921364322304726
0.009539918974041939,0.00043251292663626373,-0.008835387416183949,0.008967970497906208,0.0,0.009094995446503162
0.009371554479002953,0.0004251708451192826,-0.009056472219526768,0.00861160084605217,0.0,0.008647914044559002
0.009641814045608044,0.0006543710478581488,-0.008839800022542477,0.008984026499092579,0.0,0.008413468487560749
0.010294290259480476,0.0006779504474252462,-0.008892024867236614,0.009291401132941246,0.0,0.008868545293807983
0.009934090077877045,0.0006352692726068199,-0.00901597086340189,0.008975157514214516,0.0,0.009174632839858532
0.009308853186666965,0.0005688126548193395,-0.009432187303900719,0.008622774854302406,0.0,0.009156337007880211
0.009308853186666965,0.0005688126548193395,-0.009432187303900719,0.008622774854302406,0.0,0.009156337007880211
0.009446379728615284,0.000596709898672998,-0.008684826083481312,0.008987516164779663,0.0,0.008552538231015205
0.00993335247039795,0.0005480542895384133,-0.009921038523316383,0.009053763002157211,0.0,0.008503799326717854
0.009390785358846188,0.0005752001889050007,-0.008807603269815445,0.008398895151913166,0.0,0.008844347670674324
0.009211240336298943,0.0005906811566092074,-0.008593069389462471,0.009253185242414474,0.0,0.00877723004668951
0.009379968047142029,0.000622666731942445,-0.009217104874551296,0.009205418638885021,0.0,0.00892823189496994
0.009279699996113777,0.0006303018308244646,-0.009511226788163185,0.008754643611609936,0.0,0.00865816418081522
0.00959018711000681,0.0005999149871058762,-0.008688067086040974,0.008743799291551113,0.0,0.00894286297261715
0.009749163873493671,0.0006252510938793421,-0.00849743653088808,0.008620159700512886,0.0,0.009350444190204144
0.009364769794046879,0.0007854385185055435,-0.009891785681247711,0.008762440644204617,0.0,0.008866410702466965
0.00932461116462946,0.0008140331483446062,-0.009022808633744717,0.008693029172718525,0.0,0.00934181734919548
0.009575847536325455,0.0007983189425431192,-0.008787563070654869,0.00894246343523264,0.0,0.008769268169999123
0.009439447894692421,0.000741204188670963,-0.009282330982387066,0.008589290082454681,0.0,0.009515118785202503
0.009578981436789036,0.0007569653680548072,-0.009310426190495491,0.008438087068498135,0.0,0.008323694579303265
0.009952330030500889,0.0007931518484838307,-0.008801383897662163,0.00895347073674202,0.0,0.008284259587526321
0.009504614397883415,0.0007770131342113018,-0.00930999219417572,0.00933660939335823,0.0,0.008788668550550938
0.009633520618081093,0.00079302245285362,-0.00894926954060793,0.008576537482440472,0.0,0.009381275624036789
0.010891207493841648,0.0007371869869530201,-0.00886276364326477,0.008387677371501923,0.0,0.009078961797058582
0.009943407028913498,0.0007532935123890638,-0.009295746684074402,0.008923940360546112,0.0,0.009533792734146118
0.010784070007503033,0.0008375514298677444,-0.009929295629262924,0.008547874167561531,0.0,0.00941295176744461
0.010172883979976177,0.000845943228341639,-0.00902625173330307,0.008945525623857975,0.0,0.009257138706743717
0.009977963753044605,0.0008407747372984886,-0.00971981044858694,0.009153650142252445,0.0,0.00949325691908598
0.010310781188309193,0.0007649003528058529,-0.009544909931719303,0.008559849113225937,0.0,0.009137729182839394
0.009782345034182072,0.0007704971358180046,-0.009555723518133163,0.008576542139053345,0.0,0.009492912329733372
0.009546429850161076,0.0007853665156289935,-0.010114065371453762,0.009419498033821583,0.0,0.009559229016304016
0.010563818737864494,0.0007999373483471572,-0.009262450970709324,0.009173630736768246,0.0,0.009225649759173393
0.009524333290755749,0.0008112611249089241,-0.009467704221606255,0.00932991225272417,0.0,0.00910209957510233
0.010546534322202206,0.0008915883954614401,-0.010868032462894917,0.009555070661008358,0.0,0.009394180029630661
0.010254190303385258,0.0010115585755556822,-0.009980840608477592,0.009367957711219788,0.0,0.009312843903899193
0.009595660492777824,0.0009971398394554853,-0.009361451491713524,0.009557102806866169,0.0,0.009348638355731964
0.01000576838850975,0.0011229864321649075,-0.010388697497546673,0.009616931900382042,0.0,0.009361252188682556
0.010698138736188412,0.001157762249931693,-0.009893672540783882,0.009587996639311314,0.0,0.009462441317737103
0.010698138736188412,0.001157762249931693,-0.009893672540783882,0.009587996639311314,0.0,0.009462441317737103
0.010072056204080582,0.0011257880832999945,-0.009871738031506538,0.00939610693603754,0.0,0.009638060815632343
0.01051932480186224,0.0010914457961916924,-0.01037534512579441,0.009666500613093376,0.0,0.009675195440649986
0.010072901844978333,0.0010701549472287297,-0.009407320991158485,0.00958371814340353,0.0,0.009592805989086628
0.009738024324178696,0.001165749505162239,-0.009861047379672527,0.009530717507004738,0.0,0.009959437884390354
0.010738362558186054,0.0011241843458265066,-0.01061482448130846,0.009842894040048122,0.0,0.010464968159794807
0.01011956948786974,0.0011714842403307557,-0.009943917393684387,0.009743832051753998,0.0,0.009712117724120617
0.009790414944291115,0.001314752735197544,-0.01050986535847187,0.009670485742390156,0.0,0.009283242747187614
0.01063387468457222,0.0012933302205055952,-0.009975390508770943,0.009944568388164043,0.0,0.009658807888627052
0.010082426480948925,0.0015837603714317083,-0.009735044091939926,0.009617956355214119,0.0,0.00989768747240305
0.010715104639530182,0.0015896465629339218,-0.010270525701344013,0.009260215796530247,0.0,0.010061154142022133
0.010370202362537384,0.0014964807778596878,-0.010479291900992393,0.009777498431503773,0.0,0.010247050784528255
0.010158693417906761,0.001406475785188377,-0.009840828366577625,0.009679948911070824,0.0,0.009978900663554668
0.01034777145832777,0.001470089890062809,-0.010733013972640038,0.009603636339306831,0.0,0.010152235627174377
0.01009347103536129,0.0014704952482134104,-0.009820685721933842,0.009292904287576675,0.0,0.010529311373829842
0.01014433242380619,0.0014228179352357984,-0.010574394837021828,0.009699060581624508,0.0,0.01037916075438261
0.010296349413692951,0.001534600043669343,-0.01064855046570301,0.00988287664949894,0.0,0.010297312401235104
0.00971240270882845,0.001530432142317295,-0.00991992186754942,0.009216174483299255,0.0,0.009847598150372505
0.010354051366448402,0.0013961230870336294,-0.010728582739830017,0.00925486907362938,0.0,0.010501216165721416
0.010674740187823772,0.0014501375844702125,-0.01010126806795597,0.00990457832813263,0.0,0.010012004524469376
0.010765829123556614,0.001390607445500791,-0.0098171541467309,0.009817094542086124,0.0,0.009808214381337166
0.0113294692710042,0.0015139804454520345,-0.010652700439095497,0.00901454221457243,0.0,0.009950836189091206
0.011558272875845432,0.001444020657800138,-0.009939165785908699,0.009463231079280376,0.0,0.010255970992147923
0.010597446002066135,0.0013899869518354535,-0.009962650015950203,0.009494319558143616,0.0,0.009830625727772713
0.01187172718346119,0.001649224548600614,-0.01039871945977211,0.009268083609640598,0.0,0.01037062518298626
0.01187172718346119,0.001649224548600614,-0.01039871945977211,0.009268083609640598,0.0,0.01037062518298626
0.010671600699424744,0.0015591310802847147,-0.009934226982295513,0.010179441422224045,-0.0002180209557991475,0.010730067268013954
0.010840138420462608,0.0017256437567993999,-0.011022090911865234,0.0097725884988904,-0.00023207205231301486,0.010559529066085815
0.01113880705088377,0.0017516763182356954,-0.010503086261451244,0.009362548589706421,-0.00024397121160291135,0.010141623206436634
0.011673259548842907,0.0018448233604431152,-0.010226080194115639,0.009684194810688496,-0.0002527966571506113,0.010342908091843128
0.01160018052905798,0.001778854988515377,-0.010375327430665493,0.00966604333370924,-0.00024275403120554984,0.01013756264001131
0.01147323939949274,0.0016093613812699914,-0.010170891880989075,0.009520702995359898,-0.00026848111883737147,0.010540414601564407
0.01135131623595953,0.0016509840497747064,-0.010227243416011333,0.00986680667847395,-0.000259768043179065,0.009679517708718777
0.011519824154675007,0.0019518483895808458,-0.01035892404615879,0.010008903220295906,-0.00027599281747825444,0.009931996464729309
0.010993349365890026,0.0019969604909420013,-0.01060363370925188,0.00944158248603344,-0.0002738175098784268,0.010404561646282673
0.011163871735334396,0.002227221615612507,-0.010478031821548939,0.010110363364219666,-0.0004109464352950454,0.010675826109945774
0.011512085795402527,0.0021372379269450903,-0.010362967848777771,0.009892136789858341,-0.0004611769109033048,0.010957788676023483
0.012188530527055264,0.0019325381144881248,-0.009926694445312023,0.00999327190220356,-0.00046185427345335484,0.010582437738776207
0.013225163333117962,0.0017185129690915346,-0.010437577962875366,0.009871168993413448,-0.0004802259209100157,0.01062698382884264
0.01244385913014412,0.0016894633881747723,-0.01006806269288063,0.009732672944664955,-0.0004935061442665756,0.010789863765239716
0.01277085579931736,0.0019181158859282732,-0.010193010792136192,0.01010085828602314,-0.0004902957007288933,0.01064723078161478
0.012666841968894005,0.0025602984242141247,-0.010409128852188587,0.009483687579631805,-0.0006602323264814913,0.010765147395431995
0.012669074349105358,0.002666931366547942,-0.009582101367413998,0.009384414181113243,-0.0006404085434041917,0.011493474245071411
0.012754620052874088,0.0023430921137332916,-0.01025366224348545,0.00962255522608757,-0.0006648748531006277,0.011507938615977764
0.013412600383162498,0.0022424852941185236,-0.010897834785282612,0.009649517945945263,-0.0006068306975066662,0.010605670511722565
0.012794561684131622,0.0020685847848653793,-0.010074596852064133,0.009424646385014057,-0.000627274566795677,0.010429995134472847
0.013185521587729454,0.0020528461318463087,-0.010823133401572704,0.009853360243141651,-0.0005814035539515316,0.010491480119526386
0.012821342796087265,0.0022737549152225256,-0.010145195759832859,0.009939086623489857,-0.0005783849628642201,0.010656454600393772
0.013208620250225067,0.0025036281440407038,-0.009788923896849155,0.010346300899982452,-0.0005496394587680697,0.010882651433348656
0.012957188300788403,0.002388671273365617,-0.01086152158677578,0.010088354349136353,-0.0004921952495351434,0.011053203605115414
0.013077997602522373,0.0021593887358903885,-0.0110534792765975,0.009312191046774387,-0.0004437615571077913,0.011014196090400219
0.013089792802929878,0.002056472934782505,-0.009990392252802849,0.009298994205892086,-0.0004734787216875702,0.011127093806862831
0.013073734939098358,0.0018804855644702911,-0.010209501720964909,0.009814701043069363,-0.0004439809708856046,0.011314393021166325
0.01341314148157835,0.0018594195134937763,-0.0100506991147995,0.010102137923240662,-0.00041079966467805207,0.011061937548220158
0.01341314148157835,0.0018594195134937763,-0.0100506991147995,0.010102137923240662,-0.00041079966467805207,0.011061937548220158
0.013155011460185051,0.0021247388795018196,-0.010233499109745026,0.010353374294936657,-0.0003817750548478216,0.01158964540809393
0.013549878261983395,0.0022775777615606785,-0.011078395880758762,0.010110643692314625,-0.00040790223283693194,0.01125902496278286
0.013152842409908772,0.002491252962499857,-0.0102906608954072,0.009819351136684418,-0.00038967430009506643,0.01098275650292635
0.013380639255046844,0.0023317544255405664,-0.01030372641980648,0.009875751100480556,-0.0003929557278752327,0.011137370020151138
0.013014319352805614,0.0021804010029882193,-0.010177677497267723,0.010166749358177185,-0.0003950114769395441,0.010909807868301868
0.013645290397107601,0.002085953950881958,-0.0097497021779418,0.010630805976688862,-0.00037592637818306684,0.011199671775102615
0.013409472070634365,0.002036737510934472,-0.01082530152052641,0.00982771348208189,-0.00034700040123425424,0.011294478550553322
0.013304022140800953,0.0020603472366929054,-0.010327847674489021,0.010030831210315228,-0.00031996937468647957,0.011334416456520557
0.013429783284664154,0.0015034140087664127,-0.010084560140967369,0.009947714395821095,-0.0002985730825457722,0.012020481750369072
0.014018905349075794,0.0011752300197258592,-0.010110767558217049,0.0095520606264472,-0.00027997614233754575,0.011704029515385628
0.013790726661682129,0.0009647594415582716,-0.009937047958374023,0.009923436678946018,-0.0002635692071635276,0.0117616793140769
0.014346184208989143,0.0008183273603208363,-0.009628268890082836,0.010363571345806122,-0.0002953329822048545,0.01177116110920906
0.014046438969671726,0.0008271252736449242,-0.01063980907201767,0.009553230367600918,-0.0002828808792401105,0.011789096519351006
0.014078603126108646,0.0008355232421308756,-0.010142963379621506,0.010281924158334732,-0.0002689834509510547,0.01173066534101963
0.01375547330826521,0.0006489190855063498,-0.009686513803899288,0.010078612715005875,-0.0002562292793300003,0.011537128128111362
0.013924145139753819,0.0006926170899532735,-0.01104059349745512,0.010625874623656273,-0.0002446196158416569,0.011768071912229061
0.013756493106484413,0.0007209280738607049,-0.01019236259162426,0.010569969192147255,-0.00023401595535688102,0.011597415432333946
0.013976472429931164,0.0011137832188978791,-0.010524727404117584,0.009823317639529705,-0.0002487976453267038,0.01185615360736847
0.014018306508660316,0.0009253927855752409,-0.0103374682366848,0.01023309025913477,-0.0002414429618511349,0.012445258907973766
0.0143590047955513,0.0007898784824647009,-0.010627035982906818,0.009825232438743114,-0.00023266728385351598,0.012412791140377522
0.013880631886422634,0.0007634441135451198,-0.010347096249461174,0.009683963842689991,-0.00022438843734562397,0.011881783604621887
0.01372827123850584,0.0007122653187252581,-0.010369577445089817,0.009992619976401329,-0.0002455304784234613,0.011854203417897224
0.013897698372602463,0.0007278733537532389,-0.010338174179196358,0.00982025545090437,-0.00023925297136884183,0.012051239609718323
0.014639589935541153,0.0006108962697908282,-0.010674993507564068,0.00992790050804615,-0.00023202596639748663,0.011689821258187294
0.014372341334819794,0.0006063981563784182,-0.010111778043210506,0.01025534886866808,-0.00023028504801914096,0.012040230445563793
0.014724891632795334,0.0006361014093272388,-0.010562528856098652,0.009962634183466434,-0.00021970176021568477,0.012167682871222496
0.014282028190791607,0.0006607178365811706,-0.010730068199336529,0.01059053186327219,-0.0002458078961353749,0.012369243428111076
0.014798354357481003,0.0009946454083546996,-0.010784228332340717,0.010271426290273666,-0.0002398653596173972,0.01239652931690216
0.016074616461992264,0.0010246626334264874,-0.010955753736197948,0.009857025928795338,-0.000258297921391204,0.012047533877193928
0.014490795321762562,0.0010054331505671144,-0.010838891379535198,0.01052616722881794,-0.00025671158800832927,0.012329970486462116
0.014490795321762562,0.0010054331505671144,-0.010838891379535198,0.01052616722881794,-0.00025671158800832927,0.012329970486462116
0.014878091402351856,0.000957851589191705,-0.011326371692121029,0.01044907420873642,-0.0002720263146329671,0.012598592787981033
0.014878091402351856,0.000957851589191705,-0.011326371692121029,0.01044907420873642,-0.0002720263146329671,0.012598592787981033
0.014670970849692822,0.0009698190842755139,-0.010742602869868279,0.010593912564218044,-0.0004902363871224225,0.012425861321389675
0.014611751772463322,0.0009593483991920948,-0.011055989190936089,0.010450545698404312,-0.0005355345201678574,0.012497832998633385
0.014747624285519123,0.000961301673669368,-0.010848629288375378,0.010455222800374031,-0.0004978781216777861,0.012455988675355911
0.015217163600027561,0.001173203345388174,-0.010587148368358612,0.010956360958516598,-0.00045651616528630257,0.012187356129288673
0.015016973949968815,0.0011699491878971457,-0.011613437905907631,0.010972407646477222,-0.0004814770945813507,0.01259145513176918
0.01465070154517889,0.0011395299807190895,-0.011294515803456306,0.01045163068920374,-0.00045494045480154455,0.012684931047260761
0.014903958886861801,0.0013517873594537377,-0.010924417525529861,0.01081575732678175,-0.00047721611917950213,0.012724144384264946
0.015086864121258259,0.001267386949621141,-0.011478323489427567,0.010626104660332203,-0.00045428593875840306,0.013035335578024387
0.015053647570312023,0.0012391784694045782,-0.010908978059887886,0.010594386607408524,-0.00042775520705617964,0.01288578286767006
0.01507616974413395,0.0011924486607313156,-0.011551405303180218,0.010431320406496525,-0.0004491756553761661,0.012799978256225586
0.015285253524780273,0.0012702369131147861,-0.012120969593524933,0.009944231249392033,-0.00041549187153577805,0.01273639127612114
0.01526915468275547,0.001256478950381279,-0.011486010625958443,0.010736390016973019,-0.00038080927333794534,0.01287815161049366
0.014738375321030617,0.0015749160666018724,-0.01129764411598444,0.010718664154410362,-0.0003256743075326085,0.012775475159287453
0.015108875930309296,0.0017396872863173485,-0.01174167264252901,0.011178507469594479,-0.0003561513149179518,0.012754291296005249
0.01536730770021677,0.0016107066767290235,-0.012005908414721489,0.010843140073120594,-0.0003408262855373323,0.013143443502485752
0.01575135439634323,0.0014804669190198183,-0.011804359033703804,0.010889748111367226,-0.00032102499972097576,0.013147573918104172
0.01495847012847662,0.0012570457765832543,-0.012166903354227543,0.011118036694824696,-0.0003030326042789966,0.013122539967298508
0.015561076812446117,0.0011767279356718063,-0.012249465100467205,0.01031000167131424,-0.0003314505738671869,0.012974592857062817
0.015407701954245567,0.0012356069637462497,-0.012171306647360325,0.010916272178292274,-0.0003176381578668952,0.012899748049676418
0.015584955923259258,0.0012338078813627362,-0.012090281583368778,0.010612161830067635,-0.00034000162850134075,0.013491802848875523
0.01506058033555746,0.0014967186143621802,-0.013057236559689045,0.010031233541667461,-0.0003295776841696352,0.013614085502922535
0.015509053133428097,0.002031468553468585,-0.012693462893366814,0.010534506291151047,-0.00031547012622468174,0.01341124065220356
0.01574583351612091,0.0020255211275070906,-0.012292989529669285,0.010624753311276436,-0.0003022456949111074,0.01332065835595131
0.01574583351612091,0.0020255211275070906,-0.012292989529669285,0.010624753311276436,-0.0003022456949111074,0.01332065835595131
0.0156941507011652,0.00176785618532449,-0.01269250363111496,0.010651248507201672,-0.00028820798615925014,0.014498003758490086
0.015367926098406315,0.001739927800372243,-0.012322133406996727,0.01085902750492096,-0.00026972239720635116,0.013099687173962593
0.015191316604614258,0.0016059757908806205,-0.012342453002929688,0.010780807584524155,-0.0002918858954217285,0.012703010812401772
0.015638357028365135,0.0015690834261476994,-0.012393999844789505,0.0105509664863348,-0.0002880469255615026,0.012996479868888855
0.015656860545277596,0.0016204746207222342,-0.012251336127519608,0.010760911740362644,-0.0002964861923828721,0.01339743658900261
0.01585264317691326,0.001923084375448525,-0.012435783632099628,0.01047120988368988,-0.0003029492509085685,0.013897414319217205
0.01538927759975195,0.0019265005830675364,-0.011983456090092659,0.01056565623730421,-0.00029033972532488406,0.013906171545386314
0.016192862764000893,0.0020462272223085165,-0.01196829043328762,0.011288506910204887,-0.0002970175410155207,0.013652827590703964
0.015832651406526566,0.0019208883168175817,-0.012562865391373634,0.011028134264051914,-0.0003025794285349548,0.014306267723441124
0.01621241867542267,0.001848934218287468,-0.012955796904861927,0.011207835748791695,-0.0002915067016147077,0.014337089844048023
0.016245633363723755,0.0018430213676765561,-0.012151307426393032,0.011035816743969917,-0.0002802365634124726,0.014373796060681343
0.016040997579693794,0.002007212955504656,-0.01223682053387165,0.010729709640145302,-0.0003649391874205321,0.014224961400032043
0.015909338369965553,0.0019780986476689577,-0.012619451619684696,0.011332211084663868,-0.00036670768167823553,0.013899515382945538
0.01572030782699585,0.0017282405169680715,-0.012174581177532673,0.010344668291509151,-0.0003409723867662251,0.013647728599607944
0.016275014728307724,0.00176802312489599,-0.012873361818492413,0.010554327629506588,-0.0003170661220792681,0.013957275077700615
0.015723688527941704,0.0016406613867729902,-0.011982372030615807,0.010947859846055508,-0.00033977668499574065,0.014538709074258804
0.015908867120742798,0.001958691282197833,-0.012635070830583572,0.01064807828515768,-0.0003139988402836025,0.015126337297260761
0.01616176776587963,0.0022274241782724857,-0.012899335473775864,0.01095645036548376,-0.00032090055174194276,0.015116935595870018
0.01615762896835804,0.0022457127925008535,-0.012278176844120026,0.010915788821876049,-0.0003265606355853379,0.01437169685959816
0.01633124239742756,0.002200204646214843,-0.011899556033313274,0.011434715241193771,-0.00031185027910396457,0.014506706036627293
0.016982372850179672,0.0021048171911388636,-0.012877345085144043,0.011022554710507393,-0.0002972287475131452,0.014756797812879086
0.016319699585437775,0.0020235872361809015,-0.012053797021508217,0.011563203297555447,-0.0003216158947907388,0.014843760058283806
0.01686267741024494,0.001970761688426137,-0.012475604191422462,0.011382099241018295,-0.00031022008624859154,0.015121299773454666
0.01642868109047413,0.001959806075319648,-0.01196996308863163,0.011638150550425053,-0.00032592719071544707,0.01495512668043375
0.01632247306406498,0.0024734963662922382,-0.012786608189344406,0.011776420287787914,-0.0003135220904368907,0.014654467813670635
0.01632247306406498,0.0024734963662922382,-0.012786608189344406,0.011776420287787914,-0.0003135220904368907,0.014654467813670635
0.016550976783037186,0.0026294635608792305,-0.012670247815549374,0.01113223098218441,-0.00033695343881845474,0.014460966922342777
0.016666237264871597,0.0023975020740181208,-0.01216353289783001,0.011202666908502579,-0.0003298965166322887,0.014430621638894081
0.016697732731699944,0.002098487224429846,-0.012594390660524368,0.011474327184259892,-0.00031173095339909196,0.014243829064071178
0.01671447418630123,0.0020133513025939465,-0.011996675282716751,0.011130222119390965,-0.00029476548661477864,0.014468559063971043
0.016661448404192924,0.00192149612121284,-0.013006551191210747,0.011278148740530014,-0.0002795066393446177,0.014926489442586899
0.01639198325574398,0.0019873313140124083,-0.012413251213729382,0.010849789716303349,-0.00030699666240252554,0.01493876613676548
0.01686481200158596,0.0025021673645824194,-0.012719049118459225,0.010497902520000935,-0.00029529351741075516,0.01543672289699316
0.017100848257541656,0.002512171631678939,-0.012126224115490913,0.01079940889030695,-0.00028223750996403396,0.014880121685564518
0.016934245824813843,0.00240445788949728,-0.012341495603322983,0.010519812814891338,-0.0002701434714253992,0.016673307865858078
0.016877975314855576,0.002336428966373205,-0.012677866965532303,0.010522348806262016,-0.0002935201919171959,0.014459129422903061
0.016777949407696724,0.0024279530625790358,-0.012397190555930138,0.01051386259496212,-0.0002841814421117306,0.01417334284633398
0.01746268756687641,0.0023205778561532497,-0.012450817972421646,0.010640504769980907,-0.0003039579896721989,0.014430627226829529
0.016768744215369225,0.0024478426203131676,-0.012029475532472134,0.011033235117793083,-0.00031261061667464674,0.015390096232295036
0.01674576848745346,0.0026152527425438166,-0.012937703169882298,0.011106600053608418,-0.0003374253574293107,0.015744004398584366
0.017261678352952003,0.002493584994226694,-0.012431317940354347,0.011192581616342068,-0.00033041121787391603,0.015944169834256172
0.017604684457182884,0.002278433181345463,-0.012437298893928528,0.011838600039482117,-0.0003375400265213102,0.015477773733437061
0.017174435779452324,0.0021486086770892143,-0.012294363230466843,0.011891183443367481,-0.0003426342736929655,0.015316156670451164
0.018260719254612923,0.0021916646510362625,-0.011746715754270554,0.01209908165037632,-0.00032641185680404305,0.015465718694031239
0.01815411075949669,0.0021370509639382362,-0.012297172099351883,0.01138220727443695,-0.0005233912379480898,0.015739530324935913
0.018020110204815865,0.0023050345480442047,-0.012789173983037472,0.011518014594912529,-0.0005662673502229154,0.015593130141496658
0.017970753833651543,0.0022203323896974325,-0.012401999905705452,0.011490169912576675,-0.000534242601133883,0.01603849232196808
0.018240753561258316,0.002489513950422406,-0.012300836853682995,0.012086011469364166,-0.0004875345039181411,0.01598496548831463
0.018243903294205666,0.0027244628872722387,-0.012781650759279728,0.011818170547485352,-0.0005018825177103281,0.01588507741689682
0.018648596480488777,0.002590024610981345,-0.012216439470648766,0.011762961745262146,-0.000480527087347582,0.015600430779159069
0.018407851457595825,0.00268882536329329,-0.012521416880190372,0.011998079717159271,-0.0004474827437661588,0.015962213277816772
0.018349112942814827,0.0026390044949948788,-0.012148684822022915,0.011240646243095398,-0.00041785743087530136,0.016262248158454895
0.018349112942814827,0.0026390044949948788,-0.012148684822022915,0.011240646243095398,-0.00041785743087530136,0.016262248158454895
0.01893557980656624,0.002538692206144333,-0.012536412104964256,0.011563577689230442,-0.0003688997239805758,0.01621026173233986
0.01853233389556408,0.002555064158514142,-0.012650146149098873,0.011699317954480648,-0.0003727457660716027,0.016069887205958366
0.01853233389556408,0.002555064158514142,-0.012650146149098873,0.011699317954480648,-0.0003727457660716027,0.016069887205958366
0.01929592899978161,0.0024262284860014915,-0.012356013059616089,0.01220640353858471,-0.00037572081782855093,0.01598086766898632
0.019085975363850594,0.002418863121420145,-0.01199345663189888,0.0121227465569973,-0.00035847609979100525,0.015908170491456985
0.01880429871380329,0.0025445297360420227,-0.013371678069233894,0.012850496917963028,-0.000341561360983178,0.016262443736195564
0.019141217693686485,0.0024778314400464296,-0.012984250672161579,0.012251638807356358,-0.00032609375193715096,0.01661110855638981
0.018963878974318504,0.0028681603725999594,-0.01312940288335085,0.012169361114501953,-0.00031356539693661034,0.017062848433852196
0.018711727112531662,0.0029818108305335045,-0.012523025274276733,0.012037515640258789,-0.00027397117810323834,0.01690685749053955
0.019316179677844048,0.003006467130035162,-0.013409462757408619,0.011698910966515541,-0.0002569741627667099,0.01678791455924511
0.019272424280643463,0.0027396625373512506,-0.013173363171517849,0.011730609461665154,-0.0002430037857266143,0.016664929687976837
0.018839895725250244,0.0026448301505297422,-0.013188698329031467,0.01124588306993246,-0.0002530399651732296,0.016290243715047836
0.019436141476035118,0.0026946368161588907,-0.013469110243022442,0.011846334673464298,-0.0002616239944472909,0.017917241901159286
0.019443310797214508,0.0026508027222007513,-0.013331552967429161,0.012213841080665588,-0.00025083275977522135,0.01643950305879116
0.019568108022212982,0.002869401127099991,-0.013301735743880272,0.012107893824577332,-0.00023978094395715743,0.0164472758769989
0.019722511991858482,0.002536793239414692,-0.01342528872191906,0.01258841808885336,-0.00026524552959017456,0.01675310917198658
0.01953643560409546,0.0022332346998155117,-0.013787331990897655,0.011640814132988453,-0.00025675917277112603,0.016281019896268845
0.01947914995253086,0.001791499787941575,-0.013493993319571018,0.011743178591132164,-0.0002774205640889704,0.017010942101478577
0.019953075796365738,0.0014208439970389009,-0.014348507858812809,0.011159464716911316,-0.0002711791603360325,0.0170137882232666
0.019814802333712578,0.001990868477150798,-0.013857606798410416,0.01244458369910717,-0.00034288037568330765,0.01785721629858017
0.019570862874388695,0.002682272344827652,-0.013634116388857365,0.011865106411278248,-0.00032172867213375866,0.017079532146453857
0.019793326035141945,0.002532406011596322,-0.014368387870490551,0.012032118625938892,-0.0003523794002830982,0.017108185216784477
0.019936101511120796,0.002217305824160576,-0.013161190785467625,0.01186256855726242,-0.0003374534717295319,0.016773154959082603
0.020167959854006767,0.0020939188543707132,-0.013842432759702206,0.01196070946753025,-0.000343842402799055,0.01666799560189247
0.020433874800801277,0.0018037838162854314,-0.01352512463927269,0.01248143706470728,-0.00034865239285863936,0.017048396170139313
0.02064104564487934,0.001624434837140143,-0.014162850566208363,0.011884067207574844,-0.00033184391213580966,0.017372671514749527
0.020160457119345665,0.001974804326891899,-0.013674930669367313,0.012362130917608738,-0.00031533028231933713,0.01791929453611374
0.02045176923274994,0.0020196198020130396,-0.012957388535141945,0.01214044913649559,-0.00033745390828698874,0.017825260758399963
0.020067092031240463,0.002448946237564087,-0.014055917970836163,0.012479838915169239,-0.0003272070607636124,0.017750343307852745
0.020067092031240463,0.002448946237564087,-0.014055917970836163,0.012479838915169239,-0.0003272070607636124,0.017750343307852745
0.01968175172805786,0.0021346656139940023,-0.014518036507070065,0.012393231503665447,-0.0003563681384548545,0.01754235476255417
0.020584866404533386,0.0019166142446920276,-0.013978367671370506,0.01260715164244175,-0.00036950461799278855,0.017498614266514778
0.021004322916269302,0.0018831993220373988,-0.014184117317199707,0.012146685272455215,-0.0003773788339458406,0.017789052799344063
0.020621292293071747,0.0017211692174896598,-0.014114931225776672,0.011844932101666927,-0.00038137740921229124,0.017671305686235428
0.020036403089761734,0.0017386899562552571,-0.01425454393029213,0.01238296553492546,-0.0004020057385787368,0.018028637394309044
0.021352482959628105,0.0022727036848664284,-0.014098431915044785,0.012262298725545406,-0.0004181191325187683,0.018164243549108505
0.021435722708702087,0.0023437337949872017,-0.014322076924145222,0.012408741749823093,-0.00041972374310716987,0.017821142449975014
0.02104097045958042,0.0025069559924304485,-0.013996271416544914,0.012260721065104008,-0.0006048885406926274,0.017942721024155617
0.021211525425314903,0.002611436415463686,-0.014339743182063103,0.01213422603905201,-0.0006428760825656354,0.017840933054685593
0.021497782319784164,0.00242421543225646,-0.014003949239850044,0.012566001154482365,-0.0005986157339066267,0.01794956438243389
0.021053791046142578,0.0024918094277381897,-0.01433657854795456,0.01225252915173769,-0.0006062542670406401,0.01808903180062771
0.020273199304938316,0.0025801369920372963,-0.013970812782645226,0.012602983973920345,-0.0005715909064747393,0.018692785874009132
0.02116209827363491,0.0024758288636803627,-0.013787804171442986,0.011972269043326378,-0.0005252300179563463,0.017734548076987267
0.022259823977947235,0.002574402838945389,-0.014107762835919857,0.012213733978569508,-0.0005492244381457567,0.017333686351776123
0.02162613719701767,0.002648047637194395,-0.014097074046730995,0.012155969627201557,-0.0005141844740137458,0.0172762218862772
0.021410666406154633,0.002325831912457943,-0.014286566525697708,0.012327446602284908,-0.0005130302160978317,0.017785321921110153
0.022103916853666306,0.0020859569776803255,-0.014379069209098816,0.011934090405702591,-0.0005017339717596769,0.017914146184921265
0.021960914134979248,0.002239357912912965,-0.014098760671913624,0.012718075886368752,-0.0005204644403420389,0.01813998818397522
0.021875696256756783,0.0025804697070270777,-0.014419476501643658,0.012149171903729439,-0.000531733559910208,0.017898406833410263
0.02209414541721344,0.002426545601338148,-0.014015852473676205,0.012146739289164543,-0.0005255384603515267,0.01808658428490162
0.02213531918823719,0.002524068346247077,-0.014336518943309784,0.012043731287121773,-0.0006574828876182437,0.017985118553042412
0.02186107076704502,0.0026695665437728167,-0.014022966846823692,0.011929108761250973,-0.0006995855364948511,0.01813318394124508
0.021766429767012596,0.0023389370180666447,-0.014371310360729694,0.012138874270021915,-0.0006837165565229952,0.018114212900400162
0.022346237674355507,0.0023085158318281174,-0.014193777926266193,0.011802597902715206,-0.0007039242191240191,0.01807735115289688
0.02258257381618023,0.0025295948144048452,-0.014883588999509811,0.012545779347419739,-0.0006847207550890744,0.01870952546596527
0.02258257381618023,0.0025295948144048452,-0.014883588999509811,0.012545779347419739,-0.0006847207550890744,0.01870952546596527
0.02237013541162014,0.0026851275470107794,-0.014408491551876068,0.01200331561267376,-0.0007941779913380742,0.01867852546274662
0.022187048569321632,0.0028154002502560616,-0.014625678770244122,0.011936934664845467,-0.0008150162175297737,0.01823396421968937
0.022174308076500893,0.0027123482432216406,-0.014089605771005154,0.012838163413107395,-0.0007160496315918863,0.018912071362137794
0.022753583267331123,0.0023810204584151506,-0.014547711238265038,0.012326573021709919,-0.0006830972852185369,0.019108254462480545
0.02257400192320347,0.0024329416919499636,-0.014392595738172531,0.012565277516841888,-0.0006569594261236489,0.018741870298981667
0.022579658776521683,0.0024269032292068005,-0.014624626375734806,0.012388789094984531,-0.0006600207998417318,0.018670067191123962
0.022467197850346565,0.0025888269301503897,-0.01450088806450367,0.012396727688610554,-0.0006223921664059162,0.018966099247336388
0.022541364654898643,0.002770092338323593,-0.014923806302249432,0.012594273313879967,-0.0005710136611014605,0.018795069307088852
0.02250215969979763,0.003083105431869626,-0.014325491152703762,0.01278628408908844,-0.000508842698764056,0.01892068423330784
0.023058447986841202,0.0030510411597788334,-0.014487023465335369,0.012683127075433731,-0.0005420151865109801,0.019294582307338715
0.022912874817848206,0.0030162211041897535,-0.014468939043581486,0.01227267924696207,-0.0005376201006583869,0.019034963101148605
0.02310524322092533,0.002798086265102029,-0.014927105978131294,0.012859869748353958,-0.0005290631670504808,0.01902255415916443
0.022923285141587257,0.0030544199980795383,-0.014676609076559544,0.012694280594587326,-0.0005242022452875972,0.019275657832622528
0.02258371375501156,0.002991326618939638,-0.01456967182457447,0.013353523798286915,-0.0005176289123483002,0.01904514618217945
0.022903168573975563,0.002898882608860731,-0.01421395130455494,0.012734193354845047,-0.0005719240289181471,0.019071202725172043
0.023344606161117554,0.0029791451524943113,-0.014942561276257038,0.012539469636976719,-0.0004798353184014559,0.018402494490146637
0.023344606161117554,0.0029791451524943113,-0.014942561276257038,0.012539469636976719,-0.0004798353184014559,0.018402494490146637
0.022340470924973488,0.003491793293505907,-0.014941677451133728,0.012962519191205502,-0.0004729745851363987,0.019316794350743294
0.02264491654932499,0.003266784129664302,-0.01493325550109148,0.012887848541140556,-0.00043603283120319247,0.019290447235107422
0.024123111739754677,0.0029968388844281435,-0.015306939370930195,0.012910875491797924,-0.000403507670853287,0.020166611298918724
0.023759322240948677,0.003099770052358508,-0.014981922693550587,0.012857348658144474,-0.00037544002407230437,0.0205118115991354
0.023055285215377808,0.0032875596079975367,-0.015348612330853939,0.013146903365850449,-0.0003940683673135936,0.020112358033657074
0.02396474964916706,0.0031376804690808058,-0.014807982370257378,0.013060729019343853,-0.00038350524846464396,0.02036629617214203
0.024153441190719604,0.002977456897497177,-0.015368829481303692,0.013150731101632118,-0.00036237723543308675,0.019646650180220604
0.02404925413429737,0.0029046558775007725,-0.014879314228892326,0.012962398119270802,-0.00034268011222593486,0.019172251224517822
0.023874858394265175,0.0029712768737226725,-0.015529909171164036,0.013086795806884766,-0.0003682146198116243,0.019780142232775688
0.02302093245089054,0.003206147812306881,-0.015284541063010693,0.013239171355962753,-0.0003530252433847636,0.020039161667227745
0.02299121394753456,0.0031617768108844757,-0.015870587900280952,0.012594114057719707,-0.00033665559021756053,0.02030891738831997
0.02299121394753456,0.0031617768108844757,-0.015870587900280952,0.012594114057719707,-0.00033665559021756053,0.02030891738831997
0.023669304326176643,0.0027877166867256165,-0.014987261965870857,0.012991013005375862,-0.00029511257889680564,0.020130714401602745
0.02437625452876091,0.002568787895143032,-0.015525097958743572,0.013170789927244186,-0.0002740966447163373,0.020019110292196274
0.024400200694799423,0.0027988858055323362,-0.015610490925610065,0.014145296066999435,-0.0002962727739941329,0.0200099665671587
0.02399461157619953,0.003062229137867689,-0.016573160886764526,0.013212151825428009,-0.00029212923254817724,0.020328857004642487
0.02350887842476368,0.0034196230117231607,-0.016589436680078506,0.01353843417018652,-0.00031205464620143175,0.020713264122605324
0.023755503818392754,0.00322752445936203,-0.016007382422685623,0.013323717750608921,-0.0003075774584431201,0.02045169658958912
0.024237418547272682,0.002882883418351412,-0.015873810276389122,0.013932496309280396,-0.0003144111833535135,0.019737744703888893
0.02440880611538887,0.0029708235524594784,-0.015793591737747192,0.01370945107191801,-0.0003195967001374811,0.019886519759893417
0.024349046871066093,0.003017112845554948,-0.016500499099493027,0.014348194934427738,-0.0003077858127653599,0.020199989899992943
0.024366406723856926,0.003033411456272006,-0.016251757740974426,0.013546646572649479,-0.00045625714119523764,0.020726939663290977
0.02467714436352253,0.0033525628969073296,-0.016608573496341705,0.013497693464159966,-0.0004872784193139523,0.02096441388130188
0.024309782311320305,0.003066198667511344,-0.016536850482225418,0.013670598156750202,-0.000465272314613685,0.021119339391589165
0.024709276854991913,0.003203360363841057,-0.01647251844406128,0.013729709200561047,-0.0004820912145078182,0.020912975072860718
0.024990659207105637,0.0031545304227620363,-0.015810832381248474,0.013397379778325558,-0.0004323102766647935,0.020355813205242157
0.02481001242995262,0.003057913389056921,-0.01637975126504898,0.013747327029705048,-0.0004583696136251092,0.0218513160943985
0.025086943060159683,0.0032042288221418858,-0.015957778319716454,0.013497383333742619,-0.0004345030465628952,0.020426230505108833
0.02495831996202469,0.0028830177616328,-0.017234966158866882,0.01406030636280775,-0.0005010428139939904,0.0204646997153759
0.024718469008803368,0.00302948453463614,-0.017042528837919235,0.013939608819782734,-0.000524574366863817,0.020772578194737434
0.025119809433817863,0.00302697136066854,-0.016287829726934433,0.01396108977496624,-0.0004973235772922635,0.02083108015358448
0.02540694922208786,0.002963385311886668,-0.015297720208764076,0.013477450236678123,-0.00045661666081286967,0.020940205082297325
0.025464411824941635,0.002950220601633191,-0.016851117834448814,0.014092047698795795,-0.0004816179280169308,0.02121453918516636
0.02552649937570095,0.0030700163915753365,-0.017358675599098206,0.013821832835674286,-0.0004550633020699024,0.021343113854527473
0.02552649937570095,0.0030700163915753365,-0.017358675599098206,0.013821832835674286,-0.0004550633020699024,0.021343113854527473
0.025248007848858833,0.003334460314363241,-0.016883570700883865,0.013115618377923965,-0.00045388759463094175,0.020756829530000687
0.025306252762675285,0.0031133205629885197,-0.01704164780676365,0.013665061444044113,-0.0005489308969117701,0.021183721721172333
0.025306252762675285,0.0031133205629885197,-0.01704164780676365,0.013665061444044113,-0.0005489308969117701,0.021183721721172333
0.025806698948144913,0.003414010163396597,-0.016186626628041267,0.01289291214197874,-0.0005934893270023167,0.021149318665266037
0.025515573099255562,0.0032519104424864054,-0.016254141926765442,0.012938419356942177,-0.0006226259865798056,0.02129937894642353
0.025550125166773796,0.0031592275481671095,-0.015937158837914467,0.012492050416767597,-0.0006118526216596365,0.021179325878620148
0.0243569053709507,0.003146225353702903,-0.017048576846718788,0.012598956003785133,-0.0010065967217087746,0.021404992789030075
0.026375653222203255,0.0032037144992500544,-0.017124297097325325,0.012921604327857494,-0.0009370995685458183,0.02160302735865116
0.026196938008069992,0.0034304107539355755,-0.017125878483057022,0.013227108865976334,-0.0009186044917441905,0.021619411185383797
0.026345806196331978,0.0032510031014680862,-0.017008036375045776,0.013972685672342777,-0.0008154163369908929,0.02212134376168251
0.026495518162846565,0.003110964084044099,-0.016605431213974953,0.013698285445570946,-0.00079797871876508,0.02232547290623188
0.02583339810371399,0.0029778890311717987,-0.01706930622458458,0.013902995735406876,-0.0007390727987512946,0.022163305431604385
0.024806225672364235,0.003097747452557087,-0.016605038195848465,0.013933100737631321,-0.0006715672207064927,0.021586241200566292
0.02536471001803875,0.0031920084729790688,-0.016926007345318794,0.01345908548682928,-0.0006202688091434538,0.02139861322939396
0.026245979592204094,0.003462931839749217,-0.017389358952641487,0.013126492500305176,-0.0005128338234499097,0.02152135781943798
0.02564934268593788,0.0034192597959190607,-0.016909781843423843,0.0133948540315032,-0.0005250278627499938,0.021763106808066368
0.025973401963710785,0.0033936183899641037,-0.01756737194955349,0.01312350481748581,-0.0004970832378603518,0.022301532328128815
0.026933245360851288,0.0030325448606163263,-0.017271528020501137,0.013548621907830238,-0.000551170960534364,0.021873554214835167
0.02647903375327587,0.003157916711643338,-0.017467612400650978,0.01365695707499981,-0.000682996993418783,0.022272374480962753
0.02648717351257801,0.0032211910001933575,-0.017363959923386574,0.01369503978639841,-0.0007523384410887957,0.022690584883093834
0.026317013427615166,0.003102620132267475,-0.01750965788960457,0.013730736449360847,-0.0007734550745226443,0.02206069603562355
0.026354992762207985,0.0033342160750180483,-0.01688339002430439,0.013697477988898754,-0.0007878224714659154,0.021416988223791122
0.026997489854693413,0.0031856202986091375,-0.017326360568404198,0.013679777272045612,-0.0009221720974892378,0.022133609279990196
0.026674995198845863,0.003158680396154523,-0.01751769334077835,0.013880656100809574,-0.0008265174110420048,0.021428372710943222
0.026570355519652367,0.0031683521810919046,-0.017041271552443504,0.013824067078530788,-0.0008316190796904266,0.021440662443637848
0.026826204732060432,0.0033249028492718935,-0.01761774905025959,0.013991586863994598,-0.0007280301651917398,0.02219715528190136
0.02675701305270195,0.003426737617701292,-0.017742499709129333,0.014062480069696903,-0.0006418635603040457,0.02274273708462715
0.02699199691414833,0.0036067927721887827,-0.017728013917803764,0.01435808651149273,-0.000573593657463789,0.02239963784813881
0.02676376886665821,0.0033157444559037685,-0.017424793913960457,0.014398450963199139,-0.0005816477932967246,0.022356756031513214
0.027374805882573128,0.003260290017351508,-0.016931666061282158,0.014543811790645123,-0.0005502902786247432,0.02209310792386532
0.027374805882573128,0.003260290017351508,-0.016931666061282158,0.014543811790645123,-0.0005502902786247432,0.02209310792386532
0.026972001418471336,0.003393205115571618,-0.017567375674843788,0.014048231765627861,-0.0005072233034297824,0.022455314174294472
0.026987235993146896,0.003615067806094885,-0.018103159964084625,0.014151997864246368,-0.0004694794479291886,0.022504447028040886
0.027148708701133728,0.0037359774578362703,-0.01819140836596489,0.01383222360163927,-0.0004672072536777705,0.022695543244481087
0.02724725380539894,0.0037744101136922836,-0.018531572073698044,0.014272372238337994,-0.0004648198955692351,0.022583981975913048
0.02760283462703228,0.003344854572787881,-0.017236391082406044,0.013775517232716084,-0.00043833153904415667,0.02261522226035595
0.026165183633565903,0.0034859005827456713,-0.017537903040647507,0.014297546818852425,-0.000413280155044049,0.02264050766825676
0.027850760146975517,0.0036387715954333544,-0.017474038526415825,0.01401879545301199,-0.0003351859049871564,0.02303215302526951
0.028141727671027184,0.0036411515902727842,-0.01739995740354061,0.0143002700060606,-0.0003248845459893346,0.02307889424264431
0.02776598185300827,0.003582738107070327,-0.01828797347843647,0.01348444726318121,-0.0003302497207187116,0.02282184734940529
0.027440421283245087,0.003564165672287345,-0.018006108701229095,0.014268551953136921,-0.00036130042281001806,0.02294202893972397
0.027543094009160995,0.0035860121715813875,-0.017874274402856827,0.014069627039134502,-0.0003912077809218317,0.023384924978017807
0.027427013963460922,0.0035873570013791323,-0.018397297710180283,0.014849897474050522,-0.0007936563342809677,0.023267658427357674
0.028631653636693954,0.00355533417314291,-0.018080439418554306,0.014276829548180103,-0.0008310265257023275,0.023577705025672913
0.028280159458518028,0.003601814853027463,-0.01891692541539669,0.014628862030804157,-0.0007291580550372601,0.023593038320541382
0.028478553518652916,0.0036215486470609903,-0.01841476932168007,0.014105069451034069,-0.0007420514011755586,0.02370104193687439
0.026782339438796043,0.003489208174869418,-0.01801794208586216,0.015209863893687725,-0.0007156012579798698,0.023970648646354675
0.027718815952539444,0.003205782501026988,-0.01869000308215618,0.01469732727855444,-0.0006888351053930819,0.024023232981562614
0.027875976637005806,0.0036612050607800484,-0.01838877610862255,0.013939296826720238,-0.0005772234289906919,0.023881107568740845
0.028219379484653473,0.003751048119738698,-0.018882187083363533,0.014555344358086586,-0.0006005148752592504,0.023425735533237457
0.02914787083864212,0.0037935853470116854,-0.018684905022382736,0.014570554718375206,-0.0005954191437922418,0.023773767054080963
0.02937253937125206,0.003916098736226559,-0.01844438910484314,0.014966611750423908,-0.000581108673941344,0.023987237364053726
0.028826583176851273,0.0034766118042171,-0.018528694286942482,0.01458659302443266,-0.0006053656688891351,0.024038515985012054
0.028493689373135567,0.003520659636706114,-0.018384812399744987,0.014924077317118645,-0.0007131947786547244,0.024118579924106598
0.028858359903097153,0.003634256776422262,-0.01880807615816593,0.01459447667002678,-0.0007304768078029156,0.024139368906617165
0.029642554000020027,0.0033068102784454823,-0.019272498786449432,0.015034394338726997,-0.0006695892661809921,0.024482231587171555
0.029298078268766403,0.0032380204647779465,-0.01868160255253315,0.015298530459403992,-0.0006699901423417032,0.02445599064230919
0.029429400339722633,0.0032421154901385307,-0.01899169757962227,0.015183193609118462,-0.000625769083853811,0.02455207146704197
0.029421664774417877,0.003485183697193861,-0.018982553854584694,0.015226462855935097,-0.0005705087096430361,0.024346018210053444
0.029552970081567764,0.003702652407810092,-0.01853528805077076,0.015295610763132572,-0.0005876208888366818,0.024395663291215897
0.029552970081567764,0.003702652407810092,-0.01853528805077076,0.015295610763132572,-0.0005876208888366818,0.024395663291215897
0.029863201081752777,0.003799083177000284,-0.019352328032255173,0.015055712312459946,-0.0005513636278919876,0.023754965513944626
0.02820320427417755,0.003733769292011857,-0.019523005932569504,0.014555406756699085,-0.0005126569885760546,0.02446003630757332
0.030750397592782974,0.0034121638163924217,-0.018645022064447403,0.014877508394420147,-0.000473847147077322,0.02550574578344822
0.030630391091108322,0.003353128442540765,-0.01881270855665207,0.015045187436044216,-0.0004291619989089668,0.025637077167630196
0.030480431392788887,0.0032197823747992516,-0.018527375534176826,0.015445123426616192,-0.0004296564729884267,0.02398168481886387
0.030571680516004562,0.003478142200037837,-0.018822969868779182,0.015169882215559483,-0.0004298191634006798,0.02351401560008526
0.030777961015701294,0.0036565300542861223,-0.019161876291036606,0.01513313502073288,-0.00043255710625089705,0.024978946894407272
0.03063488006591797,0.00406648451462388,-0.01857546530663967,0.014434333890676498,-0.00043258286314085126,0.02581257000565529
0.03100498579442501,0.004222043789923191,-0.018857154995203018,0.01523098349571228,-0.00045681625488214195,0.02508614771068096
0.031148524954915047,0.004139810800552368,-0.019714631140232086,0.015100953169167042,-0.0005142880836501718,0.025251246988773346
0.030908329412341118,0.0035127890296280384,-0.019263017922639847,0.016115441918373108,-0.0006198273622430861,0.026811618357896805
0.031037742272019386,0.0035353361163288355,-0.018916970118880272,0.015347665175795555,-0.0006535513675771654,0.026364179328083992
0.030772732570767403,0.004088614135980606,-0.019273366779088974,0.01535925455391407,-0.0006774700595997274,0.0251387320458889
0.031216179952025414,0.0042262207716703415,-0.018905509263277054,0.014411112293601036,-0.0008245747303590178,0.02447555772960186
0.03129032999277115,0.0039801085367798805,-0.018879247829318047,0.015138286165893078,-0.000996515853330493,0.025287749245762825
0.03207740560173988,0.0037393507082015276,-0.018902679905295372,0.015015914104878902,-0.0009631818975321949,0.02658558078110218
0.03241768106818199,0.0042109861969947815,-0.019006088376045227,0.015216506086289883,-0.0008746904786676168,0.02644755132496357
0.032679375261068344,0.004162645433098078,-0.019623739644885063,0.015641432255506516,-0.0008335810853168368,0.025949912145733833
0.032297465950250626,0.004006878472864628,-0.018984457477927208,0.015750758349895477,-0.000722533673979342,0.02600182220339775
0.03219810873270035,0.003482227213680744,-0.01876060478389263,0.0157807394862175,-0.0007388917729258537,0.025821417570114136
0.032312773168087006,0.0035037079360336065,-0.019077438861131668,0.015401980839669704,-0.000736239948309958,0.025647638365626335
0.03373813256621361,0.0036780359223484993,-0.018932485952973366,0.01506809238344431,-0.0006813597283326089,0.026204921305179596
0.032956961542367935,0.0037784602027386427,-0.019205322489142418,0.015220029279589653,-0.0006920270388945937,0.026129063218832016
0.03171980381011963,0.0038691917434334755,-0.019788939505815506,0.014812377281486988,-0.0006407717592082918,0.025973012670874596
0.03354637324810028,0.004342841450124979,-0.019066376611590385,0.015237176790833473,-0.0005889844615012407,0.026167364791035652
0.033106427639722824,0.004231355153024197,-0.018856972455978394,0.015032495371997356,-0.0005376046756282449,0.026260986924171448
0.03324601799249649,0.0035217562690377235,-0.019196921959519386,0.015657255426049232,-0.00047643634025007486,0.026470359414815903
0.03324601799249649,0.0035217562690377235,-0.019196921959519386,0.015657255426049232,-0.00047643634025007486,0.026470359414815903
0.034191641956567764,0.003575087757781148,-0.019295496866106987,0.015095151029527187,-0.0004305110778659582,0.02679533138871193
0.03365649655461311,0.003769532311707735,-0.01949724741280079,0.015456322580575943,-0.00046581344213336706,0.026687579229474068
0.03227396681904793,0.00385430664755404,-0.019615106284618378,0.015282724983990192,-0.00048619863810017705,0.026252519339323044
0.032431162893772125,0.003827970242127776,-0.019146686419844627,0.01580408215522766,-0.0004993345937691629,0.02651234157383442
0.03377672657370567,0.0038655430544167757,-0.019677648320794106,0.015457351692020893,-0.0004956976626999676,0.02639380469918251
0.03375663980841637,0.004328547511249781,-0.019960392266511917,0.015564342960715294,-0.00046767471940256655,0.026362359523773193
0.03332929685711861,0.004179821349680424,-0.019508318975567818,0.015639036893844604,-0.000540808483492583,0.02616984210908413
0.03358994051814079,0.003535033669322729,-0.0182036180049181,0.015696357935667038,-0.0005375022301450372,0.02669641748070717
0.03342259302735329,0.0035248883068561554,-0.020497387275099754,0.015529278665781021,-0.0005277986638247967,0.027594858780503273
0.034052569419145584,0.004044077359139919,-0.020548785105347633,0.015935763716697693,-0.0005527581088244915,0.027942506596446037
0.0341656357049942,0.004315627738833427,-0.019921768456697464,0.016427595168352127,-0.000552771904040128,0.026953358203172684
0.033813752233982086,0.004047604277729988,-0.02070196159183979,0.015916144475340843,-0.0005441801622509956,0.02603619359433651
0.033441655337810516,0.003843025304377079,-0.020747678354382515,0.01617663912475109,-0.0006104266503825784,0.026429733261466026
0.0340033657848835,0.0040632677264511585,-0.020094970241189003,0.0158649031072855,-0.0006671615992672741,0.027419283986091614
0.033982809633016586,0.004117236938327551,-0.01989591494202614,0.016204500570893288,-0.0006816075765527785,0.02729625441133976
0.03447767347097397,0.004329894669353962,-0.020336011424660683,0.015626754611730576,-0.0007030167034827173,0.027585675939917564
0.032917194068431854,0.0038957172073423862,-0.020195167511701584,0.01582002453505993,-0.0007857019081711769,0.02803662419319153
0.0344054140150547,0.003817342221736908,-0.020128702744841576,0.01585868000984192,-0.0008135848329402506,0.027263570576906204
0.03537723049521446,0.004352177027612925,-0.020719429478049278,0.016529152169823647,-0.0008258603629656136,0.026550471782684326
0.03562845662236214,0.00463976850733161,-0.020310426130890846,0.016208354383707047,-0.0008346656686626375,0.027146782726049423
0.03373640775680542,0.004306142684072256,-0.021155809983611107,0.01666625402867794,-0.0009126095683313906,0.02814578078687191
0.03365733101963997,0.00414564274251461,-0.021239040419459343,0.015763744711875916,-0.0009561554179526865,0.02849850244820118
0.03500030189752579,0.004080644343048334,-0.02108280546963215,0.01609080657362938,-0.0009504485060460865,0.02804674208164215
0.0348701998591423,0.003927141893655062,-0.019717976450920105,0.016107507050037384,-0.0009438153356313705,0.02781371772289276
0.03569939732551575,0.0038188803009688854,-0.020409617573022842,0.01629706099629402,-0.0008487894665449858,0.028076408430933952
0.03555196896195412,0.004250016994774342,-0.020874429494142532,0.016306936740875244,-0.0008297019521705806,0.02849704958498478
0.03505724295973778,0.004633062519133091,-0.020847538486123085,0.015665043145418167,-0.0007750442018732429,0.028390608727931976
0.03505724295973778,0.004633062519133091,-0.020847538486123085,0.015665043145418167,-0.0007750442018732429,0.028390608727931976
0.03430601954460144,0.004232159815728664,-0.0210164412856102,0.01620788685977459,-0.0007294605020433664,0.027986187487840652
0.03518369421362877,0.004368819762021303,-0.021158473566174507,0.016052965074777603,-0.0007243705913424492,0.028254887089133263
0.03514736518263817,0.004179437179118395,-0.02083340287208557,0.016500646248459816,-0.0006713083712384105,0.02855652943253517
0.03536934033036232,0.004014968406409025,-0.020159924402832985,0.016523966565728188,-0.0006886221235617995,0.02849261276423931
0.03532033786177635,0.003917976748198271,-0.020988188683986664,0.01695212535560131,-0.0006461435696110129,0.02835465408861637
0.0349896065890789,0.0041049327701330185,-0.02118273451924324,0.016900504007935524,-0.0006676335469819605,0.028877604752779007
0.03561906889081001,0.004523576702922583,-0.020550189539790154,0.016629572957754135,-0.0006930878153070807,0.02825036831200123
0.03578203544020653,0.00424219761043787,-0.020856762304902077,0.017064884305000305,-0.0007139811641536653,0.02872103452682495
0.035611312836408615,0.004386765416711569,-0.02109770104289055,0.01757330261170864,-0.0006655664183199406,0.0287801343947649
0.03580916300415993,0.0043374174274504185,-0.021358316764235497,0.018053684383630753,-0.0007914715097285807,0.029098019003868103
0.03616929426789284,0.004061981104314327,-0.020802706480026245,0.017563091591000557,-0.0007861132617108524,0.028791077435016632
0.036556705832481384,0.004349736962467432,-0.02110893651843071,0.01654055342078209,-0.0007132135215215385,0.028930531814694405
0.03550431877374649,0.004217357374727726,-0.021125247702002525,0.016819048672914505,-0.0006821210845373571,0.028574328869581223
0.03650294616818428,0.004374855197966099,-0.02146073617041111,0.016266390681266785,-0.0006562006892636418,0.028700904920697212
0.03685668855905533,0.004455546382814646,-0.020949479192495346,0.01681927591562271,-0.0005969227640889585,0.028865016996860504
0.03631436079740524,0.0041486299596726894,-0.020768366754055023,0.016413601115345955,-0.0006177290342748165,0.0288913082331419
0.03676744922995567,0.004687238950282335,-0.02167607471346855,0.017054621130228043,-0.0005779509083367884,0.028885727748274803
0.03666912391781807,0.004463197197765112,-0.020790543407201767,0.016641495749354362,-0.000542324734851718,0.02893131971359253
0.03692550212144852,0.004261848516762257,-0.021467862650752068,0.017174234613776207,-0.000565068272408098,0.029100611805915833
0.03656160831451416,0.004486939404159784,-0.02131100930273533,0.016882028430700302,-0.0005274556460790336,0.02950424700975418
0.03697516396641731,0.0041597457602620125,-0.021553147584199905,0.017796192318201065,-0.0005383732495829463,0.029979385435581207
0.03742242231965065,0.004413383547216654,-0.021642761304974556,0.01755073294043541,-0.0005157060804776847,0.02992166578769684
0.03727896884083748,0.004633656702935696,-0.021980244666337967,0.01725393906235695,-0.0005485807196237147,0.02864590287208557
0.03684597462415695,0.004584428388625383,-0.022126145660877228,0.017581751570105553,-0.0005459534004330635,0.02863216958940029
0.03736879304051399,0.0042959535494446754,-0.021796585991978645,0.016799887642264366,-0.0005815440672449768,0.029582304880023003
0.0388045459985733,0.004319419153034687,-0.02108529955148697,0.016723869368433952,-0.0005952836363576353,0.029399961233139038
0.03822804242372513,0.004576807375997305,-0.021429000422358513,0.016997428610920906,-0.0005624388577416539,0.029719235375523567
0.03640890121459961,0.004507134668529034,-0.022364351898431778,0.016714265570044518,-0.0005812997696921229,0.03093901462852955
0.03768850490450859,0.004303113091737032,-0.022454015910625458,0.017838025465607643,-0.0005463936249725521,0.03031911514699459
0.03768850490450859,0.004303113091737032,-0.022454015910625458,0.017838025465607643,-0.0005463936249725521,0.03031911514699459
0.03759492188692093,0.004315124358981848,-0.02208954282104969,0.017579635605216026,-0.0006164884543977678,0.02840675227344036
0.0391654372215271,0.00479400809854269,-0.022359518334269524,0.017616022378206253,-0.0005505331209860742,0.029700547456741333
0.03811975568532944,0.004767259582877159,-0.02329230308532715,0.017999179661273956,-0.0005819940706714988,0.030648864805698395
0.03724117949604988,0.004804046358913183,-0.023296844214200974,0.0175075251609087,-0.0005307153915055096,0.030805092304944992
0.037045322358608246,0.004494934808462858,-0.02300325408577919,0.01792275346815586,-0.0005529593909159303,0.029871312901377678
0.03820957988500595,0.004243108909577131,-0.021623071283102036,0.01767197996377945,-0.0005527953035198152,0.029822727665305138
0.0375976525247097,0.004213549662381411,-0.02214314043521881,0.01782246120274067,-0.0005442010005936027,0.030014682561159134
0.038788676261901855,0.004514964297413826,-0.02309837006032467,0.01760162226855755,-0.0005571999354287982,0.030343230813741684
0.038780003786087036,0.004555420484393835,-0.023651747032999992,0.017082013189792633,-0.0005876862560398877,0.030143894255161285
0.03795666620135307,0.004590916447341442,-0.023473262786865234,0.01768975891172886,-0.0006192161235958338,0.030343584716320038
0.038706302642822266,0.004649256356060505,-0.022510355338454247,0.017583204433321953,-0.0006639373023062944,0.03051835671067238
0.03791829198598862,0.004468819126486778,-0.023324664682149887,0.017761219292879105,-0.001155715435743332,0.030581044033169746
0.038927771151065826,0.004041583277285099,-0.023484215140342712,0.017578652128577232,-0.0011193908285349607,0.030025968328118324
0.03868190944194794,0.00449269637465477,-0.023338478058576584,0.017526812851428986,-0.0009858192643150687,0.030306195840239525
0.03846757858991623,0.004618729464709759,-0.02314392663538456,0.017749682068824768,-0.000926910201087594,0.030474796891212463
0.03882874920964241,0.004640920553356409,-0.023124156519770622,0.017980802804231644,-0.0007760307635180652,0.030737150460481644
0.04011841490864754,0.004636493045836687,-0.023422665894031525,0.01832083985209465,-0.000784330943133682,0.03107776679098606
0.03920954838395119,0.004151578526943922,-0.023547226563096046,0.017629507929086685,-0.0007984020048752427,0.031011085957288742
0.03789285197854042,0.004193916916847229,-0.023619141429662704,0.017549900338053703,-0.0008029388845898211,0.03096793033182621
0.03929581120610237,0.00427875155583024,-0.02373228222131729,0.018072403967380524,-0.0007444968796335161,0.030831540003418922
0.038682129234075546,0.004115553107112646,-0.023285696282982826,0.017404206097126007,-0.0007158018997870386,0.03092290461063385
0.04034360125660896,0.0042937095277011395,-0.023392291739583015,0.01796552911400795,-0.0006812970386818051,0.032180823385715485
0.039805203676223755,0.0045372056774795055,-0.024002183228731155,0.017722316086292267,-0.0007020682096481323,0.03202293813228607
0.038861315697431564,0.004236162640154362,-0.023922495543956757,0.01756548136472702,-0.0007039068732410669,0.030868971720337868
0.03874994069337845,0.004461277276277542,-0.023751629516482353,0.01812426932156086,-0.0007567574502900243,0.03009648621082306
0.040272656828165054,0.0041306656785309315,-0.023693324998021126,0.01771829091012478,-0.0008358143968507648,0.031096458435058594
0.040368448942899704,0.004390893969684839,-0.02371162921190262,0.01729944348335266,-0.0008652516989968717,0.03137117624282837
0.03979087620973587,0.004597264342010021,-0.023941630497574806,0.017604559659957886,-0.0008564239251427352,0.03146226704120636
0.03989522159099579,0.004697679076343775,-0.024092381820082664,0.01767192780971527,-0.000988805666565895,0.03275962918996811
0.04005403816699982,0.004652019590139389,-0.024293705821037292,0.017926864326000214,-0.0010217351373285055,0.031884267926216125
0.04015292599797249,0.004712550435215235,-0.023981885984539986,0.017479151487350464,-0.001015284564346075,0.03144146129488945
0.04015292599797249,0.004712550435215235,-0.023981885984539986,0.017479151487350464,-0.001015284564346075,0.03144146129488945
0.040505051612854004,0.00443177530542016,-0.02330801822245121,0.017618104815483093,-0.0009998109890148044,0.030668480321764946
0.03996261581778526,0.00435440381988883,-0.023893164470791817,0.0184172373265028,-0.0009899201104417443,0.031694572418928146
0.04030872508883476,0.004218029323965311,-0.02409098483622074,0.01854456588625908,-0.000969106622505933,0.0326901338994503
0.04063466563820839,0.004936114884912968,-0.02398933283984661,0.019488396123051643,-0.0008546702447347343,0.03201131150126457
0.04058483988046646,0.004967680666595697,-0.02400267869234085,0.019582921639084816,-0.0008538243127986789,0.03205298259854317
0.0412965752184391,0.004964775405824184,-0.02402063086628914,0.018595971167087555,-0.0007584519917145371,0.032002415508031845
0.04052095115184784,0.004790224600583315,-0.023703159764409065,0.018044382333755493,-0.0007478735060431063,0.031558260321617126
0.04097336530685425,0.004645331297069788,-0.023690279573202133,0.017560476437211037,-0.0006971067632548511,0.031862273812294006
0.04106305539608002,0.004445427097380161,-0.023955760523676872,0.018904773518443108,-0.0006142714992165565,0.032575760036706924
0.04111812263727188,0.004450665321201086,-0.024170832708477974,0.018863238394260406,-0.000618673104327172,0.03284306079149246
0.041244685649871826,0.004967183340340853,-0.024364877492189407,0.01831522025167942,-0.0006023599416948855,0.03246812894940376
0.041495341807603836,0.0049366713501513,-0.02422241121530533,0.0189502090215683,-0.0006296901847235858,0.03231087327003479
0.041910652071237564,0.004721926990896463,-0.024269547313451767,0.01916744001209736,-0.0009179499465972185,0.03265734761953354
0.04146159440279007,0.004428091458976269,-0.024236110970377922,0.01952935755252838,-0.0009496957063674927,0.032311514019966125
0.04122861847281456,0.00428995955735445,-0.02498103678226471,0.019650008529424667,-0.0009686913108453155,0.032624196261167526
0.04101072624325752,0.004443150479346514,-0.024521581828594208,0.019330838695168495,-0.001234083203598857,0.03337712958455086
0.04277297854423523,0.0047029475681483746,-0.024603676050901413,0.018655933439731598,-0.0010987591231241822,0.03324238583445549
0.042087823152542114,0.0050755892880260944,-0.02498210221529007,0.020100446417927742,-0.0011321718338876963,0.033148348331451416
0.04048827290534973,0.005504627246409655,-0.024214858189225197,0.018352121114730835,-0.001040770672261715,0.033213354647159576
0.04128406569361687,0.005100324749946594,-0.024691147729754448,0.01850876398384571,-0.0008997014374472201,0.033620692789554596
0.04128406569361687,0.005100324749946594,-0.024691147729754448,0.01850876398384571,-0.0008997014374472201,0.033620692789554596
0.0418955534696579,0.004506292752921581,-0.025480052456259727,0.019538400694727898,-0.000882241758517921,0.03328670188784599
0.0433141328394413,0.004417618736624718,-0.024441342800855637,0.019435323774814606,-0.0008924294961616397,0.03401990607380867
0.04319377616047859,0.004705880768597126,-0.02443188987672329,0.019527984783053398,-0.000893786025699228,0.03387708589434624
0.04069947078824043,0.005431690253317356,-0.02431546337902546,0.019599908962845802,-0.0009508946677669883,0.034941814839839935
0.04185867682099342,0.005511574447154999,-0.023762570694088936,0.019134726375341415,-0.0009575840085744858,0.03421621769666672
0.042692530900239944,0.0049526565708220005,-0.02429107390344143,0.019049987196922302,-0.0009401816641911864,0.03279638662934303
0.04230474680662155,0.004711572080850601,-0.024744095280766487,0.019317589700222015,-0.0008322414942085743,0.0325930081307888
0.04272015392780304,0.004479355178773403,-0.024787796661257744,0.019140444695949554,-0.000833268219139427,0.034162428230047226
0.04226354882121086,0.0049608931876719,-0.024462370201945305,0.01950576901435852,-0.0007524840184487402,0.03373456373810768
0.042627543210983276,0.0050123692490160465,-0.024879176169633865,0.020024212077260017,-0.0006738122319802642,0.03460520878434181
0.04242920130491257,0.005150588229298592,-0.02486211247742176,0.01972748339176178,-0.000643847743049264,0.03441717475652695
0.04266444221138954,0.004964598920196295,-0.02440226450562477,0.01936696469783783,-0.0006696091732010245,0.03368331119418144
0.042302556335926056,0.00457187881693244,-0.024701954796910286,0.01959732174873352,-0.0008251250255852938,0.03369443863630295
0.04331546276807785,0.004368465393781662,-0.024449504911899567,0.019143451005220413,-0.000965248211286962,0.03483032435178757
0.04226207733154297,0.0051346635445952415,-0.024660028517246246,0.019423699006438255,-0.0010750559158623219,0.03450043871998787
0.04101967439055443,0.005753832403570414,-0.025333572179079056,0.019350362941622734,-0.0011730067199096084,0.03434819355607033
0.04227583482861519,0.005270276218652725,-0.025075869634747505,0.019328080117702484,-0.0012442878214642406,0.03432171046733856
0.0419156476855278,0.005063888616859913,-0.02429697848856449,0.019682157784700394,-0.0010587912984192371,0.03410091623663902
0.04402688145637512,0.004856038372963667,-0.024595048278570175,0.019411727786064148,-0.0008878309745341539,0.03431575372815132
0.04208723083138466,0.004776015877723694,-0.02463851310312748,0.019462235271930695,-0.0008796669426374137,0.03402330353856087
0.040734659880399704,0.005508622154593468,-0.02506047487258911,0.01992233656346798,-0.0008316570892930031,0.033632975071668625
0.04289737716317177,0.005418442655354738,-0.02520693466067314,0.019524047151207924,-0.0007883514044806361,0.03374144062399864
0.0431949608027935,0.005101144779473543,-0.0252433642745018,0.01911342516541481,-0.0006532599218189716,0.03416561707854271
0.0423102043569088,0.005026689730584621,-0.02477392368018627,0.019339676946401596,-0.0006518308073282242,0.03431907296180725
0.042703647166490555,0.0049826884642243385,-0.02426466904580593,0.019629865884780884,-0.0007311267545446754,0.03423672914505005
0.04273754358291626,0.004703499376773834,-0.024464460089802742,0.019430499523878098,-0.0009640076314099133,0.03552565723657608
0.04333263263106346,0.004899249877780676,-0.025019999593496323,0.01942303031682968,-0.0011631232919171453,0.03498990833759308
0.04333263263106346,0.004899249877780676,-0.025019999593496323,0.01942303031682968,-0.0011631232919171453,0.03498990833759308
0.04284635931253433,0.005578945390880108,-0.025722691789269447,0.019773617386817932,-0.0011406773701310158,0.0353168286383152
0.04270998388528824,0.0052456362172961235,-0.02557157725095749,0.01944410428404808,-0.0010951178846880794,0.03510317578911781
0.04309581592679024,0.005129244178533554,-0.025436699390411377,0.019445929676294327,-0.0010228329338133335,0.03507039695978165
0.043465226888656616,0.004886041395366192,-0.02497721277177334,0.019699925556778908,-0.0010132129536941648,0.034340985119342804
0.04342018440365791,0.004615975543856621,-0.025724373757839203,0.019594267010688782,-0.0009585763327777386,0.03610110655426979
0.043892089277505875,0.005104076582938433,-0.026296323165297508,0.019483311101794243,-0.0008872763719409704,0.03694285824894905
0.04378194734454155,0.00548991933465004,-0.024611104279756546,0.019811682403087616,-0.0008769819978624582,0.03540666028857231
0.044123608618974686,0.005487263668328524,-0.02566465549170971,0.02023843675851822,-0.0008558324188925326,0.034331146627664566
0.043892182409763336,0.005634860601276159,-0.02684059739112854,0.020086519420146942,-0.0008576304535381496,0.035288650542497635
0.04436076432466507,0.005155667196959257,-0.025564830750226974,0.02034584991633892,-0.0008631939999759197,0.03566243499517441
0.043965697288513184,0.005208028480410576,-0.02647225745022297,0.020371047779917717,-0.0008751812856644392,0.036967165768146515
0.04428766295313835,0.00518071511760354,-0.02562197670340538,0.02076336368918419,-0.0009608053369447589,0.036559104919433594
0.04459474980831146,0.005244360771030188,-0.026684707030653954,0.021082693710923195,-0.0009647883707657456,0.03485169634222984
0.044928256422281265,0.005057102534919977,-0.027141226455569267,0.020211607217788696,-0.0009281491511501372,0.03626639395952225
0.04477325454354286,0.005270944442600012,-0.02594853565096855,0.019741473719477654,-0.0008506456506438553,0.036418166011571884
0.0447038933634758,0.005315120797604322,-0.025851570069789886,0.020320044830441475,-0.0007967569981701672,0.0362628735601902
0.04631706327199936,0.005026468075811863,-0.025798382237553596,0.021022776141762733,-0.0008080452680587769,0.03718624636530876
0.04528513178229332,0.005471786484122276,-0.02581942267715931,0.02251126989722252,-0.0008116976823657751,0.036689914762973785
0.04363035410642624,0.005218018312007189,-0.025674177333712578,0.020661329850554466,-0.0008214123663492501,0.036495909094810486
0.045593034476041794,0.004964170511811972,-0.02579374611377716,0.020306862890720367,-0.0009825981687754393,0.03638308495283127
0.045593034476041794,0.004964170511811972,-0.02579374611377716,0.020306862890720367,-0.0009825981687754393,0.03638308495283127
0.04526538774371147,0.005207309033721685,-0.025972561910748482,0.020221304148435593,-0.0009914031252264977,0.03605346009135246
0.04676229506731033,0.00507952319458127,-0.026375649496912956,0.021040553227066994,-0.0009169998811557889,0.03598826751112938
0.045535922050476074,0.004995144437998533,-0.02664031833410263,0.021295694634318352,-0.0009028156055137515,0.03636225685477257
0.04440881311893463,0.005204330664128065,-0.02609993703663349,0.02094011940062046,-0.0009387336322106421,0.036891791969537735
0.04646454378962517,0.0054364935494959354,-0.025939228013157845,0.020079968497157097,-0.0010468169348314404,0.03719056770205498
0.04618228226900101,0.00554891861975193,-0.025777695700526237,0.02009156346321106,-0.0010320055298507214,0.036912091076374054
0.04576312378048897,0.005100345704704523,-0.026023253798484802,0.020480090752243996,-0.0009611427667550743,0.037372056394815445
0.0455494150519371,0.004888323601335287,-0.026132479310035706,0.020817359909415245,-0.001021109870634973,0.03747067227959633
