davideferrari95/blind_handover_controller/data/Test 5 - [2024-02-07 -- 12-56-11]/joint_states_data.csv
shoulder_pan_joint,shoulder_lift_joint,elbow_joint,wrist_1_joint,wrist_2_joint,wrist_3_joint
0.013701350428164005,0.006291221361607313,-0.01417660340666771,0.007750441320240498,-0.00018782299594022334,0.012702332809567451
0.013316316530108452,0.005951495375484228,-0.013629443943500519,0.007207352202385664,-0.0001815088326111436,0.012783610261976719
0.013316316530108452,0.005951495375484228,-0.013629443943500519,0.007207352202385664,-0.0001815088326111436,0.012783610261976719
0.013599365949630737,0.006130801513791084,-0.014637165702879429,0.007169859018176794,-0.00017560602282173932,0.013262405060231686
0.013599365949630737,0.006130801513791084,-0.014637165702879429,0.007169859018176794,-0.00017560602282173932,0.013262405060231686
0.012898034416139126,0.0064240870997309685,-0.013768515549600124,0.008031874895095825,-0.0001910608116304502,0.011829206719994545
0.013411843217909336,0.006403782404959202,-0.013990124687552452,0.007945681922137737,-0.0001918807829497382,0.013235744088888168
0.0132054528221488,0.006088663823902607,-0.013471652753651142,0.007497027982026339,-0.0001866302191046998,0.013536370359361172
0.013535681180655956,0.0062428307719528675,-0.014074263162910938,0.007682501804083586,-0.00018128771625924855,0.013247647322714329
0.013295751065015793,0.006054898723959923,-0.013580232858657837,0.0078519806265831,-0.00017621810548007488,0.012650677934288979
0.013894084841012955,0.006479338742792606,-0.01405857689678669,0.007938379421830177,-0.0001714232930680737,0.01215545367449522
0.013590609654784203,0.006117647048085928,-0.01401478424668312,0.0074386438354849815,-0.0001625751901883632,0.012489964254200459
0.013307508081197739,0.006174788810312748,-0.013237852603197098,0.008170077577233315,-0.0001584851706866175,0.012458046898245811
0.013265028595924377,0.006663724780082703,-0.013789833523333073,0.007750584278255701,-0.00015459608403034508,0.012354175560176373
0.013430409133434296,0.00699320062994957,-0.01359331514686346,0.007331046741455793,-0.00015089294174686074,0.012266074307262897
0.013168671168386936,0.0064234319142997265,-0.013712656684219837,0.007949767634272575,-0.000147363287396729,0.01223655417561531
0.013382908888161182,0.006374732591211796,-0.013458088040351868,0.007864516228437424,-0.00014399511564988643,0.01217747014015913
0.012682910077273846,0.0064100222662091255,-0.013754856772720814,0.007905523292720318,-0.0001407773233950138,0.012202858924865723
0.013483881019055843,0.005986027419567108,-0.013522139750421047,0.00746892997995019,-0.00013770018995273858,0.012112310156226158
0.013097316026687622,0.006366606801748276,-0.013220902532339096,0.007529108319431543,-0.00014903285773470998,0.012624063529074192
0.01324029266834259,0.006567145697772503,-0.013434894382953644,0.008137884549796581,-0.0001504553947597742,0.01215546578168869
0.012939236126840115,0.006195428781211376,-0.013558759354054928,0.007467042654752731,-0.00014766609820071608,0.01223619282245636
0.013084818609058857,0.006311992648988962,-0.01376704964786768,0.007057099603116512,-0.00014471722533926368,0.01235533133149147
0.01328197680413723,0.006299703381955624,-0.012990274466574192,0.0074285659939050674,-0.00014186704356689006,0.012223265133798122
0.013662537559866905,0.006405259016901255,-0.013538256287574768,0.0082291504368186,-0.00013912581198383123,0.01261129230260849
0.013899830169975758,0.0061029489152133465,-0.013073328882455826,0.007867264561355114,-0.00013648849562741816,0.01192793995141983
0.012942278757691383,0.006533752661198378,-0.013733710162341595,0.007616158574819565,-0.00013394918642006814,0.011952516622841358
0.013097517192363739,0.005968005396425724,-0.013004282489418983,0.007900881581008434,-0.00013150260201655328,0.0119099710136652
0.01278726663440466,0.006159521639347076,-0.01387421227991581,0.00779561884701252,-0.00012914389662910253,0.011862278915941715
0.013354752212762833,0.006573028862476349,-0.013421018607914448,0.007615705486387014,-0.0001268682099180296,0.012016882188618183
0.012954425066709518,0.005880461540073156,-0.013414304703474045,0.007392910309135914,-0.0001246715255547315,0.011485878378152847
0.013012110255658627,0.005965827032923698,-0.013339705765247345,0.008037455379962921,-0.00012254941975697875,0.012399435974657536
0.012945677153766155,0.006173178553581238,-0.013564604334533215,0.007830924354493618,-0.00012049847282469273,0.011877214536070824
0.013154453597962856,0.006507911253720522,-0.013219134882092476,0.007727890741080046,-0.00011851509771076962,0.011834918521344662
0.013038610108196735,0.006274351384490728,-0.012812486849725246,0.007169174496084452,-0.00011659578012768179,0.012030613608658314
0.013038610108196735,0.006274351384490728,-0.012812486849725246,0.007169174496084452,-0.00011659578012768179,0.012030613608658314
0.013387584127485752,0.006376323290169239,-0.013651675544679165,0.007800175808370113,-0.00011473772610770538,0.011629175394773483
0.012811982072889805,0.006420893128961325,-0.013334238901734352,0.006895529571920633,-9.207813127432019e-05,0.01222215872257948
0.012811982072889805,0.006420893128961325,-0.013334238901734352,0.006895529571920633,-9.207813127432019e-05,0.01222215872257948
0.012816761620342731,0.006764521822333336,-0.013345624320209026,0.00751110352575779,-8.584272291045636e-05,0.011552732437849045
0.0130284009501338,0.006015393882989883,-0.012818990275263786,0.007929262705147266,-8.422483369940892e-05,0.011423207819461823
0.014030341058969498,0.006014682352542877,-0.013287902809679508,0.007454269099980593,-8.267671364592388e-05,0.011722356081008911
0.012825786136090755,0.006708793342113495,-0.012669063173234463,0.006899283733218908,-8.118506957544014e-05,0.011685557663440704
0.012594226747751236,0.006814553402364254,-0.012866398319602013,0.007339927367866039,-7.97463144408539e-05,0.011337983421981335
0.013187775388360023,0.0061848824843764305,-0.01315329410135746,0.00801360234618187,-7.835766155039892e-05,0.011753430590033531
0.013209491968154907,0.006170515902340412,-0.012880440801382065,0.007509468588978052,-7.701662980252877e-05,0.011553878895938396
0.012855405919253826,0.006505728233605623,-0.01321940403431654,0.006828783545643091,-7.572064350824803e-05,0.011392205022275448
0.013154673390090466,0.006620559375733137,-0.012262696400284767,0.007342022377997637,-7.446761446772143e-05,0.011286360211670399
0.012745152227580547,0.006332311313599348,-0.01287253201007843,0.007610283326357603,-7.325537444557995e-05,0.012369578704237938
0.013265679590404034,0.006453134119510651,-0.012919483706355095,0.007508584298193455,-7.208198076114058e-05,0.011606438085436821
0.012942098081111908,0.005935929249972105,-0.013467740267515182,0.006966887041926384,-8.327991236001253e-05,0.010946184396743774
0.0130874402821064,0.006077028810977936,-0.013420726172626019,0.007115313317626715,-8.369219722226262e-05,0.011164630763232708
0.013137755915522575,0.00668347766622901,-0.013818519189953804,0.007946440018713474,-8.252442057710141e-05,0.010899631306529045
0.013420648872852325,0.006089983507990837,-0.012870986945927143,0.007573874667286873,-8.128938497975469e-05,0.010614536702632904
0.013490553945302963,0.006008079741150141,-0.01306072436273098,0.006936139427125454,-8.008436998352408e-05,0.01083710603415966
0.013276303187012672,0.006482355762273073,-0.01342647522687912,0.007306575309485197,-8.539333794033155e-05,0.010947175323963165
0.013441027142107487,0.006603691261261702,-0.013062817044556141,0.007980321533977985,-9.030456567415968e-05,0.0114531135186553
0.013223275542259216,0.0067160166800022125,-0.013097881339490414,0.007416652515530586,-8.942354907048866e-05,0.010984222404658794
0.013529369607567787,0.006142573896795511,-0.01284871157258749,0.007168215233832598,-8.81977248354815e-05,0.01072731427848339
0.013529369607567787,0.006142573896795511,-0.01284871157258749,0.007168215233832598,-8.81977248354815e-05,0.01072731427848339
0.013349530287086964,0.006451562978327274,-0.013252267614006996,0.006818071473389864,-8.698170131538063e-05,0.010999022983014584
0.013590941205620766,0.006126417778432369,-0.01276589184999466,0.007257216610014439,-8.579736459068954e-05,0.011110607534646988
0.013137401081621647,0.006435656454414129,-0.0134597672149539,0.007259858772158623,-8.4644605522044e-05,0.010962349362671375
0.013711926527321339,0.006636862643063068,-0.013168318197131157,0.007132993079721928,-8.352239819942042e-05,0.010429570451378822
0.013373728841543198,0.006401404272764921,-0.013155760243535042,0.007383055053651333,-8.242959302151576e-05,0.010260960087180138
0.013680732809007168,0.00569362984970212,-0.01264149509370327,0.007969090715050697,-8.136507676681504e-05,0.010825641453266144
0.013401633128523827,0.006956985220313072,-0.013153384439647198,0.006555045954883099,-9.059765579877421e-05,0.010813740082085133
0.013481751084327698,0.00631808303296566,-0.012368744239211082,0.006924924906343222,-8.951700874604285e-05,0.010726644657552242
0.013470562174916267,0.006215910892933607,-0.013127729296684265,0.0074117849580943584,-8.842058741720393e-05,0.011060547083616257
0.013628005050122738,0.005709927994757891,-0.01284191757440567,0.007186437491327524,-8.734819857636467e-05,0.010494272224605083
0.013438370078802109,0.005983456969261169,-0.013311279937624931,0.00685266125947237,-8.63012028275989e-05,0.0107570830732584
0.013401703909039497,0.006453807931393385,-0.01260199211537838,0.007213036995381117,-8.527901081833988e-05,0.010368323884904385
0.013318011537194252,0.006143474485725164,-0.013106104917824268,0.007642409764230251,-0.00011531313066370785,0.010510007850825787
0.013617091812193394,0.006084004417061806,-0.012539473362267017,0.007095299195498228,-0.00012221602082718164,0.010238248854875565
0.013308189809322357,0.005570986308157444,-0.012373472563922405,0.007082818541675806,-0.00011962254211539403,0.010343904606997967
0.0137437479570508,0.0059767370112240314,-0.013115625828504562,0.006692574825137854,-0.00011656673450488597,0.010946640744805336
0.013327048160135746,0.0065579283982515335,-0.012967088259756565,0.007212038617581129,-0.00011362581426510587,0.011211893521249294
0.01382533274590969,0.006372828967869282,-0.012746206484735012,0.0074922614730894566,-0.000110827517346479,0.010467590764164925
0.013297532685101032,0.005972292274236679,-0.012644733302295208,0.007880620658397675,-0.00010816370922839269,0.010467364452779293
0.013484654016792774,0.006109659094363451,-0.01306057721376419,0.00795787200331688,-0.00012533691187854856,0.009879549033939838
0.013251190073788166,0.005765232257544994,-0.012076946906745434,0.007867841050028801,-0.0001237504038726911,0.010210313834249973
0.013251190073788166,0.005765232257544994,-0.012076946906745434,0.007867841050028801,-0.0001237504038726911,0.010210313834249973
0.013509608805179596,0.006006150972098112,-0.012966579757630825,0.006768564227968454,-0.00011841070954687893,0.010169100016355515
0.013509608805179596,0.006006150972098112,-0.012966579757630825,0.006768564227968454,-0.00011841070954687893,0.010169100016355515
0.013690195046365261,0.0058493223041296005,-0.012458359822630882,0.006739150267094374,-0.00011587017797864974,0.010309875942766666
0.013279288075864315,0.005236862227320671,-0.012531504034996033,0.007449978496879339,-0.00011343605001457036,0.010301676578819752
0.013221710920333862,0.005210747942328453,-0.012294862419366837,0.007780229672789574,-0.00011110213381471112,0.010244995355606079
0.013655787333846092,0.005832572001963854,-0.012650555931031704,0.006882069632411003,-0.00012579701433423907,0.009709186851978302
0.013185232877731323,0.006086203269660473,-0.012038534507155418,0.006671053357422352,-0.00012441731814760715,0.009635456837713718
0.013195794075727463,0.005365987773984671,-0.01235867477953434,0.007855820469558239,-0.00011976242967648432,0.009806059300899506
0.013835637830197811,0.005844582337886095,-0.012213964015245438,0.0072415596805512905,-0.00011752848513424397,0.009554901160299778
0.013290450908243656,0.005542839877307415,-0.012586219236254692,0.006967443041503429,-0.0001307622587773949,0.009098676033318043
0.013614999130368233,0.00598730705678463,-0.01205672137439251,0.0074855126440525055,-0.00012941559543833137,0.009486830793321133
0.013346304185688496,0.005482324864715338,-0.012997022829949856,0.007888334803283215,-0.00012719479855149984,0.009934387169778347
0.01341290958225727,0.005750742740929127,-0.012903987430036068,0.007577328477054834,-0.00012507589417509735,0.009078199975192547
0.013541552238166332,0.005305685102939606,-0.012962808832526207,0.007259405683726072,-0.00018771270697470754,0.008888758718967438
0.013709832914173603,0.0054375771433115005,-0.012773244641721249,0.007553268224000931,-0.00018445173918735236,0.009438620880246162
0.013388818129897118,0.005724185146391392,-0.012295066379010677,0.007645437028259039,-0.00017746629600878805,0.009441116824746132
0.013712827116250992,0.005261658225208521,-0.012481021694839,0.007839943282306194,-0.00017074997595045716,0.008545229211449623
0.013552209362387657,0.005153306759893894,-0.012561448849737644,0.007340854965150356,-0.0001951796148205176,0.008751021698117256
0.013506575487554073,0.005250964313745499,-0.01284496858716011,0.007538221310824156,-0.00019030105613637716,0.008764996193349361
0.013658157549798489,0.005492720287293196,-0.01257878728210926,0.007472715340554714,-0.00018394863582216203,0.008368599228560925
0.013676174916327,0.005334366578608751,-0.013446222059428692,0.007448182441294193,-0.0001778962614480406,0.008271620608866215
0.013737152330577374,0.005845668725669384,-0.012503301724791527,0.007287290412932634,-0.0001722225861158222,0.008313221856951714
0.014137462712824345,0.005326490383595228,-0.013451828621327877,0.007671660277992487,-0.00019284142763353884,0.008179612457752228
0.014147872105240822,0.005252579692751169,-0.01279636099934578,0.006948386784642935,-0.00018875519162975252,0.008156982250511646
0.013407602906227112,0.005528657231479883,-0.012778234668076038,0.00759165408089757,-0.00018337133224122226,0.008546973578631878
0.013407602906227112,0.005528657231479883,-0.012778234668076038,0.00759165408089757,-0.00018337133224122226,0.008546973578631878
0.013654137961566448,0.005083531606942415,-0.012912442907691002,0.0077004944905638695,-0.00017819140339270234,0.008785667829215527
0.013575269840657711,0.005278035532683134,-0.01272229291498661,0.008123321458697319,-0.00017329040565527976,0.008875245228409767
0.01359171699732542,0.00545003404840827,-0.0130769619718194,0.007943272590637207,-0.00018048247147817165,0.008572780527174473
0.013017592951655388,0.005528151523321867,-0.012210438027977943,0.007547842338681221,-0.00018691788136493415,0.008648868650197983
0.013886534608900547,0.005137402098625898,-0.013104674406349659,0.007897242903709412,-0.0001828963722800836,0.008470657281577587
0.013735001906752586,0.004926859866827726,-0.012779217213392258,0.008078603073954582,-0.00017841134103946388,0.007963716983795166
0.01360331941395998,0.005679847206920385,-0.013284144923090935,0.007984681986272335,-0.0001741000742185861,0.008845177479088306
0.013393288478255272,0.005639892537146807,-0.012505285441875458,0.007718964945524931,-0.00016998987121041864,0.008708703331649303
0.013195549137890339,0.005331445951014757,-0.013115258887410164,0.007674232590943575,-0.00020578998373821378,0.00856060441583395
0.013657237403094769,0.005298679228872061,-0.012659427709877491,0.007330294232815504,-0.00019718374824151397,0.008714037016034126
0.013980943709611893,0.005033580586314201,-0.013802338391542435,0.0071710627526044846,-0.00018892994557972997,0.008705807849764824
0.013895496726036072,0.005976120475679636,-0.013213308528065681,0.007308033294975758,-0.0002151140506612137,0.008286152966320515
0.014102799817919731,0.005463689099997282,-0.013229232281446457,0.00807117484509945,-0.00020899111405014992,0.007968222722411156
0.014026404358446598,0.005100064445286989,-0.012664243578910828,0.007835404947400093,-0.00020134227816015482,0.0075464267283678055
0.013907027430832386,0.005740851629525423,-0.01334953773766756,0.006880378816276789,-0.00020996169769205153,0.0078530702739954
0.01353549212217331,0.005332288332283497,-0.012758616358041763,0.00708305137231946,-0.00021752881002612412,0.008099028840661049
0.014407829381525517,0.005390085279941559,-0.013389992527663708,0.007441401947289705,-0.00021120395103935152,0.007958018220961094
0.013802388682961464,0.005194529425352812,-0.013110319152474403,0.007302237208932638,-0.00020441363449208438,0.00806219782680273
0.013837249018251896,0.005241030361503363,-0.012933183461427689,0.007094777654856443,-0.0001979928056243807,0.007731274701654911
0.013522948138415813,0.005553702358156443,-0.012932864017784595,0.007365062832832336,-0.00021753556211479008,0.007126472890377045
0.014041954651474953,0.00524776428937912,-0.012930089607834816,0.0075631048530340195,-0.00021277490304782987,0.0071562123484909534
0.013858826830983162,0.005742980632930994,-0.0133455079048872,0.007022351957857609,-0.0002067725727101788,0.007239568512886763
0.014329624362289906,0.005538534373044968,-0.012559784576296806,0.006771963555365801,-0.0002010069292737171,0.0073355319909751415
0.013706367462873459,0.005842436570674181,-0.013522570952773094,0.006882109213620424,-0.00019592703029047698,0.0070371259935200214
0.013706367462873459,0.005842436570674181,-0.013522570952773094,0.006882109213620424,-0.00019592703029047698,0.0070371259935200214
0.0142023004591465,0.005519479978829622,-0.012634309940040112,0.007417717948555946,-0.00025163785903714597,0.0073072584345936775
0.013829728588461876,0.005869495216757059,-0.013155588880181313,0.007438127417117357,-0.00024243989901151508,0.007294011767953634
0.014251399785280228,0.0054068551398813725,-0.012960915453732014,0.007265356369316578,-0.00023031304590404034,0.00719719473272562
0.013719301670789719,0.005382915493100882,-0.013102107681334019,0.00684403907507658,-0.00025992849259637296,0.0072287037037312984
0.014490678906440735,0.005546266678720713,-0.013050426729023457,0.0065394071862101555,-0.00025053005083464086,0.007234970107674599
0.014003069140017033,0.00546617666259408,-0.012899852357804775,0.006760654971003532,-0.0002591053780633956,0.0066577112302184105
0.013627277687191963,0.005385382566601038,-0.012745486572384834,0.006857578177005053,-0.0002663202176336199,0.006722191348671913
0.0141060259193182,0.005561722442507744,-0.01236209087073803,0.006855872459709644,-0.0002566564944572747,0.006778753828257322
0.014821604825556278,0.005347739439457655,-0.012976917438209057,0.007205146364867687,-0.00024668261175975204,0.0073740421794354916
0.014332571066915989,0.005767579190433025,-0.013150465674698353,0.007174861151725054,-0.0002603213069960475,0.006499336566776037
0.014089459553360939,0.005342625081539154,-0.012676531448960304,0.0073860702104866505,-0.0002522146387491375,0.006824580021202564
0.014205709099769592,0.005375018808990717,-0.012901212088763714,0.007803062908351421,-0.0002437421353533864,0.006805083714425564
0.014217402786016464,0.005572340451180935,-0.012889401987195015,0.007961108349263668,-0.0002779459464363754,0.007315265014767647
0.014553956687450409,0.005831593181937933,-0.012345324270427227,0.007790997624397278,-0.0002993767848238349,0.006533066742122173
0.014188036322593689,0.005962348077446222,-0.012904366478323936,0.006968582980334759,-0.00031071086414158344,0.006299534812569618
0.014302840456366539,0.005506222136318684,-0.0121993413195014,0.007136620115488768,-0.0003179507330060005,0.006567786913365126
0.014339873567223549,0.005768041592091322,-0.01286024134606123,0.00805103499442339,-0.00032636933610774577,0.007069382816553116
0.014967687427997589,0.005570508539676666,-0.012356522493064404,0.007897629402577877,-0.00033194065326824784,0.006775589194148779
0.014650442637503147,0.006030792836099863,-0.012783982791006565,0.007152582053095102,-0.0003167386166751385,0.006232861895114183
0.01488747913390398,0.005695265717804432,-0.012622750364243984,0.0069310590624809265,-0.000301664462313056,0.006002644542604685
0.014381792396306992,0.0056950123980641365,-0.012547536753118038,0.007457694038748741,-0.0003182535292580724,0.006104959174990654
0.015054098330438137,0.005468373186886311,-0.012498695403337479,0.008026381954550743,-0.0003139266336802393,0.006174401380121708
0.014113334938883781,0.005715044215321541,-0.012172008864581585,0.00695881387218833,-0.00030140645685605705,0.006077682599425316
0.014981829561293125,0.005817963741719723,-0.01263900101184845,0.0068568396382033825,-0.00028933389694429934,0.00547392712906003
0.014458248391747475,0.0059252772480249405,-0.012292134575545788,0.0074449931271374226,-0.0002781563380267471,0.00535884452983737
0.015036480501294136,0.005861966870725155,-0.012745973654091358,0.007555749267339706,-0.00031991011928766966,0.005563823506236076
0.014299227856099606,0.005308165214955807,-0.012509779073297977,0.007015841547399759,-0.0003149825206492096,0.005971019621938467
0.01462096069008112,0.00590550759807229,-0.013100994750857353,0.007322774268686771,-0.00029543854179792106,0.005697284825146198
0.014559992589056492,0.005447553936392069,-0.01249757595360279,0.007789320312440395,-0.00027729745488613844,0.005788335110992193
0.01517149806022644,0.006062920670956373,-0.0120454803109169,0.007562291342765093,-0.00026119971880689263,0.005480704829096794
0.01517149806022644,0.006062920670956373,-0.0120454803109169,0.007562291342765093,-0.00026119971880689263,0.005480704829096794
0.014949760399758816,0.005548238288611174,-0.012357963249087334,0.007200667168945074,-0.0002895861689466983,0.005801856052130461
0.015036636963486671,0.005741100292652845,-0.012204528786242008,0.007234699558466673,-0.0002803917450364679,0.005574231036007404
0.014655282720923424,0.00531858392059803,-0.012611675076186657,0.007764089852571487,-0.00026691192761063576,0.005364837124943733
0.014513419009745121,0.005642911419272423,-0.01221267320215702,0.007391796447336674,-0.00028303201543167233,0.005045785568654537
0.014799916185438633,0.00606662780046463,-0.012478495948016644,0.007503791246563196,-0.000307276175590232,0.0050451504066586494
0.014316646382212639,0.005327004007995129,-0.011881542392075062,0.007604989223182201,-0.0002969750203192234,0.0053372737020254135
0.014872914180159569,0.004981042817234993,-0.01271738950163126,0.0073053655214607716,-0.0003495074051897973,0.005443246103823185
0.014804244041442871,0.005618304945528507,-0.011920870281755924,0.00792152713984251,-0.0003658727218862623,0.0056119696237146854
0.01511403825134039,0.005500725004822016,-0.012475221417844296,0.00785854086279869,-0.0003710146411322057,0.005082401446998119
0.014757784083485603,0.006045611575245857,-0.012108931317925453,0.007808694615960121,-0.0003993022255599499,0.004718063399195671
0.014178124256432056,0.005643087904900312,-0.012261408381164074,0.007711997255682945,-0.0004086792469024658,0.004348872695118189
0.014663038775324821,0.005666924174875021,-0.012974487617611885,0.007628242485225201,-0.00041034698369912803,0.004472605884075165
0.01468462310731411,0.00524437939748168,-0.011885331012308598,0.007825643755495548,-0.0005953744403086603,0.0047112684696912766
0.014861134812235832,0.005211447831243277,-0.012325768359005451,0.007888088002800941,-0.0006719337543472648,0.005097032990306616
0.015116311609745026,0.005665223114192486,-0.012202385812997818,0.007154709659516811,-0.0006748917512595654,0.004835056606680155
0.014748219400644302,0.006078207865357399,-0.012448903173208237,0.007184086367487907,-0.0006518121808767319,0.004358795937150717
0.014486758969724178,0.005448014009743929,-0.011076013557612896,0.008088557049632072,-0.0006664382526651025,0.004539169371128082
0.014674114994704723,0.005641240160912275,-0.012600439600646496,0.008232000283896923,-0.0006191951688379049,0.004550333600491285
0.014869879931211472,0.0054463730193674564,-0.013202155940234661,0.0077148075215518475,-0.0006933698896318674,0.004730856511741877
0.014634260907769203,0.005864936392754316,-0.011923776008188725,0.007465913891792297,-0.0006192143773660064,0.0046578883193433285
0.014553268440067768,0.00557331508025527,-0.012198872864246368,0.008074099197983742,-0.0005454045603983104,0.0044060214422643185
0.014648985117673874,0.005654915235936642,-0.012205434031784534,0.00827589351683855,-0.0005700317560695112,0.0036558452993631363
0.014526630751788616,0.005360863171517849,-0.013136917725205421,0.0076264203526079655,-0.0005680921603925526,0.0035463895183056593
0.015185597352683544,0.0054238950833678246,-0.012627953663468361,0.007202841341495514,-0.0005567761836573482,0.0033233698923140764
0.01483922079205513,0.005409198813140392,-0.012207663618028164,0.008087827824056149,-0.0005677500157617033,0.003283222671598196
0.014784921891987324,0.006029252428561449,-0.012423575855791569,0.008374970406293869,-0.0005418678047135472,0.0032201113644987345
0.01467305701225996,0.005555359646677971,-0.012282592244446278,0.007959949783980846,-0.0005233654519543052,0.0034219841472804546
0.01467305701225996,0.005555359646677971,-0.012282592244446278,0.007959949783980846,-0.0005233654519543052,0.0034219841472804546
0.01462093647569418,0.0053583052940666676,-0.012846198864281178,0.007162232417613268,-0.0005546786123886704,0.0036547102499753237
0.014565196819603443,0.005102299153804779,-0.012294708751142025,0.007895360700786114,-0.0005759741761721671,0.0033954856917262077
0.015164491720497608,0.00499300891533494,-0.012676575221121311,0.007729612290859222,-0.0005460944958031178,0.002849168609827757
0.014805921353399754,0.005829175468534231,-0.012111329473555088,0.007749349344521761,-0.0005705751245841384,0.00243560504168272
0.015317653305828571,0.005587787367403507,-0.012193524278700352,0.007868028245866299,-0.0006594234728254378,0.0023546323645859957
0.014592369087040424,0.005284472834318876,-0.013070477172732353,0.008037769235670567,-0.00067908875644207,0.0023429400753229856
0.014903942123055458,0.005002101883292198,-0.01307691540569067,0.0077993846498429775,-0.0006835074163973331,0.0028824959881603718
0.01525775995105505,0.0054109650664031506,-0.012742780148983002,0.00852016918361187,-0.0006114467396400869,0.002796274609863758
0.014948495663702488,0.005216230172663927,-0.013017448596656322,0.008116630837321281,-0.0005946011515334249,0.0026359285693615675
0.01502676960080862,0.005300907883793116,-0.012917235493659973,0.007867791689932346,-0.0005834221956320107,0.002722424454987049
0.014770179986953735,0.005257347598671913,-0.013052070513367653,0.007612548302859068,-0.0005714885774068534,0.002835226710885763
0.014841130003333092,0.0055091483518481255,-0.01262164581567049,0.007702092174440622,-0.0005315253511071205,0.002885147463530302
0.014683829620480537,0.005181285552680492,-0.012583292089402676,0.007938182912766933,-0.0004906778922304511,0.0027973640244454145
0.014814788475632668,0.004958302713930607,-0.01301564835011959,0.0076187714003026485,-0.00044210199848748744,0.0028636811766773462
0.014845930971205235,0.0057114362716674805,-0.01332118734717369,0.007359424605965614,-0.00046145147643983364,0.002627523150295019
0.015080452896654606,0.004824914503842592,-0.013039710931479931,0.007558935787528753,-0.0004776354762725532,0.002387512242421508
0.015959281474351883,0.004012850113213062,-0.012423207052052021,0.007908848114311695,-0.0004753269022330642,0.0022857971489429474
0.014279024675488472,0.004012966062873602,-0.01321188174188137,0.00815591961145401,-0.0005030172178521752,0.002115554641932249
0.014851429499685764,0.004619980696588755,-0.012958819046616554,0.00781839806586504,-0.0007006545201875269,0.002181636868044734
0.014822388999164104,0.004773613065481186,-0.013457214459776878,0.00768986064940691,-0.0007550832815468311,0.0019933334551751614
0.014761601574718952,0.0044786361977458,-0.01278744637966156,0.007957136258482933,-0.0007671955972909927,0.0019544153474271297
0.014725063927471638,0.004595058970153332,-0.012780139222741127,0.00770995207130909,-0.0007437605527229607,0.001845069695264101
0.01494212169200182,0.004631975665688515,-0.012784085236489773,0.007774814497679472,-0.0007137043867260218,0.0018969818484038115
0.01490219496190548,0.004992514383047819,-0.013009623624384403,0.007805552799254656,-0.0006589064723812044,0.0017740924376994371
0.01497895922511816,0.00488981232047081,-0.013491014018654823,0.00805299449712038,-0.0006712095346301794,0.001755452947691083
0.015040402300655842,0.004420913755893707,-0.012645676732063293,0.006714789196848869,-0.0005903050187043846,0.0017070142785087228
0.015099437907338142,0.004398636054247618,-0.01320741418749094,0.008076057769358158,-0.0005221388419158757,0.0015310292365029454
0.015099437907338142,0.004398636054247618,-0.01320741418749094,0.008076057769358158,-0.0005221388419158757,0.0015310292365029454
0.014724167995154858,0.005144189577549696,-0.012702230364084244,0.008275889791548252,-0.0005545347812585533,0.0013765961630269885
0.01502729207277298,0.004985181614756584,-0.013632903806865215,0.007863759994506836,-0.0005079792463220656,0.001301177660934627
0.014828839339315891,0.004484967794269323,-0.013092550449073315,0.006947080604732037,-0.0004645987646654248,0.001244645332917571
0.015092575922608376,0.004356450401246548,-0.01332483533769846,0.007393859326839447,-0.0004892863216809928,0.001175546902231872
0.014853838831186295,0.00468019861727953,-0.012819339521229267,0.007548313122242689,-0.00046177866170182824,0.0011228828225284815
0.015140228904783726,0.004740109667181969,-0.012616113759577274,0.007412819657474756,-0.00043073476990684867,0.001123129273764789
0.014741063117980957,0.004450634587556124,-0.013212702237069607,0.007337638642638922,-0.00045676843728870153,0.001079394482076168
0.014856673777103424,0.004222473129630089,-0.013550803996622562,0.007966417819261551,-0.00037726626032963395,0.0008979221456684172
0.015199621208012104,0.004228821024298668,-0.012568404898047447,0.007638133596628904,-0.000406614039093256,0.0007989872829057276
0.01498053316026926,0.004746605176478624,-0.013021072372794151,0.00789699237793684,-0.00043293435010127723,0.0006977408193051815
0.015585342422127724,0.004838984925299883,-0.01245561521500349,0.00841948576271534,-0.0004193589848000556,0.0006178693729452789
0.015115931630134583,0.0043604131788015366,-0.01347645465284586,0.007923818193376064,-0.00044649987830780447,0.0005543367005884647
0.015158755704760551,0.004465995356440544,-0.01353549025952816,0.007842076942324638,-0.0006642148364335299,0.0005026630242355168
0.01500458549708128,0.004450696054846048,-0.012904470786452293,0.00793168693780899,-0.0007426285301335156,0.0005258704768493772
0.015465018339455128,0.0042066448368132114,-0.01304768305271864,0.008191493339836597,-0.0007371942047029734,0.0004936250043101609
0.015249096788465977,0.004412020090967417,-0.012797328643500805,0.008678202517330647,-0.0007053107838146389,0.000458280264865607
0.015128330327570438,0.0041894456371665,-0.013200562447309494,0.008130286820232868,-0.0007216662052087486,0.0004272216756362468
0.015221123583614826,0.004474487155675888,-0.01295015960931778,0.007639516144990921,-0.0007761330343782902,0.0004000768531113863
0.01517264824360609,0.004584061447530985,-0.013505361042916775,0.007804530672729015,-0.0008005690178833902,0.00037617687485180795
0.015450173057615757,0.004386424086987972,-0.01237488817423582,0.007732093799859285,-0.0007262573926709592,0.0003549734828993678
0.015208103694021702,0.004191836342215538,-0.012906674295663834,0.00759096909314394,-0.0007410297403112054,0.00033603148767724633
0.015159793198108673,0.003975722473114729,-0.012082492001354694,0.008096875622868538,-0.0007575038471259177,0.00031900955946184695
0.015161960385739803,0.004295416176319122,-0.012966609559953213,0.008153622038662434,-0.0008171998779289424,0.0003036302514374256
0.015659775584936142,0.004641531500965357,-0.013250528834760189,0.007941600866615772,-0.0009105745702981949,0.00028966707759536803
0.01574947126209736,0.0046276734210550785,-0.01368976105004549,0.007754859514534473,-0.0009146222146227956,0.0002769306011032313
0.016133645549416542,0.0043230317533016205,-0.01306940522044897,0.008182152174413204,-0.0008620210574008524,0.00026526759029366076
0.015404908917844296,0.004454376641660929,-0.012440379709005356,0.00817512720823288,-0.0009586753440089524,0.0002545472525525838
0.015314454212784767,0.004616568796336651,-0.0130931306630373,0.007770043797791004,-0.0009425696916878223,0.0002446607395540923
0.01509693544358015,0.004521846771240234,-0.012823817320168018,0.008049904368817806,-0.0008837204659357667,9.911039524013177e-05
0.01509693544358015,0.004521846771240234,-0.012823817320168018,0.008049904368817806,-0.0008837204659357667,9.911039524013177e-05
0.015508902259171009,0.004241335671395063,-0.013495177030563354,0.008580474182963371,-0.0008258483139798045,7.632496271980926e-05
0.015985986217856407,0.004432317800819874,-0.012778102420270443,0.00798353087157011,-0.0008304307120852172,7.205250585684553e-05
0.015731094405055046,0.004199284128844738,-0.012923665344715118,0.007584346923977137,-0.0007503601955249906,6.920217128936201e-05
0.015652045607566833,0.00426174933090806,-0.012875010259449482,0.008589624427258968,-0.0006666054832749069,4.19915777456481e-05
0.01556407567113638,0.004509867634624243,-0.013598454184830189,0.008385908789932728,-0.0005815007025375962,3.269411172368564e-05
0.015344933606684208,0.004361088387668133,-0.012842033989727497,0.008057800121605396,-0.0006839517736807466,5.290310127747944e-07
0.016003761440515518,0.004642650485038757,-0.01277078501880169,0.008178278803825378,-0.0008336944738402963,3.454194796859156e-08
0.016109440475702286,0.004430832341313362,-0.012386098504066467,0.008398028090596199,-0.0009825992165133357,2.255342135271121e-09
0.016894182190299034,0.004044402856379747,-0.013442352414131165,0.007886510342359543,-0.0010562766110524535,1.472577199068681e-10
0.01617038995027542,0.004091310780495405,-0.012650040909647942,0.00820168200880289,-0.0011633647372946143,9.614876603225575e-12
0.016147850081324577,0.004584731534123421,-0.01300779264420271,0.008582252077758312,-0.0012228945270180702,6.277827650086332e-13
0.016391567885875702,0.004738837946206331,-0.012349138967692852,0.008622492663562298,-0.00104325741995126,-0.0009710040176287293
0.01582891121506691,0.004561307840049267,-0.012944319285452366,0.00850188359618187,-0.0009460189612582326,-0.0012924170587211847
0.016330815851688385,0.004295547027140856,-0.01295983511954546,0.008694014512002468,-0.0008748725522309542,-0.0018257671035826206
0.015944356098771095,0.004234578460454941,-0.013519871048629284,0.008476494811475277,-0.0007714968523941934,-0.002035651821643114
0.016428548842668533,0.004246389959007502,-0.013157331384718418,0.008171713910996914,-0.0006874116370454431,-0.002329782582819462
0.016692617908120155,0.004942985251545906,-0.012755117379128933,0.008598342537879944,-0.0006623387453146279,-0.002160686766728759
0.016778377816081047,0.004539658315479755,-0.01319555751979351,0.008706381544470787,-0.0006417325348593295,-0.002360757440328598
0.0164838545024395,0.004462170880287886,-0.01257268711924553,0.00868636928498745,-0.0005914940848015249,-0.002457408932968974
0.01648806966841221,0.0042036972008645535,-0.013214892707765102,0.007960605435073376,-0.0004583597183227539,-0.002610723488032818
0.01844366453588009,0.003548703622072935,-0.012828495353460312,0.00821839738637209,-0.00044504852849058807,-0.0028627580031752586
0.01596911996603012,0.00358847645111382,-0.013248637318611145,0.008730649016797543,-0.0004432284040376544,-0.0031720632687211037
0.016247278079390526,0.004185379948467016,-0.012891467660665512,0.008534418419003487,-0.00047548534348607063,-0.0033620058093219995
0.01690349169075489,0.004212693776935339,-0.013071881607174873,0.008884751237928867,-0.0005054008797742426,-0.0036502107977867126
0.01722695864737034,0.004168901592493057,-0.01360282301902771,0.00912751816213131,-0.000747543468605727,-0.003513653064146638
0.017237931489944458,0.004024195484817028,-0.013350911438465118,0.008711876347661018,-0.0007933844462968409,-0.003380144014954567
0.0168327484279871,0.0037784429732710123,-0.01273187156766653,0.008790873922407627,-0.00076407624874264,-0.00362067180685699
0.0168327484279871,0.0037784429732710123,-0.01273187156766653,0.008790873922407627,-0.00076407624874264,-0.00362067180685699
0.01718232035636902,0.003702209098264575,-0.01233651489019394,0.008992192335426807,-0.0007270168862305582,-0.0033466527238488197
0.017039380967617035,0.003764885012060404,-0.013255746103823185,0.008562403731048107,-0.0007414673455059528,-0.0035182202700525522
0.017082102596759796,0.0038473852910101414,-0.012604712508618832,0.008104726672172546,-0.0008581405854783952,-0.0039678290486335754
0.017509695142507553,0.0038089987356215715,-0.013605417683720589,0.008213984780013561,-0.0008792374283075333,-0.004768852144479752
0.017728110775351524,0.004364415537565947,-0.013542725704610348,0.007785073481500149,-0.0008469198946841061,-0.005819697864353657
0.017389513552188873,0.0041537778452038765,-0.012840824201703072,0.007658134680241346,-0.0010332190431654453,-0.006066306959837675
0.01770412176847458,0.003494672942906618,-0.013259238563477993,0.008423938415944576,-0.0010613312479108572,-0.0055798497051000595
0.017863674089312553,0.0032953310292214155,-0.013432287611067295,0.008500038646161556,-0.0010405867360532284,-0.005740922875702381
0.017713485285639763,0.003350786166265607,-0.013754747807979584,0.0084407152608037,-0.0010207440936937928,-0.006035287864506245
0.01802665926516056,0.003608660539612174,-0.013406522572040558,0.008131968788802624,-0.0010352568933740258,-0.006378650665283203
0.017883747816085815,0.0035097517538815737,-0.012748275883495808,0.008252850733697414,-0.00101515743881464,-0.006534727290272713
0.017658134922385216,0.003552418202161789,-0.013527799397706985,0.008300351910293102,-0.000966470455750823,-0.006606424693018198
0.018271448090672493,0.003761296160519123,-0.013113405555486679,0.008981982246041298,-0.0009765370050445199,-0.006305742543190718
0.018083030357956886,0.0038962732069194317,-0.014149205759167671,0.009271819144487381,-0.0009994294960051775,-0.006673123687505722
0.018023427575826645,0.003842516103759408,-0.013275227509438992,0.008917841129004955,-0.000985802966170013,-0.006908981129527092
0.018516477197408676,0.0033929813653230667,-0.013576693832874298,0.008326239883899689,-0.0009424595045857131,-0.007248184643685818
0.018302826210856438,0.0031302040442824364,-0.013011905364692211,0.008683731779456139,-0.0008882502443157136,-0.007458781357854605
0.01817115768790245,0.003459126688539982,-0.013742014765739441,0.008564365096390247,-0.0009661791264079511,-0.0076111555099487305
0.018375249579548836,0.00375286303460598,-0.013694803230464458,0.008335838094353676,-0.0009604684310033917,-0.0075074718333780766
0.018548091873526573,0.0034178767818957567,-0.013921939767897129,0.008184747770428658,-0.0009523053304292262,-0.007578703574836254
0.01908249408006668,0.0033681741915643215,-0.013531507924199104,0.008718275465071201,-0.0009017697302624583,-0.007619279436767101
0.018402215093374252,0.0035355091094970703,-0.013444450683891773,0.008482453413307667,-0.0010467719985172153,-0.008203222416341305
0.018282901495695114,0.00366618437692523,-0.013385781086981297,0.008316362276673317,-0.001051842700690031,-0.008061248809099197
0.018749602138996124,0.0035425336100161076,-0.014094698242843151,0.008923160843551159,-0.0010539696086198092,-0.008835498243570328
0.0184246227145195,0.003318275325000286,-0.013960622251033783,0.009005479514598846,-0.0012894205283373594,-0.008544312790036201
0.01860106736421585,0.0029856411274522543,-0.013646252453327179,0.009139933623373508,-0.001228724722750485,-0.008844486437737942
0.01860106736421585,0.0029856411274522543,-0.013646252453327179,0.009139933623373508,-0.001228724722750485,-0.008844486437737942
0.01901574619114399,0.003231126582249999,-0.013176484033465385,0.009508911520242691,-0.0010238742688670754,-0.00925507303327322
0.01901574619114399,0.003231126582249999,-0.013176484033465385,0.009508911520242691,-0.0010238742688670754,-0.00925507303327322
0.01859997771680355,0.003499572863802314,-0.013979163952171803,0.00919804722070694,-0.0009045324986800551,-0.009413809515535831
0.018744545057415962,0.0033225337974727154,-0.01358016487210989,0.009172413498163223,-0.0008910514297895133,-0.00921698473393917
0.01841275580227375,0.0032904690597206354,-0.013953420333564281,0.009290585294365883,-0.000891453237272799,-0.008940418250858784
0.019480636343359947,0.003315735375508666,-0.01297798752784729,0.00916330236941576,-0.0010991274612024426,-0.009351740591228008
0.01939292997121811,0.0033553519751876593,-0.01342346053570509,0.008644145913422108,-0.001323335338383913,-0.009186369366943836
0.01905195228755474,0.0026318638119846582,-0.013843104243278503,0.009299848228693008,-0.0014999405248090625,-0.010560392402112484
0.018753090873360634,0.0027054063975811005,-0.013244829140603542,0.008518639951944351,-0.0014874390326440334,-0.010106667876243591
0.01858758181333542,0.003080515656620264,-0.013405896723270416,0.00937923975288868,-0.001379180932417512,-0.00996487308293581
0.019195936620235443,0.0031378038693219423,-0.013161451555788517,0.009791050106287003,-0.001232548849657178,-0.010451224632561207
0.019856523722410202,0.003377014072611928,-0.013713086023926735,0.008722075261175632,-0.0011549588525667787,-0.01028839685022831
0.019354939460754395,0.0032023044768720865,-0.013945143669843674,0.009403635747730732,-0.0011295686708763242,-0.010591438040137291
0.01921018585562706,0.002946380292996764,-0.01348838396370411,0.009129149839282036,-0.0011092820204794407,-0.010412990115582943
0.019215570762753487,0.0029689923394471407,-0.013174940831959248,0.009295444935560226,-0.0012298289220780134,-0.010708141140639782
0.019143760204315186,0.002935129916295409,-0.013112040236592293,0.009338987991213799,-0.0012826562160626054,-0.011714844033122063
0.019282061606645584,0.0028842345345765352,-0.013786113820970058,0.00977205578237772,-0.0015966620994731784,-0.011309114284813404
0.01904360204935074,0.0027994064148515463,-0.013100062496960163,0.008927280083298683,-0.0016141152009367943,-0.01129585225135088
0.020424026995897293,0.0029121788684278727,-0.013644913211464882,0.009026811458170414,-0.0014904366107657552,-0.011428426951169968
0.018931470811367035,0.002899762475863099,-0.01279559824615717,0.008925039321184158,-0.0013227295130491257,-0.011272645555436611
0.019077159464359283,0.0031580606009811163,-0.013336899690330029,0.008560401387512684,-0.001231880858540535,-0.01128123328089714
0.019581470638513565,0.0030942216981202364,-0.01305245142430067,0.009628660045564175,-0.0011691534891724586,-0.010958968661725521
0.019667930901050568,0.0028198999352753162,-0.013662626966834068,0.00960532110184431,-0.0011449095327407122,-0.011285003274679184
0.01945212110877037,0.002966188592836261,-0.013227616436779499,0.008999635465443134,-0.0011016355128958821,-0.011901749297976494
0.019482949748635292,0.003058731323108077,-0.013599833473563194,0.009009326808154583,-0.0010874840663746,-0.011327111162245274
0.019733494147658348,0.003074308391660452,-0.013031227514147758,0.009432087652385235,-0.0012476906413212419,-0.011431615799665451
0.020021693781018257,0.0032321051694452763,-0.013261423446238041,0.008982737548649311,-0.0014251943212002516,-0.010925578884780407
0.01961801014840603,0.002860382432118058,-0.013354355469346046,0.008968389593064785,-0.0014194692485034466,-0.011125428602099419
0.019550958648324013,0.0027783112600445747,-0.013064354658126831,0.00922219455242157,-0.0016488631954416633,-0.01166242640465498
0.01988477259874344,0.0026777239982038736,-0.013256310485303402,0.009272070601582527,-0.0015386366285383701,-0.011404563672840595
0.01958579756319523,0.002615861129015684,-0.012696596793830395,0.009159992448985577,-0.001414724625647068,-0.012111838907003403
0.01958579756319523,0.002615861129015684,-0.012696596793830395,0.009159992448985577,-0.001414724625647068,-0.012111838907003403
0.019532006233930588,0.0028568641282618046,-0.01316745113581419,0.009573849849402905,-0.0012109074741601944,-0.011912886053323746
0.019719570875167847,0.002988027408719063,-0.012841704301536083,0.009514253586530685,-0.0011348759289830923,-0.011655014008283615
0.02000492438673973,0.0032607214525341988,-0.013293289579451084,0.008947036229074001,-0.0010922440560534596,-0.011552813462913036
0.019608691334724426,0.0027441352140158415,-0.01300902385264635,0.009475748986005783,-0.001063071540556848,-0.011487930081784725
0.019881300628185272,0.0026803372893482447,-0.013290652073919773,0.009944004938006401,-0.001114138402044773,-0.01179756224155426
0.019629497081041336,0.0027927306946367025,-0.01330371294170618,0.009675821289420128,-0.0013587606372311711,-0.011935287155210972
0.019937429577112198,0.0026595788076519966,-0.013248289935290813,0.009805206209421158,-0.0015677866758778691,-0.012428730726242065
0.019706441089510918,0.0029405485838651657,-0.012862990610301495,0.009207249619066715,-0.001494146417826414,-0.012183930724859238
0.019866155460476875,0.0026928395964205265,-0.01378353126347065,0.009311351925134659,-0.0013853884302079678,-0.01274589542299509
0.01970762386918068,0.0026139758992940187,-0.012824892066419125,0.009406309574842453,-0.0012930795783177018,-0.0119171729311347
0.019518718123435974,0.0026355632580816746,-0.013220954686403275,0.00915695633739233,-0.0012165068183094263,-0.012040938250720501
0.019718429073691368,0.002727629616856575,-0.012772304937243462,0.009153442457318306,-0.0011640506563708186,-0.012629777193069458
0.019905272871255875,0.002833419479429722,-0.013515207916498184,0.00953553058207035,-0.0011988480109721422,-0.012180139310657978
0.019993722438812256,0.0027225217781960964,-0.013142776675522327,0.009573787450790405,-0.0011746346717700362,-0.012876208871603012
0.019578879699110985,0.0028694511856883764,-0.013424904085695744,0.00960185844451189,-0.0013581907842308283,-0.01282802689820528
0.01961352489888668,0.002598564140498638,-0.012998951599001884,0.009768696501851082,-0.0015521396417170763,-0.013088280335068703
0.01999240182340145,0.0024814538192003965,-0.013612756505608559,0.009578745812177658,-0.0015184433432295918,-0.013169663958251476
0.019881239160895348,0.002598519902676344,-0.013631763868033886,0.009877212345600128,-0.0016349114011973143,-0.013321208767592907
0.019682034850120544,0.002798768226057291,-0.014576921239495277,0.009865756146609783,-0.0016227700980380177,-0.013263649307191372
0.020332643762230873,0.0025340465363115072,-0.014343132264912128,0.009596790187060833,-0.0015144434291869402,-0.01358848251402378
0.02104043960571289,0.0025876343715935946,-0.014360375702381134,0.009283119812607765,-0.0013839316088706255,-0.013711008243262768
0.020391279831528664,0.002435216912999749,-0.014269068837165833,0.01037608738988638,-0.001384977949783206,-0.01395744364708662
0.01993483118712902,0.0023690329398959875,-0.014635796658694744,0.010199912823736668,-0.0012535039568319917,-0.014562360942363739
0.019803151488304138,0.002561730332672596,-0.01432245783507824,0.009826467372477055,-0.0012085539055988193,-0.014523422345519066
0.01971706934273243,0.0028304653242230415,-0.014658937230706215,0.010586103424429893,-0.0012554624117910862,-0.014240353368222713
0.01974869705736637,0.002900345716625452,-0.014495193026959896,0.010174836032092571,-0.0013001898769289255,-0.014310362748801708
0.02052304521203041,0.002616674406453967,-0.014898751862347126,0.009832540526986122,-0.001440042513422668,-0.014546762220561504
0.02052304521203041,0.002616674406453967,-0.014898751862347126,0.009832540526986122,-0.001440042513422668,-0.014546762220561504
0.0194598026573658,0.002622869098559022,-0.014777537435293198,0.009483668021857738,-0.0016437626909464598,-0.014455818571150303
0.0194598026573658,0.002622869098559022,-0.014777537435293198,0.009483668021857738,-0.0016437626909464598,-0.014455818571150303
0.02009820006787777,0.0024970623198896646,-0.014912515878677368,0.00935646053403616,-0.0017087621381506324,-0.014633693732321262
0.020538339391350746,0.0027127363719046116,-0.01475611887872219,0.009904670529067516,-0.0017216395353898406,-0.014979305677115917
0.020858293399214745,0.0026880097575485706,-0.014624145813286304,0.009788217954337597,-0.0016549990978091955,-0.01530528999865055
0.020074130967259407,0.0025061939377337694,-0.015000971034169197,0.009561202488839626,-0.0015373664209619164,-0.01525070145726204
0.020450443029403687,0.0024388853926211596,-0.01477873045951128,0.009821118786931038,-0.001490153488703072,-0.015853744000196457
0.01992090418934822,0.002460715128108859,-0.014530951157212257,0.009645636193454266,-0.0014730592956766486,-0.015765836462378502
0.020313147455453873,0.0029153767973184586,-0.015175850130617619,0.0105531495064497,-0.0015430605271831155,-0.015714893117547035
0.020636945962905884,0.002732994267717004,-0.014356330037117004,0.009857237339019775,-0.0014495232608169317,-0.016171272844076157
0.020431561395525932,0.0025919738691300154,-0.014762706123292446,0.009768350049853325,-0.0014254571869969368,-0.015960097312927246
0.020658228546380997,0.002628101035952568,-0.014033741317689419,0.010240856558084488,-0.0013726818142458797,-0.015992214903235435
0.02081468515098095,0.002493946347385645,-0.014773484319448471,0.00989628117531538,-0.001330593484453857,-0.01674986630678177
0.021961774677038193,0.002377324504777789,-0.014245228841900826,0.009709260426461697,-0.0013696212554350495,-0.016591880470514297
0.020192094147205353,0.0026443214155733585,-0.014389153569936752,0.010249480605125427,-0.0014556520618498325,-0.01704830676317215
0.02061104029417038,0.0028861097525805235,-0.014252630062401295,0.009691791608929634,-0.001623268355615437,-0.016474049538373947
0.02140527218580246,0.0026255648117512465,-0.014759350568056107,0.009581265039741993,-0.001578636933118105,-0.01690930873155594
0.020733648911118507,0.0026478292420506477,-0.013840856030583382,0.010297507047653198,-0.0015090173110365868,-0.017674919217824936
0.020734140649437904,0.002655693795531988,-0.01434251107275486,0.009968621656298637,-0.0014892432373017073,-0.017801949754357338
0.02126648835837841,0.0028071030974388123,-0.014224051497876644,0.00995692890137434,-0.0013927544932812452,-0.01832953467965126
0.021001478657126427,0.0026783409994095564,-0.014620758593082428,0.010589387267827988,-0.0013155199121683836,-0.018257858231663704
0.02085743471980095,0.002889968454837799,-0.014013087376952171,0.010013535618782043,-0.0013086183462291956,-0.01819917932152748
0.021297581493854523,0.0026718766894191504,-0.014410989359021187,0.0105610191822052,-0.001341897645033896,-0.018377361819148064
0.02139434963464737,0.002544895512983203,-0.014461701735854149,0.01101322565227747,-0.0014836374903097749,-0.018342535942792892
0.021167881786823273,0.002707385690882802,-0.015071439556777477,0.010388758964836597,-0.0015953502152115107,-0.019161751493811607
0.020832601934671402,0.002790924161672592,-0.013870570808649063,0.010779526084661484,-0.0016743324231356382,-0.01932053454220295
0.021431922912597656,0.00286893080919981,-0.014619638212025166,0.010780165903270245,-0.001811045571230352,-0.019067201763391495
0.021473783999681473,0.002661840058863163,-0.013948185369372368,0.010066450573503971,-0.0016851297114044428,-0.019335901364684105
0.021473783999681473,0.002661840058863163,-0.013948185369372368,0.010066450573503971,-0.0016851297114044428,-0.019335901364684105
0.021288525313138962,0.002644656226038933,-0.014330366626381874,0.010344996117055416,-0.0016900418559089303,-0.019615940749645233
0.021320393308997154,0.002354001859202981,-0.01415726076811552,0.01050691120326519,-0.001629665493965149,-0.01971229538321495
0.021525755524635315,0.002423672005534172,-0.014705782756209373,0.010605585761368275,-0.001473023439757526,-0.019538674503564835
0.021503722295165062,0.0027118846774101257,-0.014428072609007359,0.011206029914319515,-0.0015223361551761627,-0.019298173487186432
0.021446261554956436,0.002923673950135708,-0.014350038953125477,0.01121339201927185,-0.0016471449052914977,-0.019310545176267624
0.0219215527176857,0.002626668196171522,-0.014515643008053303,0.010738203302025795,-0.0021297393832355738,-0.020543532446026802
0.021562939509749413,0.0024992115795612335,-0.014286152087152004,0.010263442993164062,-0.002112755086272955,-0.020035047084093094
0.02188899740576744,0.002376025076955557,-0.014586731791496277,0.010473066009581089,-0.0020472926553338766,-0.02010035328567028
0.022347724065184593,0.0025357117410749197,-0.014623058959841728,0.010932528413832188,-0.001835597213357687,-0.020358150824904442
0.023144762963056564,0.0027282824739813805,-0.01468112412840128,0.01002366840839386,-0.0016516426112502813,-0.020556777715682983
0.022613056004047394,0.0027309125289320946,-0.0140676936134696,0.01042568776756525,-0.0014468287117779255,-0.02043142355978489
0.02169034071266651,0.0027335199993103743,-0.01572377420961857,0.010589399375021458,-0.0014951727353036404,-0.02060335874557495
0.02137942425906658,0.002714092144742608,-0.014693798497319221,0.010154333896934986,-0.001704250811599195,-0.020765243098139763
0.02209918387234211,0.002484607510268688,-0.014738907106220722,0.010656842961907387,-0.0017856983467936516,-0.019340844824910164
0.022475287318229675,0.0025613480247557163,-0.014013949781656265,0.010930743999779224,-0.0017404075479134917,-0.020858103409409523
0.022252975031733513,0.0027532184030860662,-0.014547298662364483,0.010962743312120438,-0.0017611596267670393,-0.021196411922574043
0.02145131677389145,0.0027817164082080126,-0.014354418031871319,0.010396061465144157,-0.00160882412455976,-0.021098118275403976
0.02248610183596611,0.0025720144622027874,-0.014944345690310001,0.01013237051665783,-0.001461142674088478,-0.021699145436286926
0.023889150470495224,0.002498521702364087,-0.013957367278635502,0.010415797121822834,-0.0014163884334266186,-0.021424194797873497
0.02348848432302475,0.0022536590695381165,-0.014200611971318722,0.010753319598734379,-0.0014615601394325495,-0.021776676177978516
0.022191323339939117,0.0024559360463172197,-0.013904019258916378,0.010897839441895485,-0.0016154382610693574,-0.021540597081184387
0.022099627181887627,0.0023540621623396873,-0.014360353350639343,0.011237436905503273,-0.001740646199323237,-0.020318809896707535
0.02228509820997715,0.0023287360090762377,-0.013969535008072853,0.011187509633600712,-0.0019295879174023867,-0.02083294466137886
0.022562650963664055,0.0024646935053169727,-0.015199427492916584,0.01058132853358984,-0.0019224723801016808,-0.021737797185778618
0.023116258904337883,0.0025037331506609917,-0.01416751928627491,0.011617696844041348,-0.0019151970045641065,-0.02205820195376873
0.0231541208922863,0.0023674971889704466,-0.015180583111941814,0.010665461421012878,-0.0017669906374067068,-0.021681299433112144
0.022389594465494156,0.0024670404382050037,-0.014340224675834179,0.010626782663166523,-0.0015998445451259613,-0.021834874525666237
0.02304108999669552,0.0023162721190601587,-0.014516539871692657,0.011204288341104984,-0.0015233996091410518,-0.02264986000955105
0.022838769480586052,0.002222397131845355,-0.014018350280821323,0.011504102498292923,-0.0015389032196253538,-0.022394753992557526
0.022838769480586052,0.002222397131845355,-0.014018350280821323,0.011504102498292923,-0.0015389032196253538,-0.022394753992557526
0.02272154949605465,0.002329009585082531,-0.01520716305822134,0.01151179987937212,-0.0016537621850147843,-0.022091735154390335
0.023341691121459007,0.002254570834338665,-0.014823298901319504,0.011333480477333069,-0.0017296512378379703,-0.02160731889307499
0.022902488708496094,0.0024603826459497213,-0.015162511728703976,0.011203238740563393,-0.0018495807889848948,-0.021667541936039925
0.023404192179441452,0.0021865784656256437,-0.014994042925536633,0.011215453036129475,-0.00188490841537714,-0.022702602669596672
0.023493658751249313,0.002321397652849555,-0.01460234448313713,0.010776815935969353,-0.0018676006002351642,-0.022826293483376503
0.023212647065520287,0.0022507004905492067,-0.015153258107602596,0.011811471544206142,-0.0019236230291426182,-0.023186594247817993
0.02328471653163433,0.0021733210887759924,-0.014680571854114532,0.011743823997676373,-0.001856324844993651,-0.02336430735886097
0.02353573404252529,0.0021378572564572096,-0.015785368159413338,0.01200075913220644,-0.0019030581461265683,-0.0229865200817585
0.02374359965324402,0.0021944597829133272,-0.014873438514769077,0.011417001485824585,-0.001752798561938107,-0.022768940776586533
0.023713286966085434,0.0024127729702740908,-0.015133485198020935,0.011287309229373932,-0.0018691935110837221,-0.022521628066897392
0.023732388392090797,0.0022957404144108295,-0.015515414997935295,0.01117253303527832,-0.0018154861172661185,-0.022501572966575623
0.023496277630329132,0.0022978680208325386,-0.015931062400341034,0.010646487586200237,-0.0019093448063358665,-0.022905850782990456
0.023501843214035034,0.00217145262286067,-0.015166688710451126,0.01108146458864212,-0.0018135993741452694,-0.022962624207139015
0.023454297333955765,0.002222997136414051,-0.015030455775558949,0.011395162902772427,-0.0019872181583195925,-0.02290184237062931
0.02361566200852394,0.0020415119361132383,-0.015359779819846153,0.010846748948097229,-0.002020767889916897,-0.022106481716036797
0.023982880637049675,0.0021282988600432873,-0.015285113826394081,0.011446455493569374,-0.002252172911539674,-0.022134648635983467
0.02365732379257679,0.0023316489532589912,-0.016182398423552513,0.011225560680031776,-0.0021485495381057262,-0.022633250802755356
0.02351279743015766,0.002196929417550564,-0.015750160440802574,0.01160371396690607,-0.0019034439465031028,-0.022685499861836433
0.023827245458960533,0.0021121124736964703,-0.01578543521463871,0.011373362503945827,-0.0017384598031640053,-0.02191452495753765
0.02430260367691517,0.0016074195737019181,-0.01516665518283844,0.011034651659429073,-0.0015597458695992827,-0.02244982309639454
0.024041790515184402,0.001418274943716824,-0.016075436025857925,0.011168427765369415,-0.0016021232586354017,-0.02336365170776844
0.024095458909869194,0.0011746904347091913,-0.015667829662561417,0.01096419058740139,-0.0017398737836629152,-0.02415851503610611
0.02423705719411373,0.0011137061519548297,-0.01558228861540556,0.010996001772582531,-0.001850684406235814,-0.02397480607032776
0.024179093539714813,0.0008648777147755027,-0.015326092019677162,0.01117653213441372,-0.002390549285337329,-0.023496683686971664
0.024277642369270325,0.0008153268718160689,-0.015825746580958366,0.010691235773265362,-0.0023759454488754272,-0.021977107971906662
0.024277642369270325,0.0008153268718160689,-0.015825746580958366,0.010691235773265362,-0.0023759454488754272,-0.021977107971906662
0.024445684626698494,0.0009330586181022227,-0.016115712001919746,0.011098959483206272,-0.0022405260242521763,-0.022431496530771255
0.02588271163403988,0.001515495590865612,-0.0159965381026268,0.01103061344474554,-0.002025144873186946,-0.023730704560875893
0.02530263364315033,0.0015021952567622066,-0.016283834353089333,0.011023261584341526,-0.001949781202711165,-0.024558108299970627
0.024134788662195206,0.0013921007048338652,-0.015578340739011765,0.011751210317015648,-0.0019171818858012557,-0.02411135658621788
0.02408524602651596,0.0011699700262397528,-0.015303646214306355,0.011416416615247726,-0.0020742290653288364,-0.02482145093381405
0.025187615305185318,0.0011036822106689215,-0.016239376738667488,0.011109502986073494,-0.0020228992216289043,-0.0248962864279747
0.024902287870645523,0.000953438866417855,-0.015849817544221878,0.010862400755286217,-0.001907968893647194,-0.02446148172020912
0.02487712725996971,0.0009413367370143533,-0.015862533822655678,0.011376610025763512,-0.0018796678632497787,-0.023983461782336235
0.025494690984487534,0.000794829975347966,-0.01577262580394745,0.010986818000674248,-0.0017535884398967028,-0.024327093735337257
0.025601334869861603,0.0007759289583191276,-0.015288062393665314,0.011137084104120731,-0.0018241929356008768,-0.025097999721765518
0.02645152434706688,0.0007913897279649973,-0.016985028982162476,0.01154335681349039,-0.0021910835057497025,-0.02544376440346241
0.024345798417925835,0.0008037267834879458,-0.01618717610836029,0.011434536427259445,-0.002093444112688303,-0.025693755596876144
0.024338897317647934,0.0010101879015564919,-0.0159081369638443,0.011370773427188396,-0.002266650553792715,-0.025776786729693413
0.025082439184188843,0.001025024219416082,-0.015499371103942394,0.01152782142162323,-0.002092926762998104,-0.02535945177078247
0.025973564013838768,0.0010053410660475492,-0.016466818749904633,0.01161956787109375,-0.0019533513113856316,-0.025804108008742332
0.025932462885975838,0.0009906921768561006,-0.015702418982982635,0.012009651400148869,-0.0018240897916257381,-0.02522098831832409
0.025282155722379684,0.000987859326414764,-0.016177639365196228,0.011625297367572784,-0.0018907251069322228,-0.025923917070031166
0.02553325891494751,0.0009315191418863833,-0.016414111480116844,0.011530211195349693,-0.001800695899873972,-0.026721326634287834
0.02526737004518509,0.0009262461680918932,-0.016162512823939323,0.011503578163683414,-0.0020633814856410027,-0.026476439088582993
0.025744467973709106,0.0009228294948115945,-0.016642723232507706,0.011829154565930367,-0.0023585488088428974,-0.026254883036017418
0.02533344179391861,0.0008539283298887312,-0.015804484486579895,0.012134870514273643,-0.0024509476497769356,-0.026365185156464577
0.02567644603550434,0.0009326679864898324,-0.01612619310617447,0.011300316080451012,-0.0024205686058849096,-0.026601314544677734
0.025996895506978035,0.0008384270477108657,-0.015567722730338573,0.011865124106407166,-0.002160529373213649,-0.02659294195473194
0.025925979018211365,0.0008454046910628676,-0.016205260530114174,0.011824407614767551,-0.00199760845862329,-0.026977695524692535
0.025774354115128517,0.0008579384302720428,-0.015811316668987274,0.012029130943119526,-0.0018021841533482075,-0.026375966146588326
0.026163525879383087,0.0010316624538972974,-0.016284305602312088,0.012311256490647793,-0.0017627871129661798,-0.026752112433314323
0.026311373338103294,0.0009136561420746148,-0.016462083905935287,0.012000786140561104,-0.0017795120365917683,-0.027289334684610367
0.026311373338103294,0.0009136561420746148,-0.016462083905935287,0.012000786140561104,-0.0017795120365917683,-0.027289334684610367
0.026014452800154686,0.0009065110934898257,-0.016070706769824028,0.012447768822312355,-0.0021043375600129366,-0.027594996616244316
0.02604627050459385,0.0008081224514171481,-0.015903232619166374,0.01247614435851574,-0.0024512314703315496,-0.027536146342754364
0.02604627050459385,0.0008081224514171481,-0.015903232619166374,0.01247614435851574,-0.0024512314703315496,-0.027536146342754364
0.02605787105858326,0.0007705495227128267,-0.015824606642127037,0.012728054076433182,-0.002177855698391795,-0.027777504175901413
0.026308370754122734,0.0007776904385536909,-0.016222815960645676,0.012650283984839916,-0.0020305488724261522,-0.02788710407912731
0.026452504098415375,0.0007031115237623453,-0.016283085569739342,0.012498772703111172,-0.00203720829449594,-0.027886679396033287
0.02648364007472992,0.0007191530312411487,-0.016509443521499634,0.01265876367688179,-0.002307093469426036,-0.02835528925061226
0.026476094499230385,0.0006569550023414195,-0.01663024351000786,0.012368830852210522,-0.002268850104883313,-0.028187453746795654
0.026220165193080902,0.0006666965200565755,-0.0163682010024786,0.01270891260355711,-0.0022461169864982367,-0.02816799283027649
0.026391034945845604,0.0006955210119485855,-0.01687992364168167,0.012441779486835003,-0.002031043404713273,-0.0282093845307827
0.02661149762570858,0.0006872033700346947,-0.016569532454013824,0.01263238862156868,-0.0018898360431194305,-0.028434965759515762
0.02737027406692505,0.0006484516197815537,-0.016488825902342796,0.01252062525600195,-0.0018990488024428487,-0.028344905003905296
0.027009468525648117,0.0006711066234856844,-0.016236772760748863,0.013051946647465229,-0.0019700301345437765,-0.0283778365701437
0.026542890816926956,0.0008843242540024221,-0.016304336488246918,0.013224579393863678,-0.0019421320175752044,-0.0285643357783556
0.02537851594388485,0.0008942013955675066,-0.01713612489402294,0.013211722485721111,-0.002168184844776988,-0.02787945605814457
0.026074683293700218,0.000819266599137336,-0.01646430231630802,0.01290932297706604,-0.00229487381875515,-0.027921445667743683
0.026840347796678543,0.0008274829597212374,-0.016776282340288162,0.012209710665047169,-0.0022150620352476835,-0.02952604554593563
0.02634057216346264,0.0008579072309657931,-0.016490735113620758,0.012275388464331627,-0.0020526847802102566,-0.029604151844978333
0.02658025361597538,0.0007684984593652189,-0.01691482402384281,0.012094547040760517,-0.001986942021176219,-0.028781475499272346
0.027902990579605103,0.0007862666971050203,-0.01711181178689003,0.012550946325063705,-0.001941570662893355,-0.027607310563325882
0.02701902948319912,0.0007974343025125563,-0.016639696434140205,0.012977267615497112,-0.001991641940549016,-0.02791895717382431
0.027230679988861084,0.0008008576114661992,-0.01719050668179989,0.012935242615640163,-0.00245462404564023,-0.02946316823363304
0.026192015036940575,0.0008029660093598068,-0.01634056493639946,0.013104532845318317,-0.002537613268941641,-0.029289554804563522
0.026136867702007294,0.0008409709553234279,-0.017132075503468513,0.012800431810319424,-0.0025056428276002407,-0.030281515792012215
0.02669074758887291,0.0008494355133734643,-0.016993561759591103,0.012666279450058937,-0.002446534810587764,-0.031050583347678185
0.026533914729952812,0.0008555791573598981,-0.01674293726682663,0.01221027784049511,-0.002366506028920412,-0.03014921396970749
0.02717306837439537,0.0009718727087602019,-0.018233751878142357,0.012420451268553734,-0.002215621992945671,-0.028886696323752403
0.02717306837439537,0.0009718727087602019,-0.018233751878142357,0.012420451268553734,-0.002215621992945671,-0.028886696323752403
0.026603398844599724,0.0010439606849104166,-0.0173085555434227,0.012584833428263664,-0.002085429849103093,-0.029128607362508774
0.026209816336631775,0.0010215425863862038,-0.017373820766806602,0.012450500391423702,-0.0020877753850072622,-0.030187856405973434
0.026948994025588036,0.0008855116902850568,-0.016996968537569046,0.012394475750625134,-0.0025634272024035454,-0.030456367880105972
0.02686449885368347,0.0008298121974803507,-0.017343109473586082,0.012445949949324131,-0.002537361579015851,-0.030429774895310402
0.02716651000082493,0.0008310079574584961,-0.016932310536503792,0.012120159342885017,-0.0022983443923294544,-0.030500538647174835
0.027132421731948853,0.000812404090538621,-0.016285857185721397,0.013024445623159409,-0.002065309789031744,-0.030135981738567352
0.02738812193274498,0.0008225811179727316,-0.018302248790860176,0.012422261759638786,-0.0018889057682827115,-0.030389850959181786
0.02727857418358326,0.0007702151779085398,-0.01695728488266468,0.012428725138306618,-0.0019573953468352556,-0.030436839908361435
0.027435749769210815,0.0008197887218557298,-0.017068268731236458,0.012563702650368214,-0.002617051126435399,-0.030548783019185066
0.027319828048348427,0.0008324177470058203,-0.016741789877414703,0.012559057213366032,-0.0031255425419658422,-0.03099440038204193
0.02705295942723751,0.0008379786158911884,-0.01816137135028839,0.012562327086925507,-0.0028553432784974575,-0.030972490087151527
0.02714323252439499,0.0008125498425215483,-0.017464615404605865,0.01225349958986044,-0.002611620584502816,-0.03132060170173645
0.02710971049964428,0.0007596150389872491,-0.017047522589564323,0.01290581002831459,-0.002194843487814069,-0.03169567137956619
0.027075396850705147,0.0006874905084259808,-0.01789378933608532,0.01271932665258646,-0.0020668425131589174,-0.031380120664834976
0.02701379917562008,0.000650307338219136,-0.01707661896944046,0.013142316602170467,-0.002086575608700514,-0.03185785934329033
0.02668488398194313,0.0006436993135139346,-0.017313407734036446,0.013160482048988342,-0.0021189735271036625,-0.0330490879714489
0.02718997746706009,0.0006063601467758417,-0.017332693561911583,0.01320517435669899,-0.0024418828543275595,-0.03270624577999115
0.027341976761817932,0.000635105068795383,-0.017270024865865707,0.012987659312784672,-0.0028155383188277483,-0.031851526349782944
0.027308031916618347,0.0006318271043710411,-0.017918916419148445,0.012899082154035568,-0.0027369149029254913,-0.03129599243402481
0.02731810137629509,0.0006047008791938424,-0.01698622666299343,0.013234667479991913,-0.00254307989962399,-0.03165704756975174
0.027167612686753273,0.0005645175697281957,-0.016992196440696716,0.013348395004868507,-0.002415111754089594,-0.03282800689339638
0.027456944808363914,0.0005818858626298606,-0.01776677742600441,0.013778245076537132,-0.0023451922461390495,-0.03341732546687126
0.02803751826286316,0.0005833691684529185,-0.017220258712768555,0.01345343142747879,-0.0024790014140307903,-0.03442496061325073
0.028306474909186363,0.000555297068785876,-0.01755957119166851,0.013707690872251987,-0.0025897433515638113,-0.03287194296717644
0.02849070355296135,0.0005776653997600079,-0.017083782702684402,0.013267663307487965,-0.0023396662436425686,-0.03166795149445534
0.02747207134962082,0.0005375467007979751,-0.01731051504611969,0.012241090647876263,-0.002213398227468133,-0.032575346529483795
0.02749476581811905,0.0005651275278069079,-0.017382493242621422,0.013728795573115349,-0.0023390573915094137,-0.03359949588775635
0.02823365479707718,0.000525843002833426,-0.01674400269985199,0.0141134113073349,-0.002267711330205202,-0.033657778054475784
0.02823365479707718,0.000525843002833426,-0.01674400269985199,0.0141134113073349,-0.002267711330205202,-0.033657778054475784
0.028077347204089165,0.0005549965426325798,-0.017400629818439484,0.01356598176062107,-0.0024718409404158592,-0.033474311232566833
0.028063565492630005,0.0005899399984627962,-0.01662089116871357,0.013464965857565403,-0.002278523985296488,-0.03355181962251663
0.028871402144432068,0.0006206397665664554,-0.017208708450198174,0.012988840229809284,-0.0023072739131748676,-0.03348575904965401
0.029083648696541786,0.0006209904095157981,-0.0172270517796278,0.0128718176856637,-0.002333881566300988,-0.03398893401026726
0.027773192152380943,0.00075148866744712,-0.016879841685295105,0.013072931207716465,-0.003037000074982643,-0.03404035046696663
0.02771848812699318,0.0007361965253949165,-0.016481585800647736,0.013565555214881897,-0.0033545203041285276,-0.033804137259721756
0.02945302054286003,0.0006826916942372918,-0.01738658733665943,0.012853204272687435,-0.003176614874973893,-0.03419369459152222
0.02901555225253105,0.0006064988556317985,-0.01645869016647339,0.013121816329658031,-0.0027018431574106216,-0.033770348876714706
0.029145363718271255,0.0005452335462905467,-0.01658404804766178,0.01298343576490879,-0.0023609872441738844,-0.03403383120894432
0.029161030426621437,0.0005765249952673912,-0.017223291099071503,0.013683252036571503,-0.002246399410068989,-0.03386545553803444
0.029163632541894913,0.0005291786510497332,-0.016752872616052628,0.01320261973887682,-0.0021201646886765957,-0.03343813493847847
0.02900438755750656,0.0005549942143261433,-0.017400158569216728,0.013452793471515179,-0.0024822689592838287,-0.03439949080348015
0.028881825506687164,0.0005177431157790124,-0.016589969396591187,0.013586308807134628,-0.0027483804151415825,-0.034944623708724976
0.02898847497999668,0.0004600138927344233,-0.016800861805677414,0.013979262672364712,-0.0027501177974045277,-0.0347023569047451
0.029382748529314995,0.0004153169284109026,-0.01729811169207096,0.013759836554527283,-0.0027683484368026257,-0.034562405198812485
0.02979876473546028,0.00045510652125813067,-0.016776755452156067,0.013124430552124977,-0.002580567728728056,-0.035212814807891846
0.029681088402867317,0.0004206542216707021,-0.01735445111989975,0.013315102085471153,-0.002477430272847414,-0.035328954458236694
0.029366428032517433,0.00043275023926980793,-0.01715599000453949,0.013312645256519318,-0.0026507554575800896,-0.03530355542898178
0.029717784374952316,0.00042430637404322624,-0.01769527606666088,0.014047520235180855,-0.0027903448790311813,-0.0349431149661541
0.029562614858150482,0.000397788651753217,-0.01765129156410694,0.014127254486083984,-0.002851435448974371,-0.03510252758860588
0.029683595523238182,0.00040914397686719894,-0.016891490668058395,0.014733139425516129,-0.0027193098794668913,-0.03549988567829132
0.029715482145547867,0.00040339151746593416,-0.01752401888370514,0.014127600006759167,-0.002671019872650504,-0.03530552238225937
0.02969001606106758,0.00035090825986117125,-0.017410852015018463,0.014503484591841698,-0.002601955085992813,-0.036651331931352615
0.029911793768405914,0.00031779418350197375,-0.01806284487247467,0.01390192098915577,-0.0024994532577693462,-0.03711217641830444
0.0298408642411232,0.0003023344906978309,-0.017599593847990036,0.013981365598738194,-0.0026083735283464193,-0.03635528311133385
0.030125651508569717,0.0002884859568439424,-0.01705380156636238,0.014011099934577942,-0.002589060924947262,-0.035049185156822205
0.030125651508569717,0.0002884859568439424,-0.01705380156636238,0.014011099934577942,-0.002589060924947262,-0.035049185156822205
0.029375774785876274,0.0002758538175839931,-0.018437236547470093,0.014182140119373798,-0.0025287724565714598,-0.03622113913297653
0.029696110635995865,0.0002642809704411775,-0.017530888319015503,0.01379043236374855,-0.002776213688775897,-0.036257971078157425
0.030498584732413292,0.0002536398242227733,-0.017515094950795174,0.014323612675070763,-0.002892877906560898,-0.03661481291055679
0.030183762311935425,0.0002438230876578018,-0.017731579020619392,0.014487306587398052,-0.002893677446991205,-0.038031015545129776
0.029874546453356743,0.0002263053902424872,-0.01772216521203518,0.014794331043958664,-0.002680534264072776,-0.03546736389398575
0.030819542706012726,0.0002184577751904726,-0.018460402265191078,0.015072477981448174,-0.0024944765027612448,-0.036675699055194855
0.03000999614596367,0.00021113654656801373,-0.017648067325353622,0.014467911794781685,-0.0023915504571050406,-0.037021078169345856
0.0304493997246027,0.0002042897540377453,-0.01800105907022953,0.015425016172230244,-0.002511013299226761,-0.03748621419072151
0.030947567895054817,0.0001978731161216274,-0.017712321132421494,0.014750488102436066,-0.00258994335308671,-0.0377904437482357
0.03083203174173832,0.00019184745906386524,-0.017836641520261765,0.01457924209535122,-0.0026419067289680243,-0.03767615556716919
0.02997535839676857,0.00018617793102748692,-0.018100200220942497,0.014031074941158295,-0.002777568530291319,-0.03764335438609123
0.029828539118170738,0.00018083366740029305,-0.017716355621814728,0.014932401478290558,-0.002740624127909541,-0.038004908710718155
0.03129270672798157,0.00017578795086592436,-0.018194522708654404,0.013939236290752888,-0.0024910192005336285,-0.038224559277296066
0.031198225915431976,0.00017101607227232307,-0.01792357675731182,0.014254123903810978,-0.002540679182857275,-0.03830947354435921
0.031087776646018028,0.00016649637836962938,-0.017796721309423447,0.013898774050176144,-0.002698905998840928,-0.03837093710899353
0.030680835247039795,0.00016220957331825048,-0.018191462382674217,0.01475251279771328,-0.002789452439174056,-0.03882326930761337
0.031079621985554695,0.00015813780191820115,-0.017865635454654694,0.014722385443747044,-0.0028173415921628475,-0.0378202348947525
0.03128965198993683,0.0001542654208606109,-0.018202343955636024,0.014839287847280502,-0.0030559366568922997,-0.03884774446487427
0.030720341950654984,0.00015057847485877573,-0.01818913221359253,0.01450058538466692,-0.003002731828019023,-0.03952997922897339
0.03138565644621849,0.0001470634015277028,-0.017771320417523384,0.014845581725239754,-0.002761770272627473,-0.040320463478565216
0.03113270364701748,0.00014370871940627694,-0.01819946989417076,0.01488575804978609,-0.0025587514974176884,-0.03924614191055298
0.031578633934259415,0.00014050371828489006,-0.018018705770373344,0.014754777774214745,-0.0021780021488666534,-0.03797909617424011
0.03149818256497383,0.000137438575620763,-0.017900953069329262,0.01476133894175291,-0.0021384411957114935,-0.039386287331581116
0.030939776450395584,0.00013450421101879328,-0.018333489075303078,0.014714238233864307,-0.0024574960116297007,-0.03945668414235115
0.030939776450395584,0.00013450421101879328,-0.018333489075303078,0.014714238233864307,-0.0024574960116297007,-0.03945668414235115
0.03175855055451393,0.00013169265002943575,-0.018010878935456276,0.014506833627820015,-0.002890402916818857,-0.040993690490722656
0.03161163628101349,0.0001289961946895346,-0.018360977992415428,0.014629574492573738,-0.003057869616895914,-0.040644656866788864
0.03142888844013214,0.0001264079037355259,-0.01847366988658905,0.014887817203998566,-0.0032176245003938675,-0.03859588876366615
0.032012999057769775,0.000123921490740031,-0.017691927030682564,0.014602790586650372,-0.003020842792466283,-0.03932530805468559
0.03144786134362221,0.00012153093848610297,-0.018368015065789223,0.0144112017005682,-0.003126180963590741,-0.0407184474170208
0.031655728816986084,0.0001192310155602172,-0.018406551331281662,0.014365453273057938,-0.003008830128237605,-0.040460340678691864
0.03193766996264458,0.00011701638140948489,-0.017890172079205513,0.01427253894507885,-0.002842085901647806,-0.03993084281682968
0.03214813023805618,0.00011282521154498681,-0.018221687525510788,0.014691364951431751,-0.002936100587248802,-0.04140380769968033
0.031930893659591675,0.0001108401920646429,-0.018221251666545868,0.01511137280613184,-0.0031598368659615517,-0.04087158292531967
0.03118036687374115,0.00010892390855588019,-0.018661804497241974,0.014932136982679367,-0.003066872712224722,-0.04062771424651146
0.032083384692668915,0.00010707265028031543,-0.018330810591578484,0.014766325242817402,-0.002817366970703006,-0.04126211255788803
0.03263024240732193,0.00010528336133575067,-0.0184280164539814,0.014961011707782745,-0.002727620070800185,-0.04142270237207413
0.03248271718621254,0.0001035528548527509,-0.018357008695602417,0.015090536326169968,-0.0030829235911369324,-0.04106642305850983
0.03239599987864494,0.0001018783004838042,-0.017956089228391647,0.015176551416516304,-0.00316817918792367,-0.041097186505794525
0.0306608434766531,0.00010028433462139219,-0.018638908863067627,0.01454334706068039,-0.0034832877572625875,-0.04072664678096771
0.03138286620378494,2.3041802705847658e-05,-0.018744956701993942,0.014724165201187134,-0.0032895661424845457,-0.04129033908247948
0.03260405734181404,5.628738563245861e-06,-0.018336087465286255,0.014654484577476978,-0.002948096487671137,-0.04172851890325546
0.03185755014419556,7.551670933025889e-08,-0.01848296821117401,0.015414098277688026,-0.0026076354552060366,-0.039917852729558945
0.033228613436222076,1.0131531169577102e-09,-0.018426811322569847,0.015244599431753159,-0.002379362704232335,-0.042096223682165146
0.03281857818365097,1.35927415156889e-11,-0.018402626737952232,0.015431885607540607,-0.0025734659284353256,-0.04226178303360939
0.032310761511325836,1.8236397092939727e-13,-0.01910509169101715,0.015240669250488281,-0.003166554495692253,-0.04198305681347847
0.03147781640291214,2.4466455625398635e-15,-0.01859259232878685,0.015608872286975384,-0.0031899376772344112,-0.041200608015060425
0.031891945749521255,3.282487259032134e-17,-0.018376993015408516,0.01571880653500557,-0.003222317900508642,-0.042286477982997894
0.03260677307844162,4.403874943044169e-19,-0.01928558759391308,0.015738697722554207,-0.0031061626505106688,-0.04334395378828049
0.03234994038939476,5.908360880081261e-21,-0.01897616498172283,0.01565675064921379,-0.0029718198347836733,-0.04180378094315529
0.03241473808884621,7.926819581192851e-23,-0.018910422921180725,0.015562583692371845,-0.003126896219328046,-0.040737368166446686
0.032692886888980865,1.063484093927208e-24,-0.019409751519560814,0.015742303803563118,-0.0032535584177821875,-0.04238894581794739
0.03250780329108238,1.4267996229496222e-26,-0.01922600157558918,0.01548059843480587,-0.0030785107519477606,-0.043150994926691055
0.03251822292804718,1.9142338922055937e-28,-0.019293449819087982,0.015837905928492546,-0.0029762552585452795,-0.04508769139647484
0.03251822292804718,1.9142338922055937e-28,-0.019293449819087982,0.015837905928492546,-0.0029762552585452795,-0.04508769139647484
0.03236845135688782,2.568189024625672e-30,-0.019432688131928444,0.0155626917257905,-0.003078802488744259,-0.042163290083408356
0.03213289752602577,3.445553205148625e-32,-0.019698869436979294,0.01630828157067299,-0.0031654059421271086,-0.042824387550354004
0.031973134726285934,4.6226494425303964e-34,-0.019664138555526733,0.015986688435077667,-0.003234259318560362,-0.04402206838130951
0.031984612345695496,6.201874187106218e-36,-0.02017253078520298,0.01557670533657074,-0.003368713427335024,-0.044294390827417374
0.030941136181354523,1.1163149943366147e-39,-0.019514242187142372,0.015724746510386467,-0.003053517546504736,-0.044272616505622864
0.033214133232831955,1.4977077986703645e-41,-0.019611498340964317,0.015401442535221577,-0.0029931915923953056,-0.04423554241657257
0.03306875750422478,2.0038568039844884e-43,-0.01955392397940159,0.015219980850815773,-0.0031081195920705795,-0.044268541038036346
0.03233594074845314,2.802596928649634e-45,-0.01920333504676819,0.015111125074326992,-0.002967973705381155,-0.04475734755396843
0.0325007438659668,0.0,-0.020136645063757896,0.015362553298473358,-0.003121146699413657,-0.04487890377640724
0.03198706731200218,0.0,-0.0204521082341671,0.015744144096970558,-0.0031243397388607264,-0.04527672752737999
0.033722080290317535,0.0,-0.019060831516981125,0.015608367510139942,-0.0034224390983581543,-0.04390117898583412
0.034242045134305954,0.0,-0.01965467445552349,0.016452226787805557,-0.0031589812133461237,-0.04540254548192024
0.03217758983373642,0.0,-0.020910663530230522,0.015763690695166588,-0.0032793059945106506,-0.044888686388731
0.03204409033060074,0.0,-0.0202423557639122,0.015860002487897873,-0.003354648593813181,-0.04506329447031021
0.03318490833044052,0.0,-0.019868481904268265,0.015195399522781372,-0.003321672324091196,-0.04601433128118515
0.032904647290706635,0.0,-0.02072334475815296,0.01529488805681467,-0.00338406627997756,-0.04454810172319412
0.032756369560956955,0.0,-0.019786499440670013,0.01529702078551054,-0.003595236223191023,-0.04390551149845123
0.03413405641913414,-0.0002238874731119722,-0.01915084943175316,0.01565553992986679,-0.003297758288681507,-0.04538094997406006
0.033861346542835236,-0.0002507292665541172,-0.02019409090280533,0.015973636880517006,-0.003127159085124731,-0.04663346707820892
0.03242386132478714,-0.00023799591872375458,-0.021041691303253174,0.015665458515286446,-0.0031247534789144993,-0.04682238772511482
0.032639745622873306,-0.00022604667174164206,-0.020083781331777573,0.015578389167785645,-0.003185856156051159,-0.04457711800932884
0.0337742380797863,-0.00021523376926779747,-0.02019874006509781,0.01575414091348648,-0.0031022606417536736,-0.04348858445882797
0.033781878650188446,-0.0002054084907285869,-0.020335344597697258,0.015716679394245148,-0.0034211864694952965,-0.046148136258125305
0.033974867314100266,-0.0002222072653239593,-0.020048713311553,0.014770207926630974,-0.003694315440952778,-0.04642973840236664
0.0340515598654747,-0.00022568678832612932,-0.020015766844153404,0.015442407689988613,-0.0038246382027864456,-0.04644084349274635
0.03405466303229332,-0.0002167972270399332,-0.02059035189449787,0.015428137965500355,-0.003372015431523323,-0.04568248987197876
0.03266027197241783,-0.00024268488050438464,-0.02035645768046379,0.01596677117049694,-0.0029946211725473404,-0.04618677869439125
0.034512877464294434,-0.00025608050054870546,-0.019805749878287315,0.015339374542236328,-0.002940045204013586,-0.046706851571798325
0.034512877464294434,-0.00025608050054870546,-0.019805749878287315,0.015339374542236328,-0.002940045204013586,-0.046706851571798325
0.03473740071058273,-0.00025783723685890436,-0.020165273919701576,0.015082133002579212,-0.0033518329728394747,-0.046586036682128906
0.034825921058654785,-0.0003235733602195978,-0.020500684157013893,0.015207701362669468,-0.0033385700080543756,-0.0462450310587883
0.034680984914302826,-0.00033643373171798885,-0.02026529051363468,0.015655050054192543,-0.0035232435911893845,-0.04666049778461456
0.03464045375585556,-0.0003492613323032856,-0.020521610975265503,0.015931811183691025,-0.0033769395668059587,-0.04568495601415634
0.035297393798828125,-0.0003301502438262105,-0.020117387175559998,0.016040777787566185,-0.0035934820771217346,-0.04774905741214752
0.03504852205514908,-0.0003608752158470452,-0.019991785287857056,0.01567172072827816,-0.0036982896272093058,-0.047262344509363174
0.03513559699058533,-0.0003432047669775784,-0.020479941740632057,0.016505936160683632,-0.003276473842561245,-0.04741835966706276
0.03494875133037567,-0.00037133818841539323,-0.020702695474028587,0.015389676205813885,-0.0030901101417839527,-0.04742204397916794
0.03540083393454552,-0.00047448111581616104,-0.020043428987264633,0.01567879691720009,-0.0029765001963824034,-0.047864291816949844
0.03547682613134384,-0.00048310222337022424,-0.02006421610713005,0.015086323022842407,-0.003250752342864871,-0.04872690886259079
0.035755325108766556,-0.0005230738897807896,-0.020453065633773804,0.01584659144282341,-0.00316659826785326,-0.04808851331472397
0.03580037131905556,-0.0004779317241627723,-0.02094484306871891,0.016653699800372124,-0.00316718895919621,-0.046502090990543365
0.036174263805150986,-0.0005111850332468748,-0.020651524886488914,0.016698405146598816,-0.0032047133427113295,-0.047567203640937805
0.03614585101604462,-0.000533237645868212,-0.020907387137413025,0.01750439777970314,-0.003445211797952652,-0.048708170652389526
0.03618016093969345,-0.0005046073347330093,-0.02029140666127205,0.016976982355117798,-0.0036066845059394836,-0.04922403767704964
0.03663520887494087,-0.0006166873499751091,-0.020110247656702995,0.01690940372645855,-0.0034599117934703827,-0.047995954751968384
0.038314130157232285,-0.0006486572092399001,-0.020817933604121208,0.016309170052409172,-0.003536993870511651,-0.04904269054532051
0.03536568209528923,-0.0005827835411764681,-0.021076908335089684,0.016131184995174408,-0.003340665716677904,-0.048874590545892715
0.0361887663602829,-0.000612405186984688,-0.02077750489115715,0.01623787358403206,-0.0031437755096703768,-0.04902445897459984
0.03776494413614273,-0.0006293943151831627,-0.020432747900485992,0.01624385453760624,-0.0031459892634302378,-0.04929092153906822
0.037096522748470306,-0.0005868480657227337,-0.021071480587124825,0.01690598763525486,-0.0029167013708502054,-0.04939550906419754
0.03796355426311493,-0.0006449551437981427,-0.021731393411755562,0.016814347356557846,-0.0030442539136856794,-0.04946301877498627
0.03833887726068497,-0.0006772003252990544,-0.02154475823044777,0.017595043405890465,-0.0033687949180603027,-0.049923595041036606
0.03699766844511032,-0.0006941410829313099,-0.021157382056117058,0.017524737864732742,-0.0037719581741839647,-0.05012236163020134
0.03683086112141609,-0.000722017022781074,-0.021596059203147888,0.017363552004098892,-0.00439160130918026,-0.048265065997838974
0.037892766296863556,-0.0008956969832070172,-0.020832298323512077,0.017448665574193,-0.0037319264374673367,-0.050383903086185455
0.03797686845064163,-0.0009223117376677692,-0.02026963233947754,0.016789255663752556,-0.0032005896791815758,-0.0505039244890213
0.03797686845064163,-0.0009223117376677692,-0.02026963233947754,0.016789255663752556,-0.0032005896791815758,-0.0505039244890213
0.038284335285425186,-0.0009231101721525192,-0.02146279625594616,0.01709534414112568,-0.0026302149053663015,-0.050095945596694946
0.037766411900520325,-0.0009201251668855548,-0.022129587829113007,0.016739066690206528,-0.0027676927857100964,-0.0497576929628849
0.037669748067855835,-0.0010066269896924496,-0.02139473147690296,0.016832465305924416,-0.002947163535282016,-0.051325879991054535
0.038271378725767136,-0.0009639477357268333,-0.021206168457865715,0.016934942454099655,-0.0036473823711276054,-0.04940622299909592
0.03791092708706856,-0.0009551906841807067,-0.021264394745230675,0.01721375063061714,-0.003292730776593089,-0.05023515224456787
0.03824969753623009,-0.0009386026649735868,-0.021149767562747,0.016033705323934555,-0.0033692463766783476,-0.05270470678806305
0.03825685754418373,-0.0010808607330545783,-0.021081501618027687,0.016047174111008644,-0.003553408198058605,-0.05106338486075401
0.03822317346930504,-0.0015013843076303601,-0.02115211822092533,0.01599271036684513,-0.00356286414898932,-0.048536382615566254
0.03821885585784912,-0.0016916448948904872,-0.02119290642440319,0.016171161085367203,-0.0035037079360336065,-0.05171336606144905
0.03778363764286041,-0.0015897874254733324,-0.020920762792229652,0.016882965341210365,-0.0032048767898231745,-0.051783930510282516
0.039286836981773376,-0.0016830951208248734,-0.021347766742110252,0.01711907982826233,-0.0034761130809783936,-0.05170648545026779
0.040298234671354294,-0.001659595756791532,-0.02165914513170719,0.017653675749897957,-0.003363403957337141,-0.05177658423781395
0.037531960755586624,-0.00152459682431072,-0.02155524492263794,0.017499694600701332,-0.0034503417555242777,-0.05200220271945
0.03727244958281517,-0.0016181478276848793,-0.020906323567032814,0.018121987581253052,-0.0036702079232782125,-0.051634062081575394
0.03943447023630142,-0.0017363064689561725,-0.020870869979262352,0.018556104972958565,-0.003365824231877923,-0.05205482244491577
0.039008595049381256,-0.0018382291309535503,-0.02137548103928566,0.018207520246505737,-0.003442145884037018,-0.05238010734319687
0.03947105631232262,-0.0018352387705817819,-0.022078027948737144,0.018235232681035995,-0.0034965642262250185,-0.0526527464389801
0.0397346094250679,-0.0018841512501239777,-0.021460505202412605,0.017918527126312256,-0.003371922066435218,-0.05268526449799538
0.03844751790165901,-0.0018600684124976397,-0.021178830415010452,0.01725596934556961,-0.0031300471164286137,-0.05274609848856926
0.03907957673072815,-0.0019041340565308928,-0.021559275686740875,0.01753200590610504,-0.0034501836635172367,-0.05244661495089531
0.03963882103562355,-0.0019011186668649316,-0.02140589989721775,0.01734306290745735,-0.003841020166873932,-0.05347271263599396
0.039533231407403946,-0.0021394339855760336,-0.021169034764170647,0.017864910885691643,-0.00391788873821497,-0.05429444834589958
0.03930779919028282,-0.0021894373930990696,-0.021539729088544846,0.017892401665449142,-0.0038689773064106703,-0.054707132279872894
0.03865508735179901,-0.0019018632592633367,-0.02148551680147648,0.017240509390830994,-0.003442219691351056,-0.05191424489021301
0.03901861980557442,-0.0017935788491740823,-0.02117934636771679,0.017318643629550934,-0.003503758693113923,-0.05257367715239525
0.0396084263920784,-0.001999659463763237,-0.02095934934914112,0.016991643235087395,-0.0036705269012600183,-0.05451234057545662
0.03924646973609924,-0.002128903055563569,-0.021306822076439857,0.01744840107858181,-0.004167213104665279,-0.05515523999929428
0.03924646973609924,-0.002128903055563569,-0.021306822076439857,0.01744840107858181,-0.004167213104665279,-0.05515523999929428
0.03919659182429314,-0.002132565015926957,-0.021470459178090096,0.017590783536434174,-0.003673677332699299,-0.05246509984135628
0.03983638435602188,-0.0023288580123335123,-0.021223044022917747,0.017358213663101196,-0.003225064603611827,-0.05400794744491577
0.03915509954094887,-0.0022854586131870747,-0.020590510219335556,0.01730130985379219,-0.003053835825994611,-0.05444859340786934
0.04000154510140419,-0.002427435480058193,-0.02113262750208378,0.01722225546836853,-0.0031249364838004112,-0.053777989000082016
0.03976517543196678,-0.0025806226767599583,-0.02149953506886959,0.017311856150627136,-0.003636436304077506,-0.053663287311792374
0.04008589684963226,-0.0026157048996537924,-0.02091369591653347,0.016993002966046333,-0.003985892049968243,-0.055010512471199036
0.039831727743148804,-0.0029589964542537928,-0.021706176921725273,0.01785663329064846,-0.004137232434004545,-0.05516299605369568
0.0399969220161438,-0.003096494823694229,-0.0217836182564497,0.018404344096779823,-0.0037725348956882954,-0.05503353103995323
0.040069520473480225,-0.0030376999638974667,-0.021006299182772636,0.017989298328757286,-0.0034748846665024757,-0.05468221753835678
0.040554363280534744,-0.002783723408356309,-0.02161635458469391,0.01846688613295555,-0.003187242429703474,-0.05482107028365135
0.04118121415376663,-0.0029971632175147533,-0.022131895646452904,0.018258651718497276,-0.003337292466312647,-0.054969873279333115
0.04072675481438637,-0.003064019838348031,-0.021799014881253242,0.01820942386984825,-0.003617087844759226,-0.05440264567732811
0.040259744971990585,-0.0034405961632728577,-0.019987965002655983,0.018484968692064285,-0.003424949012696743,-0.05647914111614227
0.040781643241643906,-0.0033709448762238026,-0.022358771413564682,0.018191257491707802,-0.003288756590336561,-0.05513051152229309
0.04214929789304733,-0.0033799330703914165,-0.022166799753904343,0.018678825348615646,-0.0035163883585482836,-0.054436635226011276
0.04093598946928978,-0.003065685275942087,-0.022920820862054825,0.018972352147102356,-0.003933340776711702,-0.05510049685835838
0.040202878415584564,-0.003091196995228529,-0.022469373419880867,0.018692078068852425,-0.00438924552872777,-0.05747118219733238
0.04170811548829079,-0.0032715247943997383,-0.02190592885017395,0.01897449605166912,-0.004145386628806591,-0.055813174694776535
0.041795115917921066,-0.0036023093853145838,-0.022185852751135826,0.018309546634554863,-0.0038585190195590258,-0.05560842901468277
0.04283246770501137,-0.003411767538636923,-0.022094471380114555,0.01753237657248974,-0.0036966074258089066,-0.05673323571681976
0.040623702108860016,-0.0031332774087786674,-0.02257748693227768,0.018053123727440834,-0.0036336106713861227,-0.057792890816926956
0.03961620852351189,-0.0032627384644001722,-0.02226911671459675,0.01796429045498371,-0.004206898622214794,-0.05755859613418579
0.041483379900455475,-0.0037207158748060465,-0.02187933400273323,0.018185684457421303,-0.004701061639934778,-0.05773424357175827
0.04061536490917206,-0.0035696926061064005,-0.022728603333234787,0.01817498356103897,-0.004647945053875446,-0.05816049501299858
0.041982512921094894,-0.003543972270563245,-0.022760063409805298,0.018071893602609634,-0.004134537186473608,-0.05822056904435158
0.04227276146411896,-0.003545992076396942,-0.023029493167996407,0.018827859312295914,-0.0037543957587331533,-0.05840345472097397
0.04135320708155632,-0.0036248606629669666,-0.022437354549765587,0.018925273790955544,-0.0036795579362660646,-0.05861576646566391
0.04193216562271118,-0.004221925046294928,-0.02198614552617073,0.01877511665225029,-0.004202450159937143,-0.058995068073272705
0.04161318764090538,-0.0036292606964707375,-0.02229470945894718,0.01901117153465748,-0.004449611995369196,-0.05967221409082413
0.04172162711620331,-0.003410056699067354,-0.02262219972908497,0.018987471237778664,-0.0047994195483624935,-0.05952180549502373
0.04198471084237099,-0.0035348699893802404,-0.022624265402555466,0.01860066130757332,-0.004417224787175655,-0.05840340629220009
0.04198471084237099,-0.0035348699893802404,-0.022624265402555466,0.01860066130757332,-0.004417224787175655,-0.05840340629220009
0.04202538728713989,-0.003774350741878152,-0.022674672305583954,0.018873993307352066,-0.00398041820153594,-0.060496699064970016
0.04130980372428894,-0.0042960019782185555,-0.022858822718262672,0.019148128107190132,-0.0037677146028727293,-0.059261828660964966
0.04344715550541878,-0.00413057254627347,-0.022873977199196815,0.018877198919653893,-0.0036722568329423666,-0.05895153060555458
0.042941220104694366,-0.004311857745051384,-0.022465026006102562,0.019420882686972618,-0.003675150917842984,-0.06020747125148773
0.04252321273088455,-0.0044256541877985,-0.0228523351252079,0.018581371754407883,-0.003827184671536088,-0.058790236711502075
0.04259220138192177,-0.004251544829457998,-0.02287285216152668,0.018964245915412903,-0.0041799163445830345,-0.05997123196721077
0.04369838535785675,-0.004415132105350494,-0.022969787940382957,0.019198808819055557,-0.0041625360026955605,-0.06045876070857048
0.044041939079761505,-0.004515056498348713,-0.02305723913013935,0.019151367247104645,-0.003851385787129402,-0.0606539361178875
0.041545674204826355,-0.00461335014551878,-0.022634727880358696,0.019865762442350388,-0.003679931163787842,-0.06089210510253906
0.04323747009038925,-0.004863712005317211,-0.022849326953291893,0.019662706181406975,-0.003804932115599513,-0.06089240685105324
0.04361654818058014,-0.004408392123878002,-0.023022783920168877,0.018977969884872437,-0.003879847237840295,-0.060985639691352844
0.04292696714401245,-0.0044092885218560696,-0.02319834940135479,0.019283795729279518,-0.0038143470883369446,-0.06124948710203171
0.04306034371256828,-0.00454784044995904,-0.022920219227671623,0.019451050087809563,-0.0041497438214719296,-0.06132689118385315
0.04339039698243141,-0.004699139855802059,-0.022601108998060226,0.018881844356656075,-0.004088086541742086,-0.06143403425812721
0.0430418886244297,-0.004780100658535957,-0.022976748645305634,0.019137736409902573,-0.003973466344177723,-0.06086846441030502
0.04324667900800705,-0.004645125009119511,-0.023308871313929558,0.018873700872063637,-0.004294609185308218,-0.06301329284906387
0.04342424124479294,-0.004863258451223373,-0.023418383672833443,0.018880635499954224,-0.004140377044677734,-0.06158914789557457
0.04379991814494133,-0.004771812353283167,-0.022934021428227425,0.01970457285642624,-0.003953193314373493,-0.061860859394073486
0.04370811581611633,-0.004769242834299803,-0.022922251373529434,0.020377125591039658,-0.0038111333269625902,-0.06399200856685638
0.04381146281957626,-0.005263596307486296,-0.02343958429992199,0.01969205215573311,-0.004039086401462555,-0.06297431886196136
0.04390084743499756,-0.0055765085853636265,-0.023776713758707047,0.020060081034898758,-0.0042488956823945045,-0.062320008873939514
0.042621441185474396,-0.005121326539665461,-0.023614786565303802,0.019878070801496506,-0.004087477456778288,-0.06325627118349075
0.04442758858203888,-0.005271783098578453,-0.023226270452141762,0.01906726323068142,-0.0041743312031030655,-0.06371428817510605
0.04454647749662399,-0.0049365186132490635,-0.022808054462075233,0.0194060280919075,-0.004011704120784998,-0.06342314928770065
0.04381078481674194,-0.005025768186897039,-0.023152193054556847,0.01976100727915764,-0.003842598758637905,-0.06343322992324829
0.04437172785401344,-0.00535929249599576,-0.024068620055913925,0.02002546563744545,-0.003741607302799821,-0.06384698301553726
0.044267795979976654,-0.005176965147256851,-0.023942401632666588,0.02003900147974491,-0.0037173109594732523,-0.06494206935167313
0.044267795979976654,-0.005176965147256851,-0.023942401632666588,0.02003900147974491,-0.0037173109594732523,-0.06494206935167313
0.04484329745173454,-0.005103744566440582,-0.02429805137217045,0.020756801590323448,-0.004262846428900957,-0.06416280567646027
0.044652052223682404,-0.005203538108617067,-0.024496495723724365,0.021608106791973114,-0.004107323475182056,-0.06353508681058884
0.044470418244600296,-0.0048391250893473625,-0.024554947391152382,0.02174559235572815,-0.004230830352753401,-0.06433574855327606
0.0442407988011837,-0.005022688768804073,-0.02456727810204029,0.020994266495108604,-0.004773792345076799,-0.06486206501722336
0.04489018768072128,-0.005004867911338806,-0.024166233837604523,0.020084867253899574,-0.004765600897371769,-0.06396448612213135
0.04351980984210968,-0.003893614048138261,-0.0247359462082386,0.01978149078786373,-0.004708313383162022,-0.06618260592222214
0.04466477781534195,-0.002593923592939973,-0.025040989741683006,0.019915519282221794,-0.004724760074168444,-0.06425856798887253
0.04532725363969803,-0.002291423501446843,-0.025058645755052567,0.02025454118847847,-0.0045194183476269245,-0.06371571868658066
0.04669814556837082,-0.002747558755800128,-0.024514228105545044,0.020151697099208832,-0.004292421042919159,-0.06654119491577148
0.04474760219454765,-0.0038975642528384924,-0.024588122963905334,0.02042003720998764,-0.004254423081874847,-0.06478670239448547
0.04405519366264343,-0.004094263073056936,-0.024918777868151665,0.02037658728659153,-0.004484059754759073,-0.0640222504734993
0.04602609947323799,-0.0036197893787175417,-0.024845371022820473,0.0199130829423666,-0.004581333603709936,-0.06511296331882477
0.045544445514678955,-0.0034086965024471283,-0.025116637349128723,0.020291460677981377,-0.004668299108743668,-0.06563830375671387
