davideferrari95/blind_handover_controller/data/Test 117 - [2024-02-07 -- 16-29-36]/joint_states_data.csv
shoulder_pan_joint,shoulder_lift_joint,elbow_joint,wrist_1_joint,wrist_2_joint,wrist_3_joint
0.005744923371821642,0.00741755124181509,-0.01042262651026249,0.003920821938663721,0.00020089911413379014,0.006654397118836641
0.005555225536227226,0.007947281934320927,-0.010232845321297646,0.0037561797071248293,0.00019358994904905558,0.006606218870729208
0.005555225536227226,0.007947281934320927,-0.010232845321297646,0.0037561797071248293,0.00019358994904905558,0.006606218870729208
0.005693958606570959,0.007943952456116676,-0.01020417083054781,0.004168420564383268,0.0001856880116974935,0.006942571606487036
0.006261567119508982,0.007541107479482889,-0.010333193466067314,0.004146617371588945,0.00017833335732575506,0.006749771535396576
0.005772329866886139,0.007479206193238497,-0.010165809653699398,0.004105457570403814,0.00020127961761318147,0.00659306813031435
0.005889351945370436,0.006496903486549854,-0.010296076536178589,0.004493627231568098,0.0001979840744752437,0.0062169721350073814
0.005623782519251108,0.007605583406984806,-0.010185452178120613,0.004048280883580446,0.00018471352814231068,0.005947628989815712
0.005786886438727379,0.006724479608237743,-0.009486736729741096,0.003882004413753748,0.00019319796410854906,0.006026125978678465
0.0061887879855930805,0.006556123960763216,-0.010282022878527641,0.004107083659619093,0.00020070960454177111,0.006000259891152382
0.0062734344974160194,0.007068573031574488,-0.010684571228921413,0.004083015490323305,0.00019537779735401273,0.006052826996892691
0.005559162702411413,0.007334877736866474,-0.010092804208397865,0.003863118588924408,0.00018955700215883553,0.006441178731620312
0.005428422708064318,0.007026235572993755,-0.010610301978886127,0.004178093280643225,0.0001840233599068597,0.006130430847406387
0.005687997676432133,0.00686054490506649,-0.00983946118503809,0.004180215299129486,0.0001788003573892638,0.006003615912050009
0.006135231349617243,0.007176168262958527,-0.009791926480829716,0.004470929503440857,0.000173865380929783,0.006018348038196564
0.00564598198980093,0.007802568841725588,-0.010676256380975246,0.004188970196992159,0.00019018012972082943,0.005999708082526922
0.005964336916804314,0.00733253313228488,-0.010014059953391552,0.004048357717692852,0.00018810079200193286,0.006318299099802971
0.005386886186897755,0.006923574488610029,-0.010186835192143917,0.003548153443261981,0.00018349547463003546,0.006105747539550066
0.005496187601238489,0.007347650360316038,-0.010572637431323528,0.0035753219854086637,0.00017894728807732463,0.005827775225043297
0.005496187601238489,0.007347650360316038,-0.010572637431323528,0.0035753219854086637,0.00017894728807732463,0.005827775225043297
0.005994703620672226,0.007066031917929649,-0.010326548479497433,0.00441716518253088,0.00017047360597644,0.006424985826015472
0.005404304713010788,0.006608030758798122,-0.009971932508051395,0.004356706980615854,0.00016653089551255107,0.006306032184511423
0.0052119712345302105,0.005729889031499624,-0.009858711622655392,0.004117748700082302,0.0001627658202778548,0.0061330124735832214
0.0052119712345302105,0.005729889031499624,-0.009858711622655392,0.004117748700082302,0.0001627658202778548,0.0061330124735832214
0.005415214225649834,0.007781972177326679,-0.01019691675901413,0.0037598698399960995,0.00015916753909550607,0.005644995253533125
0.005615273490548134,0.007453774567693472,-0.009715147316455841,0.0036299480125308037,0.00017214960826095194,0.006297433748841286
0.005615273490548134,0.007453774567693472,-0.009715147316455841,0.0036299480125308037,0.00017214960826095194,0.006297433748841286
0.005436810664832592,0.007124570198357105,-0.010228337720036507,0.0042184884659945965,0.00016599491937085986,0.00630180211737752
0.005543075036257505,0.006750207860022783,-0.010090303607285023,0.004346552770584822,0.00016010136459954083,0.005740331951528788
0.005527469329535961,0.0067221540957689285,-0.00945429876446724,0.0042881714180111885,0.00015460100257769227,0.0054850452579557896
0.005753856617957354,0.006685883272439241,-0.010443887673318386,0.00394789082929492,0.0001494654716225341,0.005471333861351013
0.005371668376028538,0.0067824372090399265,-0.01012030802667141,0.003763918299227953,0.00014466026914305985,0.005307552870362997
0.005659881047904491,0.006759981624782085,-0.009518451988697052,0.004189195577055216,0.00014015407941769809,0.0057512614876031876
0.0055253575555980206,0.0073314025066792965,-0.010786144062876701,0.004523355979472399,0.0001359203743049875,0.005751731339842081
0.005759892985224724,0.007585412357002497,-0.010057003237307072,0.004443566780537367,0.00015147225349210203,0.006006074603646994
0.005418080370873213,0.006755791138857603,-0.009591813199222088,0.004360141232609749,0.00015336459910031408,0.005591454915702343
0.0055323997512459755,0.007187567185610533,-0.01049848087131977,0.0035786551889032125,0.0001455195597372949,0.005416523199528456
0.005864308215677738,0.007089204154908657,-0.009806622751057148,0.0035295970737934113,0.0001417023449903354,0.005626422818750143
0.005328980274498463,0.007081103976815939,-0.010733550414443016,0.003627931233495474,0.00013807884533889592,0.0053423005156219006
0.005432091187685728,0.006885908544063568,-0.010286839678883553,0.00417187949642539,0.00013463599316310138,0.005639507435262203
0.005569632165133953,0.0071799261495471,-0.010317273437976837,0.004134946037083864,0.0001313605171162635,0.005547311156988144
0.005583857651799917,0.00742708146572113,-0.010453399270772934,0.004001786932349205,0.00012824097939301282,0.006188844796270132
0.00531430821865797,0.007096619810909033,-0.01028833445161581,0.0035854149609804153,0.0001252660294994712,0.005918259732425213
0.005716089624911547,0.00671056192368269,-0.011325949802994728,0.003592281136661768,0.00012242594675626606,0.005652078427374363
0.0053623453713953495,0.0068389372900128365,-0.01051469799131155,0.004162537399679422,0.00011971175990765914,0.005396280437707901
0.0059456536546349525,0.006903399247676134,-0.009848703630268574,0.003876505419611931,0.00011711547267623246,0.005394585430622101
0.005526023916900158,0.006779233459383249,-0.010373981669545174,0.0035349426325410604,0.00011462922702776268,0.005337795242667198
0.0057663628831505775,0.0070044975727796555,-0.01029136124998331,0.003591463202610612,0.0001122464454965666,0.005909386090934277
0.005726600997149944,0.006863728631287813,-0.010558280162513256,0.0036964353639632463,0.00010996064520440996,0.0056441291235387325
0.00569822546094656,0.00669180927798152,-0.011193310841917992,0.0036838531959801912,0.00012108765076845884,0.005400887690484524
0.00569822546094656,0.00669180927798152,-0.011193310841917992,0.0036838531959801912,0.00012108765076845884,0.005400887690484524
0.005655003245919943,0.006534929387271404,-0.011310421861708164,0.004076422657817602,0.00012296426575630903,0.005334465764462948
0.006139717064797878,0.006570093799382448,-0.010415210388600826,0.004190031439065933,0.000120881712064147,0.00565538601949811
0.005778503138571978,0.006913123186677694,-0.010911098681390285,0.00400842260569334,0.00011862366227433085,0.00613395543769002
0.00568584306165576,0.006936842110008001,-0.010257251560688019,0.0035050478763878345,0.00011643250763881952,0.006107275374233723
0.006038527004420757,0.0065518943592906,-0.010583714582026005,0.0035350671969354153,0.00011431977327447385,0.005193549674004316
0.0055936179123818874,0.0065053654834628105,-0.010811054147779942,0.003685072297230363,0.00011228222138015553,0.004803829360753298
0.006059600040316582,0.006612307857722044,-0.01022700872272253,0.003676516469568014,0.0001103161193896085,0.0052956524305045605
0.00579496007412672,0.0068811820819973946,-0.010411473922431469,0.0036288625560700893,0.00010841767652891576,0.005556820426136255
0.005579144693911076,0.007348032668232918,-0.010514453984797001,0.003615369787439704,0.00010658349492587149,0.005756183061748743
0.005433711223304272,0.0069922092370688915,-0.010857956483960152,0.004354853183031082,0.00010481032222742215,0.0054430169984698296
0.005688611883670092,0.006716599687933922,-0.010590998455882072,0.0041717784479260445,0.00010309502977179363,0.00545525411143899
0.005684575065970421,0.0067759063094854355,-0.01055981032550335,0.003729835618287325,0.00010143520921701565,0.005223546177148819
0.005582609213888645,0.0066814240999519825,-0.010539491660892963,0.003637523390352726,9.827061148826033e-05,0.005577814299613237
0.00561567535623908,0.006943120621144772,-0.009947498328983784,0.0037723861169070005,9.676138870418072e-05,0.005913198459893465
0.00528336688876152,0.006892021279782057,-0.010726381093263626,0.004050311632454395,9.529769886285067e-05,0.005390776786953211
0.0057245162315666676,0.0067367241717875,-0.01078810915350914,0.004075684584677219,9.387769387103617e-05,0.005255861673504114
0.005854030139744282,0.006252576597034931,-0.009940585121512413,0.003948066383600235,0.00010483725782250986,0.004969987086951733
0.005584381986409426,0.006564571056514978,-0.00990819651633501,0.003772823605686426,0.00010412656411062926,0.00513968151062727
0.005508682690560818,0.006227553356438875,-0.010429284535348415,0.0037350242491811514,0.00010269408085150644,0.005687538534402847
0.005491275805979967,0.006552926264703274,-0.009800746105611324,0.0036039231345057487,0.00010125334665644914,0.00586159760132432
0.005295326001942158,0.0068154423497617245,-0.010854209773242474,0.003506602719426155,9.984930511564016e-05,0.005660905037075281
0.0063573215156793594,0.006512857973575592,-0.011139017529785633,0.0033461858984082937,9.848363697528839e-05,0.005138224456459284
0.006059063132852316,0.006537291221320629,-0.00985354371368885,0.0035576585214585066,9.715468331705779e-05,0.0053047607652843
0.0057898228988051414,0.006169183645397425,-0.009842060506343842,0.004051546100527048,9.586121450411156e-05,0.005195308476686478
0.005377486813813448,0.006634900346398354,-0.010272621177136898,0.003960493952035904,9.460168075747788e-05,0.005227186251431704
0.005548803135752678,0.006936647929251194,-0.01000769529491663,0.0036479653790593147,9.337484516436234e-05,0.005201632622629404
0.005548803135752678,0.006936647929251194,-0.01000769529491663,0.0036479653790593147,9.337484516436234e-05,0.005201632622629404
0.006140513811260462,0.006087910383939743,-0.010814274661242962,0.0033690507989376783,9.217943443218246e-05,0.005046583246439695
0.00605200557038188,0.006073361728340387,-0.010456741787493229,0.003524827305227518,9.101421164814383e-05,0.005351157393306494
0.006041714455932379,0.006533685140311718,-0.009355642832815647,0.0037945122458040714,8.987801265902817e-05,0.005201129708439112
0.005608717445284128,0.006688633002340794,-0.010713308118283749,0.003963356371968985,8.877000072970986e-05,0.0053834314458072186
0.005855924915522337,0.006517383735626936,-0.009982796385884285,0.004004657734185457,8.76887934282422e-05,0.005349134560674429
0.0066560967825353146,0.006050811614841223,-0.009282960556447506,0.0039136470295488834,8.663370681460947e-05,0.005414455197751522
0.006009712815284729,0.005664925556629896,-0.010365615598857403,0.003999221604317427,8.56037440826185e-05,0.0052427612245082855
0.005872485693544149,0.005886629223823547,-0.00984451174736023,0.003883089404553175,8.459791570203379e-05,0.004940514452755451
0.005970744416117668,0.006760252173990011,-0.009618217125535011,0.0035951423924416304,8.361542859347537e-05,0.005088356323540211
0.005836032330989838,0.006124909035861492,-0.010215326212346554,0.003534944960847497,8.265557698905468e-05,0.004949050489813089
0.006186465732753277,0.005688263103365898,-0.01073397696018219,0.003690475830808282,8.171750960173085e-05,0.004883634392172098
0.00587343517690897,0.0060865432024002075,-0.009881163947284222,0.0038088462315499783,8.080044790403917e-05,0.005332760978490114
0.005833869334310293,0.0066026500426232815,-0.009798920713365078,0.004102448932826519,5.929460530751385e-05,0.0050483690574765205
0.005842253565788269,0.006616875529289246,-0.009843779727816582,0.003953468054533005,6.590725388377905e-05,0.005096722394227982
0.006232918705791235,0.005795024335384369,-0.010391592048108578,0.003745567984879017,6.543740164488554e-05,0.005362642928957939
0.006651078816503286,0.005987539887428284,-0.009760735556483269,0.003586256643757224,6.453090463764966e-05,0.004959469195455313
0.006238602101802826,0.006855511572211981,-0.009954491630196571,0.003420600900426507,6.36206750641577e-05,0.0048774732276797295
0.00601343484595418,0.007028115913271904,-0.010034879669547081,0.00347549538128078,6.273383041843772e-05,0.0049321651458740234
0.006433374714106321,0.006283171009272337,-0.009707230143249035,0.0036087397020310163,6.187132385093719e-05,0.0051607596687972546
0.006818397901952267,0.006143542006611824,-0.00979127362370491,0.004072822630405426,6.103221312514506e-05,0.0055564288049936295
0.0064266277477145195,0.005985645577311516,-0.010589784942567348,0.004210467915982008,6.021549052093178e-05,0.0052543217316269875
0.006330204661935568,0.0064429836347699165,-0.009857150726020336,0.003921744879335165,5.9420435718493536e-05,0.004965316038578749
0.006348989903926849,0.006376747041940689,-0.009605851024389267,0.003647029399871826,5.864600097993389e-05,0.00506812147796154
0.006427538115531206,0.006457818206399679,-0.010272564366459846,0.0035110097378492355,5.7891586038749665e-05,0.004855077713727951
0.0064120423048734665,0.005758209619671106,-0.009319476783275604,0.0033890504855662584,5.715628867619671e-05,0.004489104263484478
0.006527860648930073,0.005871505010873079,-0.009546181187033653,0.003442852757871151,5.643938493449241e-05,0.004571142140775919
0.006649430375546217,0.006171571556478739,-0.010749677196145058,0.0031979656778275967,5.574028182309121e-05,0.005066798999905586
0.0059612710028886795,0.006367155816406012,-0.00945132877677679,0.003461855463683605,5.5058371799532324e-05,0.005048601422458887
0.006758876144886017,0.006424793507903814,-0.009426647797226906,0.003786421148106456,5.439284723252058e-05,0.004618159029632807
0.00652256328612566,0.006442519836127758,-0.009997650049626827,0.004251777660101652,5.374324609874748e-05,0.004752074833959341
0.00652256328612566,0.006442519836127758,-0.009997650049626827,0.004251777660101652,5.374324609874748e-05,0.004752074833959341
0.006159213371574879,0.0061198207549750805,-0.009709920734167099,0.004207510035485029,5.310898268362507e-05,0.004769157152622938
0.00632559135556221,0.006539591588079929,-0.009585648775100708,0.0039482321590185165,5.248947491054423e-05,0.004783970769494772
0.006745586171746254,0.006243815645575523,-0.01070114690810442,0.0034524768125265837,5.188431896385737e-05,0.004631340969353914
0.00670088455080986,0.006086770910769701,-0.009706823155283928,0.0035437392070889473,5.129290366312489e-05,0.004624831024557352
0.007204416207969189,0.006168742664158344,-0.009390553459525108,0.003735356032848358,5.071484702057205e-05,0.0047997101210057735
0.0065103438682854176,0.006532777566462755,-0.009763125330209732,0.003917932044714689,5.0149697926826775e-05,0.00487248320132494
0.0064082071185112,0.006710223853588104,-0.00943274237215519,0.004034736193716526,2.514067637093831e-05,0.0045811329036951065
0.006690790876746178,0.006265496835112572,-0.009942665696144104,0.003743343986570835,1.0717864995513082e-07,0.004968742374330759
0.006394540425390005,0.006174167618155479,-0.009308370761573315,0.0035467392299324274,6.9979999572922225e-09,0.005064516793936491
0.006504063960164785,0.006556618958711624,-0.009229236282408237,0.003900078358128667,4.5691936345626516e-10,0.004459586460143328
0.006851896643638611,0.006556306034326553,-0.00972471758723259,0.004165024030953646,2.983356964247896e-11,0.0044085136614739895
0.006837565917521715,0.006299546454101801,-0.00976465456187725,0.003988706041127443,1.9479188227700117e-12,0.00459947669878602
0.006936006713658571,0.006532402243465185,-0.00902272667735815,0.003842722624540329,1.2718518187411487e-13,0.004779664799571037
0.006744168698787689,0.006432636175304651,-0.009689060971140862,0.004220779985189438,8.304283909826848e-15,0.004678442608565092
0.007536519318819046,0.006807724945247173,-0.009461664594709873,0.004292153287678957,5.422104064325072e-16,0.004640225786715746
0.007854959927499294,0.0065999398939311504,-0.009202797897160053,0.00414216099306941,3.540246333198763e-17,0.004937933757901192
0.006410369649529457,0.006663320120424032,-0.010071292519569397,0.00382435554638505,2.3115276840483028e-18,0.0045677730813622475
0.006620211061090231,0.00670990813523531,-0.009509055875241756,0.0038956780917942524,1.5092625011778024e-19,0.004547839984297752
0.00723311910405755,0.0065116193145513535,-0.00910876877605915,0.003866799408569932,9.854406201323089e-21,0.004250547848641872
0.0076739173382520676,0.006517698056995869,-0.010515413247048855,0.003547878237441182,6.434223183053375e-22,0.0041734701953828335
0.007137154694646597,0.006543625611811876,-0.009845674969255924,0.0035493739414960146,4.201087901540999e-23,0.004280884750187397
0.007257407996803522,0.006584607530385256,-0.00939924642443657,0.003693855833262205,2.74301017912504e-24,0.004760619252920151
0.006591202691197395,0.006177813746035099,-0.010517285205423832,0.004063683096319437,1.7909896166114255e-25,0.004466565325856209
0.0069676111452281475,0.006708189845085144,-0.009813758544623852,0.00402443204075098,1.1693883006745796e-26,0.004297291394323111
0.007062455639243126,0.00678756320849061,-0.009204843081533909,0.0038683987222611904,7.635269819912991e-28,0.004262252245098352
0.007109051104635,0.006596364080905914,-0.009807313792407513,0.003735969541594386,4.985285610153712e-29,0.004110928624868393
0.007027389947324991,0.006320469547063112,-0.009890076704323292,0.003791367169469595,3.255035263867634e-30,0.0042373365722596645
0.007027389947324991,0.006320469547063112,-0.009890076704323292,0.003791367169469595,3.255035263867634e-30,0.0042373365722596645
0.007292421534657478,0.006686916574835777,-0.009438660927116871,0.004128559026867151,2.125305306131334e-31,0.004210954997688532
0.007230204530060291,0.006730533670634031,-0.010571320541203022,0.004068882204592228,1.387672550513649e-32,0.004404823295772076
0.007057499140501022,0.006256475113332272,-0.010062413290143013,0.004032994620501995,9.060509336401606e-34,0.004432931542396545
0.007222726941108704,0.006311879493296146,-0.00963480956852436,0.004439501091837883,5.915865305195839e-35,0.0043084160424768925
0.007619823329150677,0.006451133638620377,-0.010290681384503841,0.004170980304479599,3.862637917843018e-36,0.004469305742532015
0.007665399461984634,0.0067835054360330105,-0.009438440203666687,0.0035376008599996567,2.5220262596294678e-37,0.004194192588329315
0.007621333003044128,0.006841921713203192,-0.009200828149914742,0.004029278177767992,1.6467028197075507e-38,0.0039037568494677544
0.00705642020329833,0.006017493549734354,-0.010426908731460571,0.0036415033973753452,7.020084916728036e-41,0.00457941135391593
0.007998516783118248,0.006612343247979879,-0.010574838146567345,0.0035512594040483236,4.5836472768064766e-42,0.004759487695991993
0.007893362082540989,0.006592203862965107,-0.01116177812218666,0.003649771213531494,2.9987787136551085e-43,0.004401319194585085
0.0071081300266087055,0.006049205549061298,-0.010326256044209003,0.004276503808796406,1.961817850054744e-44,0.004019193351268768
0.007258012890815735,0.006229084450751543,-0.009881334379315376,0.0046273330226540565,1.401298464324817e-45,0.004317787010222673
0.007410104852169752,0.006351759657263756,-0.010382425971329212,0.004141082987189293,0.0,0.00415552593767643
0.007999330759048462,0.006258012261241674,-0.009932716377079487,0.0038036105688661337,0.0,0.0039351568557322025
0.0072633433155715466,0.006385185290127993,-0.011070969514548779,0.0034001877065747976,0.0,0.003857407718896866
0.007288906257599592,0.006303073838353157,-0.010297849774360657,0.003445499576628208,0.0,0.0040755909867584705
0.0069467294961214066,0.005975455977022648,-0.009180507622659206,0.0036310357972979546,0.0,0.003964530304074287
0.006995643489062786,0.006271070335060358,-0.010663606226444244,0.004154478199779987,0.0,0.00378535408526659
0.007225589361041784,0.006796966772526503,-0.010372900404036045,0.004185526166111231,0.0,0.0035235946998000145
0.008066426031291485,0.006337981205433607,-0.010072805918753147,0.004005104769021273,0.0,0.003911540377885103
0.008066426031291485,0.006337981205433607,-0.010072805918753147,0.004005104769021273,0.0,0.003911540377885103
0.00774024985730648,0.005864622537046671,-0.010331583209335804,0.0038147149607539177,0.0,0.0037182439118623734
0.00774024985730648,0.005864622537046671,-0.010331583209335804,0.0038147149607539177,0.0,0.0037182439118623734
0.007011779583990574,0.006727567873895168,-0.010486731305718422,0.0038106299471110106,0.0,0.0037115735467523336
0.008118457160890102,0.006155266426503658,-0.009515149518847466,0.004350767470896244,0.0,0.003859093878418207
0.007704608608037233,0.005978316999971867,-0.01001622062176466,0.004297653678804636,0.0,0.003923952113837004
0.007522702682763338,0.0058621689677238464,-0.01040525734424591,0.004454841837286949,0.0,0.003486738307401538
0.007522702682763338,0.0058621689677238464,-0.01040525734424591,0.004454841837286949,0.0,0.003486738307401538
0.007719232235103846,0.005964286625385284,-0.00978944543749094,0.0042097317054867744,0.0,0.0035518095828592777
0.007618963252753019,0.0065575712360441685,-0.00931373331695795,0.004018452949821949,0.0,0.0036794475745409727
0.008066763170063496,0.0063789598643779755,-0.010129288770258427,0.0036663722712546587,0.0,0.003402598202228546
0.007952644489705563,0.005926955956965685,-0.010565207339823246,0.003488427959382534,0.0,0.003506927751004696
0.007904747501015663,0.0059803263284265995,-0.009434492327272892,0.003591834334656596,0.0,0.003671980230137706
0.007868763990700245,0.00656434940174222,-0.010235154069960117,0.004188812803477049,0.0,0.0042396606877446175
0.007667707744985819,0.006210783496499062,-0.009124896489083767,0.004058893769979477,0.0,0.0035040529910475016
0.00811154767870903,0.005955367814749479,-0.009904460050165653,0.003895916510373354,0.0,0.0032102169934660196
0.007720509544014931,0.0058469874784350395,-0.010446496307849884,0.0042498791590332985,0.0,0.0031444760970771313
0.007776803337037563,0.006363340653479099,-0.009382271207869053,0.0041374447755515575,0.0,0.0032313757110387087
0.007402828428894281,0.0065637920051813126,-0.009979981929063797,0.0040713148191571236,0.0,0.003543016267940402
0.007739403285086155,0.0061875320971012115,-0.010439825244247913,0.004041167441755533,0.0,0.0037432347889989614
0.008006447926163673,0.0059174299240112305,-0.009253439493477345,0.004418598487973213,0.0,0.004032688681036234
0.008124368265271187,0.006262911483645439,-0.009799323044717312,0.005021464545279741,0.0,0.003868992906063795
0.007770933676511049,0.00687904329970479,-0.010577681474387646,0.0045304070226848125,0.0,0.003470459720119834
0.007681977469474077,0.006730691995471716,-0.009511853568255901,0.004534587264060974,0.0,0.003290843218564987
0.00784519873559475,0.0061913845129311085,-0.010241971351206303,0.0041427165269851685,0.0,0.0033553047105669975
0.0074032871052622795,0.006221775431185961,-0.010012450627982616,0.0039225690998137,0.0,0.0036296306643635035
0.007529508788138628,0.006549452431499958,-0.009552080184221268,0.004097697790712118,0.0,0.003798994468525052
0.008153599686920643,0.00640029227361083,-0.010026290081441402,0.004645926412194967,0.0,0.004226821940392256
0.008492317982017994,0.0063031697645783424,-0.009720347821712494,0.004783628974109888,0.0,0.0039375051856040955
0.007883576676249504,0.006095997989177704,-0.00946780201047659,0.004836710169911385,0.0,0.003544141538441181
0.007883576676249504,0.006095997989177704,-0.00946780201047659,0.004836710169911385,0.0,0.003544141538441181
0.007739140652120113,0.006109972018748522,-0.010344108566641808,0.0043588015250861645,0.0,0.0031672120094299316
0.007644595578312874,0.0062362877652049065,-0.01020045019686222,0.004282033536583185,0.0,0.003000119002535939
0.008096815086901188,0.00657162768766284,-0.009873787872493267,0.004524869378656149,0.0,0.0031270154286175966
0.00764205539599061,0.006057424936443567,-0.010673683136701584,0.004840279463678598,0.0,0.003267540829256177
0.00802698079496622,0.005888031329959631,-0.009953265078365803,0.004849682562053204,0.0,0.0034701391123235226
0.00810292549431324,0.006080441176891327,-0.009695990011096,0.004735954105854034,0.0,0.0032938653603196144
0.008216602727770805,0.0064804209396243095,-0.010107710026204586,0.005002832040190697,0.0,0.0034776064567267895
0.007635251618921757,0.0064667947590351105,-0.010441962629556656,0.004597558174282312,0.0,0.003287999890744686
0.00814740639179945,0.006381511688232422,-0.009823931381106377,0.004594825208187103,0.0,0.0034273716155439615
0.00817860197275877,0.006044350098818541,-0.009846511296927929,0.004586037248373032,0.0,0.003098183311522007
0.007474272977560759,0.006606391165405512,-0.00993579812347889,0.004763323813676834,0.0,0.0030537371058017015
0.009172500111162663,0.006665515247732401,-0.010019109584391117,0.004760737530887127,0.0,0.0033153006806969643
0.00812254473567009,0.005924657918512821,-0.009673002175986767,0.004556050058454275,0.0,0.0028813942335546017
0.007460476364940405,0.006412839982658625,-0.010951384902000427,0.004436640068888664,0.0,0.0028554985765367746
0.007961689494550228,0.005948004778474569,-0.010380246676504612,0.0048874663189053535,0.0,0.003014804096892476
0.00818084180355072,0.00612484710291028,-0.009657175280153751,0.005050343926995993,0.0,0.0028501583728939295
0.007837573066353798,0.00597633421421051,-0.010324251838028431,0.004879381507635117,0.0,0.0027465776074677706
0.0080732936039567,0.005726244766265154,-0.010097667574882507,0.004679309204220772,0.0,0.0028245188295841217
0.007945814169943333,0.006233787629753351,-0.010666816495358944,0.004496344830840826,0.0,0.0028971226420253515
0.008185697719454765,0.006392123643308878,-0.010403801687061787,0.004252908751368523,0.0,0.002891659503802657
0.008015520870685577,0.006223620381206274,-0.00980655662715435,0.004449114203453064,0.0,0.0030872526112943888
0.007756007835268974,0.006158678326755762,-0.009763771668076515,0.004593646619468927,0.0,0.0029251498635858297
0.008258530870079994,0.005928922910243273,-0.010939007624983788,0.004675711505115032,0.0,0.0030188155360519886
0.008773937821388245,0.005852977745234966,-0.010255309753119946,0.004689509980380535,0.0,0.002723314566537738
0.007997522130608559,0.0062094018794596195,-0.009660769253969193,0.004706078674644232,0.0,0.0026636358816176653
0.007997522130608559,0.0062094018794596195,-0.009660769253969193,0.004706078674644232,0.0,0.0026636358816176653
0.008186107501387596,0.006083982530981302,-0.01014769822359085,0.00438653165474534,0.0,0.0030410941690206528
0.00870253425091505,0.00585506297647953,-0.009863266721367836,0.004235855303704739,0.0,0.0030697807669639587
0.00870253425091505,0.00585506297647953,-0.009863266721367836,0.004235855303704739,0.0,0.0030697807669639587
0.008191626518964767,0.005792697891592979,-0.010835680179297924,0.0048212469555437565,0.0,0.002973100868985057
0.008658304810523987,0.006042072083801031,-0.01038357149809599,0.005046070087701082,0.0,0.0027706148102879524
0.008989767171442509,0.0064684003591537476,-0.0097512723878026,0.004879377782344818,0.0,0.0028461895417422056
0.008539394475519657,0.006096334662288427,-0.010235537774860859,0.004690825939178467,0.0,0.0029570232145488262
0.008418455719947815,0.005947333760559559,-0.010002047754824162,0.004644796717911959,0.0,0.0029549486935138702
0.008835533633828163,0.005825507920235395,-0.010349053889513016,0.00415606377646327,0.0,0.002728013787418604
0.008953751064836979,0.006337286438792944,-0.010295132175087929,0.004389874637126923,0.0,0.002207645680755377
0.008514036424458027,0.006388081703335047,-0.010105741210281849,0.0046675363555550575,0.0,0.002053320175036788
0.008750274777412415,0.005543986801058054,-0.010473279282450676,0.005087562836706638,0.0,0.0019051404669880867
0.008878265507519245,0.005535264033824205,-0.010710818693041801,0.004607148468494415,0.0,0.002524135634303093
0.008512204512953758,0.0058191800490021706,-0.010651988908648491,0.00451489444822073,0.0,0.002961725927889347
0.009250767529010773,0.006041368469595909,-0.010484292171895504,0.004507310222834349,0.0,0.0029838166665285826
0.00856707338243723,0.005810554139316082,-0.00988242868334055,0.004857449326664209,0.0,0.0026726212818175554
0.008303358219563961,0.005479746963828802,-0.010831677354872227,0.0048968312330543995,0.0,0.0020543821156024933
0.008730306290090084,0.005659567657858133,-0.010013004764914513,0.004781094379723072,0.0,0.0019073026487603784
0.008756580762565136,0.005368469282984734,-0.010651703923940659,0.004581269808113575,0.0,0.0018093845574185252
0.008360526524484158,0.005970451049506664,-0.010583662427961826,0.004602318163961172,0.0,0.0019992217421531677
0.009157449007034302,0.00562629196792841,-0.009776279330253601,0.0046755471266806126,0.0,0.002872856566682458
0.008657261729240417,0.005653762724250555,-0.009956691414117813,0.005002569407224655,0.0,0.002884841291233897
0.008657261729240417,0.005653762724250555,-0.009956691414117813,0.005002569407224655,0.0,0.002884841291233897
0.009695339016616344,0.00582353537902236,-0.010385558009147644,0.004834313411265612,0.0,0.0021515495609492064
0.009695339016616344,0.00582353537902236,-0.010385558009147644,0.004834313411265612,0.0,0.0021515495609492064
0.008774323388934135,0.006179280579090118,-0.009959977120161057,0.0045924680307507515,0.0,0.0019501314964145422
0.008498010225594044,0.005853230599313974,-0.010581161826848984,0.004844853654503822,0.0,0.001839088974520564
0.009054165333509445,0.0055915419943630695,-0.010049227625131607,0.004894473124295473,0.0,0.0019161568488925695
0.008869661018252373,0.005435106810182333,-0.010388900525867939,0.004821814596652985,0.0,0.0027371093165129423
0.009510179981589317,0.005682702176272869,-0.010720828548073769,0.004669708665460348,0.0,0.002943008905276656
0.008664947934448719,0.005816285964101553,-0.010547730140388012,0.00466942647472024,0.0,0.002612879266962409
0.00923294946551323,0.005764801520854235,-0.011155248619616032,0.005194131284952164,0.0,0.002270806347951293
0.008993806317448616,0.005193436052650213,-0.010642297565937042,0.005173674318939447,0.0,0.002022458240389824
0.008577955886721611,0.005759235005825758,-0.010583327151834965,0.005237572360783815,0.0,0.0019038328900933266
0.008920157328248024,0.00539760198444128,-0.010941741056740284,0.005107323173433542,0.0,0.0018057558918371797
0.008933579549193382,0.005931435618549585,-0.010708370245993137,0.0054244971834123135,0.0,0.002224701689556241
0.009244561195373535,0.005843535531312227,-0.011443031951785088,0.005163942463696003,0.0,0.0024781362153589725
0.009090190753340721,0.005822919774800539,-0.01146973017603159,0.004939424339681864,0.0,0.0024810077156871557
0.009231495670974255,0.005547707434743643,-0.011089334264397621,0.005412586964666843,0.0,0.0024105687625706196
0.009288494475185871,0.005386638920754194,-0.01082488801330328,0.005456238519400358,0.0,0.0022404338233172894
0.009306383319199085,0.005535577889531851,-0.01097625307738781,0.005378429312258959,0.0,0.002078916411846876
0.009143251925706863,0.005646913778036833,-0.01169406808912754,0.004939043428748846,0.0,0.0020097980741411448
0.009203450754284859,0.005190330091863871,-0.011332965455949306,0.004832095466554165,0.0,0.00213411683216691
0.009428724646568298,0.005144904367625713,-0.012016971595585346,0.005021294578909874,0.0,0.002071837894618511
0.009162236005067825,0.005043639801442623,-0.011383616365492344,0.004947281908243895,0.0,0.002090464113280177
0.008918270468711853,0.005645716562867165,-0.010960469022393227,0.005142748821526766,0.0,0.0019774162210524082
0.009409465827047825,0.005362445022910833,-0.011250774376094341,0.005048583261668682,0.0,0.0017707321094349027
0.009544760920107365,0.005170625168830156,-0.010717346332967281,0.00493060564622283,0.0,0.001613927073776722
0.009730435907840729,0.004949113819748163,-0.011446192860603333,0.004744682926684618,0.0,0.0015836367383599281
0.009766990318894386,0.004872097633779049,-0.01144727598875761,0.00488617829978466,0.0,0.0016711106291040778
0.009623877704143524,0.005196158308535814,-0.010841171257197857,0.004800938535481691,0.0,0.0015689140418544412
0.009311006404459476,0.005525862332433462,-0.01185251772403717,0.004816577769815922,0.0,0.0018371266778558493
0.009311006404459476,0.005525862332433462,-0.01185251772403717,0.004816577769815922,0.0,0.0018371266778558493
0.009768500924110413,0.00533590093255043,-0.01128045842051506,0.004972835537046194,5.499699909705669e-06,0.001741386717185378
0.010192414745688438,0.005314092617481947,-0.01146779116243124,0.004868711810559034,3.5909113194065867e-07,0.0017649856163188815
0.010012423619627953,0.0050774975679814816,-0.011594473384320736,0.004808277823030949,2.3446082408895563e-08,0.0017738979076966643
0.010158393532037735,0.005242749582976103,-0.010751410387456417,0.0050899372436106205,1.5308616596598768e-09,0.0015691008884459734
0.010425960645079613,0.00533971656113863,-0.010945608839392662,0.0053578950464725494,9.995432259657377e-11,0.0015986334765329957
0.009823926724493504,0.005372082814574242,-0.010318320244550705,0.005394547246396542,6.526302935572215e-12,0.0015141074545681477
0.00997199397534132,0.005649443715810776,-0.009667268954217434,0.005685307085514069,4.2612094408589485e-13,0.0016760119469836354
0.010773451067507267,0.005306627601385117,-0.01105488371104002,0.005242094397544861,2.782265215472198e-14,0.001614713459275663
0.009903689846396446,0.005287245847284794,-0.011361810378730297,0.004972466267645359,1.816620338789747e-15,0.0017238578293472528
0.00992189534008503,0.005149110686033964,-0.011068899184465408,0.004841777496039867,1.1861232647484502e-16,0.0017617294797673821
0.010081497021019459,0.005008034408092499,-0.01086399145424366,0.004977519623935223,7.744537214851213e-18,0.0015802272828295827
0.011017405427992344,0.005350633058696985,-0.010147658176720142,0.0056628091260790825,5.056629530791788e-19,0.0016123877139762044
0.010335148312151432,0.005172734148800373,-0.010857016779482365,0.005649920087307692,3.3016177442321045e-20,0.0014999641571193933
0.009978974238038063,0.005296692252159119,-0.010245992802083492,0.005183434579521418,1.4075313179189597e-22,0.001319034956395626
0.010493526235222816,0.005169798620045185,-0.011901326477527618,0.004993228707462549,9.190173536700517e-24,0.0012897052802145481
0.010665466077625751,0.005219705402851105,-0.011378245428204536,0.0053472802974283695,6.000525695826992e-25,0.0013520551146939397
0.010103286243975163,0.005094645079225302,-0.010482816025614738,0.00524878641590476,3.9179146636350874e-26,0.0013440682087093592
0.010246303863823414,0.005198235157877207,-0.010819829069077969,0.005889527965337038,2.558118181969296e-27,0.0012939583975821733
0.010285411961376667,0.005411617457866669,-0.010578782297670841,0.005582971032708883,1.670268401689042e-28,0.0014752973802387714
0.010452508926391602,0.005124374758452177,-0.011074619367718697,0.005362599156796932,1.0905659560262252e-29,0.001486661727540195
0.0105713726952672,0.005482201464474201,-0.010561349801719189,0.005202494096010923,7.120616275021288e-31,0.0014451472088694572
0.010559823364019394,0.005359075032174587,-0.010793137364089489,0.005252394359558821,-0.00017904296691995114,0.001522697857581079
0.010047602467238903,0.005438786931335926,-0.011823737062513828,0.005992083344608545,-0.00019437458831816912,0.0014533934881910682
0.010155406780540943,0.005418097134679556,-0.010849272832274437,0.005488721653819084,-0.00022278611140791327,0.0014651680830866098
0.010065838694572449,0.0052735586650669575,-0.010699759237468243,0.005166129674762487,-0.00023389641137328,0.001424220041371882
0.010065838694572449,0.0052735586650669575,-0.010699759237468243,0.005166129674762487,-0.00023389641137328,0.001424220041371882
0.010231927037239075,0.005770388059318066,-0.011066260747611523,0.005083287134766579,-0.00024154466518666595,0.0013522582594305277
0.010760243982076645,0.005445494316518307,-0.010653834789991379,0.005595536436885595,-0.00026262630126439035,0.001272669993340969
0.01011490449309349,0.00576137425377965,-0.011807071976363659,0.005340576171875,-0.0004558185173664242,0.0012032035738229752
0.010400338098406792,0.005352796986699104,-0.011248510330915451,0.0052373092621564865,-0.0006352912168949842,0.0012255104957148433
0.010145704261958599,0.005155589431524277,-0.011257011443376541,0.005584192927926779,-0.000650052388664335,0.0011339072370901704
0.010145704261958599,0.005155589431524277,-0.011257011443376541,0.005584192927926779,-0.000650052388664335,0.0011339072370901704
0.010521039366722107,0.005021956749260426,-0.01078028604388237,0.005727718584239483,-0.0006567951641045511,0.0010523193050175905
0.010499183088541031,0.005588454194366932,-0.01154098380357027,0.006116451229900122,-0.0006197941838763654,0.0009608790860511363
0.009940496645867825,0.0053949360735714436,-0.011933282017707825,0.005949751473963261,-0.0007105190888978541,0.0009399072732776403
0.01088669989258051,0.005194313358515501,-0.011143027804791927,0.0057187494821846485,-0.0006340664112940431,0.0008436987409368157
0.010260611772537231,0.004965657833963633,-0.011723767034709454,0.005622928496450186,-0.0005569685017690063,0.0007427387754432857
0.01059937197715044,0.004906215239316225,-0.010928027331829071,0.005517577286809683,-0.0005679127061739564,0.0006999855977483094
0.010815685614943504,0.00523549085482955,-0.01111945416778326,0.005869362037628889,-0.0005338885821402073,0.0006671525188721716
0.010302914306521416,0.005212828516960144,-0.011046415194869041,0.006201885640621185,-0.000526326650287956,0.000682330341078341
0.010523817501962185,0.00575514230877161,-0.010709019377827644,0.00601581297814846,-0.0005186079652048647,0.0006693764589726925
0.010758478194475174,0.004532716702669859,-0.011983945034444332,0.005977473687380552,-0.0005066628800705075,0.0006479267030954361
0.010758478194475174,0.004532716702669859,-0.011983945034444332,0.005977473687380552,-0.0005066628800705075,0.0006479267030954361
0.010745248757302761,0.0055643105879426,-0.011597080156207085,0.005806849803775549,-0.00042866915464401245,0.0006179478368721902
0.011105820536613464,0.006177685689181089,-0.011418500915169716,0.005469121504575014,-0.0003904370532836765,0.000643607578240335
0.011411638930439949,0.005456844344735146,-0.01151797641068697,0.0055551291443407536,-0.0004259127308614552,0.000661730591673404
0.010457925498485565,0.004868007730692625,-0.011484419927001,0.005258597433567047,-0.00039879040559753776,0.0006182070355862379
0.01171636488288641,0.004705046769231558,-0.01141261775046587,0.0056685833260416985,-0.0004016865568701178,0.0006930218660272658
0.011253710836172104,0.005329065956175327,-0.011668738909065723,0.005861446261405945,-0.00040355767123401165,0.0007147834985516965
0.011325910687446594,0.005513385403901339,-0.011197651736438274,0.005902623757719994,-0.00038095461786724627,0.0006442266749218106
0.011560461483895779,0.005630633793771267,-0.011398584581911564,0.00594761036336422,-0.00035933376057073474,0.0006464540492743254
0.010258432477712631,0.0053875199519097805,-0.01155355665832758,0.005523321684449911,-0.00037575344322249293,0.000605821842327714
0.010906913317739964,0.005039258860051632,-0.011244596913456917,0.005769788753241301,-0.0003677784407045692,0.000553915451746434
0.011062754318118095,0.004870947450399399,-0.011463290080428123,0.0058239782229065895,-0.0003865183680318296,0.0005719322361983359
0.010340272448956966,0.0058962199836969376,-0.010770891793072224,0.005966898053884506,-0.00038865121314302087,0.0005377379711717367
0.010340272448956966,0.0058962199836969376,-0.010770891793072224,0.005966898053884506,-0.00038865121314302087,0.0005377379711717367
0.010964863002300262,0.00552863534539938,-0.011386607773602009,0.00584152527153492,-0.00035987896262668073,0.000500864814966917
0.011433487758040428,0.005353688728064299,-0.011642996221780777,0.0056406850926578045,-0.00039090224890969694,0.00046830461360514164
0.01083673257380724,0.005330706015229225,-0.011207603849470615,0.005440016742795706,-0.0003718285879585892,0.00043969269609078765
0.011148999445140362,0.004748443141579628,-0.011529102921485901,0.00592874875292182,-0.00039852564805187285,0.0004143747501075268
0.01130599994212389,0.0050637684762477875,-0.01157359778881073,0.006249973550438881,-0.0003812842769548297,0.0003553215938154608
0.01207441370934248,0.005490344483405352,-0.012029017321765423,0.005957812536507845,-0.0003849905333481729,0.0003253345494158566
0.012027832679450512,0.006068496499210596,-0.011625220999121666,0.006051622796803713,-0.00038743167533539236,0.00030312282615341246
0.011560602113604546,0.005496471654623747,-0.010952994227409363,0.0059465630911290646,-0.0003690811572596431,0.00028396540437825024
0.012208174914121628,0.0056971157900989056,-0.012506049126386642,0.0059933108277618885,-0.0003953271370846778,0.0002671002293936908
0.011804452165961266,0.0053452434949576855,-0.011413789354264736,0.006035910453647375,-0.000402626465074718,0.00025212846230715513
0.012045428156852722,0.005000990349799395,-0.01141110248863697,0.005976125597953796,-0.0004081306396983564,0.00023874655016697943
0.012584316544234753,0.005698113236576319,-0.011711028404533863,0.005913230590522289,-0.00041009840788319707,0.00022671448823530227
0.012580734677612782,0.005343238357454538,-0.011832581833004951,0.006037389859557152,-0.0003578786854632199,0.000246408540988341
0.013302020728588104,0.005034530535340309,-0.011048034764826298,0.006532955914735794,-0.00037681616959162056,0.0002362793602515012
0.012921152636408806,0.004904836881905794,-0.011019968427717686,0.006679187994450331,-0.0003676840860862285,0.00022641295799985528
0.012002389878034592,0.005168486386537552,-0.011870762333273888,0.006083567626774311,-0.0003724423877429217,0.00021730255684815347
0.012550415471196175,0.005521823186427355,-0.011433686129748821,0.006403528619557619,-0.00037548417458310723,0.0002088953769998625
0.012294070795178413,0.005666762124747038,-0.01193972397595644,0.0058303894475102425,-0.00035826597013510764,0.00020111411868128926
0.01242853980511427,0.005071454681456089,-0.011380910873413086,0.006366647779941559,-0.0003850174543913454,0.00019389158114790916
0.012594889849424362,0.005230159033089876,-0.011902027763426304,0.006275177467614412,-0.00036916675162501633,0.00018717024067882448
0.012398714199662209,0.005085977725684643,-0.011889391578733921,0.006460021715611219,-0.00034211354795843363,0.00018089947116095573
0.012790611013770103,0.005236259661614895,-0.011288448236882687,0.006311659701168537,-0.0003729107847902924,0.0001750349038047716
0.012517416849732399,0.005589581560343504,-0.012970724143087864,0.006504058837890625,-0.00035582506097853184,0.00016953900922089815
0.012597729451954365,0.005466516129672527,-0.012181614525616169,0.006634624674916267,-0.0003342781274113804,0.00016437748854514211
0.012597729451954365,0.005466516129672527,-0.012181614525616169,0.006634624674916267,-0.0003342781274113804,0.00016437748854514211
0.012521771714091301,0.005496528930962086,-0.012236479669809341,0.006789790466427803,-0.0003636438923422247,0.00015952144167385995
0.012640702538192272,0.005241398233920336,-0.011978492140769958,0.006779385264962912,-0.00034680592943914235,0.00015494365652557462
0.012867992743849754,0.004802830517292023,-0.011681905947625637,0.007376333698630333,-0.000372652750229463,0.00015062157763168216
0.012529801577329636,0.005472392775118351,-0.012382401153445244,0.00764478649944067,-0.00035703618777915835,0.00014653395919594914
0.012891261838376522,0.005342553369700909,-0.012102432548999786,0.006843726150691509,-0.0004238020919729024,0.00014266243670135736
0.012536763213574886,0.005287632346153259,-0.012510665692389011,0.006405494641512632,-0.0003992909914813936,0.000127610910567455
0.013016116805374622,0.004945766646414995,-0.012358911335468292,0.0067642140202224255,-0.000367515895050019,0.00011368807463441044
0.012551059946417809,0.00511952443048358,-0.0120469955727458,0.006787244696170092,-0.0003727326402440667,0.00011020460078725591
0.01262443047016859,0.005496019963175058,-0.012080555781722069,0.006613784469664097,-0.0003768244350794703,0.00010752546950243413
0.012827375903725624,0.005285627208650112,-0.011835695244371891,0.006391109898686409,-0.00035407798714004457,0.00010501310316612944
0.012734864838421345,0.005124253686517477,-0.012220284901559353,0.0065252711065113544,-0.0003731941105797887,0.0001026180834742263
0.01315633486956358,0.0051786950789391994,-0.011840254999697208,0.00661813048645854,-0.0003643581294454634,0.00010033007129095495
0.01312825083732605,0.005050113890320063,-0.01229084562510252,0.006247760262340307,-0.0003708733129315078,9.604704973753542e-05
0.012519980780780315,0.005228713620454073,-0.01178949698805809,0.006038114428520203,-0.00035540456883609295,9.403986041434109e-05
0.012990251183509827,0.005235590040683746,-0.011998863890767097,0.0060617635026574135,-0.0003820437123067677,8.305259689223021e-05
0.012573909014463425,0.005346549209207296,-0.011938206851482391,0.006483374163508415,-0.0003587143146432936,7.282477599801496e-05
0.012734729796648026,0.005254358984529972,-0.01254729088395834,0.006881921086460352,-0.0003649094724096358,5.770224743173458e-05
0.012610893696546555,0.004991875030100346,-0.012747186236083508,0.006958923768252134,-0.00036947900662198663,5.237192090135068e-05
0.012830887921154499,0.005173086654394865,-0.012282116338610649,0.006709075067192316,-0.00037579526542685926,5.111223799758591e-05
0.013297446072101593,0.004888368770480156,-0.012088151648640633,0.007209728471934795,-0.0003792119678109884,-3.6948829801985994e-05
0.013202348724007607,0.00557953305542469,-0.011634811758995056,0.006903355475515127,-0.00035928329452872276,-4.1756455175345764e-05
0.013369944877922535,0.005318403244018555,-0.012296143919229507,0.007031792309135199,-0.00033999775769189,-5.906308433623053e-05
0.012751867063343525,0.005046703852713108,-0.011850737035274506,0.006743283476680517,-0.00036248189280740917,-6.023556488798931e-05
0.013415496796369553,0.005111195612698793,-0.012425821274518967,0.007218416314572096,-0.0003503054322209209,-7.746252231299877e-05
0.01295476220548153,0.005199211649596691,-0.011879964731633663,0.007381207309663296,-0.00033438895479775965,-9.375991066917777e-05
0.01295476220548153,0.005199211649596691,-0.011879964731633663,0.007381207309663296,-0.00033438895479775965,-9.375991066917777e-05
0.013219833374023438,0.005537368357181549,-0.011621085926890373,0.0073312632739543915,-0.00031956794555298984,-0.0005078763351775706
0.01313303504139185,0.005335316993296146,-0.011847452260553837,0.007115623913705349,-0.00030665623489767313,-0.0006707144202664495
0.01353436429053545,0.005781346000730991,-0.011855793185532093,0.007388797122985125,-0.00032665778417140245,-0.0007044394151307642
0.01326240785419941,0.005319725722074509,-0.012379364110529423,0.007436813786625862,-0.0003071252431254834,-0.0006900203879922628
0.013196269050240517,0.005358585622161627,-0.012424183078110218,0.007340964861214161,-0.00031563566881231964,-0.0006669439608231187
0.013395829126238823,0.005641124211251736,-0.012073300778865814,0.006990058813244104,-0.0003225274558644742,-0.0008059431565925479
0.01297779381275177,0.005332533735781908,-0.011944696307182312,0.007747492752969265,-0.0003307847073301673,-0.0008328080293722451
0.01355980895459652,0.005652060732245445,-0.011424518190324306,0.007931697182357311,-0.0003361944400239736,-0.0007960557122714818
0.013422539457678795,0.005333884619176388,-0.012522224336862564,0.007770880125463009,-0.00032059120712801814,-0.0007537761121056974
0.013672174885869026,0.005369964055716991,-0.01152634248137474,0.0071153799071908,-0.00030515698017552495,-0.0007658061804249883
0.01338081806898117,0.005259785335510969,-0.01210909802466631,0.007560206111520529,-0.0003113737911917269,-0.000773473409935832
0.013516657054424286,0.005869545508176088,-0.01216873712837696,0.007591501343995333,-0.00030440822592936456,-0.0009430639329366386
0.013630598783493042,0.006074068136513233,-0.012422190979123116,0.007419082336127758,-0.00036664496292360127,-0.0015904844040051103
0.013364306651055813,0.005595067515969276,-0.011449516750872135,0.008039720356464386,-0.00034963933285325766,-0.001869571628049016
0.01376325823366642,0.005764923524111509,-0.012233523651957512,0.008055916987359524,-0.0003566656378097832,-0.0020525010768324137
0.013405419886112213,0.0054025487042963505,-0.012201710604131222,0.007887964136898518,-0.0003617050242610276,-0.0018191927811130881
0.013632655143737793,0.005917706061154604,-0.01279686950147152,0.007283419836312532,-0.0003407659532967955,-0.0014780402416363358
0.013632787391543388,0.00551467202603817,-0.012077892199158669,0.007368352264165878,-0.0003206460678484291,-0.0014244400663301349
0.014139187522232533,0.0053849127143621445,-0.011566921137273312,0.0074699316173791885,-0.00034631663584150374,-0.0013830012176185846
0.013920624740421772,0.005421750713139772,-0.01209726557135582,0.007303011137992144,-0.0003339271934237331,-0.0016089566051959991
0.013926651328802109,0.005470857955515385,-0.011652317829430103,0.007167069241404533,-0.00031748347100801766,-0.001985090086236596
0.01394191849976778,0.005602468270808458,-0.012179181911051273,0.007326075341552496,-0.00033414835343137383,-0.002487020567059517
0.01394191849976778,0.005602468270808458,-0.012179181911051273,0.007326075341552496,-0.00033414835343137383,-0.002487020567059517
0.01399447862058878,0.005011203233152628,-0.012092397548258305,0.007824644446372986,-0.00031515269074589014,-0.002662499900907278
0.01399447862058878,0.005011203233152628,-0.012092397548258305,0.007824644446372986,-0.00031515269074589014,-0.002662499900907278
0.013543518260121346,0.0051880828104913235,-0.01235219556838274,0.00762746948748827,-0.00030329293804243207,-0.0024285591207444668
0.013980662450194359,0.005523372907191515,-0.011441368609666824,0.008120539598166943,-0.0003298164810985327,-0.0019847576040774584
0.013866923749446869,0.005538368131965399,-0.01208982989192009,0.008287926204502583,-0.0003102608898188919,-0.0018774098716676235
0.014355297200381756,0.005676378030329943,-0.012022375129163265,0.007924776524305344,-0.0002904352732002735,-0.0018086312338709831
0.013937646523118019,0.005483708810061216,-0.01162163820117712,0.007535184733569622,-0.0003130157710984349,-0.002013618592172861
0.014415910467505455,0.005096047185361385,-0.012278322130441666,0.007884147576987743,-0.0003077346191275865,-0.002499267691746354
0.014096000231802464,0.005238309968262911,-0.012140685692429543,0.007655481342226267,-0.0002919159014709294,-0.002750224433839321
0.013982102274894714,0.005523032043129206,-0.012419002130627632,0.007704691030085087,-0.0002769909333437681,-0.002791880164295435
0.01356799528002739,0.005163523368537426,-0.011843914166092873,0.007864811457693577,-0.00030149988015182316,-0.002959256526082754
0.014345848932862282,0.0053400383330881596,-0.012362129986286163,0.008213969878852367,-0.0002926994056906551,-0.0029034980107098818
0.014734706841409206,0.005201887805014849,-0.011792168952524662,0.007836489006876945,-0.0003013215900864452,-0.0026522588450461626
0.014034120365977287,0.005253827665001154,-0.012275606393814087,0.00866541638970375,-0.0002935884695034474,-0.0028520007617771626
0.01417329628020525,0.005318047478795052,-0.011849170550704002,0.009089427068829536,-0.00028237109654583037,-0.002894452540203929
0.014167441986501217,0.005641636438667774,-0.012299361638724804,0.008187148720026016,-0.0002720882184803486,-0.0030880593694746494
0.014879695139825344,0.005234859883785248,-0.012125465087592602,0.008056320250034332,-0.0002977720578201115,-0.0029510969761759043
0.01381424069404602,0.00500530656427145,-0.011949177831411362,0.008456788025796413,-0.000281968415947631,-0.002998116659000516
0.014152411371469498,0.005117657128721476,-0.012090593576431274,0.008874746970832348,-0.00026551258633844554,-0.002705756574869156
0.014203613623976707,0.005163699854165316,-0.012229076586663723,0.008112737908959389,-0.00025072519201785326,-0.0026742543559521437
0.014678373001515865,0.005020684562623501,-0.012995717115700245,0.008538490161299706,-0.0002374884788878262,-0.0029460368677973747
0.014452408067882061,0.005435505881905556,-0.012521590106189251,0.008579561486840248,-0.00022557949705515057,-0.004476762842386961
0.014882356859743595,0.004993756301701069,-0.012478157877922058,0.008489537052810192,-0.00025201350217685103,-0.005020978394895792
0.014294032007455826,0.004755057394504547,-0.012420065701007843,0.00809580460190773,-0.0002456471847835928,-0.004484433215111494
0.015750737860798836,0.0051680663600564,-0.012860111892223358,0.008723714388906956,-0.0002352747687837109,-0.0042111496441066265
0.015750737860798836,0.0051680663600564,-0.012860111892223358,0.008723714388906956,-0.0002352747687837109,-0.0042111496441066265
0.015617255121469498,0.0049857646226882935,-0.013149922713637352,0.008442645892500877,-0.00022547085245605558,-0.0040613804012537
0.01571325771510601,0.005426154471933842,-0.0127168083563447,0.00813995860517025,-0.00021643409854732454,-0.003929199650883675
0.015256043523550034,0.005296087358146906,-0.013093342073261738,0.008319866843521595,-0.00020809174748137593,-0.0038330359384417534
0.015518484637141228,0.004940209910273552,-0.012386385351419449,0.00882262084633112,-0.00023149994376581162,-0.0043766009621322155
0.015931880101561546,0.005155323538929224,-0.013205382972955704,0.008083592168986797,-0.00022525138047058135,-0.0042403689585626125
0.015816980972886086,0.005135171115398407,-0.011729405261576176,0.008166767656803131,-0.0002176030247937888,-0.004349291790276766
0.015786193311214447,0.0050650485791265965,-0.013394431211054325,0.008932598866522312,-0.00021034508245065808,-0.004414262715727091
0.015439236536622047,0.005869435146450996,-0.013474181294441223,0.009011030197143555,-0.00020354922162368894,-0.0044027636758983135
0.0159271452575922,0.00567624531686306,-0.01329013705253601,0.008166703395545483,-0.0002234474814031273,-0.004327540285885334
0.016095375642180443,0.005079798400402069,-0.012926529161632061,0.00815061666071415,-0.0002183827164117247,-0.00408679386600852
0.01646628975868225,0.004852747078984976,-0.01349774468690157,0.008279881440103054,-0.0002120619610650465,-0.003910189960151911
0.016314027830958366,0.0051269023679196835,-0.01348897535353899,0.008260083384811878,-0.00020600156858563423,-0.003918772097676992
0.016100754961371422,0.005017033312469721,-0.013136721216142178,0.008457079529762268,-0.00020291678083594888,-0.00427675899118185
0.01629501022398472,0.004653223790228367,-0.013509749434888363,0.008583374321460724,-0.00019707604951690882,-0.004439263604581356
0.015786495059728622,0.004360961262136698,-0.01295342668890953,0.008800727315247059,-0.00018899688438978046,-0.004792897030711174
0.016113299876451492,0.004235448781400919,-0.013233966194093227,0.007976628839969635,-0.0002082067949231714,-0.004767083562910557
0.015958955511450768,0.004248751327395439,-0.012926047667860985,0.008232099935412407,-0.00020861555822193623,-0.004275577608495951
0.01593049429357052,0.004098518751561642,-0.01316677313297987,0.00916114542633295,-0.00022597391216550022,-0.004497087094932795
0.016322579234838486,0.004395858384668827,-0.01352480985224247,0.008413559757173061,-0.000245741248363629,-0.00436041597276926
0.016095463186502457,0.004636839963495731,-0.01297173835337162,0.00884384848177433,-0.00024126400239765644,-0.004448142368346453
0.01624155044555664,0.004646971821784973,-0.012910951860249043,0.008913370780646801,-0.00042217172449454665,-0.0041889348067343235
0.016598807647824287,0.004307083785533905,-0.012825241312384605,0.009012285619974136,-0.0004843575297854841,-0.004129923414438963
0.01645784266293049,0.004290787503123283,-0.013005773536860943,0.009267830289900303,-0.000483717187307775,-0.004254954867064953
0.016827313229441643,0.004581393674015999,-0.013423060066998005,0.008977655321359634,-0.00044649498886428773,-0.004874646198004484
0.016081923618912697,0.004578873049467802,-0.012743836268782616,0.009400841780006886,-0.0004458571202121675,-0.004980344790965319
0.016848359256982803,0.004320018459111452,-0.013887428678572178,0.009350706823170185,-0.00044481197255663574,-0.0047951964661479
0.016820477321743965,0.004565848968923092,-0.013439037837088108,0.009434739127755165,-0.0004612021439243108,-0.004725608509033918
0.01691538654267788,0.0045457459054887295,-0.013449464924633503,0.008691499941051006,-0.0004464125377126038,-0.0046958825550973415
0.016851630061864853,0.0044984291307628155,-0.013138161972165108,0.008582016453146935,-0.00042397878132760525,-0.004684343934059143
0.016851630061864853,0.0044984291307628155,-0.013138161972165108,0.008582016453146935,-0.00042397878132760525,-0.004684343934059143
0.01662011258304119,0.0041100331582129,-0.013795698061585426,0.008917849510908127,-0.0004754166875500232,-0.0046540843322873116
0.016959499567747116,0.004591206554323435,-0.013658282347023487,0.00805229227989912,-0.00047554829507134855,-0.0053168716840445995
0.016959499567747116,0.004591206554323435,-0.013658282347023487,0.00805229227989912,-0.00047554829507134855,-0.0053168716840445995
0.017154278233647346,0.004754351451992989,-0.013469907455146313,0.009062781929969788,-0.0005061024567112327,-0.005648945923894644
0.01732252910733223,0.004655102267861366,-0.013632921501994133,0.009056426584720612,-0.0005309443804435432,-0.005342567339539528
0.016874700784683228,0.00434505008161068,-0.013438364490866661,0.009291592985391617,-0.0005047548329457641,-0.005658470559865236
0.017304517328739166,0.004468185361474752,-0.013744235038757324,0.009250667877495289,-0.0006306642899289727,-0.005359731148928404
0.017230546101927757,0.004182695411145687,-0.013684445060789585,0.009565136395394802,-0.0006691052112728357,-0.005055540706962347
0.017359644174575806,0.004251138772815466,-0.013175939209759235,0.008684555068612099,-0.0006753536872565746,-0.005529316142201424
0.017375823110342026,0.004560205619782209,-0.013565558940172195,0.009113090112805367,-0.0006306426366791129,-0.004922006279230118
0.01752031221985817,0.004639195743948221,-0.013321149162948132,0.009157689288258553,-0.0006507657235488296,-0.004671631380915642
0.0181506909430027,0.004679993726313114,-0.01400337740778923,0.008667953312397003,-0.0006746338331140578,-0.00490592373535037
0.017696531489491463,0.004415370523929596,-0.013079519383609295,0.008920670486986637,-0.0006484771147370338,-0.005442582070827484
0.017885329201817513,0.004434292670339346,-0.013807563111186028,0.009489426389336586,-0.0006686692358925939,-0.0055980621837079525
0.017221724614501,0.004806604702025652,-0.014059728942811489,0.009179744869470596,-0.0005463261622935534,-0.005589410662651062
0.018072690814733505,0.0047730314545333385,-0.01346879918128252,0.00961498823016882,-0.000572863791603595,-0.005189234856516123
0.018022112548351288,0.004804390948265791,-0.013680219650268555,0.00935441069304943,-0.0005296714371070266,-0.0057860082015395164
0.017892736941576004,0.00518710445612669,-0.013606257736682892,0.008656620979309082,-0.0005226918729022145,-0.005510130897164345
0.018141692504286766,0.0044806781224906445,-0.013981304131448269,0.00901024043560028,-0.0005161094013601542,-0.005800344981253147
0.01799076236784458,0.0044916290789842606,-0.013706812635064125,0.009164901450276375,-0.0004854703147429973,-0.005360501818358898
0.018436843529343605,0.0046620480716228485,-0.013850674033164978,0.008957100100815296,-0.000505719508510083,-0.005754349287599325
0.018630750477313995,0.00503826979547739,-0.013703546486794949,0.009180248714983463,-0.00048076751409098506,-0.005555341951549053
0.01852167397737503,0.005002281628549099,-0.014064864255487919,0.009491125121712685,-0.0005062753916718066,-0.0059612952172756195
0.018855152651667595,0.00517662288621068,-0.013941115699708462,0.009753866121172905,-0.0004766922793351114,-0.005949873942881823
0.018722278997302055,0.004996059462428093,-0.014258883893489838,0.009975584223866463,-0.0004984127008356154,-0.006149831227958202
0.017999939620494843,0.004814208950847387,-0.013763293623924255,0.009766613133251667,-0.0005803891108371317,-0.005883331410586834
0.01797984540462494,0.0046130889095366,-0.013770892284810543,0.009732437320053577,-0.0006931977113708854,-0.005757743027061224
0.018048947677016258,0.005395903252065182,-0.01431513112038374,0.010165263898670673,-0.0006441805162467062,-0.006097808945924044
0.018048947677016258,0.005395903252065182,-0.01431513112038374,0.010165263898670673,-0.0006441805162467062,-0.006097808945924044
0.018618926405906677,0.005355859640985727,-0.013829689472913742,0.010362016037106514,-0.0006601569475606084,-0.0060155256651341915
0.019361207261681557,0.004999569151550531,-0.01371326856315136,0.01072567980736494,-0.0006077598663978279,-0.006149447988718748
0.01846345141530037,0.004675512667745352,-0.01353068184107542,0.010527084581553936,-0.0005549106863327324,-0.005882856901735067
0.01869296468794346,0.004589426796883345,-0.014000112190842628,0.010672845877707005,-0.0005776738398708403,-0.0058281016536056995
0.019042816013097763,0.0046675181947648525,-0.013706536963582039,0.00990883819758892,-0.0005388319841586053,-0.006045573856681585
0.018818123266100883,0.004769657272845507,-0.014218030497431755,0.009835775941610336,-0.000541765708476305,-0.0059791686944663525
0.019112005829811096,0.00495506264269352,-0.01336178183555603,0.009540985338389874,-0.000562347355298698,-0.00631290627643466
0.018882479518651962,0.005292205139994621,-0.014375160448253155,0.009102431125938892,-0.0005723304930143058,-0.006261152680963278
0.018715867772698402,0.0050435978919267654,-0.013385385274887085,0.009473059326410294,-0.0005612849490717053,-0.005929774604737759
0.01917942427098751,0.00483285915106535,-0.013792257755994797,0.009429574012756348,-0.0005177439888939261,-0.006187346763908863
0.019085772335529327,0.004810880869626999,-0.013673975132405758,0.009740753099322319,-0.0004785560886375606,-0.006316624116152525
0.018699495121836662,0.005143342539668083,-0.01426243782043457,0.00976492278277874,-0.0005038290400989354,-0.006969959009438753
0.01914183422923088,0.00541447289288044,-0.013991125859320164,0.00928428489714861,-0.0004744643229059875,-0.006445740815252066
0.019460231065750122,0.005101870279759169,-0.01499458122998476,0.009106356650590897,-0.00044535307097248733,-0.006393603980541229
0.019263574853539467,0.0051047164015471935,-0.01477040909230709,0.009804799221456051,-0.0004216156085021794,-0.006370043847709894
0.019494034349918365,0.004911414347589016,-0.014147622510790825,0.009457811713218689,-0.0003878113639075309,-0.006470148917287588
0.019262714311480522,0.0048847440630197525,-0.014982054941356182,0.009709966368973255,-0.0003571728593669832,-0.006775216665118933
0.019199401140213013,0.005338836926966906,-0.014218534342944622,0.009610499255359173,-0.00037951863487251103,-0.006541684735566378
0.019645074382424355,0.005032771732658148,-0.014983218163251877,0.009578588418662548,-0.00036871543852612376,-0.006339496932923794
0.01927131600677967,0.004729783162474632,-0.014581769704818726,0.010147885419428349,-0.0003460629959590733,-0.006711708381772041
0.01918046921491623,0.004604062996804714,-0.015369950793683529,0.0103235375136137,-0.0003252732567489147,-0.006644950248301029
0.019858309999108315,0.004676763899624348,-0.014946583658456802,0.00969537254422903,-0.0003543804050423205,-0.007225557696074247
0.019714107736945152,0.0046417079865932465,-0.015047533437609673,0.01021474227309227,-0.00033844143035821617,-0.007092796731740236
0.019662242382764816,0.0051329657435417175,-0.01512086484581232,0.010680229403078556,-0.0003213728195987642,-0.006835602223873138
0.019817054271697998,0.0051549444906413555,-0.01550696138292551,0.010084152221679688,-0.00034646940184757113,-0.006599810440093279
0.019752955064177513,0.004806439857929945,-0.015227268449962139,0.010210204869508743,-0.0003330901963636279,-0.006398823112249374
0.019752955064177513,0.004806439857929945,-0.015227268449962139,0.010210204869508743,-0.0003330901963636279,-0.006398823112249374
0.01939752697944641,0.004652720410376787,-0.015782397240400314,0.00994192250072956,-0.0003383697767276317,-0.006908886134624481
0.02010165899991989,0.004804245196282864,-0.015633221715688705,0.009768911637365818,-0.0003529924142640084,-0.007360405288636684
0.020257817581295967,0.004793473985046148,-0.015405907295644283,0.010520121082663536,-0.00035868180566467345,-0.007138669956475496
0.019339675083756447,0.004802084062248468,-0.015865210443735123,0.01010515820235014,-0.00039057352114468813,-0.0073121897876262665
0.019826119765639305,0.0051629673689603806,-0.014994798228144646,0.009606563486158848,-0.0004101865051779896,-0.007601267192512751
0.02020733617246151,0.004976856987923384,-0.015765853226184845,0.010096368379890919,-0.00040180206997320056,-0.00767990667372942
0.020461827516555786,0.00467106606811285,-0.015123953111469746,0.010046535171568394,-0.0006796216475777328,-0.007552658207714558
0.020477980375289917,0.004578727297484875,-0.015673363581299782,0.010276208631694317,-0.0007145440322346985,-0.0074106017127633095
0.020634133368730545,0.004713184200227261,-0.01534469984471798,0.010131523944437504,-0.0006447227206081152,-0.007725759409368038
0.02011283114552498,0.004785903729498386,-0.01590382307767868,0.010039465501904488,-0.0006469434010796249,-0.007242393214255571
0.01868768222630024,0.005164583213627338,-0.015350152738392353,0.01027000229805708,-0.0006062431493774056,-0.007936328649520874
0.020704342052340508,0.004893183242529631,-0.0155213987454772,0.01066796388477087,-0.0005925162113271654,-0.006950883660465479
0.02097177505493164,0.004861976020038128,-0.014821217395365238,0.010393139906227589,-0.0005796013283543289,-0.006644240114837885
0.020312484353780746,0.004699610639363527,-0.015524494461715221,0.01069999486207962,-0.0005385063705034554,-0.00699917646124959
0.020113546401262283,0.004803458694368601,-0.01580478809773922,0.011009223759174347,-0.0005011472967453301,-0.008561894297599792
0.020506128668785095,0.005226296838372946,-0.015332134440541267,0.01029467023909092,-0.0004565384588204324,-0.008072752505540848
0.020633911713957787,0.005096538458019495,-0.015332256443798542,0.010775472037494183,-0.000412641471484676,-0.007103336974978447
0.020979994907975197,0.005200960207730532,-0.015835443511605263,0.009421493858098984,-0.00046905159251764417,-0.00755047332495451
0.020693864673376083,0.004829488229006529,-0.015281535685062408,0.010598857887089252,-0.0004516035842243582,-0.007530795410275459
0.01971750147640705,0.005433890037238598,-0.015738628804683685,0.010313007049262524,-0.00047849840484559536,-0.007624384947121143
0.020399967208504677,0.005271648056805134,-0.014899926260113716,0.009773913770914078,-0.000455585221061483,-0.007643045857548714
0.020736949518322945,0.0056323581375181675,-0.015642013400793076,0.010033709928393364,-0.0005894758505746722,-0.00811761524528265
0.021158626303076744,0.005649213679134846,-0.015024920925498009,0.010728850029408932,-0.0006312161567620933,-0.007729644887149334
0.021066419780254364,0.005052623338997364,-0.01582895964384079,0.010122669860720634,-0.0005716148880310357,-0.007791392970830202
0.021399371325969696,0.005473064724355936,-0.015249952673912048,0.010341630317270756,-0.0005972514627501369,-0.007852284237742424
0.021239837631583214,0.005256628151983023,-0.015647660940885544,0.010661283507943153,-0.0005882895202375948,-0.008257590234279633
0.020903104916214943,0.004754471126943827,-0.016119560226798058,0.010404716245830059,-0.0005760468193329871,-0.008320429362356663
0.020864317193627357,0.005005154758691788,-0.015792980790138245,0.01075170561671257,-0.0005846217391081154,-0.008659604005515575
0.021686803549528122,0.0054246424697339535,-0.015478258021175861,0.01037017535418272,-0.0005604694015346467,-0.008376680314540863
0.021686803549528122,0.0054246424697339535,-0.015478258021175861,0.01037017535418272,-0.0005604694015346467,-0.008376680314540863
0.021379252895712852,0.0047525567933917046,-0.016346938908100128,0.010891538113355637,-0.0006184022640809417,-0.008934035897254944
0.021156392991542816,0.005137692671269178,-0.015520473942160606,0.01019516121596098,-0.0006330779870040715,-0.008319349959492683
0.021156392991542816,0.005137692671269178,-0.015520473942160606,0.01019516121596098,-0.0006330779870040715,-0.008319349959492683
0.021628674119710922,0.004982391372323036,-0.015638962388038635,0.010628717951476574,-0.0006052531534805894,-0.008479589596390724
0.021659309044480324,0.005491157528012991,-0.01534241996705532,0.010401894338428974,-0.0007136450731195509,-0.00841115415096283
0.02150912396609783,0.005104875657707453,-0.015783794224262238,0.010014025494456291,-0.0007436775485984981,-0.00840938463807106
0.021783342584967613,0.004851306322962046,-0.015543201938271523,0.010976738296449184,-0.0006609741831198335,-0.008753776550292969
0.022187601774930954,0.0050268592312932014,-0.015990016981959343,0.010951783508062363,-0.0006609336123801768,-0.008351622149348259
0.022221093997359276,0.0049920352175831795,-0.015998609364032745,0.010403430089354515,-0.0006180483615025878,-0.008343232795596123
0.02169758640229702,0.004913725890219212,-0.015834446996450424,0.011012027971446514,-0.0006335272919386625,-0.008345515467226505
0.021824263036251068,0.0056490120477974415,-0.015880484133958817,0.010614481754601002,-0.0005910190520808101,-0.008367088623344898
0.02225704863667488,0.005182625260204077,-0.015597145073115826,0.010647476650774479,-0.0005498544196598232,-0.008976684883236885
0.0223448034375906,0.00483519583940506,-0.01650267466902733,0.011168092489242554,-0.0005011520115658641,-0.00861076358705759
0.022275244817137718,0.004828071221709251,-0.01573282666504383,0.01047271303832531,-0.0004516113258432597,-0.00913933478295803
0.022093934938311577,0.00490446574985981,-0.016001321375370026,0.011136279441416264,-0.0004811229882761836,-0.008699145168066025
0.022466622292995453,0.00542370555922389,-0.016225911676883698,0.011032488197088242,-0.00048091597273014486,-0.008823846466839314
0.022766783833503723,0.004892455413937569,-0.015939682722091675,0.01137022115290165,-0.0004980969242751598,-0.008653690107166767
0.02292107604444027,0.00476235244423151,-0.01600092276930809,0.011352838948369026,-0.00047989876475185156,-0.008799629285931587
0.02282845415174961,0.0048565007746219635,-0.016078436747193336,0.012083522975444794,-0.0005505917361006141,-0.009055175818502903
0.022471290081739426,0.00486950296908617,-0.015542039647698402,0.011835724115371704,-0.0005052357446402311,-0.009067288599908352
0.02291295863687992,0.004728491418063641,-0.016308706253767014,0.012033777311444283,-0.00045514703379012644,-0.00931156612932682
0.023153094574809074,0.004968766588717699,-0.015796571969985962,0.01231725886464119,-0.0004845535149797797,-0.009116106666624546
0.023105591535568237,0.004914843011647463,-0.016481617465615273,0.011783458292484283,-0.00045350592699833214,-0.009576110169291496
0.02295817993581295,0.00439812894910574,-0.015534188598394394,0.01195894181728363,-0.00041892874287441373,-0.009087905287742615
0.02217050828039646,0.003995364066213369,-0.01564054936170578,0.01211583986878395,-0.0004364046035334468,-0.009394397959113121
0.023893097415566444,0.0039312029257416725,-0.015507141128182411,0.012388398870825768,-0.0004219829570502043,-0.009959493763744831
0.024116845801472664,0.004090352449566126,-0.015948764979839325,0.012026024051010609,-0.00039638837915845215,-0.009727980941534042
0.023846501484513283,0.00427988450974226,-0.016310570761561394,0.011800611391663551,-0.00037297361996024847,-0.009917669929564
0.023846501484513283,0.00427988450974226,-0.016310570761561394,0.011800611391663551,-0.00037297361996024847,-0.009917669929564
0.023823799565434456,0.004139802418649197,-0.016183307394385338,0.012172795832157135,-0.0003825816384050995,-0.009943057782948017
0.023823799565434456,0.004139802418649197,-0.016183307394385338,0.012172795832157135,-0.0003825816384050995,-0.009943057782948017
0.0232719574123621,0.004220684990286827,-0.015735343098640442,0.012550389394164085,-0.0003583342768251896,-0.009785918518900871
0.02318497747182846,0.0042541418224573135,-0.016519267112016678,0.012172243557870388,-0.00036448994069360197,-0.010041529312729836
0.023726383224129677,0.0040546078234910965,-0.016604775562882423,0.012019501067698002,-0.00036907929461449385,-0.009774859994649887
0.024305682629346848,0.004067254718393087,-0.016528569161891937,0.012550371699035168,-0.00039730846765451133,-0.00981847196817398
0.023320592939853668,0.003932140301913023,-0.016407961025834084,0.01187992375344038,-0.0003802797000389546,-0.010173065587878227
0.02380535379052162,0.0038702203892171383,-0.016415752470493317,0.011973216198384762,-0.00040342978900298476,-0.01056654378771782
0.025134388357400894,0.004308884032070637,-0.017260286957025528,0.011574726551771164,-0.0003877939307130873,-0.010535135865211487
0.024479204788804054,0.004086785018444061,-0.016306906938552856,0.011990957893431187,-0.0005367228877730668,-0.010535667650401592
0.023730816319584846,0.003915072418749332,-0.016708742827177048,0.011916417628526688,-0.0005890004686079919,-0.01024807058274746
0.024183131754398346,0.004365698900073767,-0.01660429872572422,0.011761100962758064,-0.0006272377213463187,-0.010165875777602196
0.023653781041502953,0.004648974165320396,-0.017270121723413467,0.012734674848616123,-0.0006471475353464484,-0.010058015584945679
0.02462759055197239,0.0039937798865139484,-0.016290782019495964,0.012843870557844639,-0.0007829800597392023,-0.010507093742489815
0.02452212944626808,0.0038203762378543615,-0.01689019799232483,0.012843410484492779,-0.0008088956819847226,-0.010179940611124039
0.0246894434094429,0.003982322756201029,-0.016380582004785538,0.01295715942978859,-0.0007978143403306603,-0.010037403553724289
0.024391835555434227,0.004037888720631599,-0.01761370338499546,0.013063067570328712,-0.0007318537682294846,-0.010364863090217113
0.024722903966903687,0.004413412883877754,-0.01756402850151062,0.012308234348893166,-0.0007023029611445963,-0.009963526390492916
0.02458704635500908,0.00416885269805789,-0.0166613906621933,0.012735478579998016,-0.0006769410101696849,-0.009540781378746033
0.024881357327103615,0.004348993767052889,-0.01724279671907425,0.012554706074297428,-0.0006302620749920607,-0.009644308127462864
0.024762867018580437,0.004346974194049835,-0.016528040170669556,0.012946074828505516,-0.0005641497555188835,-0.009530040435492992
0.02503133751451969,0.004515753127634525,-0.017245249822735786,0.012716911733150482,-0.0005881982506252825,-0.009497294202446938
0.02472005784511566,0.004183036275207996,-0.01665138266980648,0.013277455233037472,-0.0005409449804574251,-0.010273745283484459
0.024438627064228058,0.004163698758929968,-0.017174091190099716,0.013231051154434681,-0.0005685040378011763,-0.009434720501303673
0.024839436635375023,0.004124071449041367,-0.017530852928757668,0.013313411734998226,-0.0005260197212919593,-0.009612861089408398
0.024853458628058434,0.004443110898137093,-0.01688256859779358,0.013509802520275116,-0.0005502401036210358,-0.010492690838873386
0.02541603520512581,0.004609913565218449,-0.017419936135411263,0.012874608859419823,-0.0005959118716418743,-0.01026924978941679
0.0253711249679327,0.004917736165225506,-0.016818229109048843,0.01276377122849226,-0.0006468597566708922,-0.01026708260178566
0.023725949227809906,0.00462538655847311,-0.017048873007297516,0.012568032369017601,-0.0006755407666787505,-0.010423844680190086
0.023725949227809906,0.00462538655847311,-0.017048873007297516,0.012568032369017601,-0.0006755407666787505,-0.010423844680190086
0.025913434103131294,0.004273819737136364,-0.017083853483200073,0.012998783029615879,-0.0006863023154437542,-0.010385180823504925
0.02574991062283516,0.004491750616580248,-0.01648683473467827,0.012754143215715885,-0.000650832720566541,-0.010307458229362965
0.025375258177518845,0.004835930187255144,-0.016992898657917976,0.012949197553098202,-0.0008011531317606568,-0.010614647530019283
0.025386502966284752,0.004863059148192406,-0.01680532656610012,0.012743255123496056,-0.0008233929402194917,-0.0107194809243083
0.025298748165369034,0.004685066174715757,-0.01715162955224514,0.012862415984272957,-0.0007800344610586762,-0.010787169449031353
0.025303153321146965,0.005134267266839743,-0.017924422398209572,0.013036343269050121,-0.0007398315356113017,-0.010784139856696129
0.025935644283890724,0.00447398517280817,-0.017040088772773743,0.012480412609875202,-0.0007467193063348532,-0.010929206386208534
0.026673834770917892,0.004446221049875021,-0.017060356214642525,0.013080284930765629,-0.0006867148331366479,-0.01114857941865921
0.02688300795853138,0.004394073039293289,-0.016877785325050354,0.01298042107373476,-0.0006396745448000729,-0.010993868112564087
0.025672024115920067,0.004446272738277912,-0.017435479909181595,0.013741266913712025,-0.0005678804591298103,-0.010859344154596329
0.026214944198727608,0.005030406638979912,-0.016860108822584152,0.014037089422345161,-0.000537885760422796,-0.01077079027891159
0.026494616642594337,0.0048260255716741085,-0.017301585525274277,0.013646951876580715,-0.0004941154620610178,-0.01117927860468626
0.025950884446501732,0.00470687123015523,-0.016994982957839966,0.014012601226568222,-0.0005231027607806027,-0.011256536468863487
0.026407277211546898,0.004262831062078476,-0.017404228448867798,0.013578138314187527,-0.00048721840721555054,-0.011176710948348045
0.02710861712694168,0.004492555744946003,-0.01786036789417267,0.013437418267130852,-0.000508316676132381,-0.011144168674945831
0.02674320712685585,0.004669039510190487,-0.017275303602218628,0.013136683031916618,-0.00048191117821261287,-0.011076330207288265
0.026636356487870216,0.004723128862679005,-0.017972219735383987,0.013266162015497684,-0.0004655722586903721,-0.011101990938186646
0.025938812643289566,0.0049770670011639595,-0.017313631251454353,0.013456153683364391,-0.0004368201189208776,-0.011339442804455757
0.02629493735730648,0.004914584569633007,-0.017401888966560364,0.01329701766371727,-0.0003991211124230176,-0.011084424331784248
0.02735854685306549,0.00429169274866581,-0.017737071961164474,0.013813719153404236,-0.0004347533395048231,-0.011149543337523937
0.027528828009963036,0.004285331815481186,-0.017429403960704803,0.013215546496212482,-0.0004064569075126201,-0.010779496282339096
0.027352560311555862,0.004603435285389423,-0.01798047497868538,0.0134288864210248,-0.0004246072203386575,-0.010763786733150482
0.027462368831038475,0.004741713870316744,-0.01708550937473774,0.013265542685985565,-0.00041132650221697986,-0.011073289439082146
0.02751358598470688,0.00518943602219224,-0.017659511417150497,0.013896036893129349,-0.00038699456490576267,-0.011422237381339073
0.02768940106034279,0.005464690737426281,-0.01837974414229393,0.013035264797508717,-0.0004030306008644402,-0.011533128097653389
0.02763930708169937,0.005077765788882971,-0.017857426777482033,0.013565901666879654,-0.00039303855737671256,-0.011810769326984882
0.027017170563340187,0.004753110930323601,-0.018215041607618332,0.013740655966103077,-0.0003734336351044476,-0.011418713256716728
0.028294052928686142,0.004779711365699768,-0.018348051235079765,0.013914605602622032,-0.0003550632391124964,-0.01111469604074955
0.027951868250966072,0.0051646484062075615,-0.01834893226623535,0.01377472560852766,-0.00036856852238997817,-0.01117259357124567
0.027665438130497932,0.005130840931087732,-0.018307864665985107,0.014209896326065063,-0.00034550545387901366,-0.011446600779891014
0.027665438130497932,0.005130840931087732,-0.018307864665985107,0.014209896326065063,-0.00034550545387901366,-0.011446600779891014
0.027732690796256065,0.005305423401296139,-0.01789775863289833,0.01386607438325882,-0.00036838819505646825,-0.011568138375878334
0.027959657832980156,0.0045982482843101025,-0.018396278843283653,0.01445477269589901,-0.00035863061202690005,-0.011724953539669514
0.02785647101700306,0.004542686510831118,-0.018857985734939575,0.014316502958536148,-0.0003785739536397159,-0.01211864035576582
0.028089426457881927,0.004588617477566004,-0.018638940528035164,0.01482759602367878,-0.0003693584876600653,-0.01148553192615509
0.028756167739629745,0.005047018639743328,-0.01796482875943184,0.014617438428103924,-0.00039293040754273534,-0.011293873190879822
0.028332805261015892,0.005045358091592789,-0.018474116921424866,0.015010413713753223,-0.00037864389014430344,-0.011631214991211891
0.028857404366135597,0.00500252703204751,-0.01932147890329361,0.014780432917177677,-0.0005529318004846573,-0.012447468005120754
0.02814866602420807,0.004787342622876167,-0.0185623150318861,0.0141268540173769,-0.0005802079103887081,-0.012076701037585735
0.02879556268453598,0.0045172288082540035,-0.0180506631731987,0.014357254840433598,-0.0005780736682936549,-0.011974000371992588
0.029197363182902336,0.00441541476175189,-0.019346915185451508,0.014015818946063519,-0.0005707241944037378,-0.012275483459234238
0.028801923617720604,0.004898456856608391,-0.018513202667236328,0.014297891408205032,-0.0007570782909169793,-0.01180869061499834
0.029119029641151428,0.005027716513723135,-0.017614422366023064,0.013944183476269245,-0.0007602890254929662,-0.012156398966908455
0.029214663431048393,0.004787040408700705,-0.01837693154811859,0.014613422565162182,-0.0006929559167474508,-0.011918552219867706
0.02959384024143219,0.004414406139403582,-0.018765950575470924,0.01405023317784071,-0.0007039326010271907,-0.01225499901920557
0.029441870748996735,0.004522465169429779,-0.01860024407505989,0.014200697652995586,-0.0006439550197683275,-0.012255285866558552
0.029436886310577393,0.004683861508965492,-0.01860620453953743,0.014116204343736172,-0.0006460501463152468,-0.012411006726324558
0.029870666563510895,0.004391710739582777,-0.018122099339962006,0.014623540453612804,-0.0006101861363276839,-0.012617118656635284
0.03045070730149746,0.0042569576762616634,-0.018486160784959793,0.014016648754477501,-0.0005664989002980292,-0.012396433390676975
0.031329333782196045,0.004396634642034769,-0.018900446593761444,0.014237908646464348,-0.000579687359277159,-0.012593906372785568
0.030029311776161194,0.004597888328135014,-0.018395155668258667,0.014140943065285683,-0.0005878226947970688,-0.012660120613873005
0.030029311776161194,0.004597888328135014,-0.018395155668258667,0.014140943065285683,-0.0005878226947970688,-0.012660120613873005
0.029538780450820923,0.004598207306116819,-0.018704229965806007,0.014561256393790245,-0.0006149511318653822,-0.012637553736567497
0.030921511352062225,0.004355532582849264,-0.019196685403585434,0.014320130459964275,-0.0006078692385926843,-0.013009557500481606
0.030777940526604652,0.004331110045313835,-0.018411964178085327,0.014696786180138588,-0.000861597596667707,-0.013182897120714188
0.0303625650703907,0.004179493524134159,-0.01901186630129814,0.014703062362968922,-0.0009154084254987538,-0.012885907664895058
0.031343333423137665,0.004837850108742714,-0.01909809559583664,0.014943815767765045,-0.0009321498218923807,-0.01276614610105753
0.03159839287400246,0.004445318598300219,-0.018528174608945847,0.014700738713145256,-0.001037988462485373,-0.01266405824571848
0.03086148388683796,0.004490911960601807,-0.018784215673804283,0.014985164627432823,-0.001034532324410975,-0.012574708089232445
0.029820488765835762,0.00421633617952466,-0.019129374995827675,0.014683728106319904,-0.0009044759790413082,-0.012294071726500988
0.03072541393339634,0.004265965893864632,-0.018670544028282166,0.01486143283545971,-0.0008383732056245208,-0.01176717970520258
0.031448572874069214,0.004151246976107359,-0.019254958257079124,0.014724696055054665,-0.0007877730531617999,-0.012484368868172169
0.03094080463051796,0.004551681689918041,-0.018307890743017197,0.014782708138227463,-0.0007222231361083686,-0.012925836257636547
0.03121943213045597,0.004292262718081474,-0.019133014604449272,0.015442309901118279,-0.0006156848394311965,-0.013172665610909462
0.031033966690301895,0.0044629438780248165,-0.019036833196878433,0.01501635741442442,-0.0005391952581703663,-0.012759655714035034
0.0316605381667614,0.004219069145619869,-0.018674388527870178,0.015240652486681938,-0.0005704525392502546,-0.01270030252635479
0.03151806443929672,0.004324217326939106,-0.01903785765171051,0.015064871869981289,-0.000563042878638953,-0.012405995279550552
0.03145734220743179,0.004546124488115311,-0.018790049478411674,0.015305566601455212,-0.0005519059486687183,-0.012862779200077057
0.03164944425225258,0.004705567378550768,-0.018850315362215042,0.01500315498560667,-0.000544977723620832,-0.01301781926304102
0.03149489313364029,0.004428441170603037,-0.01920182816684246,0.015270891599357128,-0.0005366263212636113,-0.013586399145424366
0.03122008591890335,0.004483600612729788,-0.018834983929991722,0.015504169277846813,-0.0005668964004144073,-0.013773207552731037
0.03167595714330673,0.004217910580337048,-0.018859760835766792,0.015660643577575684,-0.0006019282154738903,-0.01336754858493805
0.0315566249191761,0.004171277396380901,-0.019041139632463455,0.015588585287332535,-0.0005640987074002624,-0.012798331677913666
0.0315566249191761,0.004171277396380901,-0.019041139632463455,0.015588585287332535,-0.0005640987074002624,-0.012798331677913666
0.03143904358148575,0.00428486755117774,-0.018922429531812668,0.015267075039446354,-0.0005533432704396546,-0.012794172391295433
0.031118514016270638,0.0044077797792851925,-0.01901286467909813,0.01547983568161726,-0.0005429485463537276,-0.01293857116252184
0.032575905323028564,0.00449043232947588,-0.018968120217323303,0.01510184071958065,-0.0005687590455636382,-0.012859590351581573
0.03302830457687378,0.004294585902243853,-0.01867474615573883,0.015531700104475021,-0.000532125064637512,-0.013171589933335781
0.03217490017414093,0.004473710898309946,-0.019275058060884476,0.015129005536437035,-0.0006015897379256785,-0.013290217146277428
0.030468694865703583,0.004238481167703867,-0.019558614119887352,0.015609325841069221,-0.0005387497949413955,-0.013237732462584972
0.030824977904558182,0.004277108237147331,-0.01866069622337818,0.015100455842912197,-0.0005708850803785026,-0.014243009500205517
0.03213730826973915,0.004213656298816204,-0.01911088638007641,0.015468817204236984,-0.0005215535056777298,-0.013384337536990643
0.03196687996387482,0.004297913517802954,-0.01945432461798191,0.015405033715069294,-0.0005340371862985194,-0.013204419985413551
0.03192698583006859,0.0045002843253314495,-0.01916821114718914,0.01561663392931223,-0.0005088677862659097,-0.013400890864431858
0.032615870237350464,0.004374809563159943,-0.01924852840602398,0.01591712422668934,-0.0005214277189224958,-0.01317565981298685
0.03290407359600067,0.004510096274316311,-0.019118089228868484,0.015837954357266426,-0.0005032651242800057,-0.01345253735780716
0.031729817390441895,0.0042183296754956245,-0.019010212272405624,0.015758827328681946,-0.0005080480477772653,-0.013752722181379795
0.03140178695321083,0.004004472400993109,-0.019702786579728127,0.015368394553661346,-0.0005454827332869172,-0.013499243184924126
0.03230556473135948,0.004112467169761658,-0.01992773450911045,0.014891428872942924,-0.0005704271607100964,-0.013728687539696693
0.032328397035598755,0.004068629816174507,-0.019089024513959885,0.015674328431487083,-0.0005612867535091937,-0.01398804783821106
0.03250301256775856,0.0043063685297966,-0.01943759247660637,0.015760404989123344,-0.0008146886830218136,-0.013664470985531807
0.032195184379816055,0.003995634149760008,-0.01954757049679756,0.01610408164560795,-0.0008404558757320046,-0.013892521150410175
0.03218693286180496,0.0038274694234132767,-0.019598688930273056,0.015836793929338455,-0.0008490152540616691,-0.013781930319964886
0.032680049538612366,0.004343526903539896,-0.02059018239378929,0.01600252464413643,-0.0008062988636083901,-0.01402379758656025
0.03270198032259941,0.004181746393442154,-0.020160116255283356,0.01610577665269375,-0.0009066619677469134,-0.013830087147653103
0.03252759948372841,0.003935730550438166,-0.019108833745121956,0.01666458509862423,-0.0009148598765023053,-0.013880372978746891
0.03249578922986984,0.0037802145816385746,-0.01992068625986576,0.017032068222761154,-0.0009224133682437241,-0.013682750053703785
0.033352822065353394,0.004210448358207941,-0.020005175843834877,0.016734100878238678,-0.0008970227790996432,-0.01400184165686369
0.031655099242925644,0.004221321549266577,-0.020145321264863014,0.01639745570719242,-0.0008209176594391465,-0.014364124275743961
0.03328908607363701,0.0039315661415457726,-0.01995682530105114,0.015777843073010445,-0.0007874903967604041,-0.014492745511233807
0.03328908607363701,0.0039315661415457726,-0.01995682530105114,0.015777843073010445,-0.0007874903967604041,-0.014492745511233807
0.033084381371736526,0.003980094101279974,-0.02024616114795208,0.016433443874120712,-0.0007881607743911445,-0.013825890608131886
0.03308405727148056,0.00385394599288702,-0.01946103945374489,0.015887310728430748,-0.0007722016307525337,-0.013915257528424263
0.03290112316608429,0.003699726425111294,-0.02003048174083233,0.015956973657011986,-0.0007346768397837877,-0.013960687443614006
0.03315480425953865,0.0035684662871062756,-0.01946936547756195,0.01607755571603775,-0.0007485226378776133,-0.014304513111710548
0.03321858122944832,0.003719107247889042,-0.01979060098528862,0.01616704650223255,-0.0007801862084306777,-0.014060853980481625
0.03341836854815483,0.003907336387783289,-0.020132310688495636,0.017102913931012154,-0.0008158410782925785,-0.014240185730159283
0.03431978449225426,0.003840119345113635,-0.019975000992417336,0.017040833830833435,-0.000828313292004168,-0.014066719450056553
0.0337950773537159,0.003693356877192855,-0.02010302245616913,0.017225494608283043,-0.000836881750728935,-0.014455384574830532
0.033941034227609634,0.0036413646303117275,-0.019966304302215576,0.01704355701804161,-0.0009354899520985782,-0.01437135599553585
0.03422406315803528,0.003694048384204507,-0.02047054097056389,0.016838591545820236,-0.0009067932260222733,-0.014366925694048405
0.03377465903759003,0.0037975765299052,-0.020197628065943718,0.017086826264858246,-0.0008377647027373314,-0.014174972660839558
0.03403409197926521,0.0038279262371361256,-0.019349215552210808,0.016306638717651367,-0.00084150634938851,-0.014677607454359531
0.03467465564608574,0.004295604769140482,-0.02022622339427471,0.016557253897190094,-0.0008154211682267487,-0.014305145479738712
0.035274263471364975,0.004574115853756666,-0.019946347922086716,0.01675080694258213,-0.0008143376326188445,-0.014203322120010853
0.034756697714328766,0.004198302049189806,-0.020374590530991554,0.01668262667953968,-0.0008251899853348732,-0.014588688500225544
0.033704522997140884,0.00395752489566803,-0.02051864191889763,0.016519814729690552,-0.0008341995999217033,-0.01444387435913086
0.03507424518465996,0.004315453115850687,-0.020125212147831917,0.016584884375333786,-0.0008876072242856026,-0.014466577209532261
0.0347798727452755,0.004193290136754513,-0.019741788506507874,0.01652557961642742,-0.0008407753193750978,-0.014117451384663582
0.03534144163131714,0.003967279102653265,-0.02018705941736698,0.016969090327620506,-0.0008466727449558675,-0.013963011093437672
0.036149751394987106,0.00414741737768054,-0.020656339824199677,0.016627920791506767,-0.0007395822321996093,-0.014445444568991661
0.03551433980464935,0.00445003155618906,-0.020309561863541603,0.01681974157691002,-0.0007512513548135757,-0.014637574553489685
0.03456283360719681,0.0042127640917897224,-0.020220503211021423,0.016489505767822266,-0.0007601800607517362,-0.014577182941138744
0.0345548577606678,0.004029753617942333,-0.020713211968541145,0.016224168241024017,-0.00072671560337767,-0.01477128453552723
0.035640738904476166,0.003962768707424402,-0.020302975550293922,0.016718069091439247,-0.0007561235688626766,-0.014743746258318424
0.03422899171710014,0.0039648329839110374,-0.020163409411907196,0.01632094196975231,-0.0007666760357096791,-0.014547126367688179
0.03422899171710014,0.0039648329839110374,-0.020163409411907196,0.01632094196975231,-0.0007666760357096791,-0.014547126367688179
0.03623063117265701,0.00387551705352962,-0.020037097856402397,0.01659686677157879,-0.0007432159036397934,-0.014633258804678917
0.03628949448466301,0.004387108609080315,-0.020058024674654007,0.016681060194969177,-0.0007132299360819161,-0.014960959553718567
0.03523167222738266,0.0045975432731211185,-0.01986159011721611,0.01674610748887062,-0.0007683457806706429,-0.014721773564815521
0.035980723798274994,0.0041641416028141975,-0.020262859761714935,0.016856562346220016,-0.0007945637917146087,-0.014911934733390808
0.036006517708301544,0.003970004618167877,-0.020643623545765877,0.016454558819532394,-0.0007791203679516912,-0.014710145071148872
0.03543489798903465,0.003911920823156834,-0.020083947107195854,0.017059801146388054,-0.0007915443857200444,-0.01486925594508648
0.03583592176437378,0.003857842180877924,-0.02030612900853157,0.016774991527199745,-0.0007580912788398564,-0.014966870658099651
0.03610381484031677,0.0038065104745328426,-0.020589299499988556,0.0171323511749506,-0.0008327601244673133,-0.015083587728440762
0.036140233278274536,0.003877881681546569,-0.021056363359093666,0.017152609303593636,-0.0008465141872875392,-0.014749187044799328
0.0358484648168087,0.004348390735685825,-0.02049608901143074,0.017212456092238426,-0.0008294127183035016,-0.015084016136825085
0.03657437860965729,0.0045592933893203735,-0.021037369966506958,0.017712784931063652,-0.0007573688053525984,-0.015123995952308178
0.037638235837221146,0.0041325329802930355,-0.02048826776444912,0.01720585860311985,-0.0007673261570744216,-0.015468904748558998
0.03541315719485283,0.004380137659609318,-0.02059733308851719,0.01727108471095562,-0.0008907223818823695,-0.01555396057665348
0.03682132437825203,0.004242658615112305,-0.021009497344493866,0.01766841672360897,-0.0008948390022851527,-0.015335679985582829
0.03658528998494148,0.004303319845348597,-0.021320730447769165,0.018432315438985825,-0.0010955211473628879,-0.01586129516363144
0.03754742071032524,0.004593630321323872,-0.020495539531111717,0.017651980742812157,-0.0011265286011621356,-0.015743928030133247
0.03748494014143944,0.004687702748924494,-0.021095035597682,0.017795095220208168,-0.0010910596465691924,-0.01563665270805359
0.036490242928266525,0.004410425666719675,-0.0218227319419384,0.017639344558119774,-0.001062453375197947,-0.01526775024831295
0.035921625792980194,0.004523815121501684,-0.02159617282450199,0.01694263331592083,-0.0010085694957524538,-0.015084469690918922
0.037856873124837875,0.004257157910615206,-0.020709428936243057,0.0183921717107296,-0.0009743686532601714,-0.015846947208046913
0.03763316571712494,0.004038979299366474,-0.021555477753281593,0.01840529590845108,-0.0008579814457334578,-0.01599935069680214
0.03691263869404793,0.004220100119709969,-0.0213002972304821,0.017964938655495644,-0.0008566230535507202,-0.016464989632368088
0.03757522627711296,0.004763762466609478,-0.02082272246479988,0.01777515932917595,-0.0008398005156777799,-0.01631029322743416
0.03748517856001854,0.00468252319842577,-0.021203409880399704,0.01729571633040905,-0.000776586530264467,-0.015897229313850403
0.03743893653154373,0.004284469876438379,-0.021831857040524483,0.017868688330054283,-0.0007756685372442007,-0.016072046011686325
0.03743893653154373,0.004284469876438379,-0.021831857040524483,0.017868688330054283,-0.0007756685372442007,-0.016072046011686325
0.037550125271081924,0.00400400348007679,-0.021460000425577164,0.01831781305372715,-0.0007914517191238701,-0.016495712101459503
0.03780912235379219,0.004205828532576561,-0.021283961832523346,0.018885232508182526,-0.0007702954462729394,-0.017069267109036446
0.03780912235379219,0.004205828532576561,-0.021283961832523346,0.018885232508182526,-0.0007702954462729394,-0.017069267109036446
0.03815812990069389,0.004120666068047285,-0.021792475134134293,0.017686236649751663,-0.0009258321369998157,-0.016196979209780693
0.03815812990069389,0.004120666068047285,-0.021792475134134293,0.017686236649751663,-0.0009258321369998157,-0.016196979209780693
0.03775285929441452,0.004465110599994659,-0.0211816243827343,0.018056701868772507,-0.0009178381296806037,-0.016130851581692696
0.03870678320527077,0.004164126701653004,-0.021495308727025986,0.017971867695450783,-0.0008922487613745034,-0.01576792076230049
0.037997566163539886,0.004479749593883753,-0.021529914811253548,0.018356001004576683,-0.0008169852080754936,-0.016100607812404633
0.03831187263131142,0.004488140810281038,-0.021471338346600533,0.01893162727355957,-0.0007521575316786766,-0.016897784546017647
0.03952157869935036,0.004351015202701092,-0.021321991458535194,0.018538961187005043,-0.0006630172720178962,-0.017275789752602577
0.03865810111165047,0.004265911877155304,-0.021624872460961342,0.018572241067886353,-0.0006860663997940719,-0.017126722261309624
0.03838322311639786,0.004296828527003527,-0.02195453643798828,0.018334725871682167,-0.0007029860280454159,-0.016723060980439186
0.038897305727005005,0.0044152564369142056,-0.02225741744041443,0.017845584079623222,-0.0006877790438011289,-0.016858605667948723
0.039234843105077744,0.0045738620683550835,-0.02117874100804329,0.018444787710905075,-0.0006642473163083196,-0.016973307356238365
0.03925006464123726,0.004390435758978128,-0.02169092744588852,0.018079843372106552,-0.0006870920769870281,-0.01711597852408886
0.03904932364821434,0.004366735927760601,-0.0220713559538126,0.018206827342510223,-0.0007127507124096155,-0.016897713765501976
0.03862703591585159,0.00470737973228097,-0.021416926756501198,0.018135584890842438,-0.0006859898567199707,-0.017022378742694855
0.03891697898507118,0.004797858651727438,-0.021385768428444862,0.018415743485093117,-0.0007039728807285428,-0.017361102625727654
0.040558043867349625,0.004860006272792816,-0.02145971916615963,0.018802573904395103,-0.000928276393096894,-0.016787655651569366
0.03926016390323639,0.004314740654081106,-0.021265259012579918,0.018143082037568092,-0.0009892932139337063,-0.016792790964245796
0.03794755041599274,0.0042997184209525585,-0.020794805139303207,0.018006017431616783,-0.0009977379813790321,-0.016653437167406082
0.03936171904206276,0.004574925173074007,-0.021426482126116753,0.018255360424518585,-0.0012952391989529133,-0.017282219603657722
0.040010176599025726,0.00467418460175395,-0.021791279315948486,0.017901837825775146,-0.0012559846509248018,-0.01719004288315773
0.04109008237719536,0.004917020909488201,-0.02153373695909977,0.01846444047987461,-0.0011195854749530554,-0.017194131389260292
0.04038124904036522,0.004806916695088148,-0.020998533815145493,0.018689267337322235,-0.0010810332605615258,-0.01729249209165573
0.03846984729170799,0.004657385870814323,-0.02174166403710842,0.01862831600010395,-0.0009619515622034669,-0.017087236046791077
0.03907332941889763,0.004664567299187183,-0.022057633846998215,0.018833357840776443,-0.0009274975745938718,-0.017989151179790497
0.040582988411188126,0.004435510374605656,-0.02169342152774334,0.01884901337325573,-0.0009218151681125164,-0.017087174579501152
0.04013726860284805,0.004548458848148584,-0.021522926166653633,0.01895768567919731,-0.000934416544623673,-0.017039120197296143
0.04013726860284805,0.004548458848148584,-0.021522926166653633,0.01895768567919731,-0.000934416544623673,-0.017039120197296143
0.04001619294285774,0.004502872936427593,-0.021862369030714035,0.018945153802633286,-0.0009396524983458221,-0.017717527225613594
0.03979416936635971,0.004622618667781353,-0.021695764735341072,0.01873169280588627,-0.0009470203658565879,-0.017588987946510315
0.039801038801670074,0.004154941067099571,-0.02203250490128994,0.018729092553257942,-0.0009769657626748085,-0.01774776168167591
0.04030727222561836,0.0038818710017949343,-0.02232038415968418,0.019071483984589577,-0.0009851871291175485,-0.017487183213233948
0.03977715224027634,0.003857592586427927,-0.02226918563246727,0.01846309006214142,-0.001045203534886241,-0.01709512434899807
0.03995630890130997,0.004432023037225008,-0.022404301911592484,0.018573466688394547,-0.0009840349666774273,-0.017238914966583252
0.03969277814030647,0.0046395654790103436,-0.022405050694942474,0.018663795664906502,-0.0008968451293185353,-0.01744045875966549
0.040036674588918686,0.004227556753903627,-0.021364757791161537,0.018346428871154785,-0.000883368426002562,-0.017758609727025032
0.04098086431622505,0.0039762104861438274,-0.02186681516468525,0.018746268004179,-0.0008845069678500295,-0.018127452582120895
