davideferrari95/blind_handover_controller/data/Test 207 - [2024-02-08 -- 12-06-36]/joint_states_data.csv
shoulder_pan_joint,shoulder_lift_joint,elbow_joint,wrist_1_joint,wrist_2_joint,wrist_3_joint
0.006037069484591484,0.012001866474747658,-0.00938770454376936,-0.004917485639452934,-0.0,0.006095376331359148
0.005486924666911364,0.011819034814834595,-0.009892807342112064,-0.004274602513760328,-0.0,0.006218217313289642
0.005486924666911364,0.011819034814834595,-0.009892807342112064,-0.004274602513760328,-0.0,0.006218217313289642
0.005414997227489948,0.011971283704042435,-0.010507193394005299,-0.003988230135291815,-0.0,0.005714321043342352
0.00571380415931344,0.012955944053828716,-0.009519611485302448,-0.004241345450282097,-0.0,0.005860419478267431
0.0056687770411372185,0.011256550438702106,-0.009621426463127136,-0.004579375963658094,-0.0,0.005524326115846634
0.005784047767519951,0.0113014942035079,-0.01059121172875166,-0.004492029082030058,-0.0,0.005707870703190565
0.005545035004615784,0.01110059767961502,-0.009867939166724682,-0.004071752540767193,-0.0,0.005770839750766754
0.0056950123980641365,0.011836051940917969,-0.009675784036517143,-0.0039008206222206354,-0.0,0.005500756669789553
0.0056950123980641365,0.011836051940917969,-0.009675784036517143,-0.0039008206222206354,-0.0,0.005500756669789553
0.005334535613656044,0.011637943796813488,-0.010228143073618412,-0.0034503482747823,-0.0,0.005442573223263025
0.005709927063435316,0.011800581589341164,-0.009663171134889126,-0.0034746606834232807,-0.0,0.0056371018290519714
0.005931416526436806,0.011572258546948433,-0.009907511062920094,-0.003678851295262575,-0.0,0.0057721068151295185
0.005791483446955681,0.011061218567192554,-0.00938416924327612,-0.004307781346142292,-0.0,0.0061340839602053165
0.006189003586769104,0.0117689473554492,-0.00877327285706997,-0.004576756153255701,-0.0,0.00564716849476099
0.0056522139348089695,0.011551087722182274,-0.009622083976864815,-0.004307358525693417,-0.0,0.005914164241403341
0.006006119307130575,0.01129885483533144,-0.010039868764579296,-0.003930968698114157,-0.0,0.00563823152333498
0.005684726405888796,0.012290209531784058,-0.009279783815145493,-0.003761513391509652,-0.0,0.005856099538505077
0.005753275938332081,0.01193842664361,-0.00947724562138319,-0.0033870546612888575,-0.0,0.0057052131742239
0.005802647210657597,0.012151933275163174,-0.009976723231375217,-0.0035792377311736345,-0.0,0.005722810048609972
0.0054823262616992,0.011771805584430695,-0.009475212544202805,-0.003826320171356201,-0.0,0.006300507113337517
0.005448253825306892,0.011494811624288559,-0.009422910399734974,-0.003905465127900243,-0.0,0.006191154010593891
0.0063164918683469296,0.0115433344617486,-0.00995421502739191,-0.0038962610997259617,-0.0,0.005489999894052744
0.005857185926288366,0.012071955017745495,-0.009287960827350616,-0.003466918831691146,-0.0,0.005394144915044308
0.005680594127625227,0.011781013570725918,-0.009840250946581364,-0.0031724972650408745,-0.0,0.005238054785877466
0.005564798600971699,0.011804530397057533,-0.009552746079862118,-0.0031353773083537817,-0.0,0.005457474384456873
0.006399240810424089,0.01229101326316595,-0.008982236497104168,-0.0033340496011078358,-0.0,0.005712171550840139
0.0059494683519005775,0.011565494351089,-0.009382632561028004,-0.003394458442926407,-0.0,0.005955711007118225
0.005738699808716774,0.012303889729082584,-0.009299257770180702,-0.003503537504002452,-0.0,0.005569792818278074
0.006166244391351938,0.012486154213547707,-0.009756733663380146,-0.003702260786667466,-0.0,0.005065855570137501
0.005639422219246626,0.011505434289574623,-0.009242379106581211,-0.0038765526842325926,-0.0,0.0050991130992770195
0.006311032921075821,0.011166770942509174,-0.009510860778391361,-0.003917707595974207,-0.0,0.005095569416880608
0.006219645496457815,0.011234520934522152,-0.0086877616122365,-0.0038556260988116264,-0.0,0.0056977407075464725
0.0058680810034275055,0.011786876246333122,-0.009221423417329788,-0.00360979069955647,-0.0,0.005282183177769184
0.006115345750004053,0.011638622730970383,-0.008829578757286072,-0.0034224928822368383,-0.0,0.005239687394350767
0.005609739571809769,0.011758673004806042,-0.008787211030721664,-0.0035966357681900263,-0.0,0.005602225195616484
0.005923666059970856,0.011420919559895992,-0.009031037800014019,-0.00376456743106246,-0.0,0.005605428479611874
0.006089705508202314,0.011185795068740845,-0.008976745419204235,-0.004267438780516386,-0.0,0.00530846556648612
0.006098578684031963,0.011458909139037132,-0.008875922299921513,-0.00435227295383811,-0.0,0.005628193262964487
0.006098578684031963,0.011458909139037132,-0.008875922299921513,-0.00435227295383811,-0.0,0.005628193262964487
0.006129319779574871,0.010990340262651443,-0.00933658704161644,-0.004504906479269266,-0.0,0.0053948708809912205
0.005448860581964254,0.011250500567257404,-0.009190843440592289,-0.004495070781558752,-0.0,0.005718046333640814
0.005832305643707514,0.011154180392622948,-0.00875798985362053,-0.004086861852556467,-0.0,0.005461545195430517
0.0059587364085018635,0.01085436251014471,-0.00857315119355917,-0.003831398906186223,-0.0,0.005120495799928904
0.006285451352596283,0.01188574731349945,-0.00939004123210907,-0.003383773611858487,-0.0,0.005612695589661598
0.005764855537563562,0.01156897097826004,-0.009633705951273441,-0.00395307969301939,-0.0,0.0055365851148962975
0.005686284974217415,0.01123862061649561,-0.008826595731079578,-0.004523038398474455,-0.0,0.0053490689024329185
0.006167140323668718,0.011236433871090412,-0.009084166027605534,-0.004706255160272121,-0.0,0.005043961573392153
0.006057788617908955,0.010822402313351631,-0.009200755506753922,-0.004444944206625223,-0.0,0.005293157417327166
0.0062813544645905495,0.011376655660569668,-0.008954436518251896,-0.004069569520652294,-0.0,0.005616297945380211
0.00654625054448843,0.011736794374883175,-0.008985123597085476,-0.004242336377501488,-0.0,0.006116642151027918
0.006399563048034906,0.01213071495294571,-0.008809773251414299,-0.0034206302370876074,-0.0,0.005308961030095816
0.006098208948969841,0.011591438204050064,-0.009172184392809868,-0.0030755335465073586,-0.0,0.005417403765022755
0.005984076298773289,0.011618352495133877,-0.009287131018936634,-0.003374616615474224,-0.0,0.005313973408192396
0.005927341524511576,0.011123904958367348,-0.008716854266822338,-0.004335490986704826,-0.0,0.005287758074700832
0.005641577299684286,0.011022021993994713,-0.0091858496889472,-0.004645798355340958,-0.0,0.005141477566212416
0.005498042795807123,0.011265270411968231,-0.009086057543754578,-0.004220760893076658,-0.0,0.005199565552175045
0.005461289547383785,0.010899508371949196,-0.008789963088929653,-0.0038591092452406883,-0.0,0.005349317565560341
0.005568171851336956,0.011062011122703552,-0.008472083136439323,-0.0036281696520745754,-0.0,0.005311064887791872
0.005311612505465746,0.011059647426009178,-0.009135274216532707,-0.0036321920342743397,-0.0,0.005277441814541817
0.005732081830501556,0.01084081456065178,-0.0088391974568367,-0.004097409546375275,-0.0,0.004977050237357616
0.005471213720738888,0.01140868104994297,-0.008355704136192799,-0.004549004603177309,-0.0,0.004899031948298216
0.005902865901589394,0.01120189018547535,-0.009736064821481705,-0.004614717792719603,-0.0,0.0049990154802799225
0.005948956590145826,0.010891375131905079,-0.009122729301452637,-0.004440212156623602,-0.0,0.005197375081479549
0.005877761170268059,0.011739884503185749,-0.009021692909300327,-0.0045040566474199295,-0.0,0.005175298545509577
0.005388223100453615,0.011512747965753078,-0.008868052624166012,-0.00420033885166049,-0.0,0.0052449763752520084
0.005361162591725588,0.011321294121444225,-0.009186425246298313,-0.0039282687939703465,-0.0,0.005091294180601835
0.005361162591725588,0.011321294121444225,-0.009186425246298313,-0.0039282687939703465,-0.0,0.005091294180601835
0.005686640739440918,0.010968819260597229,-0.008716105483472347,-0.004081140272319317,-0.0,0.0045178597792983055
0.005819077603518963,0.010703117586672306,-0.008250760845839977,-0.004211869556456804,-0.0,0.004414995200932026
0.005797233898192644,0.011261817067861557,-0.009118521586060524,-0.00438912445679307,-0.0,0.0046039968729019165
0.005824579857289791,0.010918338783085346,-0.008632378652691841,-0.00452703470364213,-0.0,0.005233197472989559
0.006046095862984657,0.011029613204300404,-0.008408021181821823,-0.004567156080156565,-0.0,0.00514215650036931
0.005546320229768753,0.011227364651858807,-0.009628986939787865,-0.0041932216845452785,-0.0,0.005074452143162489
0.00596539257094264,0.01113252155482769,-0.008973415940999985,-0.004235879983752966,-0.0,0.004826070740818977
0.006122974678874016,0.011513861827552319,-0.008804703131318092,-0.004594458732753992,-0.0,0.004486121702939272
0.0058501893654465675,0.011532256379723549,-0.008610032498836517,-0.004714093171060085,-0.0,0.004439158830791712
0.005981257651001215,0.011233781464397907,-0.008421728387475014,-0.003977918531745672,-0.0,0.005204992834478617
0.00637597031891346,0.011104783974587917,-0.008173549547791481,-0.004261418245732784,-0.0,0.005334826186299324
0.006051021162420511,0.011654812842607498,-0.008971658535301685,-0.004131668712943792,-0.0,0.005096291657537222
0.006320158485323191,0.011377131566405296,-0.009197174571454525,-0.003949710633605719,-0.0,0.004908216651529074
0.0056892032735049725,0.010951744392514229,-0.008073241449892521,-0.004196425434201956,-0.0,0.005139054264873266
0.0058126444928348064,0.011676427908241749,-0.008387260138988495,-0.0050185262225568295,-0.0,0.005265142768621445
0.006365908309817314,0.011805238202214241,-0.009442977607250214,-0.004968318156898022,-0.0,0.005015532951802015
0.005810051690787077,0.011716875247657299,-0.008597430773079395,-0.004610301926732063,-0.0,0.00534092215821147
0.005784936249256134,0.011641268618404865,-0.008151357993483543,-0.004391221329569817,-0.0,0.005021130200475454
0.00566899636760354,0.011086569167673588,-0.00944040808826685,-0.00411393865942955,-0.0,0.004535146523267031
0.006158188451081514,0.011322901584208012,-0.008543846197426319,-0.0043557994067668915,-0.0,0.0044625066220760345
0.005910841748118401,0.011359283700585365,-0.008383381180465221,-0.00466331047937274,-0.0,0.005043306387960911
0.005832648370414972,0.011427324265241623,-0.008534958586096764,-0.004775654524564743,-0.0,0.005140043795108795
0.00544721819460392,0.011529508046805859,-0.008488011546432972,-0.004504313692450523,-0.0,0.005263432394713163
0.005703332833945751,0.011319570243358612,-0.008204678073525429,-0.004512185696512461,-0.0,0.0048628090880811214
0.006482802797108889,0.01201623771339655,-0.00807453878223896,-0.004078812897205353,-0.0,0.004592619836330414
0.006581211928278208,0.011641986668109894,-0.008809532038867474,-0.004159132484346628,-0.0,0.0041634212248027325
0.006086817476898432,0.011352719739079475,-0.00857669860124588,-0.004482899326831102,-0.0,0.004414562601596117
0.006086817476898432,0.011352719739079475,-0.00857669860124588,-0.004482899326831102,-0.0,0.004414562601596117
0.0062509579584002495,0.011575245298445225,-0.008313260041177273,-0.004879163112491369,-0.0,0.004878068342804909
0.005737136118113995,0.011285373941063881,-0.008759950287640095,-0.00488645676523447,-0.0,0.004905973095446825
0.006015661172568798,0.011716550216078758,-0.008651390671730042,-0.0048654587008059025,-0.0,0.004815440159291029
0.006289111450314522,0.011171713471412659,-0.008698197081685066,-0.00431104889139533,-0.0,0.004599891137331724
0.006253489758819342,0.011127056553959846,-0.008537860587239265,-0.0043834419921040535,-0.0,0.004185858182609081
0.006040259730070829,0.011422986164689064,-0.008373686112463474,-0.004425002261996269,-0.0,0.004286532755941153
0.00617768382653594,0.011319014243781567,-0.008506996557116508,-0.004500015638768673,-0.0,0.004634936340153217
0.006100958678871393,0.011928733438253403,-0.009011276066303253,-0.005086624529212713,-0.0,0.004628587979823351
0.006476931273937225,0.011646049097180367,-0.008757518604397774,-0.004667971283197403,-0.0,0.004892772529274225
0.006177606992423534,0.011970391497015953,-0.008715267293155193,-0.0045251441188156605,-0.0,0.004230559337884188
0.006439907010644674,0.012027251534163952,-0.008515901863574982,-0.004531292710453272,-0.0,0.0038745964411646128
0.006918006576597691,0.011715169064700603,-0.009032022207975388,-0.004683369770646095,-0.0,0.004079506266862154
0.006841670256108046,0.011391631327569485,-0.008628524839878082,-0.005199538543820381,-0.0,0.004294482991099358
0.006263952236622572,0.01137702725827694,-0.008105742745101452,-0.005617943592369556,-0.0,0.004435974173247814
0.006340042222291231,0.011883209459483624,-0.00901743769645691,-0.005565995816141367,-0.0,0.004560969304293394
0.006643226835876703,0.011018692515790462,-0.00893004797399044,-0.005094846710562706,-0.0,0.00417729839682579
0.006463889963924885,0.01225965190678835,-0.008219519630074501,-0.004710790701210499,-0.0,0.0038396210875362158
0.0065975789912045,0.011365694925189018,-0.008344302885234356,-0.004793226718902588,-0.0,0.0034123898949474096
0.006758936680853367,0.011915494687855244,-0.009112050756812096,-0.005032016895711422,-0.0,0.0033293981105089188
0.006718807853758335,0.011623465456068516,-0.008318508043885231,-0.0053834468126297,-0.0,0.0035750134848058224
0.006503411568701267,0.011398090980947018,-0.008530511520802975,-0.005130575504153967,-0.0,0.00420176750048995
0.006582248955965042,0.012460196390748024,-0.009281137026846409,-0.00519001018255949,-0.0,0.004507576581090689
0.006800922565162182,0.01124567911028862,-0.008553043939173222,-0.005013997666537762,-0.0,0.0044344509951770306
0.006421554833650589,0.011205540969967842,-0.008232489228248596,-0.00482554454356432,-0.0,0.004350712522864342
0.006545635871589184,0.011639175936579704,-0.008943513967096806,-0.004876746330410242,-0.0,0.0036930181086063385
0.006758169271051884,0.011248327791690826,-0.008634544909000397,-0.00573241850361228,-0.0,0.003467237576842308
0.006401438731700182,0.011974675580859184,-0.008486639708280563,-0.005706002004444599,-0.0,0.0035729319788515568
0.006170094478875399,0.011927762068808079,-0.009010294452309608,-0.0053637041710317135,-0.0,0.004048001486808062
0.006157299503684044,0.011386402882635593,-0.009282821789383888,-0.0049276202917099,-0.0,0.004102130886167288
0.006624710280448198,0.011894889175891876,-0.008542618714272976,-0.004739235620945692,-0.0,0.004005712922662497
0.006624710280448198,0.011894889175891876,-0.008542618714272976,-0.004739235620945692,-0.0,0.004005712922662497
0.006811083760112524,0.01141846552491188,-0.00831433106213808,-0.0050963894464075565,-0.0,0.0042936187237501144
0.006952792871743441,0.011906788684427738,-0.00931461714208126,-0.005474673118442297,-0.0,0.004220578353852034
0.006400363985449076,0.010998641140758991,-0.009285945445299149,-0.005963006988167763,-0.0,0.0036266446113586426
0.007097021676599979,0.011103077791631222,-0.00825661700218916,-0.005566334817558527,-0.0,0.0032192273065447807
0.006828559096902609,0.011755228042602539,-0.008830148726701736,-0.005365164019167423,-0.0,0.0032101671677082777
0.006928779184818268,0.011477354913949966,-0.00900497566908598,-0.005183461122214794,-0.0,0.0036430347245186567
0.0068938094191253185,0.01184125617146492,-0.008398269303143024,-0.0060706292279064655,-0.0,0.0036201300099492073
0.007699741516262293,0.011841751635074615,-0.00914429035037756,-0.005975084844976664,-0.0,0.0034789557103067636
0.007064044009894133,0.011584538966417313,-0.008801320567727089,-0.005795036442577839,-0.0,0.003542496357113123
0.006748680956661701,0.011213274672627449,-0.008966762572526932,-0.0055938465520739555,-0.0,0.003633310319855809
0.006740876939147711,0.011752200312912464,-0.008562256582081318,-0.005726033356040716,-0.0,0.003593415953218937
0.007123474031686783,0.011351451277732849,-0.008661211468279362,-0.005887958221137524,-0.0,0.0034307122696191072
0.006878403015434742,0.011055389419198036,-0.008824636228382587,-0.005530103575438261,-0.0,0.0035883435048162937
0.00688814977183938,0.011332501657307148,-0.008668378926813602,-0.005325866397470236,-0.0,0.003825386054813862
0.006441567093133926,0.011016752570867538,-0.00902650598436594,-0.005019697360694408,-0.0,0.003548746695742011
0.007117060013115406,0.011899187229573727,-0.008468309417366982,-0.005431590601801872,-0.0,0.0035127040464431047
0.007714022882282734,0.011589798144996166,-0.008090481162071228,-0.005690333433449268,-0.0,0.003625348675996065
0.006991941016167402,0.011423827148973942,-0.008702768944203854,-0.006011838559061289,-0.0,0.003345778677612543
0.007067379541695118,0.01224950049072504,-0.00884386245161295,-0.005859795026481152,-0.0,0.0031377861741930246
0.007132141850888729,0.012525585480034351,-0.008681241422891617,-0.006236294750124216,-0.0,0.0029541526455432177
0.007386163808405399,0.011553610675036907,-0.008644199930131435,-0.006652772892266512,-0.0,0.0028116959147155285
0.007240679115056992,0.011052289977669716,-0.008609994314610958,-0.006835551466792822,-0.0,0.003146135015413165
0.006733923684805632,0.011196685023605824,-0.00851441454142332,-0.006089391652494669,-0.0,0.0031758539844304323
0.0067744445987045765,0.011937955394387245,-0.008430835790932178,-0.0059663765132427216,-0.0,0.003430465701967478
0.007183594163507223,0.011457898654043674,-0.008925369009375572,-0.0061919065192341805,-0.0,0.003218775847926736
0.0077371736988425255,0.011272619478404522,-0.009316916577517986,-0.006341890431940556,-0.0,0.003243627492338419
0.0077371736988425255,0.011272619478404522,-0.009316916577517986,-0.006341890431940556,-0.0,0.003243627492338419
0.007361492142081261,0.011561655439436436,-0.008461961522698402,-0.006300447974354029,-0.0,0.0032240129075944424
0.0069632213562726974,0.011321443133056164,-0.008475188165903091,-0.006199633236974478,-0.0,0.0030647108796983957
0.007356771267950535,0.011545185931026936,-0.008906872011721134,-0.005956969689577818,-0.0,0.00297250272706151
0.007818729616701603,0.011486796662211418,-0.008624170906841755,-0.006237666122615337,-0.0,0.002873924095183611
0.007381187751889229,0.01158276479691267,-0.008569223806262016,-0.006513860076665878,-0.0,0.0028981028590351343
0.007163005881011486,0.011146236211061478,-0.008350898511707783,-0.0065128193236887455,-0.0,0.002778760390356183
0.0072283814661204815,0.011760368943214417,-0.007899896241724491,-0.006406909320503473,-0.0,0.0027239411137998104
0.0076414053328335285,0.011363618075847626,-0.00886636320501566,-0.006532695144414902,-0.0,0.002812084276229143
0.007401632145047188,0.011250874027609825,-0.009670865722000599,-0.006314542144536972,-0.0,0.003189362585544586
0.007378721609711647,0.011555062606930733,-0.007979690097272396,-0.006410650908946991,-0.0,0.0031562051735818386
0.007123774848878384,0.0111593808978796,-0.00806550681591034,-0.006269747857004404,-0.0,0.003054173896089196
0.007643989287316799,0.011729840189218521,-0.008783758617937565,-0.005736368242651224,-0.0,0.0028511073905974627
0.00746924290433526,0.011219246312975883,-0.008402397856116295,-0.0065345149487257,-0.0,0.002917425474151969
0.007419500034302473,0.011031720787286758,-0.008357026614248753,-0.006669757887721062,-0.0,0.002925615757703781
0.007558309938758612,0.01140985544770956,-0.009099360555410385,-0.006468904670327902,-0.0,0.002920581493526697
0.007457464002072811,0.011283187195658684,-0.008623655885457993,-0.006220097653567791,-8.309016266139224e-07,0.002904355525970459
0.007330026477575302,0.011757862754166126,-0.008742809295654297,-0.006557077635079622,-5.4251938053084814e-08,0.0029472708702087402
0.0076154558919370174,0.01092961709946394,-0.008687254972755909,-0.006855752319097519,-3.542264259692729e-09,0.0027679225895553827
0.007600289769470692,0.010777661576867104,-0.00832265242934227,-0.007152034901082516,-2.3128454706977664e-10,0.002776816952973604
0.00754361879080534,0.012022357434034348,-0.008357306942343712,-0.007426501717418432,-1.510122756009924e-11,0.002700382610782981
0.007434410508722067,0.011536890640854836,-0.009029424749314785,-0.006850586738437414,-9.860022954361058e-13,0.002955163363367319
0.007776807062327862,0.01137646846473217,-0.008990153670310974,-0.007053598761558533,-6.437890178638897e-14,0.0029745816718786955
0.0075360252521932125,0.011204810813069344,-0.008759497664868832,-0.007465567905455828,-4.203482315912402e-15,0.002827945863828063
0.00746654300019145,0.010920618660748005,-0.00842549279332161,-0.007415316067636013,-2.744573361050125e-16,0.002510889433324337
0.008062968961894512,0.011114460416138172,-0.008557640947401524,-0.006837768945842981,-1.792010200171412e-17,0.0021787111181765795
0.008062968961894512,0.011114460416138172,-0.008557640947401524,-0.006837768945842981,-1.792010200171412e-17,0.0021787111181765795
0.008418448269367218,0.0106774577870965,-0.008193145506083965,-0.006971948314458132,-1.1700545244793472e-18,0.002047772752121091
0.007990802638232708,0.010986918583512306,-0.008435393683612347,-0.007014054339379072,-7.639620417689554e-20,0.0019390275701880455
0.007738479413092136,0.011126570403575897,-0.00860404409468174,-0.007253905292600393,-4.988126487583852e-21,0.001978110522031784
0.007763206493109465,0.01087124552577734,-0.008364570327103138,-0.007373178843408823,0.00016676260565873235,0.002487513469532132
0.008071099407970905,0.011224482208490372,-0.007600647397339344,-0.007527267560362816,0.00030129498918540776,0.0026547035668045282
0.0078006586991250515,0.010581768117845058,-0.007419240195304155,-0.007488784845918417,0.0003197184996679425,0.0025708379689604044
0.007781410124152899,0.010293856263160706,-0.008057327009737492,-0.007517936173826456,0.0003270731831435114,0.002448905957862735
0.008123332634568214,0.010958950035274029,-0.007547095417976379,-0.007711830548942089,0.00033561541931703687,0.0020373763982206583
0.008245703764259815,0.010586658492684364,-0.007358434144407511,-0.007915989495813847,0.0003241411177441478,0.0017151142237707973
0.007885800674557686,0.01081060990691185,-0.008221483789384365,-0.007708611432462931,0.00034114852314814925,0.0018865953898057342
0.008114864118397236,0.01069865096360445,-0.00785300973802805,-0.007056174799799919,0.0003355206281412393,0.0021882851142436266
0.00790073536336422,0.011313521303236485,-0.007731720805168152,-0.00842144526541233,0.00039989888318814337,0.0022672887425869703
0.00781544204801321,0.011148332618176937,-0.007465675473213196,-0.007677974179387093,0.0004775864945258945,0.0021540045272558928
0.008396041579544544,0.010885314084589481,-0.008119354955852032,-0.0068170237354934216,0.0004785252967849374,0.001852915738709271
0.008485238067805767,0.011666138656437397,-0.0076957098208367825,-0.007045866455882788,0.00044210327905602753,0.0016067137476056814
0.008272724226117134,0.011177301406860352,-0.00816489290446043,-0.007619835902005434,0.0004721461737062782,0.0012892729137092829
0.008012311533093452,0.011919391341507435,-0.007995039224624634,-0.008548892103135586,0.0004738245334010571,0.0010720829013735056
0.008701990358531475,0.011407253332436085,-0.008262484334409237,-0.008327179588377476,0.0004712520749308169,0.0010722482111304998
0.008594968356192112,0.010349949821829796,-0.007997649721801281,-0.007820877246558666,0.0005693978746421635,0.0010922771180048585
0.007754705846309662,0.011909746564924717,-0.007358421105891466,-0.007978533394634724,0.000623606494627893,0.0013914677547290921
0.008010257966816425,0.011457964777946472,-0.007583066821098328,-0.00847115833312273,0.0005834714393131435,0.0013985168188810349
0.008148272521793842,0.010409979149699211,-0.008711673319339752,-0.008297647349536419,0.0006038963329046965,0.0016709808260202408
0.009011183865368366,0.011861451901495457,-0.008524534292519093,-0.008011815138161182,0.000599238439463079,0.001558911520987749
0.008119484409689903,0.01051726471632719,-0.007955081760883331,-0.008597268722951412,0.0005908588063903153,0.0014628872741013765
0.00842330139130354,0.010492946021258831,-0.007892384193837643,-0.00853555928915739,0.0007730951183475554,0.001416623592376709
0.008954725228250027,0.01071029994636774,-0.008069648407399654,-0.007977206259965897,0.0007404613425023854,0.0013370104134082794
0.008449507877230644,0.010352209210395813,-0.007731506135314703,-0.008291839621961117,0.0007564027328044176,0.0012606007512658834
0.008208698593080044,0.011023432947695255,-0.007555381860584021,-0.008503570221364498,0.0007651469786651433,0.001130871009081602
0.008208698593080044,0.011023432947695255,-0.007555381860584021,-0.008503570221364498,0.0007651469786651433,0.001130871009081602
0.008882775902748108,0.010875055566430092,-0.00861362274736166,-0.008808895945549011,0.0007930838619358838,0.0010802949545904994
0.00871356762945652,0.01135083194822073,-0.008616928942501545,-0.008864101022481918,0.0007524779648520052,0.0010491153225302696
0.008553091436624527,0.01112060621380806,-0.007980636321008205,-0.009434415958821774,0.0007437009480781853,0.0010272645158693194
0.0093832490965724,0.010752713307738304,-0.007549232803285122,-0.008633182384073734,0.0007333389366976917,0.0010767456842586398
0.008975532837212086,0.010418906807899475,-0.007783745881170034,-0.008691085502505302,0.0007501125219278038,0.0010568831348791718
0.008847183547914028,0.01022183895111084,-0.007440474815666676,-0.009012114256620407,0.0009788352763280272,0.0009540346218273044
0.009008645080029964,0.01067560538649559,-0.008046852424740791,-0.008272810839116573,0.001007877173833549,0.0008980863494798541
0.009083444252610207,0.010557648725807667,-0.008408757857978344,-0.008813436143100262,0.001721306354738772,0.0007978335488587618
0.008611761964857578,0.01092762965708971,-0.007696224842220545,-0.008803138509392738,0.0016457511810585856,0.0008063683635555208
0.009467179886996746,0.011436494998633862,-0.007424117531627417,-0.008772466331720352,0.0014832367887720466,0.0008181181619875133
0.009860317222774029,0.011040586978197098,-0.008240686729550362,-0.009041441604495049,0.0014731253031641245,0.0008275258587673306
0.009095990099012852,0.011111794039607048,-0.008283806033432484,-0.009905648417770863,0.0013651575427502394,0.0008685748325660825
0.010091444477438927,0.011574205942451954,-0.008009610697627068,-0.009121140465140343,0.0012221839278936386,0.0008751992136240005
0.009731107391417027,0.0109800323843956,-0.007624215446412563,-0.008983970619738102,0.0010058059124276042,0.0008788042468950152
0.009231382980942726,0.01107051968574524,-0.008159170858561993,-0.009279618039727211,0.0009759109816513956,0.0008388141286559403
0.009447606280446053,0.010645461268723011,-0.007678700145334005,-0.009707174263894558,0.0009631972061470151,0.0007949236896820366
0.009506506845355034,0.01088691782206297,-0.007450267672538757,-0.009334200993180275,0.0009566937806084752,0.0007812217227183282
0.008909058757126331,0.0117409098893404,-0.00810606312006712,-0.009412901476025581,0.0009242392843589187,0.0007760763983242214
0.0094721345230937,0.01138426922261715,-0.008477289229631424,-0.009096004068851471,0.0009914422407746315,0.0007614826317876577
0.009657289832830429,0.01166255958378315,-0.00816804077476263,-0.00869741290807724,0.0010159260127693415,0.0007755773258395493
0.009107372723519802,0.011439205147325993,-0.007601134944707155,-0.00927677471190691,0.0010985787957906723,0.0008515737717971206
0.01017080806195736,0.010964437387883663,-0.007489912677556276,-0.00961867906153202,0.0011019844096153975,0.0009497361024841666
0.009307390078902245,0.011148851364850998,-0.008143706247210503,-0.00930701196193695,0.0010102191008627415,0.0009480443550273776
0.00954886432737112,0.010710557922720909,-0.008293707855045795,-0.009644712321460247,0.0009269103757105768,0.0008391472510993481
0.009844645857810974,0.011171386577188969,-0.00778067484498024,-0.010128200985491276,0.0009188351104967296,0.0008394172182306647
0.009725263342261314,0.011537928134202957,-0.008296838961541653,-0.010005010291934013,0.00082115683471784,0.0007574594928883016
0.009725263342261314,0.011537928134202957,-0.008296838961541653,-0.010005010291934013,0.00082115683471784,0.0007574594928883016
0.009702500887215137,0.010663141496479511,-0.007759731728583574,-0.009319953620433807,0.0007430114201270044,0.0006856488180346787
0.009781110100448132,0.011355153284966946,-0.0076079899445176125,-0.009510168805718422,0.0006219508359208703,0.000625993066933006
0.009876219555735588,0.011285497806966305,-0.007432863116264343,-0.009343787096440792,0.0006387097528204322,0.0005758758052252233
0.009747536852955818,0.01079505030065775,-0.007907806895673275,-0.009879875928163528,0.0005823032115586102,0.0005331930587999523
0.01074171531945467,0.011119898408651352,-0.008047671988606453,-0.01014437060803175,0.000607669644523412,0.0004964049439877272
0.010303443297743797,0.0108596570789814,-0.00817661453038454,-0.009813830256462097,0.0005590622313320637,0.000464369251858443
0.009781578555703163,0.011206742376089096,-0.007763474714010954,-0.01028996892273426,0.0005819574580527842,0.000436220143456012
0.01014991570264101,0.01100509986281395,-0.007994487881660461,-0.010360215790569782,0.0005923816934227943,0.00041129064629785717
0.009708410128951073,0.011279738508164883,-0.007733023259788752,-0.01024424284696579,0.0005933421198278666,0.0003691045567393303
0.010022741742432117,0.011033985763788223,-0.009092179127037525,-0.01001566369086504,0.0006236637709662318,0.00035109990858472884
0.01035693846642971,0.011830599047243595,-0.00825850386172533,-0.01047685369849205,0.0006490281084552407,0.0003347702731844038
0.009973942302167416,0.011278418824076653,-0.007850945927202702,-0.010646224953234196,0.000610973103903234,0.0003203742380719632
0.010945063084363937,0.01099762599915266,-0.007437906693667173,-0.010396492667496204,0.0008177866693586111,0.00024092750390991569
0.011339981108903885,0.011267091147601604,-0.008239551447331905,-0.009952259249985218,0.000840107852127403,0.0002248030505143106
0.010107655078172684,0.011041169986128807,-0.00885804183781147,-0.010566100478172302,0.0008625396876595914,0.00019296174286864698
0.010102584026753902,0.010953669436275959,-0.008008363656699657,-0.009913048706948757,0.0010169821325689554,0.0001647316967137158
0.010145517066121101,0.011204573325812817,-0.0076307812705636024,-0.009617346338927746,0.0010533459717407823,0.0001563072728458792
0.01022529136389494,0.010931783355772495,-0.008001294918358326,-0.010159221477806568,0.0009741918765939772,0.00014972194912843406
0.011004234664142132,0.011258880607783794,-0.007834588177502155,-0.010385310277342796,0.0008986385655589402,0.0001437374739907682
0.010328647680580616,0.011452918872237206,-0.007351777516305447,-0.009994427673518658,0.0008867054129950702,0.00013821752509102225
0.010662281885743141,0.010564500465989113,-0.008361738175153732,-0.010236850939691067,0.0008117170655168593,0.0001331062230747193
0.010921827517449856,0.010892434045672417,-0.008561545051634312,-0.010230368003249168,0.000783870869781822,0.0001283594174310565
0.010341890156269073,0.011651661247015,-0.0080812256783247,-0.010220983996987343,0.0007382042822428048,9.706329001346603e-05
0.010692526586353779,0.0105853620916605,-0.007711860351264477,-0.010556034743785858,0.0007536198827438056,9.012890950543806e-05
0.010630390606820583,0.010983838699758053,-0.007747777737677097,-0.009981906972825527,0.0007691010250709951,8.698346209712327e-05
0.010198790580034256,0.01062761340290308,-0.00823830347508192,-0.010724504478275776,0.0008671155082993209,8.425309351878241e-05
0.010527243837714195,0.010644027963280678,-0.008290772326290607,-0.011006650514900684,0.00089111557463184,-1.742163840390276e-05
0.010566090233623981,0.011044957675039768,-0.008282017894089222,-0.010906580835580826,0.000893471937160939,-0.00010709354683058336
0.010566090233623981,0.011044957675039768,-0.008282017894089222,-0.010906580835580826,0.000893471937160939,-0.00010709354683058336
0.010970981791615486,0.01059744507074356,-0.00835983082652092,-0.011655392125248909,0.0008942731074057519,-0.0001066700933733955
0.011330993846058846,0.010443947277963161,-0.008343531750142574,-0.011425958015024662,0.0009483862668275833,-0.00010106647096108645
0.010435272008180618,0.010496072471141815,-0.007937256246805191,-0.011473173275589943,0.0009447187185287476,-0.0001402737107127905
0.010666141286492348,0.010394807904958725,-0.008374298922717571,-0.011376402340829372,0.0009202347719110548,-0.00013610883615911007
0.01100206095725298,0.01076518651098013,-0.008318859152495861,-0.011099704541265965,0.0009164520888589323,-0.00016721618885640055
0.010094614699482918,0.010607937350869179,-0.008041338063776493,-0.011368424631655216,0.0009029872016981244,-0.00018487594206817448
0.01019816379994154,0.010862396098673344,-0.008731475099921227,-0.01169042568653822,0.0009264358668588102,-0.0003357500827405602
0.010533672757446766,0.010679255239665508,-0.00807865522801876,-0.011593058705329895,0.0009231082512997091,-0.00043806724715977907
0.011174741201102734,0.010101272724568844,-0.0075565907172858715,-0.010986368171870708,0.0009478452848270535,-0.00048299480113200843
0.010531139560043812,0.010663340799510479,-0.007982436567544937,-0.011896181851625443,0.0009582831989973783,-0.0005128824268467724
0.010411398485302925,0.010060002095997334,-0.008145870640873909,-0.011986623518168926,0.0008803322562016547,-0.0005468767485581338
0.010537493042647839,0.01005048118531704,-0.0073783244006335735,-0.011751599609851837,0.0008783679804764688,-0.0008375153411179781
0.010416516102850437,0.010920329950749874,-0.00717035960406065,-0.012303657829761505,0.0008308992255479097,-0.0008875576895661652
0.010364169254899025,0.01061762124300003,-0.007586709223687649,-0.011776475235819817,0.0007877344032749534,-0.0008918489329516888
0.010748938657343388,0.01098249014467001,-0.008117030374705791,-0.012307334691286087,0.0007412486593239009,-0.0008929409668780863
0.010525332763791084,0.010631386190652847,-0.008111769333481789,-0.012462916783988476,0.000762321287766099,-0.001046324148774147
0.01079072616994381,0.010303445160388947,-0.0077801779843866825,-0.01194707490503788,0.000771727878600359,-0.0010435625445097685
0.010625590570271015,0.010865157470107079,-0.00782548077404499,-0.012048480100929737,0.0007854863652028143,-0.0010755695402622223
0.010763588361442089,0.010799894109368324,-0.007826663553714752,-0.011890891008079052,0.0010625467402860522,-0.001371847465634346
0.011302918195724487,0.011167800985276699,-0.007526847999542952,-0.012590699829161167,0.0012059756554663181,-0.0014932056656107306
0.011380817741155624,0.011309363879263401,-0.007296333089470863,-0.012177485972642899,0.0011893241899088025,-0.0017076784279197454
0.01037938054651022,0.011304330080747604,-0.007720418274402618,-0.012279149144887924,0.001474440679885447,-0.001682971022091806
0.010731162503361702,0.010685267858207226,-0.007362881675362587,-0.012530986219644547,0.0014980240957811475,-0.0015619199257344007
0.010624208487570286,0.010865886695683002,-0.007206053007394075,-0.012294191867113113,0.0013198070228099823,-0.0014745291555300355
0.010624208487570286,0.010865886695683002,-0.007206053007394075,-0.012294191867113113,0.0013198070228099823,-0.0014745291555300355
0.010077833198010921,0.010624727234244347,-0.007390482816845179,-0.012883703224360943,0.0012493696995079517,-0.0015369916800409555
0.010863272473216057,0.010787761770188808,-0.007618014235049486,-0.013306869193911552,0.0009612139547243714,-0.0018602479249238968
0.010863272473216057,0.010787761770188808,-0.007618014235049486,-0.013306869193911552,0.0009612139547243714,-0.0018602479249238968
0.01066439226269722,0.010806105099618435,-0.0072458782233297825,-0.01280409749597311,0.0010248161852359772,-0.002374781761318445
0.01063484326004982,0.011118125170469284,-0.007323421537876129,-0.013154326006770134,0.000967256783042103,-0.0023470837622880936
0.01071297749876976,0.010782881639897823,-0.007666931953281164,-0.012852116487920284,0.0011888286098837852,-0.0022176955826580524
0.01104254275560379,0.01027285773307085,-0.007474612444639206,-0.013010308146476746,0.0011725674849003553,-0.0018447781912982464
0.010656056925654411,0.010610386729240417,-0.007264763582497835,-0.013261772692203522,0.0011432516621425748,-0.0017790402052924037
0.010768294334411621,0.010514766909182072,-0.007299252785742283,-0.013034563511610031,0.001235712319612503,-0.0015902534360066056
0.010811219923198223,0.010500481352210045,-0.007356524467468262,-0.013535919599235058,0.0011344507802277803,-0.0015597935998812318
0.01051963772624731,0.010710868053138256,-0.007377196103334427,-0.013664525002241135,0.0010956748155876994,-0.0024319645017385483
0.01078888215124607,0.011064528487622738,-0.006852397229522467,-0.01333901658654213,0.001104238210245967,-0.004230681341141462
0.009287938475608826,0.01065125223249197,-0.008169103413820267,-0.013798359781503677,0.001071803504601121,-0.004363806452602148
0.011094195768237114,0.01085736695677042,-0.00753731420263648,-0.013104659505188465,0.0010464061051607132,-0.003714033169671893
0.011077973060309887,0.011043613776564598,-0.007335512433201075,-0.01383215095847845,0.0012386470334604383,-0.002781107323244214
0.010821823962032795,0.010554592125117779,-0.007502943743020296,-0.013694093562662601,0.001223390456289053,-0.002231852151453495
0.01108561921864748,0.011300722137093544,-0.007591982837766409,-0.014338172040879726,0.0011728452518582344,-0.0021565984934568405
0.010807461105287075,0.010317284613847733,-0.007439043372869492,-0.013927188701927662,0.0011491166660562158,-0.002499025547876954
0.01105737779289484,0.010050485841929913,-0.007594311144202948,-0.014458304271101952,0.0011238018050789833,-0.0038157510571181774
0.011066561564803123,0.011159406043589115,-0.00783622357994318,-0.01418992318212986,0.0010969849536195397,-0.004234928172081709
0.010852799750864506,0.010659636929631233,-0.007853773422539234,-0.014426677487790585,0.0010680052218958735,-0.00394800491631031
0.011255709454417229,0.010475088842213154,-0.006979250814765692,-0.013826348818838596,0.0011291262926533818,-0.003241784404963255
0.011341751553118229,0.011082431301474571,-0.006771201733499765,-0.014444312080740929,0.0011657674331218004,-0.0029538546223193407
0.011025641113519669,0.010636572726070881,-0.006724501959979534,-0.014375939965248108,0.0013450870756059885,-0.002769074635580182
0.011394559405744076,0.010694746859371662,-0.007630567066371441,-0.014918804168701172,0.001590993138961494,-0.003229505382478237
0.010932778008282185,0.01017138734459877,-0.007431738544255495,-0.014700854197144508,0.00150776794180274,-0.004192006308585405
0.01133725419640541,0.010511920787394047,-0.0067797014489769936,-0.015501268208026886,0.00160212442278862,-0.004141226876527071
0.011579099111258984,0.01149520743638277,-0.006858569569885731,-0.014648313634097576,0.0014515045331791043,-0.004255970474332571
0.011579099111258984,0.01149520743638277,-0.006858569569885731,-0.014648313634097576,0.0014515045331791043,-0.004255970474332571
0.01139038149267435,0.011327555403113365,-0.007338386960327625,-0.015201231464743614,0.0013681136770173907,-0.004320716951042414
0.011709265410900116,0.010351167060434818,-0.007389710750430822,-0.014929227530956268,0.0012739843223243952,-0.0040687439031898975
0.011135839857161045,0.011154904961585999,-0.007326943334192038,-0.01498318649828434,0.0012730767484754324,-0.003515371587127447
0.011748374439775944,0.011100477539002895,-0.007403620518743992,-0.014374171383678913,0.0014466448919847608,-0.0035636285319924355
0.011745752766728401,0.010752899572253227,-0.0076721832156181335,-0.01520975586026907,0.0014934055507183075,-0.004123828839510679
0.011337082833051682,0.011800434440374374,-0.007621188182383776,-0.015161514282226562,0.0013736572582274675,-0.0043799723498523235
0.011417028494179249,0.010599018074572086,-0.007395694963634014,-0.01581222377717495,0.00129889661911875,-0.004490808583796024
0.011274664662778378,0.010781495831906796,-0.007063583005219698,-0.015466812998056412,0.0011121005518361926,-0.0041943262331187725
0.011838842183351517,0.010789751075208187,-0.00771924527361989,-0.015529429540038109,0.0011958340182900429,-0.003950041718780994
0.011922085657715797,0.01094619370996952,-0.007706343661993742,-0.015717102214694023,0.001694822101853788,-0.004038657061755657
0.01207736786454916,0.010790900327265263,-0.0069632260128855705,-0.016934886574745178,0.001572033972479403,-0.004592604003846645
0.011962482705712318,0.01048516295850277,-0.007281335070729256,-0.015680208802223206,0.0014163025189191103,-0.004773263819515705
0.012219015508890152,0.011077293194830418,-0.007374247536063194,-0.01582496613264084,0.0014249071246013045,-0.004885387606918812
0.012104787863790989,0.010467021726071835,-0.007999668829143047,-0.015544811263680458,0.0013976007467135787,-0.004951696377247572
0.011807513423264027,0.010794115252792835,-0.007177846040576696,-0.01620781235396862,0.0014592170482501388,-0.004757157061249018
0.012218366377055645,0.011045637540519238,-0.007553159724920988,-0.015508368611335754,0.0013825248461216688,-0.004969639237970114
0.012103735469281673,0.01058946643024683,-0.008170987479388714,-0.015418066643178463,0.0013081029755994678,-0.005016170907765627
0.013211450539529324,0.010818186216056347,-0.007159440778195858,-0.015730375424027443,0.0012050041696056724,-0.005421056412160397
0.013118685223162174,0.010980527848005295,-0.006777678616344929,-0.016229812055826187,0.0012375512160360813,-0.005662527866661549
0.013638097792863846,0.010414689779281616,-0.007001941092312336,-0.016660338267683983,0.001184315187856555,-0.006083351559937
0.01335109956562519,0.011040439829230309,-0.007368659134954214,-0.016681930050253868,0.0010776841081678867,-0.005498223006725311
0.013549692928791046,0.010946967639029026,-0.007215181831270456,-0.016746293753385544,0.0009525185450911522,-0.00534411333501339
0.013696822337806225,0.010598253458738327,-0.006907065864652395,-0.01629791595041752,0.0009389963233843446,-0.005316282156854868
0.013866813853383064,0.010806282050907612,-0.00671624019742012,-0.01680094003677368,0.0009966352954506874,-0.0062536681070923805
0.013820664957165718,0.010563510470092297,-0.006887069903314114,-0.016750743612647057,0.0009342119446955621,-0.006735533010214567
0.013823514804244041,0.010861841030418873,-0.006875837221741676,-0.016529258340597153,0.0009470071527175605,-0.005917393136769533
0.013826207257807255,0.01104175765067339,-0.006753772031515837,-0.016870589926838875,0.0009397201938554645,-0.005394048988819122
0.014026032760739326,0.010821408592164516,-0.007452874910086393,-0.016378484666347504,0.0009243293316103518,-0.00551161915063858
0.014404240064322948,0.01113827247172594,-0.007106891833245754,-0.016693146899342537,0.0009315653005614877,-0.00555278779938817
0.014358112588524818,0.010782429948449135,-0.00678911292925477,-0.016336897388100624,0.0010667808819562197,-0.006227179430425167
0.014358112588524818,0.010782429948449135,-0.00678911292925477,-0.016336897388100624,0.0010667808819562197,-0.006227179430425167
0.014507780782878399,0.010933345183730125,-0.006520693656057119,-0.016305483877658844,0.0011418344220146537,-0.0062951925210654736
0.014146005734801292,0.01136704720556736,-0.006672381889075041,-0.016560014337301254,0.0010676119709387422,-0.006300639361143112
0.014135411009192467,0.010912391357123852,-0.007594406139105558,-0.016406437382102013,0.0013307536719366908,-0.005905729718506336
0.014059592969715595,0.011338967829942703,-0.007114374544471502,-0.01706192083656788,0.001286450307816267,-0.00628597242757678
0.014692060649394989,0.011251069605350494,-0.006646194029599428,-0.01638692617416382,0.0012016992550343275,-0.006579524837434292
0.014341072179377079,0.010968752205371857,-0.006743222009390593,-0.01673651672899723,0.0011241961037740111,-0.006292602978646755
0.014379676431417465,0.01199630182236433,-0.006938633508980274,-0.016508745029568672,0.0010619095992296934,-0.006105959415435791
0.014218732714653015,0.011407018639147282,-0.0070483069866895676,-0.017171336337924004,0.0010135658085346222,-0.0064955842681229115
0.014121616259217262,0.011283953674137592,-0.007163175381720066,-0.017066847532987595,0.0009156556334346533,-0.007120055612176657
0.014488781802356243,0.0109891751781106,-0.007644296158105135,-0.01773962192237377,0.0009146409574896097,-0.007065427955240011
0.014375639148056507,0.011717446148395538,-0.007510478142648935,-0.017895003780722618,0.0009153223945759237,-0.006761142518371344
0.014329112134873867,0.011316979303956032,-0.007137673441320658,-0.01779375970363617,0.0009135311702266335,-0.00668295519426465
0.013886010274291039,0.011278823018074036,-0.0073323785327374935,-0.017362583428621292,0.0011068922467529774,-0.007157678250223398
0.014425856061279774,0.011218425817787647,-0.007581108249723911,-0.017452266067266464,0.0011416816851124167,-0.007492401637136936
0.014439298771321774,0.010984078049659729,-0.007705328520387411,-0.018291207030415535,0.001178824226371944,-0.007084479555487633
0.014450672082602978,0.011895299889147282,-0.0075986385345458984,-0.018002208322286606,0.0011829696595668793,-0.00732221407815814
0.014589871279895306,0.011726339347660542,-0.007208352442830801,-0.017776217311620712,0.0011782614747062325,-0.008085895329713821
0.015003010630607605,0.011657082475721836,-0.007147892378270626,-0.01849343255162239,0.0011523144785314798,-0.007713765371590853
0.014598077163100243,0.012434907257556915,-0.007577561307698488,-0.018067536875605583,0.0011316409800201654,-0.007875551469624043
0.01468796469271183,0.01134650968015194,-0.007630689535290003,-0.0181810911744833,0.0012450797948986292,-0.007531443610787392
0.014585093595087528,0.011620295234024525,-0.007144756615161896,-0.018629591912031174,0.0013076221803203225,-0.00758593762293458
0.015128298662602901,0.011545552872121334,-0.007077108137309551,-0.01890561543405056,0.0014417784987017512,-0.007890384644269943
0.014734364114701748,0.011510482989251614,-0.007856016047298908,-0.01927744224667549,0.0015582696069031954,-0.007586559280753136
0.014955137856304646,0.011495653539896011,-0.007358815521001816,-0.019375666975975037,0.001482444815337658,-0.007326563820242882
0.014955137856304646,0.011495653539896011,-0.007358815521001816,-0.019375666975975037,0.001482444815337658,-0.007326563820242882
0.014601514674723148,0.011844472959637642,-0.007285327650606632,-0.01886874996125698,0.0015156602021306753,-0.007576830219477415
0.015026234090328217,0.011170273646712303,-0.00747316051274538,-0.018876727670431137,0.0013186294818297029,-0.008477756753563881
0.015026234090328217,0.011170273646712303,-0.00747316051274538,-0.018876727670431137,0.0013186294818297029,-0.008477756753563881
0.014468681998550892,0.011513656005263329,-0.00735832192003727,-0.0187644362449646,0.0013167329598218203,-0.008145803585648537
0.015517227351665497,0.011988464742898941,-0.007361496798694134,-0.019651295617222786,0.0013522597728297114,-0.008475259877741337
0.015339871868491173,0.011162469163537025,-0.00782781932502985,-0.02004285156726837,0.0015130508691072464,-0.008414686657488346
0.015247531235218048,0.01173032820224762,-0.007651384454220533,-0.018534040078520775,0.0016247237799689174,-0.008363144472241402
0.015058666467666626,0.011435654014348984,-0.008054891601204872,-0.019141526892781258,0.0015129417879506946,-0.008615582250058651
0.015188262797892094,0.011733010411262512,-0.007890631444752216,-0.01991204544901848,0.0014771725982427597,-0.008471851237118244
0.014951026067137718,0.012055176310241222,-0.007806109730154276,-0.020381169393658638,0.0014141653664410114,-0.008732875809073448
0.015414618887007236,0.011515039019286633,-0.00811914261430502,-0.019888022914528847,0.001435374841094017,-0.008497709408402443
0.015469761565327644,0.01131225936114788,-0.007957943715155125,-0.01923540234565735,0.001513653201982379,-0.008892592042684555
0.014682033099234104,0.011569906026124954,-0.007725348696112633,-0.019783897325396538,0.0017686565406620502,-0.008758035488426685
0.015544811263680458,0.012097208760678768,-0.007521837018430233,-0.020713480189442635,0.0018118389416486025,-0.009320897981524467
0.015436424873769283,0.01155493501573801,-0.007768798619508743,-0.021114325150847435,0.00184579286724329,-0.008897630497813225
0.015901025384664536,0.01190452091395855,-0.0076212091371417046,-0.021228015422821045,0.0017222656169906259,-0.008624671958386898
0.015474210493266582,0.011614167131483555,-0.007679126225411892,-0.021046586334705353,0.0015968806110322475,-0.008868107572197914
0.015306862071156502,0.011687385849654675,-0.007823151536285877,-0.021334195509552956,0.0014590405626222491,-0.008862189948558807
0.015815678983926773,0.012010743841528893,-0.007632988505065441,-0.021019482985138893,0.001471759402193129,-0.009139755740761757
0.015852123498916626,0.011232164688408375,-0.008140490390360355,-0.02086690440773964,0.0013897332828491926,-0.00942581333220005
0.0160200335085392,0.011941180564463139,-0.007807603105902672,-0.021406589075922966,0.0014559597475454211,-0.009363921359181404
0.01572280377149582,0.011863942258059978,-0.007284588646143675,-0.021808525547385216,0.0014253247063606977,-0.009100095368921757
0.015915388241410255,0.01173422858119011,-0.006834313273429871,-0.021439479663968086,0.0014997851103544235,-0.00925767794251442
0.015562071464955807,0.011733194813132286,-0.006944806780666113,-0.02168770506978035,0.0014702875632792711,-0.00944027490913868
0.016407828778028488,0.011649008840322495,-0.007575515657663345,-0.022303739562630653,0.00151500990614295,-0.009637830778956413
0.016021091490983963,0.012369787320494652,-0.008114730007946491,-0.022165872156620026,0.0016702859429642558,-0.009058957919478416
0.01596750319004059,0.011887644417583942,-0.006998294498771429,-0.021585088223218918,0.001791137270629406,-0.010121707804501057
0.01596750319004059,0.011887644417583942,-0.006998294498771429,-0.021585088223218918,0.001791137270629406,-0.010121707804501057
0.016459427773952484,0.012172316201031208,-0.006915242411196232,-0.021418718621134758,0.0019538900814950466,-0.009983613155782223
0.016331374645233154,0.011995915323495865,-0.0073785921558737755,-0.02212616056203842,0.0017756150336936116,-0.010325814597308636
0.016737593337893486,0.011607836931943893,-0.006886669900268316,-0.02216542325913906,0.0018819381948560476,-0.010018786415457726
0.01649826392531395,0.012390795163810253,-0.006997229065746069,-0.02216513641178608,0.0017340740887448192,-0.010045789182186127
0.0170240830630064,0.011898365803062916,-0.007021131459623575,-0.02221117913722992,0.0016617502551525831,-0.010750580579042435
0.016634879633784294,0.01232430525124073,-0.007491507101804018,-0.021789614111185074,0.0015616886084899306,-0.01010810025036335
0.01675604097545147,0.0115481186658144,-0.00691941985860467,-0.02206510677933693,0.0014849326107650995,-0.010244408622384071
0.01670151576399803,0.011695786379277706,-0.006291761063039303,-0.021962406113743782,0.00149937451351434,-0.009983100928366184
0.01714468002319336,0.011801953427493572,-0.0066136582754552364,-0.021924961358308792,0.0014093456557020545,-0.009990694932639599
0.01662403903901577,0.012056284584105015,-0.007209970615804195,-0.022293172776699066,0.0015334212221205235,-0.010214067064225674
0.017296114936470985,0.011157852597534657,-0.006992044392973185,-0.02238951064646244,0.001712118973955512,-0.010545015335083008
0.01708446443080902,0.011256254278123379,-0.006782945245504379,-0.02237124554812908,0.0019025709480047226,-0.010760662145912647
0.01661956124007702,0.011234918609261513,-0.007353208959102631,-0.022362608462572098,0.002117439638823271,-0.010777086019515991
0.017390593886375427,0.011178618296980858,-0.007129658479243517,-0.023087747395038605,0.0020851832814514637,-0.010843678377568722
0.01663387194275856,0.011678595095872879,-0.006391782779246569,-0.023673903197050095,0.0018262697849422693,-0.01127236895263195
0.017160281538963318,0.011764297261834145,-0.006468363106250763,-0.02340601198375225,0.0018286937847733498,-0.011317005380988121
0.016933133825659752,0.011630547232925892,-0.007158365566283464,-0.02339068055152893,0.001717833918519318,-0.011357363313436508
0.01715812273323536,0.011762150563299656,-0.007673413027077913,-0.0237918458878994,0.0017767277313396335,-0.011217298917472363
0.016977885738015175,0.011343535035848618,-0.007540577556937933,-0.023808525875210762,0.0016913933213800192,-0.011162212118506432
0.016883866861462593,0.011513181030750275,-0.006315865088254213,-0.02316031977534294,0.0017446170095354319,-0.010693526826798916
0.017449112609028816,0.011510438285768032,-0.006068016402423382,-0.02492818422615528,0.0017284705536440015,-0.011516030877828598
0.017405789345502853,0.011733625084161758,-0.007012424990534782,-0.024507513269782066,0.001545711886137724,-0.011387480422854424
0.017276009544730186,0.012037619948387146,-0.007466124836355448,-0.023499757051467896,0.0015881465515121818,-0.011137657798826694
0.01544067170470953,0.011216511018574238,-0.006979344878345728,-0.023404791951179504,0.0015285080298781395,-0.011144736781716347
0.018200455233454704,0.011909150518476963,-0.006414633709937334,-0.023216068744659424,0.0017253377009183168,-0.011128408834338188
0.018437141552567482,0.011134129017591476,-0.0071241725236177444,-0.023440536111593246,0.0016252829227596521,-0.011026100255548954
0.017571493983268738,0.010979964397847652,-0.007769863121211529,-0.023613641038537025,0.0016001848271116614,-0.010724585503339767
0.01742604933679104,0.011799667030572891,-0.0069187236949801445,-0.02460654452443123,0.0016575832851231098,-0.010868534445762634
0.0181887187063694,0.0116773322224617,-0.00630989158526063,-0.02432195283472538,0.001833833521232009,-0.011199119500815868
0.01799880340695381,0.01255759783089161,-0.006575552746653557,-0.02381940372288227,0.0018817364471033216,-0.011196285486221313
0.01799880340695381,0.01255759783089161,-0.006575552746653557,-0.02381940372288227,0.0018817364471033216,-0.011196285486221313
0.018236946314573288,0.011588461697101593,-0.007342996075749397,-0.02463136799633503,0.0019366935594007373,-0.011216322891414165
0.017995208501815796,0.011636589653789997,-0.007480438333004713,-0.024921070784330368,0.0019387139473110437,-0.01098607573658228
0.017984481528401375,0.011953570879995823,-0.006763426586985588,-0.024193258956074715,0.0019712012726813555,-0.010478177107870579
0.019085407257080078,0.011744411662220955,-0.006129248533397913,-0.02319052815437317,0.0020264785271137953,-0.01073118019849062
0.019434327259659767,0.012418105266988277,-0.006710749585181475,-0.023366620764136314,0.0019616130739450455,-0.010672977194190025
0.018163755536079407,0.012104770168662071,-0.007174446247518063,-0.02397259697318077,0.0018173869466409087,-0.010787942446768284
0.019084220752120018,0.012659146450459957,-0.006838472560048103,-0.024307312443852425,0.0017062529223039746,-0.010648904368281364
0.018180828541517258,0.01164749450981617,-0.006164203863590956,-0.024256955832242966,0.0017798800254240632,-0.010448344983160496
0.019306261092424393,0.012091990560293198,-0.007185229100286961,-0.024278854951262474,0.0018782736733555794,-0.010993462055921555
0.019089117646217346,0.011653211899101734,-0.007055560126900673,-0.02427329123020172,0.0017222758615389466,-0.010896741412580013
0.0192280150949955,0.011828488670289516,-0.006664878688752651,-0.02433163858950138,0.001789916306734085,-0.010615563951432705
0.019446367397904396,0.011946731247007847,-0.007105793803930283,-0.024749917909502983,0.0017094765789806843,-0.01067719142884016
0.019280249252915382,0.011558701284229755,-0.007809546310454607,-0.024565743282437325,0.0019491108832880855,-0.011539600789546967
0.019234754145145416,0.012042570859193802,-0.007256906945258379,-0.024577060714364052,0.0018646562239155173,-0.011399710550904274
0.020059805363416672,0.011745334602892399,-0.007276786956936121,-0.024527383968234062,0.0021060595754534006,-0.01077199261635542
0.02004428021609783,0.012449856847524643,-0.006597044412046671,-0.02475261129438877,0.002316188532859087,-0.010892810299992561
0.01937376707792282,0.012075096368789673,-0.0067885457538068295,-0.024600742384791374,0.0020878207869827747,-0.01144805084913969
0.01999504305422306,0.012186331674456596,-0.007107556331902742,-0.02510218136012554,0.0018434341764077544,-0.011422757990658283
0.019566018134355545,0.012104326859116554,-0.006916819605976343,-0.025254206731915474,0.0018016424728557467,-0.011399030685424805
0.019992034882307053,0.011332144029438496,-0.006386141292750835,-0.02546551264822483,0.0022008621599525213,-0.011511752381920815
0.01983824372291565,0.012180819176137447,-0.00709670502692461,-0.025601008906960487,0.002402238082140684,-0.011149515397846699
0.020554929971694946,0.011926858685910702,-0.007733471691608429,-0.02609468251466751,0.002794701373204589,-0.011303756386041641
0.020431391894817352,0.01197770331054926,-0.006893030367791653,-0.0264041218906641,0.0027534288819879293,-0.011187196709215641
0.020133353769779205,0.01201049517840147,-0.006375489290803671,-0.026367541402578354,0.0024594368878751993,-0.011804505251348019
0.020674942061305046,0.011771445162594318,-0.00657633738592267,-0.02650449052453041,0.002288818359375,-0.01173694059252739
0.02040119655430317,0.01246170699596405,-0.007208676543086767,-0.026546785607933998,0.001984278205782175,-0.011827331967651844
0.019888892769813538,0.0120321586728096,-0.007290140260010958,-0.026641571894288063,0.0017209277721121907,-0.011820651590824127
0.019888892769813538,0.0120321586728096,-0.007290140260010958,-0.026641571894288063,0.0017209277721121907,-0.011820651590824127
0.020472664386034012,0.012387696653604507,-0.00675963656976819,-0.026280809193849564,0.001653169747442007,-0.011882692575454712
0.020597878843545914,0.01223550084978342,-0.006412184331566095,-0.026381587609648705,0.0015157615998759866,-0.012212651781737804
0.020532112568616867,0.01231507770717144,-0.006837021093815565,-0.026262598112225533,0.0017011490417644382,-0.011325416155159473
0.01960490643978119,0.012510028667747974,-0.007260403595864773,-0.02711751125752926,0.0023245958145707846,-0.011688782833516598
0.021616879850625992,0.012107311747968197,-0.006725746672600508,-0.026502836495637894,0.0027148567605763674,-0.012378971092402935
0.021651968359947205,0.012449847534298897,-0.006547024939209223,-0.02594923973083496,0.0026971774641424417,-0.012612776830792427
0.020731424912810326,0.01190025731921196,-0.007195241749286652,-0.025809012353420258,0.002211670856922865,-0.012458676472306252
0.02168438211083412,0.012202099896967411,-0.006970878690481186,-0.027832036837935448,0.0019172568572685122,-0.012616788037121296
0.021449638530611992,0.012348631396889687,-0.006593914702534676,-0.028328895568847656,0.001977373380213976,-0.012792138382792473
0.021005161106586456,0.012416308745741844,-0.006662832573056221,-0.02782450243830681,0.002469822531566024,-0.012886019423604012
0.021338559687137604,0.011896145530045033,-0.00721125490963459,-0.027702612802386284,0.0022668009623885155,-0.012774184346199036
0.021646391600370407,0.012486550025641918,-0.006675492040812969,-0.02762353979051113,0.00208934023976326,-0.01293390803039074
0.02177349664270878,0.01217431016266346,-0.006818074267357588,-0.02715950831770897,0.0018808903405442834,-0.013173509389162064
0.021889274939894676,0.012349390424787998,-0.006826980505138636,-0.02691957727074623,0.0016703206347301602,-0.013350822031497955
0.021525604650378227,0.012367271818220615,-0.00730646587908268,-0.027724185958504677,0.001745031913742423,-0.012951468117535114
0.021581655368208885,0.012471962720155716,-0.007500127423554659,-0.027982549741864204,0.002169244224205613,-0.012969868257641792
0.021788597106933594,0.012559913098812103,-0.006823391653597355,-0.02823956124484539,0.0023102452978491783,-0.01321337278932333
0.022182505577802658,0.012336364015936852,-0.006365153938531876,-0.028157835826277733,0.002274103695526719,-0.01325700618326664
0.021756479516625404,0.012997490353882313,-0.006898915395140648,-0.02841043658554554,0.0022615715861320496,-0.013615771196782589
0.02225896716117859,0.012245588935911655,-0.0070982095785439014,-0.02884984202682972,0.0021662721410393715,-0.01310220081359148
0.022274520248174667,0.012681483291089535,-0.006577630992978811,-0.0289896409958601,0.0020365703385323286,-0.013522624969482422
0.022084850817918777,0.012674296274781227,-0.006498930975794792,-0.029249317944049835,0.001979196909815073,-0.013584972359240055
0.02211090177297592,0.012006244622170925,-0.006695361342281103,-0.029181957244873047,0.00196220469661057,-0.013750187121331692
0.02247154526412487,0.012392252683639526,-0.007227478548884392,-0.028943132609128952,0.0020191946532577276,-0.01356846746057272
0.02208576537668705,0.012341116555035114,-0.0066967005841434,-0.028856754302978516,0.0024566135834902525,-0.013158613815903664
0.02184879593551159,0.01266355812549591,-0.006643387954682112,-0.02867930755019188,0.0023841187357902527,-0.013118916191160679
0.022066893056035042,0.012811214663088322,-0.006714942399412394,-0.029152581468224525,0.00210045138373971,-0.013313934206962585
0.022066893056035042,0.012811214663088322,-0.006714942399412394,-0.029152581468224525,0.00210045138373971,-0.013313934206962585
0.02259594202041626,0.012670309282839298,-0.007417726796120405,-0.029428893700242043,0.001844350015744567,-0.013767126947641373
0.0224109198898077,0.01240487303584814,-0.007350570522248745,-0.029382072389125824,0.0019196962239220738,-0.013498487882316113
0.02220998890697956,0.012064213864505291,-0.006691114045679569,-0.0294154305011034,0.0021154063288122416,-0.013493793085217476
0.022418102249503136,0.01219288632273674,-0.0067147803492844105,-0.02940509282052517,0.0021886001341044903,-0.0137688759714365
0.022574877366423607,0.011892461217939854,-0.006993415765464306,-0.02969728596508503,0.0021263083908706903,-0.014171401970088482
0.023429086431860924,0.012615698389708996,-0.007088015787303448,-0.029661770910024643,0.0021402479615062475,-0.013794922269880772
0.023551449179649353,0.012500723823904991,-0.0068848617374897,-0.030000317841768265,0.0024453208316117525,-0.01378958486020565
0.022731460630893707,0.012507629580795765,-0.006961197592318058,-0.03015735372900963,0.0027631502598524094,-0.014207426458597183
0.021665425971150398,0.0126869585365057,-0.007473953999578953,-0.029859084635972977,0.0028901465702801943,-0.014385758899152279
0.02332514524459839,0.0120075773447752,-0.007142482325434685,-0.03003353625535965,0.002890608739107847,-0.014636406674981117
0.023374248296022415,0.011693502776324749,-0.00651522446423769,-0.02981681004166603,0.0028791390359401703,-0.014697947539389133
0.02277899719774723,0.012448081746697426,-0.006661121267825365,-0.030779574066400528,0.0022635841742157936,-0.01421953272074461
0.02344784140586853,0.01191102247685194,-0.0072805327363312244,-0.03134623169898987,0.0018479496939107776,-0.014472338370978832
0.023780113086104393,0.0118106659501791,-0.007017521187663078,-0.029787728562951088,0.0017778543988242745,-0.01440437976270914
0.023715365678071976,0.012319096364080906,-0.006777867674827576,-0.028690418228507042,0.0017437388887628913,-0.013670730404555798
0.023754840716719627,0.011728848330676556,-0.00669235410168767,-0.029787974432110786,0.0019719807896763086,-0.014259054325520992
0.02280416153371334,0.012423443607985973,-0.006953167263418436,-0.0302161555737257,0.002507302211597562,-0.014408091083168983
0.022912990301847458,0.012253033928573132,-0.007239571772515774,-0.0301328394562006,0.003302130615338683,-0.015268247574567795
0.023763427510857582,0.01271036732941866,-0.006657693535089493,-0.030750034376978874,0.0032931300811469555,-0.015161535702645779
0.02413036860525608,0.012480320408940315,-0.006664136424660683,-0.030906526371836662,0.0030509233474731445,-0.014814388938248158
0.024033207446336746,0.012229309417307377,-0.006714211776852608,-0.02987895905971527,0.002603771397843957,-0.014708922244608402
0.023883767426013947,0.012487368658185005,-0.0073331259191036224,-0.029914572834968567,0.0022222562693059444,-0.015309815295040607
0.02392718754708767,0.012260383926331997,-0.0073058451525866985,-0.03139748424291611,0.0018281565280631185,-0.015373100526630878
0.024225503206253052,0.012474681250751019,-0.006486894097179174,-0.03228068724274635,0.0018052051309496164,-0.015663158148527145
0.023737501353025436,0.012170818634331226,-0.006543765775859356,-0.03215137869119644,0.002132666762918234,-0.015715068206191063
0.024214953184127808,0.012461921200156212,-0.007252844050526619,-0.03270812705159187,0.002602113876491785,-0.015529951080679893
0.024406762793660164,0.012371816672384739,-0.007135448046028614,-0.032860707491636276,0.0024909654166549444,-0.0154193677008152
0.024377617985010147,0.012348744086921215,-0.006963805295526981,-0.03295086696743965,0.0024626399390399456,-0.015503380447626114
0.024377617985010147,0.012348744086921215,-0.006963805295526981,-0.03295086696743965,0.0024626399390399456,-0.015503380447626114
0.02431517280638218,0.012695793062448502,-0.006802053656429052,-0.032849088311195374,0.0024631009437143803,-0.014943673275411129
0.024257533252239227,0.012564857490360737,-0.007383773103356361,-0.03301768749952316,0.002340347273275256,-0.015366485342383385
0.024241691455245018,0.012380080297589302,-0.006392553448677063,-0.03335195034742355,0.0021710495930165052,-0.015936559066176414
0.024241691455245018,0.012380080297589302,-0.006392553448677063,-0.03335195034742355,0.0021710495930165052,-0.015936559066176414
0.024454602971673012,0.012374174781143665,-0.006572682876139879,-0.03372544050216675,0.0026251361705362797,-0.016138378530740738
0.02459513582289219,0.012397721409797668,-0.006626440212130547,-0.0334659218788147,0.002914853859692812,-0.015804439783096313
0.024674369022250175,0.012440955266356468,-0.007419321220368147,-0.0332685261964798,0.0026428133714944124,-0.014279967173933983
0.024325352162122726,0.012652811594307423,-0.006874163169413805,-0.03347320482134819,0.0026204593013972044,-0.01585361920297146
0.024422569200396538,0.012413624674081802,-0.006596962455660105,-0.03360186517238617,0.0026285755448043346,-0.01630593277513981
0.023197056725621223,0.012708713300526142,-0.006444187369197607,-0.033877938985824585,0.002489532809704542,-0.016071757301688194
0.024982314556837082,0.012836366891860962,-0.007251251954585314,-0.03404982388019562,0.0024803713895380497,-0.015823179855942726
0.026210926473140717,0.012699004262685776,-0.006876770872622728,-0.034026432782411575,0.002113660331815481,-0.016049399971961975
0.026210926473140717,0.012699004262685776,-0.006876770872622728,-0.034026432782411575,0.002113660331815481,-0.016049399971961975
0.024905752390623093,0.012484272941946983,-0.007034195587038994,-0.03475116193294525,0.0021204252261668444,-0.0157725028693676
0.024657974019646645,0.012120192870497704,-0.007412240840494633,-0.03598475828766823,0.0022069686092436314,-0.0163589995354414
0.025217769667506218,0.012136241421103477,-0.006817645858973265,-0.03455493599176407,0.002277771243825555,-0.016537845134735107
0.025563973933458328,0.0123055474832654,-0.006818315014243126,-0.0339500792324543,0.002478932496160269,-0.016157034784555435
0.025139404460787773,0.012270437553524971,-0.006989161483943462,-0.03504869341850281,0.0027467042673379183,-0.016206109896302223
0.025509726256132126,0.012143388390541077,-0.007381686009466648,-0.0355365052819252,0.0027549865189939737,-0.016465170308947563
0.026176273822784424,0.012287791818380356,-0.007499438710510731,-0.03570657595992088,0.0027159966994076967,-0.016660625115036964
0.0258425772190094,0.012451228685677052,-0.007126460783183575,-0.036370981484651566,0.002572501078248024,-0.016425365582108498
0.026282645761966705,0.012112305499613285,-0.006978772114962339,-0.035145699977874756,0.002447170438244939,-0.016674203798174858
0.0257718488574028,0.012763844802975655,-0.006947625894099474,-0.035235777497291565,0.0023702026810497046,-0.0167070422321558
0.025434518232941628,0.012341570109128952,-0.006912460550665855,-0.036655377596616745,0.0027495883405208588,-0.016621550545096397
0.02568947896361351,0.01236603781580925,-0.007256270851939917,-0.03675626218318939,0.002946654101833701,-0.0169069804251194
0.025410756468772888,0.012172477319836617,-0.007378748618066311,-0.03671075031161308,0.0029364393558353186,-0.01681683398783207
0.026065140962600708,0.012705878354609013,-0.007657212670892477,-0.03680315986275673,0.0027204137295484543,-0.01693287305533886
0.026065140962600708,0.012705878354609013,-0.007657212670892477,-0.03680315986275673,0.0027204137295484543,-0.01693287305533886
0.026442287489771843,0.012095112353563309,-0.00798106286674738,-0.03631991893053055,0.0025363038294017315,-0.016740545630455017
0.026128841564059258,0.011940482072532177,-0.007771794218569994,-0.036198049783706665,0.0026400950737297535,-0.016778532415628433
0.026014333590865135,0.012502600438892841,-0.006923322565853596,-0.03622797876596451,0.002594864694401622,-0.016918938606977463
0.026038937270641327,0.01194212306290865,-0.008075803518295288,-0.036413636058568954,0.0027442178688943386,-0.017094088718295097
0.026221362873911858,0.011963830329477787,-0.007558837998658419,-0.03652779385447502,0.002857843181118369,-0.01730448007583618
0.026141932234168053,0.012084458023309708,-0.0073389932513237,-0.0358576662838459,0.0027221031486988068,-0.01700708456337452
0.026071151718497276,0.011758674867451191,-0.007983560673892498,-0.03587416559457779,0.0025356258265674114,-0.017199549823999405
0.025986766442656517,0.012026626616716385,-0.007738807238638401,-0.03603273257613182,0.0023899092338979244,-0.017013296484947205
0.025913352146744728,0.012230662629008293,-0.007550534792244434,-0.035856693983078,0.0023337150923907757,-0.016970505937933922
0.02581239491701126,0.01225739624351263,-0.007721449248492718,-0.03624299541115761,0.002567748539149761,-0.01739993691444397
0.026568874716758728,0.012372340075671673,-0.0077995616011321545,-0.036230508238077164,0.0025769060011953115,-0.01733226515352726
0.02613111212849617,0.012754383496940136,-0.007530563045293093,-0.036435555666685104,0.002766854129731655,-0.017133694142103195
0.02710493467748165,0.012423805892467499,-0.006868773140013218,-0.036121953278779984,0.002924941014498472,-0.01747274026274681
0.026995614171028137,0.012566464021801949,-0.00717031117528677,-0.03638438507914543,0.0028535781893879175,-0.01813245564699173
0.026669079437851906,0.012004968710243702,-0.007700024638324976,-0.036700863391160965,0.0026983649004250765,-0.01784350350499153
0.026744460687041283,0.012659349478781223,-0.006981701590120792,-0.036715324968099594,0.002807219745591283,-0.01762889325618744
0.027348322793841362,0.012353460304439068,-0.006775091867893934,-0.03726556897163391,0.002647730056196451,-0.017668677493929863
0.027039535343647003,0.012497898191213608,-0.006618199869990349,-0.038281477987766266,0.0025350889191031456,-0.018180126324295998
0.027202488854527473,0.012796016409993172,-0.0070968447253108025,-0.036662228405475616,0.0026585040614008904,-0.01880078949034214
0.026668457314372063,0.01201136875897646,-0.006921830587089062,-0.03678686544299126,0.0028382844757288694,-0.018639104440808296
0.027272215113043785,0.012366637587547302,-0.006670844275504351,-0.03827519342303276,0.002800262300297618,-0.01794583536684513
0.027478959411382675,0.012265968136489391,-0.006382469087839127,-0.038776010274887085,0.002663512947037816,-0.01833515614271164
0.027172159403562546,0.012662261724472046,-0.006939749699085951,-0.039832837879657745,0.002799462527036667,-0.018078364431858063
0.027379753068089485,0.012821192853152752,-0.006812582723796368,-0.038344841450452805,0.0028560778591781855,-0.01741679757833481
0.027170607820153236,0.012270950712263584,-0.006729322951287031,-0.037395965307950974,0.0032727799843996763,-0.017980866134166718
0.027511997148394585,0.01259189285337925,-0.006698888726532459,-0.039251767098903656,0.00304086203686893,-0.018276207149028778
0.027469448745250702,0.01222573034465313,-0.007249968592077494,-0.03975744917988777,0.002981914673000574,-0.01905456930398941
0.027408314868807793,0.012841652147471905,-0.007024329621344805,-0.039501775056123734,0.0028557858895510435,-0.019204944372177124
0.027408314868807793,0.012841652147471905,-0.007024329621344805,-0.039501775056123734,0.0028557858895510435,-0.019204944372177124
0.027379276230931282,0.0124965850263834,-0.006689485162496567,-0.039533890783786774,0.002770826919004321,-0.01865064539015293
0.027859026566147804,0.012987048365175724,-0.006523247808218002,-0.03989050164818764,0.0030095812398940325,-0.01871948502957821
0.02861606515944004,0.012214422225952148,-0.006812100298702717,-0.04015244171023369,0.002883492037653923,-0.019413217902183533
0.028490805998444557,0.012316247448325157,-0.007569195702672005,-0.039678413420915604,0.0030424881260842085,-0.019507834687829018
0.027248214930295944,0.01294634211808443,-0.007483169436454773,-0.03960614278912544,0.0029962887056171894,-0.01906832680106163
0.027658769860863686,0.012661617249250412,-0.006863354239612818,-0.039770372211933136,0.0029881533700972795,-0.018619295209646225
0.028707584366202354,0.012640808708965778,-0.006479295901954174,-0.04046333581209183,0.00285701104439795,-0.018555304035544395
0.028631962835788727,0.012315250001847744,-0.007095523178577423,-0.04061437398195267,0.0030904377344995737,-0.01867213286459446
0.028683895245194435,0.01276489533483982,-0.007508811540901661,-0.04081055521965027,0.003387156408280134,-0.018916847184300423
0.029530586674809456,0.012783093377947807,-0.0065300180576741695,-0.04128870740532875,0.0031811376102268696,-0.01940687745809555
0.028915155678987503,0.01315216813236475,-0.006023317109793425,-0.04054803028702736,0.0030671251006424427,-0.01979311928153038
0.02892010472714901,0.013334658928215504,-0.007089228369295597,-0.04101860895752907,0.002858574967831373,-0.01969214528799057
0.028136465698480606,0.012675280682742596,-0.007242307066917419,-0.04187827557325363,0.0029982253909111023,-0.0193554125726223
0.029429152607917786,0.012635443359613419,-0.00628074211999774,-0.04039029777050018,0.0028794980607926846,-0.01926862634718418
0.029429152607917786,0.012635443359613419,-0.00628074211999774,-0.04039029777050018,0.0028794980607926846,-0.01926862634718418
0.02864246815443039,0.012661244720220566,-0.007239820435643196,-0.041564956307411194,0.002846447052434087,-0.02019895613193512
0.029795246198773384,0.013647768646478653,-0.007354285567998886,-0.04331096634268761,0.0032460978254675865,-0.019889269024133682
0.029667595401406288,0.013012577779591084,-0.006778279785066843,-0.042788855731487274,0.0035040751099586487,-0.019832875579595566
0.029270227998495102,0.013347264379262924,-0.006641427520662546,-0.04075878486037254,0.003468314651399851,-0.019961059093475342
0.029413530603051186,0.01282089576125145,-0.006886048708111048,-0.04148894548416138,0.003193612676113844,-0.02021728828549385
0.029903747141361237,0.013319775462150574,-0.007169050630182028,-0.04228818416595459,0.0029787386301904917,-0.020365547388792038
0.02980145812034607,0.013301650993525982,-0.0066676209680736065,-0.04250194504857063,0.0029630165081471205,-0.020022045820951462
0.029302718117833138,0.013060261495411396,-0.0066047413274645805,-0.04256289079785347,0.0030356119386851788,-0.02025868557393551
0.030155867338180542,0.013177110813558102,-0.007194477133452892,-0.04240202531218529,0.003217699471861124,-0.020333079621195793
0.030275356024503708,0.012882775627076626,-0.007044319529086351,-0.04246014356613159,0.003347685094922781,-0.020334109663963318
0.029879065230488777,0.01315205916762352,-0.007195740472525358,-0.04273810237646103,0.0033840923570096493,-0.020467884838581085
0.030130594968795776,0.012962828390300274,-0.006716705858707428,-0.04227067157626152,0.00361871300265193,-0.020666975528001785
0.030158720910549164,0.01352868415415287,-0.006871805991977453,-0.042343620210886,0.0037365255411714315,-0.020845601335167885
0.030802816152572632,0.013047236949205399,-0.007315419614315033,-0.04228505864739418,0.003354340558871627,-0.020634278655052185
0.030802816152572632,0.013047236949205399,-0.007315419614315033,-0.04228505864739418,0.003354340558871627,-0.020634278655052185
0.03143469616770744,0.013354900293052197,-0.006891351658850908,-0.04221305251121521,0.0031235574278980494,-0.02024085447192192
0.030649373307824135,0.012932305224239826,-0.007033754605799913,-0.042721088975667953,0.0030463028233498335,-0.020336683839559555
0.029982255771756172,0.013366835191845894,-0.006961537059396505,-0.043122608214616776,0.0032148442696779966,-0.020394939929246902
0.030925938859581947,0.013129804283380508,-0.007472719065845013,-0.04340769350528717,0.003132050624117255,-0.02019285224378109
0.03159619867801666,0.013159341178834438,-0.007155901286751032,-0.04372227564454079,0.003456807928159833,-0.02059231698513031
0.031166477128863335,0.013112209737300873,-0.007254794239997864,-0.044296085834503174,0.003222046187147498,-0.02072456106543541
0.03212510421872139,0.012973826378583908,-0.006600346881896257,-0.04464312642812729,0.0032258087303489447,-0.02059594728052616
0.0322333388030529,0.013724317774176598,-0.006787968333810568,-0.04484637826681137,0.0030486229807138443,-0.02040540613234043
0.03156697750091553,0.013246886432170868,-0.007180731277912855,-0.044949617236852646,0.002743420423939824,-0.02062723971903324
0.02991662360727787,0.013570272363722324,-0.0069835917092859745,-0.046400584280490875,0.002693820744752884,-0.020876610651612282
0.030958883464336395,0.013301998376846313,-0.006971259135752916,-0.04583553597331047,0.002802282804623246,-0.020993322134017944
0.03172316402196884,0.013823919929564,-0.007076713722199202,-0.0436973050236702,0.003121440764516592,-0.02176804654300213
0.031493086367845535,0.01342341024428606,-0.007634557317942381,-0.04537919536232948,0.003739024046808481,-0.021124256774783134
0.03207318112254143,0.013655698858201504,-0.007171798497438431,-0.047154273837804794,0.0035479122307151556,-0.02038886770606041
0.03161688521504402,0.013856195844709873,-0.006612587254494429,-0.04555409401655197,0.003637957386672497,-0.021101608872413635
0.031873829662799835,0.013412412256002426,-0.007259355392307043,-0.04416588693857193,0.003319681389257312,-0.021675562486052513
0.03152971714735031,0.01397298090159893,-0.00716722197830677,-0.0461205393075943,0.0034394829999655485,-0.021380892023444176
0.03182258456945419,0.013745183125138283,-0.006641213316470385,-0.046745672821998596,0.0036193428095430136,-0.021581659093499184
0.03191867843270302,0.01385749876499176,-0.006579192355275154,-0.046632908284664154,0.0032620690762996674,-0.022079836577177048
0.03204001486301422,0.013842091895639896,-0.007300174329429865,-0.047049541026353836,0.003351574996486306,-0.02261980064213276
0.03210943192243576,0.01386264432221651,-0.007425613701343536,-0.047090526670217514,0.0033846108708530664,-0.022222278639674187
0.03243497759103775,0.014134534634649754,-0.006754138506948948,-0.047075726091861725,0.003453028155490756,-0.021722448989748955
0.0326911099255085,0.013909856788814068,-0.006346642505377531,-0.04663218930363655,0.0037205826956778765,-0.02149227075278759
0.032710567116737366,0.013891652226448059,-0.006949815433472395,-0.0468205101788044,0.0034554896410554647,-0.021908141672611237
0.032749392092227936,0.013783976435661316,-0.007467534393072128,-0.046902503818273544,0.0034660508390516043,-0.022266892716288567
0.032120443880558014,0.01404320728033781,-0.007060271222144365,-0.04574960842728615,0.003590546315535903,-0.022298846393823624
0.03196011856198311,0.014749457128345966,-0.006926178932189941,-0.04554801434278488,0.0032543085981160402,-0.022265736013650894
0.032880038022994995,0.01365280244499445,-0.007324058096855879,-0.04847116395831108,0.0030107488855719566,-0.021857185289263725
0.03259865194559097,0.01445284578949213,-0.007373224478214979,-0.04764010012149811,0.003201147075742483,-0.021747207269072533
0.03259865194559097,0.01445284578949213,-0.007373224478214979,-0.04764010012149811,0.003201147075742483,-0.021747207269072533
0.03247516602277756,0.014437017031013966,-0.006759127601981163,-0.04558083415031433,0.003555032890290022,-0.021630465984344482
0.03267723321914673,0.013678095303475857,-0.006877611856907606,-0.04612957686185837,0.0038018780760467052,-0.02215580828487873
0.03291979804635048,0.013736138120293617,-0.0074293832294642925,-0.04625031352043152,0.0035877081099897623,-0.022526711225509644
0.03276536986231804,0.013294193893671036,-0.007720165885984898,-0.047793880105018616,0.003459014231339097,-0.02240137569606304
0.03268800675868988,0.013769702054560184,-0.0069563365541398525,-0.04596700146794319,0.003671579994261265,-0.022242305800318718
0.03246021643280983,0.01403860654681921,-0.007459697313606739,-0.044350672513246536,0.003791539464145899,-0.02239813283085823
0.032346904277801514,0.014503426849842072,-0.006841055117547512,-0.04642917215824127,0.003716405713930726,-0.022467225790023804
0.03241495043039322,0.013575584627687931,-0.0073366365395486355,-0.04640825837850571,0.003915621433407068,-0.022487822920084
0.03224922716617584,0.014544814825057983,-0.007089213468134403,-0.04661544784903526,0.0035988830495625734,-0.0221127700060606
0.03272571042180061,0.013855339027941227,-0.006553586572408676,-0.04651052504777908,0.0032354574650526047,-0.022160209715366364
0.03391502797603607,0.014132139272987843,-0.0066696470603346825,-0.047136787325143814,0.003337680362164974,-0.02252180315554142
0.03349245712161064,0.013209603726863861,-0.0074734073132276535,-0.04785047844052315,0.00366889126598835,-0.022179650142788887
0.03176669031381607,0.013880321756005287,-0.006590407807379961,-0.04785977676510811,0.003527244320139289,-0.023063603788614273
0.03289366886019707,0.014544252306222916,-0.006628025788813829,-0.04798997566103935,0.003255133517086506,-0.02186794951558113
0.03291730582714081,0.014017554000020027,-0.006889164447784424,-0.04818417876958847,0.0031301856506615877,-0.022123709321022034
0.034208495169878006,0.014471289701759815,-0.0073537686839699745,-0.04838981851935387,0.0034020065795630217,-0.022710993885993958
0.03452280908823013,0.013662010431289673,-0.007017910946160555,-0.0490594245493412,0.003433029167354107,-0.023019731044769287
0.03339630365371704,0.01424487866461277,-0.006956612691283226,-0.04866458475589752,0.003548501757904887,-0.02367953583598137
0.032444801181554794,0.013873830437660217,-0.007088899612426758,-0.04960585758090019,0.0037416480481624603,-0.02412671595811844
0.03343468904495239,0.014315876178443432,-0.007442810572683811,-0.049722906202077866,0.0034964114893227816,-0.024077920243144035
0.034128542989492416,0.014379323460161686,-0.007433091290295124,-0.05012822896242142,0.003971289377659559,-0.0238272026181221
0.03394823148846626,0.014138756319880486,-0.006980795878916979,-0.04956980049610138,0.004091631155461073,-0.02384210377931595
0.03366103395819664,0.013426832854747772,-0.00662781810387969,-0.05032750964164734,0.003723257454112172,-0.02368810400366783
0.03390972316265106,0.014339510351419449,-0.008073655888438225,-0.05154925212264061,0.003511557588353753,-0.02380893938243389
0.0338541679084301,0.013753953389823437,-0.007765885442495346,-0.049829065799713135,0.003223904175683856,-0.023992124944925308
0.03415096551179886,0.013706891797482967,-0.006630897056311369,-0.04997171834111214,0.003408136311918497,-0.02361472323536873
0.03457619994878769,0.01399974338710308,-0.006384673528373241,-0.05062089115381241,0.0041905236430466175,-0.023300208151340485
0.03457619994878769,0.01399974338710308,-0.006384673528373241,-0.05062089115381241,0.0041905236430466175,-0.023300208151340485
0.034549251198768616,0.014165990054607391,-0.006997433491051197,-0.05135553330183029,0.004242274910211563,-0.023483484983444214
0.034549251198768616,0.014165990054607391,-0.006997433491051197,-0.05135553330183029,0.004242274910211563,-0.023483484983444214
0.034436460584402084,0.014358572661876678,-0.006571182981133461,-0.04998968541622162,0.003699778812006116,-0.02451268769800663
0.03447972238063812,0.014492322690784931,-0.006538540590554476,-0.05123620107769966,0.003578185336664319,-0.02508668228983879
0.03541240096092224,0.014091632328927517,-0.006934069562703371,-0.05126480013132095,0.0036212217528373003,-0.024392198771238327
0.035688795149326324,0.014387222938239574,-0.008127695880830288,-0.0506889782845974,0.003708024974912405,-0.023918967694044113
0.03444404527544975,0.013966670259833336,-0.006779520772397518,-0.050446707755327225,0.003760346444323659,-0.02371808886528015
0.03440071642398834,0.014166376553475857,-0.0063551333732903,-0.04950207099318504,0.003745173802599311,-0.023832255974411964
0.03544367104768753,0.013986696489155293,-0.006961722392588854,-0.050855107605457306,0.00379775813780725,-0.024330075830221176
0.03517668694257736,0.014080642722547054,-0.00782975647598505,-0.05112455412745476,0.004176507703959942,-0.024431360885500908
0.03606734424829483,0.014137824065983295,-0.007155615370720625,-0.050627462565898895,0.0041945576667785645,-0.02433139458298683
0.03622588887810707,0.014380899257957935,-0.00687945494428277,-0.049547161906957626,0.003963051829487085,-0.02505812793970108
0.034621041268110275,0.014497561380267143,-0.006802007555961609,-0.05163475126028061,0.003752577118575573,-0.02525467984378338
0.03633659705519676,0.014091071672737598,-0.00719586294144392,-0.04927622899413109,0.002999900607392192,-0.02390299364924431
0.036337804049253464,0.014142399653792381,-0.006587632931768894,-0.050399553030729294,0.003277844050899148,-0.02377944439649582
0.03614295646548271,0.014101306907832623,-0.006614313460886478,-0.052108198404312134,0.004032195545732975,-0.024416135624051094
0.036282017827034,0.014485792256891727,-0.007415786851197481,-0.052341278642416,0.004730056505650282,-0.025289295241236687
0.0363248810172081,0.014371435157954693,-0.0074426280334591866,-0.05092810466885567,0.004420795477926731,-0.025376588106155396
0.03637506812810898,0.014721798710525036,-0.0066622719168663025,-0.05248723179101944,0.0042062075808644295,-0.025411143898963928
0.03684923052787781,0.014630740508437157,-0.0068908329121768475,-0.05308634787797928,0.003976401407271624,-0.025281211361289024
0.03704805672168732,0.014402052387595177,-0.007785537280142307,-0.05297422409057617,0.003623015247285366,-0.025402791798114777
0.036844272166490555,0.014484349638223648,-0.007296844385564327,-0.053127847611904144,0.003522288054227829,-0.025786131620407104
0.037118181586265564,0.014417639002203941,-0.007223446853458881,-0.05301724746823311,0.0036812543403357267,-0.02596384473145008
0.037501346319913864,0.014541355893015862,-0.00654706871137023,-0.05290036275982857,0.003934986889362335,-0.026127830147743225
0.03749550133943558,0.014439632184803486,-0.006902110297232866,-0.05338915437459946,0.004078502766788006,-0.026342235505580902
0.03713345155119896,0.014127966947853565,-0.007543077692389488,-0.053196754306554794,0.004202147945761681,-0.02601730264723301
0.03762604668736458,0.01409710943698883,-0.006940016057342291,-0.05324796959757805,0.00434274785220623,-0.025759080424904823
0.03822420910000801,0.01410277746617794,-0.006967458408325911,-0.054521918296813965,0.0036777695640921593,-0.02615700662136078
0.0374029241502285,0.014435610733926296,-0.006962293293327093,-0.054504092782735825,0.003471016651019454,-0.02609362080693245
0.03714684396982193,0.014096710830926895,-0.007716050371527672,-0.054782021790742874,0.0032735466957092285,-0.025991685688495636
0.03805315122008324,0.014508026652038097,-0.007294920273125172,-0.05467485636472702,0.0034171484876424074,-0.026312848553061485
0.03805315122008324,0.014508026652038097,-0.007294920273125172,-0.05467485636472702,0.0034171484876424074,-0.026312848553061485
0.03819858655333519,0.014284477569162846,-0.0069871218875050545,-0.056258805096149445,0.0036663415376096964,-0.02642802894115448
0.037415843456983566,0.0146273672580719,-0.006844432558864355,-0.055936988443136215,0.004355737008154392,-0.026745975017547607
0.03803705796599388,0.014604687690734863,-0.00725175766274333,-0.05556259676814079,0.004119581077247858,-0.026432018727064133
0.03792223334312439,0.0144357243552804,-0.007320348639041185,-0.05504503473639488,0.004345419816672802,-0.02674848772585392
0.03796517848968506,0.014419250190258026,-0.006815062835812569,-0.056550949811935425,0.00447573559358716,-0.026783490553498268
0.03843553364276886,0.014466479420661926,-0.006706984713673592,-0.055232755839824677,0.0041192444041371346,-0.027012791484594345
0.0381440594792366,0.014470024034380913,-0.007456960156559944,-0.054328180849552155,0.0037060710601508617,-0.027895962819457054
0.03787707909941673,0.01487815286964178,-0.007386624347418547,-0.05515918508172035,0.0037139838095754385,-0.028238119557499886
0.03952104225754738,0.014773039147257805,-0.0071107009425759315,-0.05430937930941582,0.004324804060161114,-0.025637857615947723
0.038922183215618134,0.014771685935556889,-0.007797454949468374,-0.05391041189432144,0.004079271573573351,-0.026598533615469933
0.03735879063606262,0.014947598800063133,-0.007351160515099764,-0.054959919303655624,0.0039274198934435844,-0.0284312404692173
0.03844281658530235,0.01481432095170021,-0.007088619749993086,-0.05518369376659393,0.004445335827767849,-0.027793822810053825
0.038559719920158386,0.014852245338261127,-0.007084071636199951,-0.054394353181123734,0.004172677639871836,-0.027496371418237686
0.03882711008191109,0.014896946027874947,-0.00775156170129776,-0.05530121177434921,0.0039029493927955627,-0.028503702953457832
0.03992718085646629,0.01475309394299984,-0.00785570964217186,-0.055290065705776215,0.003903912380337715,-0.0278994832187891
0.03859679400920868,0.015259329229593277,-0.007077578455209732,-0.05527037754654884,0.004408314824104309,-0.026696814224123955
0.03789272904396057,0.015044665895402431,-0.006611226592212915,-0.05367542803287506,0.00443560816347599,-0.02711557224392891
0.039857953786849976,0.015466446988284588,-0.007017725612968206,-0.05722038447856903,0.0044362787157297134,-0.02909352071583271
0.03971005976200104,0.015036585740745068,-0.007458984386175871,-0.056538987904787064,0.004514673724770546,-0.02802998386323452
0.03980490565299988,0.014973838813602924,-0.007136669475585222,-0.05516313016414642,0.004399018827825785,-0.027591684833168983
0.039726126939058304,0.014515955001115799,-0.006940358318388462,-0.05598306283354759,0.0042496598325669765,-0.028316181153059006
0.039793048053979874,0.014999805949628353,-0.0070639802142977715,-0.05785226449370384,0.00397650757804513,-0.028232069686055183
0.039621639996767044,0.014782138168811798,-0.007998267188668251,-0.05535399541258812,0.003853484056890011,-0.028210418298840523
0.039716314524412155,0.015468413010239601,-0.007616586051881313,-0.0555223673582077,0.0038015912286937237,-0.02828986570239067
0.03968409448862076,0.015077286399900913,-0.006857721600681543,-0.05648372694849968,0.004234014544636011,-0.02847057767212391
0.03981860354542732,0.015285829082131386,-0.007320470176637173,-0.057491812855005264,0.005092634819447994,-0.028369344770908356
0.03981860354542732,0.015285829082131386,-0.007320470176637173,-0.057491812855005264,0.005092634819447994,-0.028369344770908356
0.04186596721410751,0.01493340078741312,-0.008217939175665379,-0.0574328638613224,0.004866867326200008,-0.02881048619747162
0.03940543159842491,0.015275133773684502,-0.007537864148616791,-0.05775315314531326,0.0043863593600690365,-0.02893901616334915
0.03879645839333534,0.014852252788841724,-0.007460379973053932,-0.057968150824308395,0.004111804533749819,-0.028879405930638313
0.040388673543930054,0.01531185768544674,-0.007859066128730774,-0.05806179717183113,0.004033998120576143,-0.028807280585169792
0.040643494576215744,0.01563275046646595,-0.007893459871411324,-0.05809973552823067,0.004300987813621759,-0.028725316748023033
0.041819602251052856,0.015383229590952396,-0.00802234373986721,-0.05876412242650986,0.004401423502713442,-0.02908553183078766
0.04106596112251282,0.015151501633226871,-0.0071547068655490875,-0.057842206209897995,0.004967095796018839,-0.02882165089249611
0.0394710972905159,0.01537145022302866,-0.007121625356376171,-0.05966223031282425,0.004999679047614336,-0.02937515266239643
0.04128937050700188,0.01526969950646162,-0.00813448429107666,-0.05973929166793823,0.004333192016929388,-0.028890911489725113
0.04126472398638725,0.015141971409320831,-0.007245759945362806,-0.05876108258962631,0.004174172878265381,-0.029444359242916107
0.04100475832819939,0.01518845185637474,-0.008160842582583427,-0.05850750207901001,0.004015045706182718,-0.02931242622435093
0.041153449565172195,0.015630871057510376,-0.007920214906334877,-0.05882738530635834,0.004161905497312546,-0.029416890814900398
0.0411059595644474,0.01507462840527296,-0.007645055186003447,-0.05789932236075401,0.004533365368843079,-0.029236989095807076
0.04111746698617935,0.015350187197327614,-0.007849850691854954,-0.059387218207120895,0.0042619844898581505,-0.02900843322277069
0.04171113297343254,0.01479835994541645,-0.007873973809182644,-0.058084696531295776,0.004482227843254805,-0.02918352000415325
0.04115212336182594,0.015575189143419266,-0.00776663376018405,-0.05740620195865631,0.0046489364467561245,-0.029381170868873596
0.04137112945318222,0.01522055920213461,-0.007135771214962006,-0.05850417912006378,0.0042641558684408665,-0.02939172461628914
0.041301727294921875,0.015772607177495956,-0.007307924330234528,-0.05970294401049614,0.0039957668632268906,-0.028951507061719894
0.04138439893722534,0.014809511601924896,-0.007718767039477825,-0.05754154175519943,0.004277913831174374,-0.028725123032927513
0.04168914631009102,0.015300177037715912,-0.007423283066600561,-0.058324214071035385,0.004879438318312168,-0.02984284795820713
0.04165573790669441,0.015517260879278183,-0.006714169401675463,-0.06044034659862518,0.004932895302772522,-0.03010646253824234
0.04154491424560547,0.01571105234324932,-0.007160114590078592,-0.06010926887392998,0.004574522376060486,-0.02992315962910652
0.041533537209033966,0.01520148478448391,-0.0077553680166602135,-0.0596332848072052,0.00446133641526103,-0.029606105759739876
0.04176334664225578,0.015026962384581566,-0.007644153665751219,-0.059546273201704025,0.004695622716099024,-0.028970180079340935
0.04176334664225578,0.015026962384581566,-0.007644153665751219,-0.059546273201704025,0.004695622716099024,-0.028970180079340935
0.04211503267288208,0.015211152844130993,-0.0066905152052640915,-0.06069999933242798,0.004351589363068342,-0.030916728079319
0.04211503267288208,0.015211152844130993,-0.0066905152052640915,-0.06069999933242798,0.004351589363068342,-0.030916728079319
0.04161907359957695,0.015821756795048714,-0.007563081104308367,-0.05975060537457466,0.003980807028710842,-0.030514055863022804
0.041871245950460434,0.015080654993653297,-0.007571257185190916,-0.058902956545352936,0.003869440872222185,-0.03116118162870407
0.042973387986421585,0.015872905030846596,-0.007039185147732496,-0.06029902398586273,0.004285300616174936,-0.03214073181152344
0.041265819221735,0.01532663218677044,-0.006944567896425724,-0.06322777271270752,0.004213495645672083,-0.03126026690006256
0.04137411713600159,0.015702391043305397,-0.0070320251397788525,-0.05937669798731804,0.004265452269464731,-0.029717005789279938
0.041529472917318344,0.015155143104493618,-0.00728837912902236,-0.06070583686232567,0.004172403831034899,-0.030270667746663094
0.041838087141513824,0.015545903705060482,-0.007204579189419746,-0.06199685111641884,0.003972911741584539,-0.031577836722135544
0.04343295842409134,0.015093864873051643,-0.007161283399909735,-0.0633353590965271,0.004312243312597275,-0.03166962042450905
0.04233505576848984,0.01526516955345869,-0.007418519351631403,-0.06240512430667877,0.004646080080419779,-0.03154673054814339
0.04254871606826782,0.015481287613511086,-0.007063351105898619,-0.06231049820780754,0.004315508995205164,-0.031554821878671646
0.042041003704071045,0.015263213776051998,-0.00714724138379097,-0.06243935972452164,0.004426856059581041,-0.03170172497630119
0.04340498521924019,0.015290863811969757,-0.007679280824959278,-0.062003716826438904,0.004481400828808546,-0.0315023697912693
0.042958151549100876,0.01557137444615364,-0.007983988150954247,-0.061790771782398224,0.004616853781044483,-0.03183459863066673
0.04127770662307739,0.015218102373182774,-0.006844501476734877,-0.06136456876993179,0.004844069480895996,-0.03223185986280441
0.043178219348192215,0.015570489689707756,-0.006674050819128752,-0.061164289712905884,0.004738714545965195,-0.03313806280493736
0.04348621889948845,0.015195256099104881,-0.006901585031300783,-0.06119651719927788,0.0046959505416452885,-0.03174920007586479
0.04289548844099045,0.015709197148680687,-0.007464439608156681,-0.06073501706123352,0.0047339946031570435,-0.03170596808195114
0.043666258454322815,0.015256679616868496,-0.0071801007725298405,-0.059598300606012344,0.004717303439974785,-0.03225181996822357
0.04387134313583374,0.01579654961824417,-0.007007269654422998,-0.06113550812005997,0.0044599552638828754,-0.03226935490965843
0.04356062784790993,0.015412082895636559,-0.0068067628890275955,-0.06150709465146065,0.004615136422216892,-0.03305400535464287
0.043907683342695236,0.015627605840563774,-0.007228624541312456,-0.06057771295309067,0.004958291072398424,-0.033610276877880096
0.045425254851579666,0.015342757105827332,-0.00741214957088232,-0.06298206001520157,0.004908944014459848,-0.03366617113351822
0.043397773057222366,0.015803029760718346,-0.00755420234054327,-0.060323044657707214,0.004902808926999569,-0.03210725262761116
0.0430610328912735,0.015979452058672905,-0.0067654200829565525,-0.06055606156587601,0.0054903533309698105,-0.03175788000226021
0.04381448030471802,0.015874052420258522,-0.006898732855916023,-0.06332094967365265,0.0048769572749733925,-0.032768361270427704
0.045364391058683395,0.015837524086236954,-0.006940245162695646,-0.06181439384818077,0.004616246558725834,-0.03308773413300514
0.04531697928905487,0.01560137327760458,-0.0069202552549541,-0.06120767816901207,0.004881702829152346,-0.03358576446771622
0.04531697928905487,0.01560137327760458,-0.0069202552549541,-0.06120767816901207,0.004881702829152346,-0.03358576446771622
0.04413355886936188,0.016073940321803093,-0.006953950971364975,-0.06258329004049301,0.005035654176026583,-0.0347125418484211
0.04518764466047287,0.016471534967422485,-0.007358725182712078,-0.06255936622619629,0.004973068833351135,-0.03221216797828674
0.04518764466047287,0.016471534967422485,-0.007358725182712078,-0.06255936622619629,0.004973068833351135,-0.03221216797828674
0.0450582318007946,0.0158835519105196,-0.007424374110996723,-0.06273339688777924,0.004781089723110199,-0.03254647180438042
0.04456695169210434,0.015739958733320236,-0.006883746944367886,-0.06528615951538086,0.004727598279714584,-0.03319868445396423
0.04495666176080704,0.015754366293549538,-0.006793847307562828,-0.06447718292474747,0.005039335694164038,-0.03470775857567787
0.04498159885406494,0.015436498448252678,-0.007208832539618015,-0.06324010342359543,0.004980732686817646,-0.032800886780023575
0.04532738775014877,0.016161072999238968,-0.006769335363060236,-0.06436599045991898,0.004899163730442524,-0.03238442912697792
0.044822823256254196,0.016001274809241295,-0.006790556013584137,-0.06633515655994415,0.004644673317670822,-0.03313352167606354
0.04495104402303696,0.016457611694931984,-0.006655657198280096,-0.06319138407707214,0.0045634047128260136,-0.033187322318553925
0.044674355536699295,0.015756696462631226,-0.006850235629826784,-0.06462153792381287,0.004755225032567978,-0.03366691619157791
0.04547472298145294,0.015383808873593807,-0.00668847793713212,-0.06485667824745178,0.005300350487232208,-0.03393992781639099
0.04535935819149017,0.016202546656131744,-0.006732665468007326,-0.0645107850432396,0.00513292895630002,-0.033729229122400284
0.04524662345647812,0.01619752123951912,-0.006948499474674463,-0.0639401450753212,0.0048261224292218685,-0.033848244696855545
0.045457709580659866,0.016930092126131058,-0.007628811523318291,-0.06402847915887833,0.004653405863791704,-0.03384103998541832
0.04519909992814064,0.016641374677419662,-0.007209205534309149,-0.06462065875530243,0.004651202354580164,-0.03368749842047691
0.045552272349596024,0.015438942238688469,-0.0072844731621444225,-0.06467518955469131,0.0049223871901631355,-0.03396604582667351
0.04536633938550949,0.015913108363747597,-0.007805631961673498,-0.0641864761710167,0.004962142091244459,-0.034353215247392654
0.045705605298280716,0.015632402151823044,-0.007942508906126022,-0.06486591696739197,0.004689232911914587,-0.0342782698571682
0.045960236340761185,0.016248904168605804,-0.007453546859323978,-0.06508870422840118,0.0046401116997003555,-0.03421909362077713
0.04602619633078575,0.01617923378944397,-0.007262872066348791,-0.06517311930656433,0.004734373185783625,-0.03599199652671814
0.04530879110097885,0.016392426565289497,-0.0075017474591732025,-0.06569842249155045,0.004664629232138395,-0.033777669072151184
