davideferrari95/blind_handover_controller/data/Test 123 - [2024-02-07 -- 16-33-09]/joint_states_data.csv
shoulder_pan_joint,shoulder_lift_joint,elbow_joint,wrist_1_joint,wrist_2_joint,wrist_3_joint
0.006283779628574848,0.005740933585911989,-0.011042801663279533,0.005669519305229187,-0.0,0.006652267649769783
0.006283779628574848,0.005740933585911989,-0.011042801663279533,0.005669519305229187,-0.0,0.006652267649769783
0.0064103864133358,0.00612604757770896,-0.011215081438422203,0.005370881874114275,-0.0,0.00663908151909709
0.006054542027413845,0.0055921622551977634,-0.011176577769219875,0.005430573131889105,-0.0,0.0064559802412986755
0.006551606114953756,0.006392608862370253,-0.010837974958121777,0.005643173586577177,-0.0,0.006245570722967386
0.006116961594671011,0.005809315480291843,-0.011446163058280945,0.005994368344545364,-0.0,0.006652005948126316
0.006182529032230377,0.005786707624793053,-0.01136110071092844,0.005456992890685797,-0.0,0.006507937330752611
0.00663207471370697,0.006445474922657013,-0.01073179580271244,0.004738650284707546,-0.0,0.006129743997007608
0.006591026671230793,0.006114013027399778,-0.011487816460430622,0.004321671556681395,-0.0,0.006212526001036167
0.006127476692199707,0.006442904472351074,-0.011577852070331573,0.004807607736438513,-0.0,0.005975002888590097
0.006123547442257404,0.00595207279548049,-0.011375872418284416,0.005063263699412346,-0.0,0.005945892538875341
0.006123547442257404,0.00595207279548049,-0.011375872418284416,0.005063263699412346,-0.0,0.005945892538875341
0.005979590583592653,0.0061751664616167545,-0.011152503080666065,0.005561011843383312,-0.0,0.005733642261475325
0.006353126838803291,0.006040760315954685,-0.01147830206900835,0.004692248068749905,-0.0,0.005979431793093681
0.0058185141533613205,0.0064373016357421875,-0.011512459255754948,0.004410245455801487,-0.0,0.006492242217063904
0.0060215177945792675,0.006317184306681156,-0.011636494658887386,0.004912655800580978,-0.0,0.006420749239623547
0.006270975340157747,0.005994767881929874,-0.011666021309792995,0.005109123885631561,-0.0,0.006111140828579664
0.006215075496584177,0.006166784092783928,-0.010831254534423351,0.0049815052188932896,-0.0,0.006354132667183876
0.006059905514121056,0.006234597414731979,-0.0120467534288764,0.005299064330756664,-0.0,0.00595259852707386
0.00625638896599412,0.006192228756844997,-0.011374535039067268,0.004716341383755207,-0.0,0.006322523113340139
0.006046495866030455,0.006155771669000387,-0.011220102198421955,0.004546093754470348,-0.0,0.006636834237724543
0.006421181373298168,0.006252392660826445,-0.011632398702204227,0.004643033258616924,-0.0,0.005911634769290686
0.006325789727270603,0.005835795309394598,-0.011251147836446762,0.005122961010783911,-0.0,0.005862443707883358
0.006072981748729944,0.006274194922298193,-0.012032130733132362,0.005196174141019583,-0.0,0.005756575148552656
0.0061404285952448845,0.0062018875032663345,-0.011801513843238354,0.0051976777613162994,-0.0,0.0062845628708601
0.0057226610369980335,0.005860446486622095,-0.011465981602668762,0.004900895059108734,-0.0,0.006601356435567141
0.006179332733154297,0.00622003385797143,-0.011598634533584118,0.00467582605779171,-0.0,0.006214477587491274
0.006358874961733818,0.005915038287639618,-0.01086265780031681,0.004632105119526386,-0.0,0.00623273616656661
0.006529288832098246,0.006493710447102785,-0.011165052652359009,0.0048330845311284065,-0.0,0.0062529402785003185
0.005745293572545052,0.006565683521330357,-0.011062953621149063,0.0051380302757024765,-0.0,0.006028993986546993
0.0059338402934372425,0.005691619124263525,-0.010618939995765686,0.004626686219125986,-0.0,0.006156692281365395
0.005967486184090376,0.005905941594392061,-0.011220747604966164,0.004493341781198978,-0.0,0.005970042664557695
0.006362508982419968,0.005584330763667822,-0.010863836854696274,0.004524357616901398,-0.0,0.005979063455015421
0.006373540498316288,0.006434743292629719,-0.010873588733375072,0.005080775823444128,-0.0,0.005879532545804977
0.005935495253652334,0.006807082798331976,-0.01026739738881588,0.0052697728388011456,-0.0,0.005927070509642363
0.0062569924630224705,0.005888445768505335,-0.011822463013231754,0.005290282890200615,-0.0,0.006255926564335823
0.006081621162593365,0.005777879152446985,-0.011576147750020027,0.005072060972452164,-0.0,0.0063125756569206715
0.00596883799880743,0.005865159444510937,-0.010739151388406754,0.004910042509436607,-0.0,0.006194620858877897
0.005932406522333622,0.006159086246043444,-0.010705729946494102,0.005205158144235611,-0.0,0.006012197118252516
0.005932406522333622,0.006159086246043444,-0.010705729946494102,0.005205158144235611,-0.0,0.006012197118252516
0.006120690610259771,0.005860321689397097,-0.010511579923331738,0.004963680170476437,-0.0,0.0062246606685221195
0.005769805051386356,0.0061089578084647655,-0.011328398250043392,0.004765610210597515,-0.0,0.006137058138847351
0.005940531380474567,0.005966509692370892,-0.011458958499133587,0.004627210088074207,-0.0,0.006462047807872295
0.005616729613393545,0.006098639685660601,-0.010509003885090351,0.004875698126852512,-0.0,0.006154722534120083
0.005681044887751341,0.006431493442505598,-0.011088606901466846,0.004647552501410246,-0.0,0.005777888000011444
0.0060226209461688995,0.005948095116764307,-0.011399802751839161,0.004763744305819273,-0.0,0.0057258522137999535
0.00596759794279933,0.006034323945641518,-0.010898507200181484,0.005280806217342615,-0.0,0.005916123278439045
0.006205135025084019,0.006516186520457268,-0.011376071721315384,0.005383263807743788,-0.0,0.005949354264885187
0.006436266470700502,0.006636189762502909,-0.010312498547136784,0.005314424633979797,-0.0,0.006735662464052439
0.0061419070698320866,0.006217649672180414,-0.011001993902027607,0.004971245303750038,-0.0,0.006570277735590935
0.005639559123665094,0.006319843698292971,-0.010749485343694687,0.0046617016196250916,-0.0,0.00604300107806921
0.006262633949518204,0.006382403429597616,-0.010180172510445118,0.005061275791376829,-0.0,0.005592998117208481
0.006206434685736895,0.006183264777064323,-0.010832144878804684,0.005275662988424301,-0.0,0.0055344016291201115
0.005877557210624218,0.006593944039195776,-0.010219987481832504,0.0051503791473805904,-0.0,0.005367912817746401
0.005767431575804949,0.006719331722706556,-0.010572724044322968,0.005300590302795172,-0.0,0.005347234196960926
0.005933689419180155,0.0061723398976027966,-0.010878637433052063,0.004992762580513954,-0.0,0.005486082285642624
0.006504060234874487,0.006092471536248922,-0.011018655262887478,0.004596745129674673,-0.0,0.0059424093924462795
0.006121734622865915,0.006469850428402424,-0.010309919714927673,0.00456130551174283,-0.0,0.005831889808177948
0.0063652154058218,0.006666527595371008,-0.010817780159413815,0.0050447918474674225,-0.0,0.006013838574290276
0.005720954854041338,0.006196504924446344,-0.010761512443423271,0.005434923805296421,-0.0,0.005582239478826523
0.005885823164135218,0.006238160654902458,-0.011151752434670925,0.005119020584970713,-0.0,0.005548365414142609
0.006343860644847155,0.006336756981909275,-0.010392369702458382,0.004792726133018732,-0.0,0.00517020421102643
0.006117836106568575,0.00668903486803174,-0.010145165026187897,0.004648528527468443,-0.0,0.005213529337197542
0.006117836106568575,0.00668903486803174,-0.010145165026187897,0.004648528527468443,-0.0,0.005213529337197542
0.006217108108103275,0.006569842342287302,-0.010668446309864521,0.004723876249045134,-0.0,0.005365417804569006
0.006156380753964186,0.006368639878928661,-0.010274402797222137,0.005166290327906609,-0.0,0.005506299901753664
0.005923593416810036,0.0065600634552538395,-0.010797901079058647,0.005464158020913601,-0.0,0.0054648700170218945
0.006402517668902874,0.006717388518154621,-0.010389783419668674,0.00475657032802701,-0.0,0.005211872514337301
0.0061679077334702015,0.006584906484931707,-0.010287531651556492,0.0045876591466367245,-0.0,0.005358584225177765
0.006245309952646494,0.006597885396331549,-0.010647842660546303,0.004482304211705923,-0.0,0.0057177189737558365
0.006506972014904022,0.006251408252865076,-0.010250598192214966,0.004847495350986719,-0.0,0.0055764964781701565
0.0063452161848545074,0.006608691066503525,-0.010339021682739258,0.004885697737336159,-0.0,0.0056140245869755745
0.006249056197702885,0.006911220028996468,-0.010505517944693565,0.004814828280359507,-0.0,0.005180979613214731
0.006268636789172888,0.006819430738687515,-0.010692020878195763,0.004664440639317036,-0.0,0.005285120103508234
0.005915286019444466,0.006698210723698139,-0.010544178076088428,0.0046323081478476524,-0.0,0.005340990610420704
0.006257624831050634,0.006639405153691769,-0.010248275473713875,0.004533167462795973,-0.0,0.0055927406065166
0.006470027379691601,0.006823712028563023,-0.009734269231557846,0.0046556065790355206,-0.0,0.0058248150162398815
0.006336030550301075,0.006384745705872774,-0.01052998099476099,0.004703731741756201,-0.0,0.005469736643135548
0.006485512480139732,0.006104705855250359,-0.010481874458491802,0.004530642181634903,-0.0,0.005283939186483622
0.006600240711122751,0.006136845797300339,-0.010860282927751541,0.004433945752680302,-0.0,0.005551234353333712
0.0068079037591814995,0.006357531063258648,-0.010478194802999496,0.004615691024810076,-0.0,0.005342946387827396
0.006451250519603491,0.006551289465278387,-0.010260296054184437,0.004684113431721926,-0.0,0.005809047259390354
0.006645429413765669,0.006455379072576761,-0.009884769096970558,0.004645167849957943,-0.0,0.005448008421808481
0.0064821066334843636,0.0061416104435920715,-0.010159933008253574,0.005074748769402504,-0.0,0.004990339279174805
0.00664555886760354,0.006453691050410271,-0.009835004806518555,0.0049636634066700935,-0.0,0.005304256454110146
0.007271159905940294,0.006988695822656155,-0.009735101833939552,0.00487142289057374,-0.0,0.005229547619819641
0.00646707508713007,0.006699732504785061,-0.010408326052129269,0.0048969280906021595,-0.0,0.005352336447685957
0.006526994984596968,0.006277375854551792,-0.010072389617562294,0.004814562387764454,-0.0,0.005646113771945238
0.006312114652246237,0.006230833474546671,-0.01001887395977974,0.004724360536783934,-0.0,0.005462647881358862
0.007137578446418047,0.006974752992391586,-0.010498842224478722,0.004720787517726421,-0.0,0.004927547182887793
0.006618077866733074,0.007059929892420769,-0.009891294874250889,0.00519671430811286,-0.0,0.0047669792547822
0.0063959043473005295,0.006639257073402405,-0.010628131218254566,0.005216336343437433,-0.0,0.0046877446584403515
0.006217951886355877,0.006282727234065533,-0.010343462228775024,0.004504938144236803,-0.0,0.00498190987855196
0.006217951886355877,0.006282727234065533,-0.010343462228775024,0.004504938144236803,-0.0,0.00498190987855196
0.006599565036594868,0.006775352638214827,-0.010230413638055325,0.0041563790291547775,-0.0,0.005524544510990381
0.006397411227226257,0.007146365474909544,-0.010016662999987602,0.004742611665278673,-0.0,0.005170413292944431
0.006234216038137674,0.006884203292429447,-0.010135827586054802,0.004996452014893293,-0.0,0.005233074072748423
0.006359067279845476,0.006299195811152458,-0.010853446088731289,0.004703661426901817,-0.0,0.005388739053159952
0.006685970816761255,0.006650264840573072,-0.010316924192011356,0.00445948401466012,-0.0,0.005267743021249771
0.006740354001522064,0.007086900062859058,-0.009701156057417393,0.00482742115855217,-0.0,0.005344770848751068
0.006841366179287434,0.006473267450928688,-0.010918081738054752,0.005066458135843277,-0.0,0.005141498986631632
0.006932199466973543,0.006252708844840527,-0.010177423246204853,0.00478048762306571,-0.0,0.004987092223018408
0.006848106160759926,0.006379639729857445,-0.010031422600150108,0.0048660580068826675,-1.2739052181132138e-05,0.005220508668571711
0.007321080192923546,0.00701259495690465,-0.010300385765731335,0.005151134915649891,-8.317691140291572e-07,0.005179297644644976
0.006732869427651167,0.006929087918251753,-0.01071691419929266,0.00509139196947217,-5.430857541455225e-08,0.004998855292797089
0.006405305583029985,0.0070394850336015224,-0.010354695841670036,0.005293738096952438,-3.5459619684985455e-09,0.00525984913110733
0.006619067396968603,0.006746406201273203,-0.010578576475381851,0.004973786883056164,-2.31525992822057e-10,0.005124935880303383
0.007157083600759506,0.008173877373337746,-0.009863311424851418,0.004509821999818087,-1.5116992727048917e-11,0.005193678662180901
0.006788072641938925,0.0061374567449092865,-0.01043589785695076,0.00455307774245739,-9.870315285584463e-13,0.004948859568685293
0.006532041355967522,0.0063097476959228516,-0.01056764181703329,0.004945236723870039,-6.444610876855592e-14,0.004807046614587307
0.006592046935111284,0.006943916901946068,-0.010668997652828693,0.005022172350436449,-4.207870370095653e-15,0.004759189672768116
0.006954132113605738,0.007221318781375885,-0.011136098764836788,0.004511872306466103,-2.7474387146920087e-16,0.005129581782966852
0.007030018605291843,0.006941760890185833,-0.010888680815696716,0.004919452592730522,-1.793880951844762e-17,0.005256177391856909
0.006751448381692171,0.006403966341167688,-0.00992320105433464,0.004816533997654915,-1.1712760634489349e-18,0.005498629994690418
0.006605455651879311,0.006600713822990656,-0.010717864148318768,0.004906480200588703,-7.647596248252155e-20,0.004700365010648966
0.006301806308329105,0.006677372846752405,-0.010541596449911594,0.005147366318851709,-4.993333928813172e-21,0.004527390468865633
0.007003042381256819,0.007291213609278202,-0.010524418205022812,0.00500255124643445,-3.260289924728396e-22,0.004612956196069717
0.006850628647953272,0.0071120308712124825,-0.011341840960085392,0.004820689558982849,-2.128736419573469e-23,0.005015475209802389
0.0067774346098303795,0.0067933835089206696,-0.010036013089120388,0.0046495115384459496,-1.3899126657477865e-24,0.004958261735737324
0.0067774346098303795,0.0067933835089206696,-0.010036013089120388,0.0046495115384459496,-1.3899126657477865e-24,0.004958261735737324
0.007060487754642963,0.006683351006358862,-0.01059561874717474,0.0049049328081309795,-9.075137204943371e-26,0.0048393988981842995
0.007047189865261316,0.006951462477445602,-0.010317418724298477,0.004987786989659071,-5.925415830072889e-27,0.005166954826563597
0.007602169178426266,0.006708216387778521,-0.01122334785759449,0.004757929593324661,-2.526097863306908e-29,0.004791173152625561
0.006636868230998516,0.00683311652392149,-0.01039914134889841,0.004938176833093166,-1.6493613262376332e-30,0.004811720456928015
0.006821523420512676,0.006976987235248089,-0.010424189269542694,0.004880333784967661,-1.0769150435736288e-31,0.0043747215531766415
0.0070754531770944595,0.007259441073983908,-0.009847855195403099,0.004548956640064716,-7.031485415040386e-33,0.0047690896317362785
0.007167174480855465,0.006052931770682335,-0.010457534343004227,0.0045179263688623905,-4.591057572674567e-34,0.004695681855082512
0.006984808016568422,0.005814834497869015,-0.010611776262521744,0.004555048421025276,-2.997632563615168e-35,0.00463345181196928
0.0071124304085969925,0.006266717333346605,-0.010614038445055485,0.004639983642846346,-1.9572398864445087e-36,0.004488588776439428
0.007634833455085754,0.006341789849102497,-0.009798328392207623,0.00469924695789814,-1.2779376763552176e-37,0.004587676841765642
0.007098202593624592,0.006562371738255024,-0.010663433000445366,0.004650578834116459,-8.344020495434409e-39,0.004141906276345253
0.007355086505413055,0.0060460129752755165,-0.010829002596437931,0.004664919339120388,-5.448052247509883e-40,0.004289843607693911
0.007670868653804064,0.005980369634926319,-0.010068920440971851,0.004544853698462248,-3.557196151688548e-41,0.0042199138551950455
0.007136184256523848,0.006213111337274313,-0.010514388792216778,0.004405853804200888,-2.321951555386222e-42,0.004537130240350962
0.006960782688111067,0.006675961427390575,-0.009980895556509495,0.00453633489087224,-1.5134023414708024e-43,0.004487101454287767
0.007203115615993738,0.005896385293453932,-0.009791988879442215,0.004633094649761915,-9.80908925027372e-45,0.004536121152341366
0.007257689256221056,0.0059770639054477215,-0.010784347541630268,0.004553545732051134,-0.0,0.0042002019472420216
0.007399029564112425,0.006332288961857557,-0.010948467999696732,0.004267617594450712,-0.0,0.003959232475608587
0.007300483528524637,0.005866646766662598,-0.010049260221421719,0.004517169203609228,-0.0,0.00423471862450242
0.00707254558801651,0.006420377641916275,-0.010351507924497128,0.004718260373920202,-0.0,0.004195125307887793
0.0076535954140126705,0.005695051047950983,-0.010122834704816341,0.004814977291971445,-0.0,0.0043990034610033035
0.0076535954140126705,0.005695051047950983,-0.010122834704816341,0.004814977291971445,-0.0,0.0043990034610033035
0.0077936225570738316,0.005893087014555931,-0.010089308023452759,0.004754491150379181,-0.00010248986654914916,0.0050609721802175045
0.008200196549296379,0.00569820636883378,-0.010631446726620197,0.004607634153217077,-0.00011213011021027341,0.004685303196310997
0.0078557338565588,0.005945753771811724,-0.00991583801805973,0.00452362559735775,-0.00011018107034033164,0.004539224784821272
0.007768937852233648,0.006208037491887808,-0.010180196724832058,0.004639806225895882,-0.00010759842552943155,0.004098222590982914
0.007598865777254105,0.005509865004569292,-0.010678662918508053,0.004890653770416975,-0.00010508892592042685,0.00385943497531116
0.008050666190683842,0.005348918493837118,-0.01035693846642971,0.004855650011450052,-0.00010269085760228336,0.003835294395685196
0.007673180196434259,0.0059572444297373295,-0.010412695817649364,0.005200980696827173,-9.820844570640475e-05,0.004181225784122944
0.008022168651223183,0.005989651195704937,-0.01023987028747797,0.0053863232024014,-9.611086716176942e-05,0.004485975950956345
0.007786847651004791,0.0059126014821231365,-0.011075452901422977,0.004829402081668377,-9.410097118234262e-05,0.004654265474528074
0.007432333193719387,0.005472863558679819,-0.01123413909226656,0.004563598893582821,-0.0001081897717085667,0.0043595959432423115
0.007707586511969566,0.005833942908793688,-0.01009322889149189,0.0049433172680437565,-0.00010823008778970689,0.003884941106662154
0.008125693537294865,0.005940940231084824,-0.010539671406149864,0.00463591143488884,-0.00010624486458254978,0.0036543465685099363
0.008266386575996876,0.006090163718909025,-0.010330721735954285,0.004973296541720629,-0.00010420406033517793,0.004146775230765343
0.007924878038465977,0.0059813084080815315,-0.010059394873678684,0.005423069000244141,-0.00010223186109215021,0.004143102560192347
0.008289558812975883,0.005646685138344765,-0.010608064942061901,0.005370986182242632,-0.00010033241414930671,0.004332356620579958
0.008102530613541603,0.006055125501006842,-0.010702409781515598,0.005189425777643919,-9.850218339124694e-05,0.004675920121371746
0.007510506082326174,0.005824780557304621,-0.010030376724898815,0.0050228009931743145,-9.673750173533335e-05,0.004336713347584009
0.007412558887153864,0.0060716490261256695,-0.010183282196521759,0.004902709275484085,-9.503502224106342e-05,0.0038895290344953537
0.007965639233589172,0.006022574380040169,-0.010186283849179745,0.004743521101772785,-9.339140524389222e-05,0.0037315848749130964
0.00868537463247776,0.005735150538384914,-0.010330993682146072,0.0046717640943825245,-0.00010510237189009786,0.003863033140078187
0.007926938124001026,0.005671516060829163,-0.010708732530474663,0.004719750490039587,-0.00010518318595131859,0.003921151161193848
0.0076098316349089146,0.00560583034530282,-0.009919083677232265,0.0046439506113529205,-0.00010357377323089167,0.003929659258574247
0.007987945340573788,0.006239915266633034,-0.010806149803102016,0.005114247091114521,-0.00010190621833316982,0.00393155450001359
0.008100888691842556,0.006632488686591387,-0.010611130855977535,0.0050771948881447315,-0.00010028451652033255,0.004321462474763393
0.008100888691842556,0.006632488686591387,-0.010611130855977535,0.0050771948881447315,-0.00010028451652033255,0.004321462474763393
0.008332505822181702,0.006009180564433336,-0.010281017050147057,0.004391297698020935,-9.719040826894343e-05,0.00436648353934288
0.008332505822181702,0.006009180564433336,-0.010281017050147057,0.004391297698020935,-9.719040826894343e-05,0.00436648353934288
0.008190914057195187,0.006483322940766811,-0.01021988783031702,0.00451691634953022,-9.428145131096244e-05,0.0035212174989283085
0.008190914057195187,0.006483322940766811,-0.01021988783031702,0.00451691634953022,-9.428145131096244e-05,0.0035212174989283085
0.008001189678907394,0.006264721043407917,-0.010839113034307957,0.004393186420202255,-9.289132140111178e-05,0.0034737291280180216
0.00836110394448042,0.005825638771057129,-0.010745186358690262,0.00429611885920167,-9.154158033197746e-05,0.004116310738027096
0.008494405075907707,0.005119082517921925,-0.010643327608704567,0.00458057876676321,-0.00010226657468592748,0.004303343594074249
0.007935022003948689,0.005668664816766977,-0.009923321194946766,0.005271781701594591,-0.00010024528455687687,0.003949128556996584
0.007821646519005299,0.006330002099275589,-0.01031472161412239,0.004936266224831343,-9.887209307635203e-05,0.003492825198918581
0.008107119239866734,0.005629425402730703,-0.01043994352221489,0.004759374540299177,-9.753289486980066e-05,0.0031863537151366472
0.008063165470957756,0.005550685338675976,-0.01078919880092144,0.004737671464681625,-9.622945071896538e-05,0.003361700801178813
0.008343678899109364,0.005259016528725624,-0.01066713035106659,0.004839479923248291,-9.496026177657768e-05,0.003592244116589427
0.008227749727666378,0.00587636511772871,-0.010675672441720963,0.005116328131407499,-9.37241711653769e-05,0.004146982915699482
0.008219505660235882,0.006390198599547148,-0.010486152954399586,0.004947292152792215,-9.251976007362828e-05,0.004281454719603062
0.007880879566073418,0.006065875757485628,-0.010506778955459595,0.00480494974181056,-9.13460025913082e-05,0.004074283875524998
0.00866944994777441,0.00553204445168376,-0.010452372021973133,0.004873625468462706,-9.020163270179182e-05,0.0035430302377790213
0.008097942918539047,0.005535237491130829,-0.010640284977853298,0.005301769357174635,-0.00010333184764022008,0.0034532914869487286
0.007904431782662868,0.006178070325404406,-0.010789821855723858,0.00529492599889636,-0.00010302439477527514,0.003257528878748417
0.00810754019767046,0.006028794217854738,-0.010026700794696808,0.0052544535137712955,-0.00010084987297886983,0.003528853179886937
0.009240851737558842,0.0058189923875033855,-0.010829761624336243,0.004993791691958904,-9.86478480626829e-05,0.003382558934390545
0.008294983766973019,0.005960762035101652,-0.011085567064583302,0.0048589506186544895,-9.653218148741871e-05,0.003267429769039154
0.008077027276158333,0.005408302415162325,-0.010379735380411148,0.004750317428261042,-9.450485231354833e-05,0.003403306007385254
0.008392766118049622,0.005533513613045216,-0.011862472631037235,0.005106999538838863,-9.256094199372455e-05,0.003658379428088665
0.00875585712492466,0.005909116007387638,-0.010665749199688435,0.005223470274358988,-9.06952700461261e-05,0.003507642075419426
0.008350920863449574,0.006092636846005917,-0.010351493954658508,0.005312639754265547,-8.890345634426922e-05,0.0032566997688263655
0.009057276882231236,0.0057878741063177586,-0.011194904334843159,0.0052143423818051815,-8.718097524251789e-05,0.0030655506998300552
0.008725268766283989,0.00615381496027112,-0.010405055247247219,0.005176248960196972,-0.00010149042645934969,0.0031546272803097963
0.008725268766283989,0.00615381496027112,-0.010405055247247219,0.005176248960196972,-0.00010149042645934969,0.0031546272803097963
0.00871559139341116,0.00564039358869195,-0.010532736778259277,0.005177529528737068,-0.00010064043453894556,0.003042911645025015
0.00847157184034586,0.006096499972045422,-0.011034014634788036,0.004993665497750044,-9.886585030471906e-05,0.0032976758666336536
0.00926381628960371,0.006117149256169796,-0.010955928824841976,0.005221186205744743,-9.537805453874171e-05,0.0033940242137759924
0.00926381628960371,0.006117149256169796,-0.010955928824841976,0.005221186205744743,-9.537805453874171e-05,0.0033940242137759924
0.008617215789854527,0.005968029610812664,-0.010665636509656906,0.004997624084353447,-9.372264321427792e-05,0.003536926582455635
0.00908168125897646,0.006001580506563187,-0.011440860107541084,0.005018590483814478,-9.057843999471515e-05,0.0034495899453759193
0.009001377038657665,0.005973782390356064,-0.011305615305900574,0.005653895903378725,-8.908415475161746e-05,0.003178889863193035
0.009293005801737309,0.00561907421797514,-0.010897639207541943,0.00546189583837986,-0.00010033469152403995,0.0029176108073443174
0.009221929125487804,0.006147800013422966,-0.010882134549319744,0.0054204524494707584,-0.00010048718104371801,0.0029496958013623953
0.008949660696089268,0.006036384496837854,-0.010374859906733036,0.005626603029668331,-9.902214515022933e-05,0.002692929934710264
0.009294488467276096,0.006092376075685024,-0.010902639478445053,0.005272392183542252,-9.749722812557593e-05,0.0024601351469755173
0.009348263032734394,0.0065591055899858475,-0.011233683675527573,0.005208433140069246,-9.6011848654598e-05,0.0024612362030893564
0.009029613807797432,0.005940972361713648,-0.010723158717155457,0.0052004531025886536,-9.457063424633816e-05,0.0025195784401148558
0.009303849190473557,0.0058801742270588875,-0.011390632018446922,0.005044169723987579,-9.317196236224845e-05,0.003032734850421548
0.009317413903772831,0.005900796037167311,-0.011502435430884361,0.005347940605133772,-9.181411587633193e-05,0.003309007966890931
0.009084340184926987,0.005952192936092615,-0.012098480947315693,0.005250441376119852,-9.04953049030155e-05,0.0033064212184399366
0.00872016791254282,0.006112940143793821,-0.011341981589794159,0.005527242552489042,-8.921377593651414e-05,0.0031675200443714857
0.009321019984781742,0.0062894439324736595,-0.011102693155407906,0.005504162982106209,-8.796809561317787e-05,0.0030244323424994946
0.009338188916444778,0.005907155107706785,-0.011382346041500568,0.006011681165546179,-9.753285121405497e-05,0.0026568244211375713
0.008725268766283989,0.005764342844486237,-0.011309923604130745,0.006306454073637724,-9.769804455572739e-05,0.002723868004977703
0.009175427258014679,0.006019938737154007,-0.011342544108629227,0.0061033060774207115,-9.648603008827195e-05,0.003073240164667368
0.00937024038285017,0.006259786430746317,-0.011721760034561157,0.00622845534235239,-9.521644824417308e-05,0.003099978668615222
0.00937024038285017,0.006259786430746317,-0.011721760034561157,0.00622845534235239,-9.521644824417308e-05,0.003099978668615222
0.00932207703590393,0.0064763822592794895,-0.011307062581181526,0.006045443005859852,-9.397404210176319e-05,0.003027872182428837
0.009236215613782406,0.006149766966700554,-0.011777794919908047,0.0062491693533957005,-9.27633373066783e-05,0.0028058101888746023
0.010053971782326698,0.00605538347736001,-0.011123423464596272,0.0063777039758861065,-9.161073103314266e-05,0.0026729516685009003
0.008709312416613102,0.006561475805938244,-0.010847344063222408,0.00569427665323019,-0.00011763030488509685,0.0028548322152346373
0.009487370029091835,0.0065932851284742355,-0.011346083134412766,0.005266766529530287,-0.00011644225014606491,0.0027362981345504522
0.010056127794086933,0.006116190925240517,-0.010823896154761314,0.004944663494825363,-0.00011362307122908533,0.0028006257489323616
0.009378571063280106,0.006378007587045431,-0.01147864107042551,0.004942712374031544,-0.00011083245772169903,0.0025237512309104204
0.009241798892617226,0.006705911830067635,-0.011555851437151432,0.005439051892608404,-0.00010816867143148556,0.0024290059227496386
0.009749033488333225,0.006419430952519178,-0.01137279998511076,0.005677550565451384,-0.00012349151074886322,0.0027598729357123375
0.009525821544229984,0.006392396986484528,-0.0107149388641119,0.005723877809941769,-0.00012104805500712246,0.002901769010350108
0.009566500782966614,0.0058723133988678455,-0.010979752987623215,0.005708661396056414,-0.00011841466039186344,0.0029490028973668814
0.009167981334030628,0.005665397737175226,-0.011886373162269592,0.005792600102722645,-0.00011587497283471748,0.002980106044560671
0.010514882393181324,0.005834590643644333,-0.011053130030632019,0.005880268290638924,-0.00011344073573127389,0.0027191834524273872
0.009919674135744572,0.00610652519389987,-0.011089785024523735,0.005402239039540291,-0.00012021484144497663,0.002427551196888089
0.009392526000738144,0.005653713829815388,-0.010580218397080898,0.005825248081237078,-0.0001263967715203762,0.0024229467380791903
0.009336218237876892,0.005908491555601358,-0.009932229295372963,0.005863677244633436,-0.00012446085747797042,0.0026609094347804785
0.009812632575631142,0.005926430691033602,-0.010848937556147575,0.006047038361430168,-0.00012208553380332887,0.002851964207366109
0.00959197897464037,0.006081667263060808,-0.011463193222880363,0.0056036366149783134,-0.00011976707173744217,0.0028526519890874624
0.009626667946577072,0.0064123645424842834,-0.011518537066876888,0.005653674248605967,-0.00013212354679126292,0.0029867482371628284
0.01061428152024746,0.005831821821630001,-0.01141816284507513,0.005940904840826988,-0.00013171941100154072,0.0029425499960780144
0.009359798394143581,0.005982131697237492,-0.01095180306583643,0.006004456430673599,-0.00018261323566548526,0.002557231578975916
0.009640675038099289,0.005722856614738703,-0.011546222493052483,0.006507981102913618,-0.00022374370018951595,0.0023068864829838276
0.010887367650866508,0.005928179249167442,-0.011168153956532478,0.006386240012943745,-0.00021627283422276378,0.0022547829430550337
0.01002989336848259,0.005860428791493177,-0.010903686285018921,0.005593273788690567,-0.00020655762637034059,0.0021398416720330715
0.009957639500498772,0.005577608942985535,-0.011499405838549137,0.005403922405093908,-0.000231728219659999,0.0021916020195931196
0.010395457968115807,0.005610556807368994,-0.010763125494122505,0.005810857284814119,-0.00022669410100206733,0.002184789627790451
0.010395457968115807,0.005610556807368994,-0.010763125494122505,0.005810857284814119,-0.00022669410100206733,0.002184789627790451
0.010111928917467594,0.005193409975618124,-0.011745800264179707,0.005651401821523905,-0.00021785401622764766,0.0023581632412970066
0.009970864281058311,0.005400530993938446,-0.011281350627541542,0.0057167308405041695,-0.00023523205891251564,0.0024266771506518126
0.010777276009321213,0.005598130170255899,-0.011284983716905117,0.0059401895850896835,-0.0002346120891161263,0.002381053054705262
0.009959128685295582,0.005449612159281969,-0.011408219113945961,0.005578713957220316,-0.0002267004019813612,0.0021006842143833637
0.009980536997318268,0.005649014376103878,-0.01113179512321949,0.0062962863594293594,-0.00023417986813001335,0.0019972436130046844
0.010646822862327099,0.005648990627378225,-0.011957504786550999,0.0061055636033415794,-0.00024068736820481718,0.001881687669083476
0.00979890488088131,0.005823075771331787,-0.011637705378234386,0.005969132296741009,-0.00023380764469038695,0.0019226502627134323
0.010518564842641354,0.005652747116982937,-0.011349204927682877,0.005640172865241766,-0.0002675888827070594,0.002018543193116784
0.009976843371987343,0.00603051483631134,-0.011020772159099579,0.006050832103937864,-0.00029549861210398376,0.0017074996139854193
0.01079116016626358,0.005530182272195816,-0.011259141378104687,0.00620331522077322,-0.0003073489642702043,0.001631100312806666
0.01020332146435976,0.0058444831520318985,-0.011519885621964931,0.00622193468734622,-0.0003147374955005944,0.0015604530926793814
0.009680037386715412,0.006085224449634552,-0.011318834498524666,0.00569092808291316,-0.0002989634813275188,0.0015349447494372725
0.010231945663690567,0.0060149324126541615,-0.011756524443626404,0.005886656232178211,-0.00028337747789919376,0.0015899360878393054
0.010330995544791222,0.005391368176788092,-0.011769719421863556,0.005734372418373823,-0.00030810272437520325,0.001935984822921455
0.010978425852954388,0.005612693261355162,-0.011433814652264118,0.005949012003839016,-0.0002988093765452504,0.0018992414698004723
0.01027669757604599,0.0064332736656069756,-0.01164210680872202,0.006020056549459696,-0.00028560819919221103,0.002106964588165283
0.01047704741358757,0.006238101050257683,-0.011063608340919018,0.006004569586366415,-0.00027324011898599565,0.001947942073456943
0.010159650817513466,0.0056747933849692345,-0.01166817732155323,0.005922871176153421,-0.0002618810103740543,0.001768744201399386
0.010403716005384922,0.005394854117184877,-0.011443130671977997,0.006262438837438822,-0.0002825629781000316,0.0017093856586143374
0.010297882370650768,0.005617165472358465,-0.011463630013167858,0.006328621879220009,-0.00027600425528362393,0.001507871551439166
0.010837662033736706,0.00522941118106246,-0.011659529991447926,0.006615424994379282,-0.00026608206098899245,0.001378968940116465
0.011224288493394852,0.006040008272975683,-0.011515820398926735,0.006773780565708876,-0.00025661548716016114,0.0013810242526233196
0.010017403401434422,0.005507908295840025,-0.011528625153005123,0.006024261470884085,-0.0002477838716004044,0.0014926594449207187
0.010032560676336288,0.005241265520453453,-0.011068124324083328,0.006039014086127281,-0.0002575310645624995,0.001591494306921959
0.010032560676336288,0.005241265520453453,-0.011068124324083328,0.006039014086127281,-0.0002575310645624995,0.001591494306921959
0.010248387232422829,0.005473110359162092,-0.011190448887646198,0.006126295309513807,-0.00026060923119075596,0.0018731707241386175
0.01034119725227356,0.0055851805955171585,-0.01175178773701191,0.00591663271188736,-0.000247452175244689,0.0019309966592118144
0.01022949069738388,0.005796512588858604,-0.01143996324390173,0.005626223050057888,-0.00023462279932573438,0.0017071077600121498
0.010406640358269215,0.006145438179373741,-0.011654575355350971,0.005611293483525515,-0.00022299712873063982,0.0014902568655088544
0.009823865257203579,0.005420607049018145,-0.01141861267387867,0.006062429863959551,-0.00021246544201858342,0.0013841538457199931
0.010318114422261715,0.005082665476948023,-0.010829351842403412,0.006484794896095991,-0.00023803564545232803,0.0012745745480060577
0.010243845172226429,0.005829619709402323,-0.011925817467272282,0.006206017918884754,-0.00023260118905454874,0.0010919957421720028
0.010523708537220955,0.006065836641937494,-0.011796390637755394,0.006314761471003294,-0.00021444748563226312,0.0011155559914186597
0.010131226852536201,0.005589430686086416,-0.01177098136395216,0.006319615989923477,-0.00020625644538085908,0.001424513990059495
0.010087070055305958,0.005530336871743202,-0.011224191635847092,0.006774916313588619,-0.00019866724323946983,0.0016403977060690522
0.010515191592276096,0.006117875222116709,-0.01139126531779766,0.007077839691191912,-0.00019161624368280172,0.001839442178606987
0.010568467900156975,0.0057022240944206715,-0.011603884398937225,0.006988838315010071,-0.00018504912441130728,0.0016749955248087645
0.010104328393936157,0.0059658861719071865,-0.011614568531513214,0.006728924345225096,-0.00020672293612733483,0.0014120334526523948
0.010547630488872528,0.006151699926704168,-0.011856166645884514,0.006330433301627636,-0.00020191005023662,0.0012362133711576462
0.009655589237809181,0.005615489091724157,-0.011373375542461872,0.006218367256224155,-0.00019575422629714012,0.001112201251089573
0.010403077118098736,0.005909922067075968,-0.012485182844102383,0.0062476410530507565,-0.00018986215582117438,0.0008587942575104535
0.010318322107195854,0.005518090445548296,-0.011531484313309193,0.005960296373814344,-0.00018430758791510016,0.0008005939307622612
0.010212388820946217,0.0064184339717030525,-0.011961151845753193,0.006183532066643238,-0.0002012732729781419,0.0008256094297394156
0.010137169621884823,0.005939512513577938,-0.011476653628051281,0.006573928520083427,-0.0001987725991057232,0.000853308942168951
0.010428573936223984,0.005932487081736326,-0.011595473624765873,0.006681670434772968,-0.0001936265325639397,0.001308840117417276
0.01017905306071043,0.006272940430790186,-0.012522811070084572,0.0065583959221839905,-0.00018856825772672892,0.0012736156350001693
0.011188981123268604,0.005843339487910271,-0.01154128834605217,0.006426089443266392,-0.00018375615763943642,0.0012924898182973266
0.010453227907419205,0.006403428502380848,-0.011746450327336788,0.006614169105887413,-0.00018279143841937184,0.0011290606344118714
0.009945575147867203,0.005752334371209145,-0.011734274215996265,0.00720159662887454,-0.0001794386625988409,0.0010772078530862927
0.010296317748725414,0.005823103711009026,-0.011406514793634415,0.0066736359149217606,-0.00017280434258282185,0.0010163310216739774
0.010041394270956516,0.005565979517996311,-0.011962582357227802,0.006372971925884485,-0.00016642914852127433,0.0009036913979798555
0.010041394270956516,0.005565979517996311,-0.011962582357227802,0.006372971925884485,-0.00016642914852127433,0.0009036913979798555
0.011061741970479488,0.005814165808260441,-0.011576991528272629,0.00636818865314126,-0.00016049356781877577,0.000896715559065342
0.010396797209978104,0.005603966303169727,-0.012593479827046394,0.006496016401797533,-0.0001549660664750263,0.0008124065934680402
0.010572150349617004,0.005869376938790083,-0.011856499128043652,0.006805225275456905,-0.00014980649575591087,0.0006462900200858712
0.010295240208506584,0.005307525862008333,-0.011262109503149986,0.006808404810726643,-0.0001449794799555093,0.0006437741103582084
0.010529248043894768,0.005753843113780022,-0.01171754952520132,0.006920827552676201,-0.0001666515599936247,0.0005971917998977005
0.010577576234936714,0.005486389622092247,-0.01235982310026884,0.0070547666400671005,-0.00016331930237356573,0.0006224659737199545
0.010790741071105003,0.005924536380916834,-0.012659935280680656,0.0069934600032866,-0.0001586327125551179,0.0005714899161830544
0.010778659954667091,0.005672384053468704,-0.01253953855484724,0.007113409694284201,-0.00015411230560857803,0.000560473243240267
0.010884973220527172,0.005357617046684027,-0.012705869972705841,0.006687741260975599,-0.00014579067646991462,0.000513451814185828
0.010782353579998016,0.005663057789206505,-0.011883673258125782,0.007010605651885271,-0.00016403061454184353,0.0004980683443136513
0.01079685427248478,0.005600461270660162,-0.012256093323230743,0.006518176291137934,-0.00016127120761666447,0.0004960733931511641
0.01101770531386137,0.005681903101503849,-0.012316156178712845,0.006353612989187241,-0.00015733741747681051,0.0004905777750536799
0.010566591285169125,0.005620102398097515,-0.013002092018723488,0.006112420931458473,-0.0001535096816951409,0.0005170566728338599
0.010872545652091503,0.005431161727756262,-0.012509254738688469,0.006583723705261946,-0.00014985835878178477,0.00048614831757731736
0.01117059588432312,0.0054212771356105804,-0.012404286302626133,0.006590461824089289,-0.00014637626009061933,0.00045184738701209426
0.010695178993046284,0.005591980181634426,-0.012377491220831871,0.006542549468576908,-0.00014305251534096897,0.0004216248635202646
0.010624767281115055,0.005414566956460476,-0.012339805252850056,0.006593648809939623,-0.00013987618149258196,0.0003951676480937749
0.010838265530765057,0.0057574003003537655,-0.01263969112187624,0.006814367603510618,-0.00013683784345630556,0.00037183347740210593
0.010904887691140175,0.005395144689828157,-0.012415709905326366,0.007229096721857786,-0.00013392875553108752,0.00035110159660689533
0.011000808328390121,0.0056787822395563126,-0.012965887784957886,0.00720714358612895,-0.0001311409578192979,0.0003325619036331773
0.010855666361749172,0.005378592759370804,-0.012666321359574795,0.0067311059683561325,-0.0001374939747620374,0.0003158807521685958
0.012410087510943413,0.004954678006470203,-0.012409481219947338,0.006573257967829704,-0.00014327591634355485,0.0003007947525475174
0.012800856493413448,0.005356820300221443,-0.012640654109418392,0.00723653007298708,-0.00014102610293775797,0.00028708489844575524
0.012396014295518398,0.0051901875995099545,-0.01208551600575447,0.006708867382258177,-0.00013835239224135876,0.00027456964016892016
0.012701064348220825,0.005296448711305857,-0.012629231438040733,0.006447434891015291,-0.0001357462751911953,0.00026310046087019145
0.012104125693440437,0.0055183302611112595,-0.012626203708350658,0.006312862504273653,-0.00013323443999979645,0.0002525510499253869
0.012642300687730312,0.005532152485102415,-0.01300193089991808,0.006934711243957281,-0.00014285474026110023,0.00024281584774143994
0.012139563448727131,0.005785107612609863,-0.012021784670650959,0.0066469465382397175,-0.00014024623669683933,0.00023380329366773367
0.012525315396487713,0.005654666572809219,-0.012308472767472267,0.006559733767062426,-0.00013612370821647346,0.00022543620434589684
0.012822648510336876,0.005528072360903025,-0.012827339582145214,0.006788006983697414,-0.0001321341987932101,0.00021764654957223684
0.01286014262586832,0.005290249828249216,-0.012481795623898506,0.006685507018119097,-0.00012836525274906307,0.00014823528181295842
0.013121824711561203,0.005824315827339888,-0.0130136888474226,0.006590600125491619,-0.00014808964624535292,8.377056656172499e-05
0.013121824711561203,0.005824315827339888,-0.0130136888474226,0.006590600125491619,-0.00014808964624535292,8.377056656172499e-05
0.012241505086421967,0.005311436485499144,-0.01207032147794962,0.006798652932047844,-0.0001456145546399057,7.643596472917125e-05
0.012595978565514088,0.005500575061887503,-0.012806101702153683,0.006975300144404173,-0.000141887430800125,7.308501517400146e-05
0.012695686891674995,0.00511582288891077,-0.01236905436962843,0.0076428428292274475,-0.00015651201829314232,6.757945084245875e-05
0.012617729604244232,0.005285236053168774,-0.013446868397295475,0.007985229603946209,-0.00015339659876190126,6.513347034342587e-05
0.012874484062194824,0.0050783404149115086,-0.012207739055156708,0.008166467770934105,-0.0001603115233592689,4.7457408072659746e-05
0.011735948733985424,0.005391335114836693,-0.012483214028179646,0.007992860861122608,-0.00016651053738314658,3.1415256671607494e-05
0.0130082406103611,0.005300087388604879,-0.011929608881473541,0.007791140116751194,-0.00016337922716047615,2.9445749532897025e-05
0.013345007784664631,0.005064756143838167,-0.01264200359582901,0.008089227601885796,-0.00026935915229842067,2.8453112463466823e-05
0.012560628354549408,0.005032461602240801,-0.012038573622703552,0.007778619881719351,-0.0002873848716262728,1.8577849232315202e-06
0.012936118990182877,0.004930103197693825,-0.012432279996573925,0.008064168505370617,-0.00027229636907577515,1.2130007576161006e-07
0.013309771195054054,0.005217519588768482,-0.013003508560359478,0.008391532115638256,-0.00030134222470223904,7.920028188834749e-09
0.013043434359133244,0.005472211632877588,-0.012146508321166039,0.008294673636555672,-0.0002911789051722735,5.171212347221399e-10
0.012871820479631424,0.005227453075349331,-0.012310941703617573,0.00793523620814085,-0.000276654667686671,3.3764321200058234e-11
0.013194544240832329,0.0048550888895988464,-0.01197303831577301,0.007201433181762695,-0.00030404713470488787,2.2045689926364354e-12
0.013294260017573833,0.005048266611993313,-0.012517871335148811,0.00698684249073267,-0.0002925890439655632,1.4394261065205083e-13
0.013715228997170925,0.004868911579251289,-0.012780352495610714,0.007319545838981867,-0.0002797666529659182,9.39842347284954e-15
0.013731572777032852,0.004990293178707361,-0.01243843138217926,0.0073767793364822865,-0.00029615688254125416,6.136499063577638e-16
0.013555008918046951,0.005334668327122927,-0.01241080742329359,0.007227650377899408,-0.0002930074406322092,-0.00017627225315663964
0.013478752225637436,0.005097382701933384,-0.012339524924755096,0.007237751502543688,-0.0003344069991726428,-0.0008261482580564916
0.013299552723765373,0.004855899140238762,-0.012761862948536873,0.00696414103731513,-0.000358389166649431,-0.0007778522558510303
0.01346050389111042,0.005040557589381933,-0.012104364112019539,0.007180735468864441,-0.0003675210173241794,-0.0007893236470408738
0.01318359375,0.004869641736149788,-0.012000428512692451,0.007340721786022186,-0.0003721342945937067,-0.0007077197078615427
0.01343092042952776,0.004948209505528212,-0.012037375941872597,0.007216705475002527,-0.00034996785689145327,-0.00063656538259238
0.012981344945728779,0.005325607024133205,-0.011980874463915825,0.00716023612767458,-0.0003761566476896405,-0.0006547505035996437
0.013507572934031487,0.00506911426782608,-0.012617044150829315,0.0073916250839829445,-0.00039913764339871705,-0.0006973072304390371
0.013165226206183434,0.00492640258744359,-0.012195453979074955,0.007638889364898205,-0.00038985692663118243,-0.0007543480023741722
0.013550193049013615,0.004787459969520569,-0.01239808276295662,0.007685315329581499,-0.0005325534730218351,-0.0011605084873735905
0.013550193049013615,0.004787459969520569,-0.01239808276295662,0.007685315329581499,-0.0005325534730218351,-0.0011605084873735905
0.013577735051512718,0.004402786027640104,-0.011867848224937916,0.0078331483528018,-0.0005842653918080032,-0.001530582900159061
0.013707177713513374,0.004550292156636715,-0.012202947400510311,0.007643701042979956,-0.0005824908148497343,-0.001499186852015555
0.013524328358471394,0.005056150257587433,-0.01193620078265667,0.007797920610755682,-0.0005945144803263247,-0.0012074146652594209
0.013515321537852287,0.004909113515168428,-0.012713256292045116,0.00750794867053628,-0.0007329469663091004,-0.0011887637665495276
0.01338574755936861,0.0046582818031311035,-0.01196601614356041,0.007217443082481623,-0.0007840204634703696,-0.001163313863798976
0.013782782480120659,0.00464438134804368,-0.012339487671852112,0.007815256714820862,-0.0007144307601265609,-0.0012207221006974578
0.01366583164781332,0.004679807461798191,-0.012045436538755894,0.008183165453374386,-0.0007304919417947531,-0.0013329115463420749
0.014110345393419266,0.004877145867794752,-0.012474112212657928,0.00830137636512518,-0.0007292896625585854,-0.001824234495870769
0.013763166032731533,0.004880120046436787,-0.01225793082267046,0.007931222207844257,-0.0006819574628025293,-0.0018769848393276334
0.014570997096598148,0.0047268010675907135,-0.011915505863726139,0.0077907368540763855,-0.0007095133769325912,-0.0019173896871507168
0.013043464161455631,0.004629962611943483,-0.012276967987418175,0.008022896945476532,-0.0007267633336596191,-0.0018242786172777414
0.013722473755478859,0.004680423531681299,-0.011812474578619003,0.008116988465189934,-0.0007471954450011253,-0.0016514360904693604
0.01382686197757721,0.004526697564870119,-0.012521212920546532,0.007834701798856258,-0.0007636932423338294,-0.0016685310984030366
0.014182580634951591,0.0048358323983848095,-0.012417944148182869,0.008765220642089844,-0.0008694601710885763,-0.0017252154648303986
0.013690349645912647,0.004836179316043854,-0.012400731444358826,0.00829412043094635,-0.0008940703119151294,-0.0020016368944197893
0.014387964271008968,0.005003860220313072,-0.012133747339248657,0.0077418796718120575,-0.0008630205411463976,-0.00220784661360085
0.01412410568445921,0.005203468259423971,-0.011847928166389465,0.008617674931883812,-0.0008101954008452594,-0.0022500508930534124
0.014217693358659744,0.004837241489440203,-0.012728646397590637,0.008680311031639576,-0.0008096277597360313,-0.0023561310954391956
0.014222678728401661,0.004749851766973734,-0.012354406528174877,0.008281959220767021,-0.0007454394944943488,-0.002164579462260008
0.014375369995832443,0.004557384178042412,-0.012652351520955563,0.008119704201817513,-0.0007105732802301645,-0.002261803951114416
0.014170855283737183,0.0049238079227507114,-0.012430238537490368,0.008923615328967571,-0.0007079730276018381,-0.0019412928959354758
0.014518472366034985,0.0054146829061210155,-0.01210754830390215,0.009062646888196468,-0.0006502094911411405,-0.001894474495202303
0.014421557076275349,0.004909564275294542,-0.012929151766002178,0.00814608670771122,-0.000652644201181829,-0.0017155500827357173
0.014713325537741184,0.004731867462396622,-0.012953185476362705,0.008683118037879467,-0.0006111187394708395,-0.0017568873008713126
0.014450588263571262,0.00480239512398839,-0.013105330988764763,0.008294160477817059,-0.0005968579789623618,-0.002166383434087038
0.014917970634996891,0.004880594089627266,-0.012066389434039593,0.00806429609656334,-0.000583506072871387,-0.0024757543578743935
0.014684457331895828,0.004576719831675291,-0.012986033223569393,0.008118322119116783,-0.0005418582004494965,-0.003980362322181463
0.014919175766408443,0.005118862725794315,-0.011779984459280968,0.008912455290555954,-0.0005040494725108147,-0.004120029043406248
0.014919175766408443,0.005118862725794315,-0.011779984459280968,0.008912455290555954,-0.0005040494725108147,-0.004120029043406248
0.015237760730087757,0.004815759602934122,-0.013395729474723339,0.0075848279520869255,-0.00041273151873610914,-0.003025425598025322
0.014857268892228603,0.004691306035965681,-0.013292500749230385,0.007636737078428268,-0.0003776259545702487,-0.0025398193392902613
0.015538218431174755,0.005101029295474291,-0.013072707690298557,0.008590688928961754,-0.0003483390319161117,-0.0025378589052706957
0.015145868062973022,0.005083714611828327,-0.01349067222326994,0.008451796136796474,-0.0003232914605177939,-0.0028022374026477337
0.015049838460981846,0.00488754827529192,-0.013494863174855709,0.007830553688108921,-0.00030160878668539226,-0.0033671236597001553
0.014743412844836712,0.004810244310647249,-0.013009858317673206,0.008080795407295227,-0.00028265255969017744,-0.0036038863472640514
0.015450134873390198,0.005104342475533485,-0.013322640210390091,0.008187076076865196,-0.00026594020891934633,-0.0033717993646860123
0.015265615656971931,0.005003147758543491,-0.012778131291270256,0.007767352741211653,-0.00025109475245699286,-0.0030064305756241083
0.015774648636579514,0.004765891004353762,-0.013286033645272255,0.007821490056812763,-0.00023781965137459338,-0.002879408420994878
0.015447939746081829,0.00474820751696825,-0.012904899194836617,0.008298131637275219,-0.00022587808780372143,-0.0028081403579562902
0.015097913332283497,0.004793303553014994,-0.013315707445144653,0.008532648906111717,-0.0002523310831747949,-0.0030653232242912054
0.015680469572544098,0.004882182460278273,-0.01315263006836176,0.008275401778519154,-0.0002459420938976109,-0.003491510869935155
0.015561845153570175,0.004963657818734646,-0.013592472299933434,0.008792960084974766,-0.00023554556537419558,-0.003761740867048502
0.01571439579129219,0.004376465454697609,-0.01335066370666027,0.009005238302052021,-0.0002257193991681561,-0.0037406221963465214
0.015747006982564926,0.004469947889447212,-0.013218538835644722,0.008293169550597668,-0.00021666240354534239,-0.0035096288193017244
0.01647488959133625,0.00459011597558856,-0.013162643648684025,0.008048858493566513,-0.0002083035506075248,-0.003667880082502961
0.01565256528556347,0.005119650159031153,-0.01307412888854742,0.009092310443520546,-0.00020056540961377323,-0.003968099597841501
0.016373781487345695,0.0050226361490786076,-0.013348821550607681,0.008596701547503471,-0.00019338191486895084,-0.003847380867227912
0.015773536637425423,0.0045548961497843266,-0.01250496320426464,0.008294546976685524,-0.00018669484416022897,-0.003511576447635889
0.015773536637425423,0.0045548961497843266,-0.01250496320426464,0.008294546976685524,-0.00018669484416022897,-0.003511576447635889
0.015473603270947933,0.004495508037507534,-0.013671825639903545,0.008598783984780312,-0.00018045527394860983,-0.003541972953826189
0.015729747712612152,0.004660196136683226,-0.013535281643271446,0.00858538132160902,-0.00017461930110584944,-0.003773631528019905
0.01599791646003723,0.004687939770519733,-0.013724466785788536,0.008334259502589703,-0.00016914888692554086,-0.00385904498398304
0.016331074759364128,0.004693962167948484,-0.012965788133442402,0.008264864794909954,-0.00016401094035245478,-0.0038731517270207405
0.01650688238441944,0.004626343958079815,-0.013387356884777546,0.0084936348721385,-0.0001546179410070181,-0.0040732622146606445
0.016523707658052444,0.00459546223282814,-0.013490558601915836,0.008286753669381142,-0.00015031358634587377,-0.0043380423448979855
0.01648653857409954,0.004661852028220892,-0.013528120703995228,0.008967893198132515,-0.00014624246978200972,-0.004682461265474558
0.016520608216524124,0.004702418576925993,-0.013492853380739689,0.008882070891559124,-0.00014238616859074682,-0.0046932147815823555
0.01627380959689617,0.005268425680696964,-0.013340206816792488,0.008783495053648949,-0.0001558640506118536,-0.004277897533029318
0.016699030995368958,0.005071756895631552,-0.01316673681139946,0.008829520083963871,-0.00015740428352728486,-0.00404917448759079
0.016424523666501045,0.004904828500002623,-0.013227587565779686,0.00936600100249052,-0.0001539137592772022,-0.004765307996422052
0.0171145498752594,0.004836250562220812,-0.012888182885944843,0.008860268630087376,-0.00015026562323328108,-0.005035296082496643
0.016992254182696342,0.00472430232912302,-0.013591893948614597,0.008682764135301113,-0.0001467663823859766,-0.004798927344381809
0.016893915832042694,0.005003857892006636,-0.01295972615480423,0.009195925667881966,-0.0001434251171303913,-0.004560238216072321
0.01681538298726082,0.0055623180232942104,-0.013445012271404266,0.009135928936302662,-0.0001402324269292876,-0.004361837171018124
0.016685722395777702,0.0053360965102910995,-0.013128682039678097,0.008958801627159119,-0.0001371788530377671,-0.004471601452678442
0.017157960683107376,0.004963243845850229,-0.013642681762576103,0.009030323475599289,-0.0001342555187875405,-0.004967614077031612
0.017069920897483826,0.00469836825504899,-0.013381782919168472,0.009443696588277817,-0.00013145404227543622,-0.005047769285738468
0.017314478754997253,0.00472756614908576,-0.013681711629033089,0.008829185739159584,-0.00012876706023234874,-0.004965446889400482
0.01740342751145363,0.004746023565530777,-0.013562353327870369,0.009326974861323833,-0.000126187878777273,-0.004871527664363384
0.01740342751145363,0.004746023565530777,-0.013562353327870369,0.009326974861323833,-0.000126187878777273,-0.004871527664363384
0.017019979655742645,0.004847628064453602,-0.013630778528749943,0.009580770507454872,-0.00012371000775601715,-0.0048064435832202435
0.01744210533797741,0.005106411874294281,-0.013735872693359852,0.009239817969501019,-0.00012132739357184619,-0.004734207410365343
0.017156289890408516,0.0049376701936125755,-0.013289984315633774,0.009332975372672081,-0.00011903499398613349,-0.005025441292673349
0.017342297360301018,0.004543037619441748,-0.013481280766427517,0.00937272422015667,-0.00011470050958450884,-0.0051785423420369625
0.017342297360301018,0.004543037619441748,-0.013481280766427517,0.00937272422015667,-0.00011470050958450884,-0.0051785423420369625
0.016960451379418373,0.00476073520258069,-0.013734729960560799,0.008860760368406773,-0.00011264947534073144,-0.0050213090144097805
0.017712406814098358,0.00487922690808773,-0.013161947950720787,0.009319264441728592,-0.00011067058949265629,-0.0048164199106395245
0.017663422971963882,0.005143968388438225,-0.013891813345253468,0.00914403609931469,-0.00010875999578274786,-0.005057005677372217
0.017820730805397034,0.004899228923022747,-0.01398156862705946,0.009498564526438713,-0.00012001826689811423,-0.005362288560718298
0.01755625009536743,0.004441834520548582,-0.013477472588419914,0.009854650124907494,-0.00011816814367193729,-0.005510430317372084
0.017796754837036133,0.00444227596744895,-0.014427692629396915,0.009269163943827152,-0.00011626772175077349,-0.005578918848186731
0.01757495477795601,0.004685482010245323,-0.013662498444318771,0.009076269343495369,-0.00011442053073551506,-0.005136637017130852
0.017928553745150566,0.004775790963321924,-0.013781861402094364,0.009305237792432308,-0.00011263067426625639,-0.00482871662825346
0.018201053142547607,0.00478556239977479,-0.013549056835472584,0.009586754254996777,-0.00011089593317592517,-0.00500497268512845
0.017476309090852737,0.004639145918190479,-0.014393741264939308,0.00989602692425251,-0.00010921378998318687,-0.005499301478266716
0.01802435889840126,0.004547421354800463,-0.01388383749872446,0.009133020415902138,-0.00010758186544990167,-0.005665163975208998
0.018445564433932304,0.004479488357901573,-0.01457638293504715,0.009101984091103077,-0.00010599803499644622,-0.00569918192923069
0.0180853009223938,0.004319168161600828,-0.013817913830280304,0.009631055407226086,-0.00010446020314702764,-0.005539687350392342
0.01862468384206295,0.004475538618862629,-0.014216732233762741,0.009692531079053879,-0.00010296633990947157,-0.005577995441854
0.018090754747390747,0.005083098076283932,-0.014146875590085983,0.009416642598807812,-8.775760215939954e-05,-0.005411182530224323
0.018312230706214905,0.0051184543408453465,-0.014204422011971474,0.009762384928762913,-7.334759720833972e-05,-0.005964023061096668
0.018244577571749687,0.004866217728704214,-0.014270386658608913,0.009618380106985569,-7.133689359761775e-05,-0.005954189691692591
0.01724208891391754,0.004568221978843212,-0.014689115807414055,0.009481932036578655,-7.016912422841415e-05,-0.0057546598836779594
0.019107501953840256,0.004588278476148844,-0.014502362348139286,0.00983449537307024,-8.110023190965876e-05,-0.005229157395660877
0.019033310934901237,0.004661823622882366,-0.01513690035790205,0.010241014882922173,-8.153406088240445e-05,-0.005203941836953163
0.01869657263159752,0.0047613647766411304,-0.01455546636134386,0.00965831894427538,-8.703170897206292e-05,-0.005539769772440195
0.01869657263159752,0.0047613647766411304,-0.01455546636134386,0.00965831894427538,-8.703170897206292e-05,-0.005539769772440195
0.01838308945298195,0.005740695167332888,-0.0144894914701581,0.01038284320384264,-9.201973443850875e-05,-0.006054482888430357
0.018891721963882446,0.005167544353753328,-0.01455334946513176,0.009822385385632515,-9.109789971262217e-05,-0.006432315334677696
0.018490992486476898,0.004873073194175959,-0.014492913149297237,0.009421844966709614,-0.00010180821846006438,-0.006071470212191343
0.01905779540538788,0.004796411842107773,-0.014652070589363575,0.010309242643415928,-0.00010127100540557876,-0.006010408513247967
0.019069600850343704,0.004952249117195606,-0.01490723341703415,0.010149363428354263,-0.00038553596823476255,-0.006196275819092989
0.018650418147444725,0.0047108447179198265,-0.014633137732744217,0.009758714586496353,-0.00040897217695601285,-0.006737801246345043
0.01914372108876705,0.004977310076355934,-0.015280944295227528,0.010204563848674297,-0.00041197051177732646,-0.006394012365490198
0.018402215093374252,0.004771847277879715,-0.01528383232653141,0.01068489346653223,-0.0004170954052824527,-0.005941468756645918
0.019148359075188637,0.0044418815523386,-0.01454248744994402,0.010447386652231216,-0.0003929476370103657,-0.006382456980645657
0.019608110189437866,0.004908221308141947,-0.015248904936015606,0.010445157065987587,-0.00041917149792425334,-0.006639980245381594
0.019191483035683632,0.0045430585741996765,-0.014859735034406185,0.010007461532950401,-0.00039914282388053834,-0.006614596117287874
0.019656581804156303,0.004692388698458672,-0.01562369242310524,0.010333474725484848,-0.0004693178925663233,-0.006335580721497536
0.019467536360025406,0.005058218725025654,-0.01482751127332449,0.010419749654829502,-0.0004966093110851943,-0.006558604072779417
0.018834276124835014,0.004786554723978043,-0.015855591744184494,0.0100896917283535,-0.0004927805275656283,-0.006779055576771498
0.019117383286356926,0.0046442002058029175,-0.015374306589365005,0.010269022546708584,-0.0005243463674560189,-0.00652854610234499
0.019201403483748436,0.0046522472985088825,-0.01529105193912983,0.009449184872210026,-0.0005486817681230605,-0.006372100207954645
0.019105099141597748,0.004981383681297302,-0.014712975360453129,0.009460607543587685,-0.0006551944534294307,-0.00633702427148819
0.01987047679722309,0.004953066818416119,-0.015618879348039627,0.010470897890627384,-0.0006844669696874917,-0.006152824964374304
0.01982136070728302,0.004997484851628542,-0.016073128208518028,0.009988644160330296,-0.0007126866839826107,-0.0065113939344882965
0.019471310079097748,0.0047795395366847515,-0.015567567199468613,0.010268683545291424,-0.000734705594368279,-0.007009361870586872
0.019905980676412582,0.004720257595181465,-0.0158036220818758,0.010717833414673805,-0.0007334218826144934,-0.006891131401062012
0.01999795250594616,0.004771835636347532,-0.015566887333989143,0.010592622682452202,-0.0006853021332062781,-0.006756469141691923
0.01969495601952076,0.004568609409034252,-0.01603129878640175,0.010859357193112373,-0.0007078613853082061,-0.006393396761268377
0.020208146423101425,0.004865725990384817,-0.015015548095107079,0.010900809429585934,-0.0007154494524002075,-0.006919177249073982
0.02035372331738472,0.004940513521432877,-0.015878431499004364,0.010926926508545876,-0.0006568547105416656,-0.006747652776539326
0.02035372331738472,0.004940513521432877,-0.015878431499004364,0.010926926508545876,-0.0006568547105416656,-0.006747652776539326
0.019936809316277504,0.004786248784512281,-0.015195717103779316,0.01112791895866394,-0.0006778983515687287,-0.006854354869574308
0.019802184775471687,0.004618935752660036,-0.01601327210664749,0.010238206945359707,-0.0006998419412411749,-0.007047080900520086
0.020161090418696404,0.004587757866829634,-0.01590672880411148,0.010327832773327827,-0.0007752702222205698,-0.006979962345212698
0.020166978240013123,0.0046162414364516735,-0.01602679304778576,0.01025011669844389,-0.000860442640259862,-0.007102937437593937
0.020069370046257973,0.004781551659107208,-0.016035564243793488,0.010133067145943642,-0.0008142634760588408,-0.006731412839144468
0.02051062136888504,0.004813638515770435,-0.015346253290772438,0.010313158854842186,-0.0008136520045809448,-0.006981770507991314
0.02021745964884758,0.004860742948949337,-0.015516335144639015,0.009882399812340736,-0.0008509401232004166,-0.006779023911803961
0.020249951630830765,0.004810642916709185,-0.015986356884241104,0.010102959349751472,-0.0007955677574500442,-0.00682444404810667
0.0204769354313612,0.004747229162603617,-0.015085548162460327,0.01018053013831377,-0.0008047863375395536,-0.007351509295403957
0.020575089380145073,0.004802958574146032,-0.015705900266766548,0.009936578571796417,-0.0007950199069455266,-0.007924634031951427
0.02063634619116783,0.0052042026072740555,-0.015040699392557144,0.01088227890431881,-0.0007369992672465742,-0.007853609509766102
0.021300654858350754,0.00496876984834671,-0.01586385816335678,0.01148507371544838,-0.0006714369519613683,-0.007897529751062393
0.020932551473379135,0.004996233619749546,-0.01587928645312786,0.011307783424854279,-0.0006325828144326806,-0.008293782360851765
0.02063620835542679,0.004849804099649191,-0.01601278968155384,0.011223016306757927,-0.000557693827431649,-0.007905347272753716
0.020737364888191223,0.004769590683281422,-0.015676094219088554,0.01090908795595169,-0.0005882802652195096,-0.00741369416937232
0.021237017586827278,0.004674779716879129,-0.015891488641500473,0.01110122725367546,-0.0006012027151882648,-0.00802364107221365
0.02127920277416706,0.0050240629352629185,-0.01616339571774006,0.010973486118018627,-0.0005675178254023194,-0.007838468998670578
0.021069196984171867,0.005168510600924492,-0.015370888635516167,0.010974902659654617,-0.0005218149744905531,-0.008009182289242744
0.019686171784996986,0.004773144144564867,-0.01589803583920002,0.010612714104354382,-0.0004819484893232584,-0.0077309622429311275
0.021555621176958084,0.004890603944659233,-0.015857459977269173,0.010756876319646835,-0.000447681377409026,-0.007813015021383762
0.02171911858022213,0.0051931412890553474,-0.016159843653440475,0.010687063448131084,-0.0004179607203695923,-0.007701517548412085
0.021386144682765007,0.004894608166068792,-0.01569070853292942,0.011082516983151436,-0.00041917982161976397,-0.008548839017748833
0.021598532795906067,0.004885357338935137,-0.016000758856534958,0.01086132600903511,-0.000419811432948336,-0.008142516016960144
0.021755848079919815,0.005359729286283255,-0.01596333459019661,0.010504533536732197,-0.0003982258203905076,-0.00766692403703928
0.02137801982462406,0.00509176030755043,-0.016033999621868134,0.010797923430800438,-0.0003774483047891408,-0.00797343160957098
0.020481210201978683,0.0051604681648314,-0.01613544672727585,0.010441780090332031,-0.00035864816163666546,-0.008452448062598705
0.021275723353028297,0.005125567317008972,-0.015567024238407612,0.010676088742911816,-0.00034162576775997877,-0.008755404502153397
0.021731780841946602,0.004783559590578079,-0.01626354455947876,0.010381672531366348,-0.00029538088710978627,-0.008115760050714016
0.021803898736834526,0.004887059796601534,-0.015746822580695152,0.010332302190363407,-0.000268737378064543,-0.008285252377390862
0.021803898736834526,0.004887059796601534,-0.015746822580695152,0.010332302190363407,-0.000268737378064543,-0.008285252377390862
0.020984644070267677,0.005229504778981209,-0.016049280762672424,0.010935924015939236,-0.0002530302735976875,-0.008433014154434204
0.021380910649895668,0.004916104953736067,-0.015546430833637714,0.011513695120811462,-0.0002395180199528113,-0.0085801025852561
0.02237958088517189,0.004839461762458086,-0.01624998450279236,0.01126944925636053,-0.00022740681015420705,-0.008574135601520538
0.021984240040183067,0.004803673829883337,-0.01550611387938261,0.011636359617114067,-0.0002484220894984901,-0.008531386032700539
0.021874072030186653,0.005053690169006586,-0.016109641641378403,0.011580153368413448,-0.0002369063295191154,-0.00787903368473053
0.02166324108839035,0.004994185641407967,-0.015935948118567467,0.011338342912495136,-0.00022698883549310267,-0.008192865177989006
0.021528612822294235,0.004776789806783199,-0.016174644231796265,0.010891745798289776,-0.00023559750115964562,-0.008289201185107231
0.02150808647274971,0.00462120957672596,-0.01536606065928936,0.01136777177453041,-0.00024307209241669625,-0.008165541104972363
0.022291816771030426,0.005161152686923742,-0.016042564064264297,0.010823705233633518,-0.00023508377489633858,-0.008202861063182354
0.02221047505736351,0.0050179180689156055,-0.01555238850414753,0.01086017768830061,-0.00022669426107313484,-0.008257770910859108
0.021828237920999527,0.004632625263184309,-0.016448676586151123,0.011296138167381287,-0.0002479695249348879,-0.008322875946760178
0.021719396114349365,0.005065478850156069,-0.015945913270115852,0.010940521024167538,-0.00024155093706212938,-0.008730410598218441
0.021996719762682915,0.005227011162787676,-0.015843428671360016,0.011541632004082203,-0.0002839178778231144,-0.008756705559790134
0.022263402119278908,0.004708475898951292,-0.015991071239113808,0.011682779528200626,-0.0002741493808571249,-0.008734770119190216
0.02210569567978382,0.005020311567932367,-0.01611596718430519,0.012340614572167397,-0.00030365397105924785,-0.008461876772344112
0.021958939731121063,0.005341052543371916,-0.01608629897236824,0.012388418428599834,-0.0003171820717398077,-0.008713518269360065
0.021845119073987007,0.004863021895289421,-0.01588902622461319,0.012169618159532547,-0.0003233782190363854,-0.009174881502985954
0.02262810990214348,0.004957181867212057,-0.016653338447213173,0.012786180712282658,-0.00030898404656909406,-0.00924445129930973
0.022389402613043785,0.005217389203608036,-0.016136644408106804,0.012315803207457066,-0.00033383406116627157,-0.00927009992301464
0.022100407630205154,0.004616882652044296,-0.016569141298532486,0.012002531439065933,-0.0003214876924175769,-0.009046582505106926
0.02191232144832611,0.004518576432019472,-0.01599872298538685,0.011970600113272667,-0.0004572172765620053,-0.009070334024727345
0.02200675755739212,0.005086970049887896,-0.016106383875012398,0.01182093471288681,-0.0005040699616074562,-0.00866385642439127
0.02235674113035202,0.004979747347533703,-0.01639779657125473,0.011826801113784313,-0.000500676513183862,-0.008845814503729343
0.02235674113035202,0.004979747347533703,-0.01639779657125473,0.011826801113784313,-0.000500676513183862,-0.008845814503729343
0.022670995444059372,0.00486721470952034,-0.015899987891316414,0.011493715457618237,-0.0004979016957804561,-0.008568312041461468
0.021826496347784996,0.0048263841308653355,-0.01663021743297577,0.011807669885456562,-0.0004928732523694634,-0.009308656677603722
0.022376773878932,0.004728657193481922,-0.016257088631391525,0.011832492426037788,-0.0004591545439325273,-0.009859622456133366
0.023627251386642456,0.004721107892692089,-0.017075756564736366,0.01205766573548317,-0.00048091192729771137,-0.010337029583752155
0.022931484505534172,0.004592680837959051,-0.016372382640838623,0.011921796016395092,-0.00045755639439448714,-0.0094343526288867
0.02235312946140766,0.004879607819020748,-0.016140323132276535,0.011759595014154911,-0.00047988680307753384,-0.009501174092292786
0.022224631160497665,0.004855615086853504,-0.016640810295939445,0.012118903920054436,-0.0004766117490362376,-0.009541313163936138
0.022737998515367508,0.004774551838636398,-0.01618047244846821,0.011598700657486916,-0.00043375047971494496,-0.009790328331291676
0.02273046225309372,0.004627035930752754,-0.016967112198472023,0.011989850550889969,-0.0004692520888056606,-0.009904751554131508
0.022937193512916565,0.004559540189802647,-0.01651361770927906,0.012224586680531502,-0.00043613449088297784,-0.009698275476694107
0.02358235977590084,0.0044560846872627735,-0.016702136024832726,0.012025794945657253,-0.0004532466409727931,-0.009738205932080746
0.023584822192788124,0.004133101087063551,-0.016830429434776306,0.011681224219501019,-0.00045280734775587916,-0.010256130248308182
0.02285798080265522,0.004126093350350857,-0.016705213114619255,0.01203083898872137,-0.0004387131193652749,-0.00993628054857254
0.022750403732061386,0.003999907057732344,-0.01600227877497673,0.01195597369223833,-0.0004484759410843253,-0.009871316142380238
0.02333809994161129,0.004325016867369413,-0.016467465087771416,0.01187550276517868,-0.000439143244875595,-0.010088029317557812
0.023543745279312134,0.0041106026619672775,-0.0163993239402771,0.012311340309679508,-0.00044097486534155905,-0.009845666587352753
0.023121101781725883,0.003907103557139635,-0.017170781269669533,0.012013629078865051,-0.00044038009946234524,-0.00989083293825388
0.023357773199677467,0.004026112146675587,-0.0169958658516407,0.012689884752035141,-0.00045941746793687344,-0.009993357583880424
0.023826923221349716,0.004042416345328093,-0.01653601974248886,0.012346439994871616,-0.0004736177797894925,-0.009814044460654259
0.024299513548612595,0.0039253816939890385,-0.01658765785396099,0.012268200516700745,-0.000471820734674111,-0.009961229749023914
0.023836208507418633,0.00441778264939785,-0.016351670026779175,0.012703786604106426,-0.0006037196726538241,-0.010102033615112305
0.023779666051268578,0.004162299912422895,-0.017134809866547585,0.012159555219113827,-0.0005545555031858385,-0.009859719313681126
0.02361680194735527,0.0039058176334947348,-0.016750015318393707,0.012473300099372864,-0.0005673606065101922,-0.009841211140155792
0.02387833595275879,0.0038373121060431004,-0.016933461651206017,0.012098608538508415,-0.0005335173336789012,-0.01006598211824894
0.024632491171360016,0.003923629876226187,-0.01712099090218544,0.012822103686630726,-0.0005462656263262033,-0.009974496439099312
0.024932686239480972,0.003985494840890169,-0.01651052013039589,0.012643620371818542,-0.0005196379497647285,-0.009813991375267506
0.024430841207504272,0.004017842002213001,-0.017391866073012352,0.012724031694233418,-0.0005404585972428322,-0.009984325617551804
0.024151405319571495,0.004101192113012075,-0.01654418185353279,0.012468944303691387,-0.0005102954455651343,-0.009834432043135166
0.024419156834483147,0.0040792678482830524,-0.016875823959708214,0.012493721209466457,-0.0005127334734424949,-0.009881527163088322
0.024465050548315048,0.003925294149667025,-0.016929199919104576,0.012767444364726543,-0.0004727286286652088,-0.01016168761998415
0.024679863825440407,0.004335777368396521,-0.01671792007982731,0.012516074813902378,-0.000491284008603543,-0.009488716721534729
0.024679863825440407,0.004335777368396521,-0.01671792007982731,0.012516074813902378,-0.000491284008603543,-0.009488716721534729
0.024780545383691788,0.004157882649451494,-0.017472459003329277,0.013083526864647865,-0.0004680708807427436,-0.009726366959512234
0.024118788540363312,0.0036277947947382927,-0.016462160274386406,0.012907912023365498,-0.00043187703704461455,-0.010416314005851746
0.025439100340008736,0.0034960643388330936,-0.016948789358139038,0.013059070333838463,-0.00045748785487376153,-0.010141122154891491
0.024716835469007492,0.004227840807288885,-0.016540315002202988,0.0126624321565032,-0.000433819048339501,-0.010072009637951851
0.025166131556034088,0.00460426090285182,-0.016949964687228203,0.012815515510737896,-0.0004345580528024584,-0.009434417821466923
0.025378843769431114,0.0044574919156730175,-0.017131514847278595,0.012688319198787212,-0.000434322573710233,-0.009305332787334919
0.025480467826128006,0.004019643180072308,-0.01637934148311615,0.012529385276138783,-0.00044152140617370605,-0.009294658899307251
0.02543179877102375,0.004066694527864456,-0.01714973896741867,0.012692205607891083,-0.0004293024248909205,-0.009006430394947529
0.025512339547276497,0.004418021533638239,-0.016603099182248116,0.012960019521415234,-0.00046919911983422935,-0.009451684542000294
0.025573905557394028,0.004102663137018681,-0.016515549272298813,0.012851609848439693,-0.0004666976456064731,-0.009341863915324211
0.02535180374979973,0.00431753508746624,-0.01677522622048855,0.012902846559882164,-0.0004667453176807612,-0.009982715360820293
0.02557418681681156,0.004715973976999521,-0.017264483496546745,0.012882470153272152,-0.0004645305743906647,-0.009879636578261852
0.025916272774338722,0.004467965103685856,-0.016131063923239708,0.012774286791682243,-0.0005707274540327489,-0.009268642403185368
0.026039382442831993,0.0040491363033652306,-0.016766827553510666,0.01287230383604765,-0.000546646595466882,-0.00942919123917818
0.026318876072764397,0.004075880162417889,-0.016998210921883583,0.012915972620248795,-0.0004900138592347503,-0.009672250598669052
0.026370996609330177,0.004055489785969257,-0.017156846821308136,0.013148150406777859,-0.0005066479789093137,-0.00978622492402792
0.026340318843722343,0.004356573335826397,-0.018059631809592247,0.012758924625813961,-0.00048137205885723233,-0.009616793133318424
0.026813894510269165,0.004679974168539047,-0.017207195982336998,0.013366054743528366,-0.000443142926087603,-0.009675957262516022
0.026526477187871933,0.0047578588128089905,-0.017736835405230522,0.012966147623956203,-0.0004684999294113368,-0.010061847977340221
0.026567284017801285,0.0043486906215548515,-0.017261406406760216,0.01328901294618845,-0.0004435342561919242,-0.009455429390072823
0.02654973603785038,0.004324458073824644,-0.01724223606288433,0.013012036681175232,-0.0004699631535913795,-0.009534090757369995
0.026790717616677284,0.0044370610266923904,-0.017826246097683907,0.013245860114693642,-0.0004455187590792775,-0.010414881631731987
0.0266882311552763,0.0046617151238024235,-0.0175479743629694,0.013390147127211094,-0.00043220436782576144,-0.010278486646711826
0.02679816260933876,0.004204096272587776,-0.018180591985583305,0.014086883515119553,-0.00046434608520939946,-0.009957275353372097
0.027173418551683426,0.004449916537851095,-0.018174132332205772,0.013902109116315842,-0.0004714651149697602,-0.009751691482961178
0.02830813266336918,0.00447932630777359,-0.017362577840685844,0.013736163266003132,-0.0005017350194975734,-0.010464734397828579
0.02756933867931366,0.0042596724815666676,-0.018153676763176918,0.013516844250261784,-0.000498961890116334,-0.011127572506666183
0.024759886786341667,0.004340659826993942,-0.0181316789239645,0.012983343563973904,-0.0007256451644934714,-0.01034359261393547
0.024759886786341667,0.004340659826993942,-0.0181316789239645,0.012983343563973904,-0.0007256451644934714,-0.01034359261393547
0.027514882385730743,0.004580842796713114,-0.018478063866496086,0.012770671397447586,-0.0007722426671534777,-0.009945206344127655
0.028213949874043465,0.004574427381157875,-0.017950931563973427,0.01238581258803606,-0.0007900462951511145,-0.010376114398241043
0.027559679001569748,0.00432857358828187,-0.01747296378016472,0.013289411552250385,-0.000789376616012305,-0.010055947117507458
0.027621863409876823,0.004444506019353867,-0.018715888261795044,0.013294904492795467,-0.0007327452767640352,-0.00988409947603941
0.028062447905540466,0.004699130076915026,-0.018253685906529427,0.013787000440061092,-0.0007753592217341065,-0.010493042878806591
0.028532439842820168,0.004160226788371801,-0.017306283116340637,0.013850950635969639,-0.0007945262477733195,-0.01029859110713005
0.028058305382728577,0.004382988903671503,-0.01812656968832016,0.014230563305318356,-0.0007930161664262414,-0.010464448481798172
0.027678588405251503,0.004328885581344366,-0.01825648546218872,0.01427253894507885,-0.0007443894864991307,-0.01020470354706049
0.028804246336221695,0.004044793546199799,-0.018184740096330643,0.014123997651040554,-0.0007556342170573771,-0.00994696095585823
0.027783947065472603,0.004910723306238651,-0.017380710691213608,0.014901760965585709,-0.000673108734190464,-0.010731148533523083
0.02751518040895462,0.0048500122502446175,-0.01794426329433918,0.01458260603249073,-0.0006957169971428812,-0.010478694923222065
0.027727320790290833,0.004671218805015087,-0.018585484474897385,0.014333711937069893,-0.0007187931914813817,-0.010714649222791195
0.027959469705820084,0.004377398639917374,-0.017794067040085793,0.01367166917771101,-0.0007191675831563771,-0.010647919960319996
0.02759062871336937,0.004429898224771023,-0.01779717579483986,0.013929200358688831,-0.0007410269463434815,-0.010731578804552555
0.027843454852700233,0.004731420893222094,-0.01787145994603634,0.013739512301981449,-0.0007631676853634417,-0.010432938113808632
0.027843626216053963,0.004857060965150595,-0.017841607332229614,0.013865217566490173,-0.0007237149984575808,-0.010527309961616993
0.027609292417764664,0.004807456396520138,-0.018080446869134903,0.01378953829407692,-0.0007407785742543638,-0.010851492173969746
0.028017494827508926,0.004566450137645006,-0.01762882061302662,0.013723304495215416,-0.0007385799544863403,-0.011081133969128132
0.028084104880690575,0.004775039851665497,-0.01831422746181488,0.013735728338360786,-0.0006896480335853994,-0.010858028195798397
0.027712302282452583,0.004827198572456837,-0.018012644723057747,0.0142246438190341,-0.0006771391490474343,-0.010802139528095722
0.02746415324509144,0.004904566332697868,-0.01783708482980728,0.014336745254695415,-0.0006304120761342347,-0.01092041376978159
0.02797873504459858,0.0048968191258609295,-0.01814061589539051,0.014370322227478027,-0.0006087584188207984,-0.011096399277448654
0.02816581539809704,0.005120085086673498,-0.017658023163676262,0.014235532842576504,-0.000589749135542661,-0.011358318850398064
0.02767740935087204,0.004865551833063364,-0.01812892220914364,0.014259863644838333,-0.0005995886167511344,-0.010859369300305843
0.026716992259025574,0.005062582902610302,-0.017968688160181046,0.01418981235474348,-0.0005659490707330406,-0.010811853222548962
0.026716992259025574,0.005062582902610302,-0.017968688160181046,0.01418981235474348,-0.0005659490707330406,-0.010811853222548962
0.028354927897453308,0.004902882967144251,-0.017372140660881996,0.013951919972896576,-0.0005895548383705318,-0.011197226122021675
0.02872627042233944,0.004910510033369064,-0.0181904174387455,0.014240370132029057,-0.0006044871988706291,-0.011046185158193111
0.028874779120087624,0.004700773395597935,-0.01795576512813568,0.0139159569516778,-0.0006332399207167327,-0.011008345521986485
0.028567781671881676,0.004828045144677162,-0.01792515069246292,0.014311719685792923,-0.0006620765780098736,-0.01087804976850748
0.02783457562327385,0.005186031572520733,-0.01848551258444786,0.014129798859357834,-0.0006856195395812392,-0.011013314127922058
0.02833697572350502,0.004661271348595619,-0.01781546324491501,0.014415699988603592,-0.0008266812073998153,-0.011034863069653511
0.0291095282882452,0.005093119572848082,-0.018066661432385445,0.014237811788916588,-0.0009647209662944078,-0.010808168910443783
0.028576038777828217,0.005076973233371973,-0.01859542727470398,0.014381359331309795,-0.0008589918143115938,-0.010893531143665314
0.029352419078350067,0.004793532658368349,-0.018336286768317223,0.013816682621836662,-0.0007469682022929192,-0.011023583821952343
0.02917300909757614,0.005112640559673309,-0.018181171268224716,0.013761497102677822,-0.00067899189889431,-0.011697543784976006
0.02849001996219158,0.004888622555881739,-0.01794029027223587,0.014192518778145313,-0.0006949196103960276,-0.01115493569523096
0.028456756845116615,0.0044679283164441586,-0.018354784697294235,0.013941106386482716,-0.000641744933091104,-0.010948661714792252
0.028704194352030754,0.004550948739051819,-0.017982013523578644,0.01458356436342001,-0.0005506158340722322,-0.011125663295388222
0.02890995889902115,0.005017066840082407,-0.017880141735076904,0.014201659709215164,-0.0005367721896618605,-0.011027364060282707
0.029064590111374855,0.004998148884624243,-0.018508194014430046,0.014545095153152943,-0.0005265410873107612,-0.011115352623164654
0.029201537370681763,0.0050475383177399635,-0.018249062821269035,0.014355508610606194,-0.0005411409074440598,-0.011752651073038578
0.028931764885783195,0.005307717714458704,-0.01848386600613594,0.014598081819713116,-0.0005152396042831242,-0.011435265652835369
0.028857838362455368,0.004579105880111456,-0.01874465122818947,0.013849718496203423,-0.0005362386000342667,-0.011313922703266144
0.02890797145664692,0.004548970609903336,-0.018385257571935654,0.01441352441906929,-0.000506591226439923,-0.011506746523082256
0.029217049479484558,0.004540921188890934,-0.01879793405532837,0.014394087716937065,-0.0005424298578873277,-0.01171873789280653
0.02931688353419304,0.00550733832642436,-0.01898493431508541,0.014767549932003021,-0.0005067886086180806,-0.011523110792040825
0.029513515532016754,0.005397448316216469,-0.018349962309002876,0.014183873310685158,-0.0005416992353275418,-0.011362185701727867
0.02964872494339943,0.004717488307505846,-0.018274569883942604,0.01474892720580101,-0.0004974011681042612,-0.011622893624007702
0.029725225642323494,0.0043688551522791386,-0.018394632264971733,0.014512255787849426,-0.0005212320247665048,-0.011570573784410954
0.029708553105592728,0.004458964336663485,-0.018760627135634422,0.01468292810022831,-0.0004896291648037732,-0.011848370544612408
0.029708553105592728,0.004458964336663485,-0.018760627135634422,0.01468292810022831,-0.0004896291648037732,-0.011848370544612408
0.02844933234155178,0.004665716085582972,-0.020021742209792137,0.013996537774801254,-0.0005025941645726562,-0.011692875996232033
0.029909610748291016,0.004673932213336229,-0.019320577383041382,0.014656798914074898,-0.00048371110460720956,-0.011919979937374592
0.029884565621614456,0.00468912348151207,-0.018742868676781654,0.014370965771377087,-0.0005302969366312027,-0.011739674024283886
0.029555292800068855,0.005078302230685949,-0.018612587824463844,0.014618413522839546,-0.0005570181529037654,-0.011473960243165493
0.029797932133078575,0.004954119678586721,-0.018609624356031418,0.014299717731773853,-0.0005254370626062155,-0.011403732933104038
0.030052397400140762,0.0045485300943255424,-0.018802424892783165,0.014591035433113575,-0.0005544660962186754,-0.011548541486263275
0.03022613190114498,0.00457561481744051,-0.019555427134037018,0.014160302467644215,-0.0005824025138281286,-0.011849327944219112
0.030544688925147057,0.005016865208745003,-0.019371291622519493,0.01464332826435566,-0.0007246087770909071,-0.011392636224627495
0.03038373589515686,0.005144559312611818,-0.01873154379427433,0.014788452535867691,-0.0007943505188450217,-0.01096798200160265
0.030941642820835114,0.005038639064878225,-0.019264739006757736,0.015211379155516624,-0.0008111670613288879,-0.011013690382242203
0.03064582869410515,0.0049451859667897224,-0.019416360184550285,0.015344195067882538,-0.0008673737174831331,-0.011351547203958035
0.030864804983139038,0.004541339818388224,-0.019692543894052505,0.015065757557749748,-0.0009001670405268669,-0.011759459041059017
0.03086773306131363,0.004635005723685026,-0.018994729965925217,0.0149875208735466,-0.000835623184684664,-0.012113056145608425
0.031043538823723793,0.004965212196111679,-0.018833987414836884,0.014843674376606941,-0.0008398772333748639,-0.011800636537373066
0.030787652358412743,0.005025599151849747,-0.020227903500199318,0.014578682370483875,-0.0008394071483053267,-0.011585543863475323
0.03079928085207939,0.004784767981618643,-0.018516911193728447,0.01481711957603693,-0.0007632196065969765,-0.011189356446266174
0.03153349459171295,0.004880719352513552,-0.01837070658802986,0.015376058407127857,-0.0007140549132600427,-0.01118047907948494
0.032227158546447754,0.004455599468201399,-0.01951337791979313,0.015958089381456375,-0.0006822853465564549,-0.011525883339345455
0.03119814209640026,0.0045609851367771626,-0.019191397354006767,0.01564069837331772,-0.0006526903598569334,-0.011255450546741486
0.030290041118860245,0.004678311292082071,-0.019302265718579292,0.01574871875345707,-0.0006757729570381343,-0.011779123917222023
0.031909357756376266,0.005615199916064739,-0.019602641463279724,0.01502379309386015,-0.0006801604176871479,-0.012065134011209011
0.032110173255205154,0.004861938301473856,-0.019068099558353424,0.01580219529569149,-0.0006398986442945898,-0.012261602096259594
0.03159564360976219,0.004509486723691225,-0.019029980525374413,0.015664611011743546,-0.0006588688120245934,-0.012064173817634583
0.03254219889640808,0.0039719268679618835,-0.019130589440464973,0.016726989299058914,-0.0006548152887262404,-0.012286814860999584
0.03152202069759369,0.003538470482453704,-0.019027579575777054,0.01586839370429516,-0.0006306787836365402,-0.012305427342653275
0.031183090060949326,0.0034743505530059338,-0.019264142960309982,0.015189812518656254,-0.0006554849678650498,-0.011809198185801506
0.030879134312272072,0.003693434176966548,-0.01953848823904991,0.014631344936788082,-0.0006617101025767624,-0.012456483207643032
0.03161359950900078,0.004004346672445536,-0.019117865711450577,0.01497974805533886,-0.000624029547907412,-0.012551769614219666
0.03255051001906395,0.0043157245963811874,-0.019226310774683952,0.014965387992560863,-0.0006307336734607816,-0.012492881156504154
0.03049299493432045,0.004398850724101067,-0.019042331725358963,0.014837628230452538,-0.0006580808549188077,-0.012462679296731949
0.03049299493432045,0.004398850724101067,-0.019042331725358963,0.014837628230452538,-0.0006580808549188077,-0.012462679296731949
0.03318675607442856,0.004253198392689228,-0.01863943785429001,0.0147143779322505,-0.0006352304480969906,-0.012264636345207691
0.032893382012844086,0.00400185864418745,-0.01960461400449276,0.014790710061788559,-0.0006534234271384776,-0.012460350058972836
0.031786687672138214,0.0038894284516572952,-0.019693493843078613,0.01506388932466507,-0.0006437657866626978,-0.012674983590841293
0.03210822120308876,0.0038216302637010813,-0.01933296211063862,0.014911158010363579,-0.0006260275840759277,-0.013100748881697655
0.03254364803433418,0.004314240999519825,-0.01962398923933506,0.01533181220293045,-0.0005782221560366452,-0.012944424524903297
0.03199368342757225,0.0038846039678901434,-0.018743129447102547,0.014905042946338654,-0.0005467085284180939,-0.012404434382915497
0.03255151957273483,0.0037001140881329775,-0.019150545820593834,0.01475150603801012,-0.0004887537215836346,-0.01220073364675045
0.03285885602235794,0.003940901719033718,-0.01959099806845188,0.015274206176400185,-0.00044089200673624873,-0.012609552592039108
0.032974086701869965,0.0038918068166822195,-0.019379721954464912,0.014924111776053905,-0.00047605374129489064,-0.012967842631042004
0.03235945478081703,0.003664368065074086,-0.019513482227921486,0.015127593651413918,-0.00044193046051077545,-0.012883351184427738
0.03287290781736374,0.0034377386327832937,-0.019823824986815453,0.014935859479010105,-0.0004675684031099081,-0.012517166323959827
0.033775802701711655,0.0038303059991449118,-0.019048426300287247,0.015351049602031708,-0.00044272775994613767,-0.012560578063130379
0.032604362815618515,0.004066535271704197,-0.01910652220249176,0.01524271722882986,-0.0004576661449391395,-0.012912790291011333
0.03207501769065857,0.003960154950618744,-0.01976427249610424,0.015323479659855366,-0.0004431024717632681,-0.013199537061154842
0.03371996060013771,0.0042534200474619865,-0.019467288628220558,0.015084778890013695,-0.00042859368841163814,-0.012944580055773258
0.03325450420379639,0.0040801530703902245,-0.01945667155086994,0.015213427133858204,-0.00043458465370349586,-0.013082535937428474
0.0331556499004364,0.0039741285145282745,-0.019849421456456184,0.014834807254374027,-0.00043472301331348717,-0.01275722123682499
0.033826831728219986,0.0038551976904273033,-0.01987556926906109,0.0150941526517272,-0.00046712212497368455,-0.012560497038066387
0.033685747534036636,0.004259195178747177,-0.019134175032377243,0.015555146150290966,-0.0004971424350515008,-0.012862641364336014
0.0330052487552166,0.004341582302004099,-0.020025914534926414,0.0160825252532959,-0.0008908988675102592,-0.012935305945575237
0.03266749531030655,0.0040343161672353745,-0.01973363384604454,0.01623237319290638,-0.0008466378203593194,-0.013305404223501682
0.03387248516082764,0.004293032921850681,-0.01903001219034195,0.015884503722190857,-0.0008507510647177696,-0.013292298652231693
0.03395356610417366,0.004172971937805414,-0.019690174609422684,0.016031665727496147,-0.0008080293191596866,-0.013220315799117088
0.032850440591573715,0.004319105762988329,-0.019572824239730835,0.015513437800109386,-0.0007683724979870021,-0.01304551400244236
0.03407309949398041,0.004578881431370974,-0.019301822409033775,0.015927935019135475,-0.0007341638556681573,-0.013095477595925331
0.03407309949398041,0.004578881431370974,-0.019301822409033775,0.015927935019135475,-0.0007341638556681573,-0.013095477595925331
0.03392273187637329,0.0042128493078053,-0.01916702464222908,0.01599477231502533,-0.0006660778308287263,-0.012912622652947903
0.03392772749066353,0.003959121648222208,-0.01940409652888775,0.016442403197288513,-0.0006901236483827233,-0.01295395102351904
0.03358864411711693,0.00436569144949317,-0.019717378541827202,0.016317209228873253,-0.0007067557889968157,-0.012954184785485268
0.033672742545604706,0.0041120341047644615,-0.020982947200536728,0.015850167721509933,-0.0006465930491685867,-0.013062672689557076
0.03382332623004913,0.00442640483379364,-0.02014486864209175,0.016065942123532295,-0.0006649187998846173,-0.013273900374770164
0.033921029418706894,0.004368990659713745,-0.01939612627029419,0.016238894313573837,-0.0006662267842330039,-0.013121807016432285
0.03454436734318733,0.0043993801809847355,-0.02007478103041649,0.01584942266345024,-0.0007160414243116975,-0.013511938974261284
0.034479886293411255,0.004510161932557821,-0.020006854087114334,0.015753082931041718,-0.0006871810765005648,-0.013834417797625065
0.03449973464012146,0.004261599853634834,-0.020271219313144684,0.01552378386259079,-0.0007050095009617507,-0.014008746482431889
0.03399836644530296,0.004349806811660528,-0.02092178352177143,0.016055108979344368,-0.0008115592645481229,-0.014226961880922318
0.033737584948539734,0.004346123896539211,-0.02064395137131214,0.016473354771733284,-0.000863279215991497,-0.014048906974494457
0.035200998187065125,0.004508694168180227,-0.019667088985443115,0.016466345638036728,-0.0008543396252207458,-0.013967912644147873
0.03545687347650528,0.004599741660058498,-0.02018708549439907,0.01645738072693348,-0.0008313313592225313,-0.013373641297221184
0.03466041013598442,0.00478004477918148,-0.020672207698225975,0.016130639240145683,-0.0007968065328896046,-0.013304522261023521
0.03449200466275215,0.004799313843250275,-0.020525861531496048,0.016559138894081116,-0.000813819991890341,-0.012680896557867527
0.03476486727595329,0.004326802212744951,-0.020196737721562386,0.016446763649582863,-0.0008172953384928405,-0.013208000920712948
0.035103991627693176,0.003999168518930674,-0.020711669698357582,0.016823919489979744,-0.0007816395373083651,-0.01377873681485653
0.03510664030909538,0.004232318606227636,-0.020494675263762474,0.016925442963838577,-0.0007418608292937279,-0.014191471971571445
0.0352712981402874,0.004668827634304762,-0.019882716238498688,0.01694820448756218,-0.0007362440810538828,-0.014253276400268078
0.03521035239100456,0.00475328229367733,-0.020647790282964706,0.01725902408361435,-0.0006874745013192296,-0.014099634252488613
0.03557290881872177,0.004795428365468979,-0.021034084260463715,0.01715562678873539,-0.0006422485457733274,-0.013786908239126205
0.03467583283782005,0.004467455204576254,-0.020167645066976547,0.01737481728196144,-0.0006668487912975252,-0.013817534781992435
0.03570358827710152,0.004168768413364887,-0.020363375544548035,0.018043803051114082,-0.0006794990040361881,-0.014194025658071041
0.03570358827710152,0.004168768413364887,-0.020363375544548035,0.018043803051114082,-0.0006794990040361881,-0.014194025658071041
0.036594271659851074,0.004437578376382589,-0.020927878096699715,0.017946289852261543,-0.0007009358960203826,-0.01444433443248272
0.0353187657892704,0.004730152431875467,-0.02037116326391697,0.01814308576285839,-0.0006634441087953746,-0.01481194794178009
0.034712523221969604,0.00481391791254282,-0.019775092601776123,0.01746854931116104,-0.0008088686736300588,-0.014655587263405323
0.03537437692284584,0.004699830897152424,-0.020733680576086044,0.017013151198625565,-0.0008298260509036481,-0.014060256071388721
0.0349959135055542,0.004725286271423101,-0.02103632502257824,0.016860857605934143,-0.0008155356626957655,-0.013639570213854313
0.036384016275405884,0.004601475782692432,-0.02005705051124096,0.016525547951459885,-0.0007461918867193162,-0.013971194624900818
0.03718680515885353,0.0043525490909814835,-0.020153647288680077,0.016821764409542084,-0.0007507422124035656,-0.013830860145390034
0.03457377851009369,0.0044378130696713924,-0.020050164312124252,0.017115019261837006,-0.0006504240445792675,-0.014280799776315689
0.03633004426956177,0.00497931195423007,-0.019898537546396255,0.01695454679429531,-0.0006757802912034094,-0.014527679421007633
0.03675132989883423,0.005339032970368862,-0.020569678395986557,0.016649557277560234,-0.0007004972430877388,-0.014531619846820831
0.03626156970858574,0.004682675004005432,-0.020834602415561676,0.017131732776761055,-0.0007027831743471324,-0.013796006329357624
0.036182839423418045,0.004366040695458651,-0.020222831517457962,0.01693771593272686,-0.0006592714926227927,-0.014083346351981163
0.03639906644821167,0.004515402484685183,-0.020223116502165794,0.017400018870830536,-0.0007978646317496896,-0.014610584825277328
0.036125876009464264,0.004826922435313463,-0.02030801773071289,0.016972234472632408,-0.0008284574723802507,-0.014564299024641514
0.036465875804424286,0.004829984158277512,-0.02023022435605526,0.016717834398150444,-0.0008388983551412821,-0.014733964577317238
0.03622623533010483,0.004649379290640354,-0.020439112558960915,0.016661280766129494,-0.0008028558804653585,-0.014578156173229218
0.03637593239545822,0.004819451365619898,-0.020726583898067474,0.016388900578022003,-0.001018177717924118,-0.014606083743274212
0.03635336458683014,0.004755046684294939,-0.02054998278617859,0.01734062470495701,-0.001050621853210032,-0.014913571067154408
0.03636135905981064,0.004679374396800995,-0.019939595833420753,0.0175523292273283,-0.0010317846899852157,-0.015084897167980671
0.037201810628175735,0.004534036386758089,-0.020571600645780563,0.019282396882772446,-0.0010265763849020004,-0.014939953573048115
0.03799612075090408,0.004771157167851925,-0.020762231200933456,0.017437726259231567,-0.0010543263051658869,-0.014741363935172558
0.03566645830869675,0.005181626416742802,-0.02065698616206646,0.01690470054745674,-0.0009205719688907266,-0.014317318797111511
0.03553437814116478,0.005085349082946777,-0.020596589893102646,0.01733330823481083,-0.0009101580362766981,-0.014482283033430576
0.036683741956949234,0.00483172619715333,-0.020674819126725197,0.01716734655201435,-0.0008855327614583075,-0.014919516630470753
0.036683741956949234,0.00483172619715333,-0.020674819126725197,0.01716734655201435,-0.0008855327614583075,-0.014919516630470753
0.03606998175382614,0.004583668429404497,-0.02065940946340561,0.017432447522878647,-0.0008194292895495892,-0.01482438761740923
0.03742220252752304,0.004829250276088715,-0.019805222749710083,0.01750108040869236,-0.0007414399296976626,-0.015031436458230019
0.036798760294914246,0.004852555226534605,-0.020572027191519737,0.016891883686184883,-0.0007577555952593684,-0.015019024722278118
0.03563731908798218,0.004794372711330652,-0.02135983109474182,0.01742273010313511,-0.0007749931537546217,-0.015281448140740395
0.03602389991283417,0.005349739454686642,-0.02123096026480198,0.01738123781979084,-0.0007887525716796517,-0.014775061048567295
0.0375668928027153,0.00504856463521719,-0.02003491297364235,0.017524538561701775,-0.0009653987945057452,-0.014986760914325714
0.03730279579758644,0.004741764161735773,-0.02109852433204651,0.017884666100144386,-0.0010160960955545306,-0.015000413171947002
0.03732411563396454,0.0047553484328091145,-0.02159123681485653,0.01776096224784851,-0.0009710062295198441,-0.01526846643537283
0.037074439227581024,0.004902287386357784,-0.02073981799185276,0.01802101731300354,-0.001039671478793025,-0.015235021710395813
0.0372144877910614,0.005597132258117199,-0.021453863009810448,0.01776290312409401,-0.0010633938945829868,-0.015039576217532158
0.037840839475393295,0.005408435128629208,-0.020474931225180626,0.01810619793832302,-0.0010421009501442313,-0.01519380509853363
0.03719518333673477,0.0051293703727424145,-0.020334647968411446,0.01774892956018448,-0.0009518882143311203,-0.014920944347977638
0.037383630871772766,0.004299995489418507,-0.020663710311055183,0.0176829993724823,-0.0009916942799463868,-0.015154008753597736
0.037644144147634506,0.003874611109495163,-0.021426182240247726,0.017787596210837364,-0.0009796995436772704,-0.015165439806878567
0.03760769963264465,0.0042861877009272575,-0.020785316824913025,0.017740899696946144,-0.0009065460762940347,-0.015570390038192272
0.03773478418588638,0.004399945959448814,-0.020854013040661812,0.018514974042773247,-0.0009014803217723966,-0.01500118151307106
0.037858471274375916,0.004899619147181511,-0.020907890051603317,0.01849343813955784,-0.0008847867720760405,-0.014819883741438389
0.0381249375641346,0.004768482409417629,-0.0213883388787508,0.017661835998296738,-0.0008633887628093362,-0.014887850731611252
0.037812989205121994,0.004629610106348991,-0.020790496841073036,0.01776183769106865,-0.0008349271374754608,-0.015190249308943748
0.038115110248327255,0.004357949364930391,-0.020759018138051033,0.01785317249596119,-0.0007869130349718034,-0.015370532870292664
0.03808565065264702,0.004842684604227543,-0.0210402924567461,0.0179192665964365,-0.0007759489235468209,-0.01517797913402319
0.03811982274055481,0.004833838902413845,-0.020918061956763268,0.017969230189919472,-0.0007242491119541228,-0.01493178028613329
0.038569871336221695,0.005011392291635275,-0.0207993034273386,0.017762422561645508,-0.0006848695338703692,-0.015223885886371136
0.03821440786123276,0.004715972580015659,-0.021051708608865738,0.017927128821611404,-0.0007090040598995984,-0.015561236068606377
0.03839528188109398,0.004393316339701414,-0.021175218746066093,0.01751203089952469,-0.0007310928776860237,-0.015526214614510536
0.038558345288038254,0.0043999734334647655,-0.020679818466305733,0.01776917278766632,-0.0007424270734190941,-0.015497812069952488
0.038371384143829346,0.004577246494591236,-0.02083173580467701,0.01825086586177349,-0.0008523350697942078,-0.01558669377118349
0.03886070474982262,0.004561393987387419,-0.021104319021105766,0.01797083392739296,-0.0009106193901970983,-0.015831785276532173
0.03886070474982262,0.004561393987387419,-0.021104319021105766,0.01797083392739296,-0.0009106193901970983,-0.015831785276532173
0.03900141268968582,0.004336525220423937,-0.021570410579442978,0.018145747482776642,-0.0009122706251218915,-0.015943383798003197
0.03839534893631935,0.004414211958646774,-0.021817486733198166,0.01839209906756878,-0.0009029731736518443,-0.015744555741548538
0.039751894772052765,0.00464616809040308,-0.02169407531619072,0.018730558454990387,-0.0009553511627018452,-0.015480311587452888
0.04041086882352829,0.004279588349163532,-0.02207159250974655,0.019194286316633224,-0.0009769615717232227,-0.015365985222160816
