davideferrari95/blind_handover_controller/data/Test 260 - [2024-02-08 -- 12-48-01]/joint_states_data.csv
shoulder_pan_joint,shoulder_lift_joint,elbow_joint,wrist_1_joint,wrist_2_joint,wrist_3_joint
0.006100689060986042,0.003570272121578455,-0.009445376694202423,0.005261187441647053,0.0,0.0058806585147976875
0.006100689060986042,0.003570272121578455,-0.009445376694202423,0.005261187441647053,0.0,0.0058806585147976875
0.006325977388769388,0.00340864434838295,-0.009166762232780457,0.0050785234197974205,0.0,0.005827374756336212
0.00560302659869194,0.0032134344801306725,-0.008596132509410381,0.004783232696354389,0.0,0.0057589286006987095
0.005973536986857653,0.003253205679357052,-0.009010042063891888,0.004754384979605675,0.0,0.006165666971355677
0.006168135907500982,0.003487992798909545,-0.008623670786619186,0.004865429364144802,0.0,0.006079212296754122
0.006421204656362534,0.0037279610987752676,-0.00942645501345396,0.005192406475543976,0.0,0.0059427907690405846
0.005655310116708279,0.004078945145010948,-0.008676296100020409,0.004949225578457117,0.0,0.005680100526660681
0.005628715734928846,0.0035554117057472467,-0.00836666114628315,0.004715695045888424,0.0,0.006397497374564409
0.005745573900640011,0.0033411066979169846,-0.008801731280982494,0.004997895564883947,0.0,0.006594650913029909
0.006082908250391483,0.0034648641012609005,-0.009046515449881554,0.004999824799597263,0.0,0.006155890878289938
0.0058959610760211945,0.003695375518873334,-0.008463919162750244,0.00540633499622345,0.0,0.005821904167532921
0.005723369773477316,0.003734875936061144,-0.00829538144171238,0.005235923454165459,0.0,0.0058847516775131226
0.0055474149994552135,0.003710035001859069,-0.008981657214462757,0.004986680578440428,0.0,0.006267279852181673
0.005647950805723667,0.0036067247856408358,-0.008377794176340103,0.00508409459143877,0.0,0.006122236140072346
0.006005373317748308,0.0034275210928171873,-0.008866344578564167,0.004985085688531399,0.0,0.005809895694255829
0.005573998671025038,0.003563066478818655,-0.00905652903020382,0.005131106358021498,0.0,0.00596599280834198
0.006009746342897415,0.0038990529719740152,-0.008940967731177807,0.005394337233155966,0.0,0.005974235013127327
0.005521820858120918,0.0038094159681349993,-0.008755561895668507,0.005391204729676247,0.0,0.006469408981502056
0.005946298595517874,0.003489841939881444,-0.008525511249899864,0.005456706043332815,0.0,0.006509933155030012
0.005764780566096306,0.003153599798679352,-0.009105979464948177,0.005521081387996674,0.0,0.006317672785371542
0.005565023515373468,0.003442753106355667,-0.008665107190608978,0.00552264554426074,0.0,0.005934103392064571
0.0054924157448112965,0.0037612540181726217,-0.008458023890852928,0.005109329707920551,0.0,0.006281695794314146
0.005525514483451843,0.0037989281117916107,-0.009144295938313007,0.0052354708313941956,0.0,0.00685392739251256
0.0056253354996442795,0.0038342063780874014,-0.008598525077104568,0.005128080956637859,0.0,0.006207413971424103
0.005991229321807623,0.0033875838853418827,-0.008180071599781513,0.005130602978169918,0.0,0.006002978887408972
0.005506901536136866,0.003561746096238494,-0.008510801941156387,0.005048656370490789,0.0,0.005576846655458212
0.005506901536136866,0.003561746096238494,-0.008510801941156387,0.005048656370490789,0.0,0.005576846655458212
0.0053601572290062904,0.003301779506728053,-0.00911090150475502,0.005262051708996296,0.0,0.005819665268063545
0.00514127966016531,0.003349073464050889,-0.008791368454694748,0.0051567815244197845,0.0,0.006452338304370642
0.005777901969850063,0.00344772357493639,-0.008371824398636818,0.004812467377632856,0.0,0.005977604538202286
0.005952157080173492,0.003656885353848338,-0.008534109219908714,0.0049941870383918285,0.0,0.005950593855232
0.00551372766494751,0.00345870410092175,-0.009059623815119267,0.005329334642738104,0.0,0.005965224467217922
0.005788339767605066,0.003491227049380541,-0.009183406829833984,0.005281706806272268,0.0,0.006306870374828577
0.005512573756277561,0.003853407921269536,-0.008625651709735394,0.004960879683494568,0.0,0.006260683760046959
0.005929410923272371,0.0038783205673098564,-0.00856935977935791,0.0047193472273647785,0.0,0.005553766153752804
0.005866872146725655,0.003559872042387724,-0.008941423147916794,0.005072834435850382,0.0,0.005254792515188456
0.00586962653324008,0.0035180922131985426,-0.00881835538893938,0.00497248861938715,0.0,0.005550778936594725
0.005613881163299084,0.0038770632818341255,-0.008631953038275242,0.004979732446372509,0.0,0.006071919109672308
0.005689963698387146,0.0038715896662324667,-0.008693406358361244,0.005337954964488745,0.0,0.005954727064818144
0.006102513521909714,0.003515120828524232,-0.008907184936106205,0.005212211981415749,0.0,0.006041937507688999
0.005795642733573914,0.003532527945935726,-0.00866068433970213,0.005499226041138172,0.0,0.005705648101866245
0.006073783151805401,0.0038189832121133804,-0.008117006160318851,0.005164493340998888,0.0,0.006123523693531752
0.005599339492619038,0.003909307066351175,-0.008467255160212517,0.004997649230062962,0.0,0.006409214343875647
0.005996454041451216,0.0034683477133512497,-0.008628037758171558,0.005447024013847113,0.0,0.006133245769888163
0.006987220142036676,0.003549888962879777,-0.008376612327992916,0.005556117277592421,0.0,0.006231608800590038
0.005823585204780102,0.0036944274324923754,-0.008437640964984894,0.005738444626331329,0.0,0.006365173030644655
0.005034164991229773,0.004288186319172382,-0.008884260430932045,0.005530341062694788,0.0,0.006251207552850246
0.005335079971700907,0.004090440925210714,-0.008096743375062943,0.005644709337502718,0.0,0.006463973317295313
0.005812260787934065,0.0036095096729695797,-0.008577191270887852,0.0052689905278384686,0.0,0.006337996106594801
0.006097196135669947,0.0038087002467364073,-0.008634695783257484,0.005221175495535135,0.0,0.00624381797388196
0.006169431377202272,0.004154582973569632,-0.008196462877094746,0.005001383367925882,0.0,0.006108785513788462
0.006169431377202272,0.004154582973569632,-0.008196462877094746,0.005001383367925882,0.0,0.006108785513788462
0.005482375156134367,0.004085175227373838,-0.00846018735319376,0.0050252461805939674,0.0,0.006498244125396013
0.005929409991949797,0.0035024606622755527,-0.00862243864685297,0.004925524815917015,0.0,0.006134458817541599
0.005756007507443428,0.0035035950131714344,-0.00865543819963932,0.004828553181141615,0.0,0.0061601921916007996
0.005710718687623739,0.0037202744279056787,-0.00822578463703394,0.005057328846305609,0.0,0.005826093722134829
0.005834224633872509,0.0037106985691934824,-0.008211316540837288,0.0053869932889938354,0.0,0.005961429327726364
0.006101409904658794,0.00416000559926033,-0.008687042631208897,0.005261500831693411,0.0,0.006230548024177551
0.005770356860011816,0.003591983113437891,-0.0084685692563653,0.005262482445687056,0.0,0.005736691411584616
0.005689864046871662,0.003637299407273531,-0.008162863552570343,0.004649230279028416,0.0,0.006250076461583376
0.00617673434317112,0.0038372778799384832,-0.007509003859013319,0.00450799660757184,0.0,0.005955435801297426
0.00619467394426465,0.003852132009342313,-0.008205876685678959,0.00530227879062295,0.0,0.006614883430302143
0.006018734071403742,0.003814018564298749,-0.007843622006475925,0.0053359223529696465,0.0,0.006631352938711643
0.005887612234801054,0.0037859987933188677,-0.007951234467327595,0.005050198175013065,0.0,0.006323055364191532
0.006252258084714413,0.003491617739200592,-0.008042046800255775,0.004765741992741823,0.0,0.006380751729011536
0.0062062740325927734,0.0034483913332223892,-0.007987088523805141,0.004643459338694811,0.0,0.006809399928897619
0.006290124729275703,0.003651517676189542,-0.007644388824701309,0.004777221940457821,0.0,0.006934652104973793
0.006287057418376207,0.0037673995830118656,-0.008285771124064922,0.005538108758628368,0.0,0.0062065101228654385
0.0055472636595368385,0.004144763108342886,-0.008156534284353256,0.005326216574758291,0.0,0.006265712436288595
0.0059873745776712894,0.004234460182487965,-0.007781560067087412,0.005274117458611727,0.0,0.006392966955900192
0.006098149344325066,0.004066879395395517,-0.007459306623786688,0.005503947380930185,0.0,0.006306679919362068
0.006196840200573206,0.003916233312338591,-0.008556772954761982,0.005214636214077473,0.0,0.006166537757962942
0.005634648259729147,0.00392754003405571,-0.00852543767541647,0.005147394724190235,0.0,0.006176447495818138
0.005523724015802145,0.003961644135415554,-0.007744187023490667,0.004964841064065695,0.0,0.0060965027660131454
0.006109049543738365,0.003898219671100378,-0.008092750795185566,0.005221489816904068,0.0,0.006176698487251997
0.006268847268074751,0.004258750472217798,-0.00892442837357521,0.005541505292057991,0.0,0.006507541984319687
0.005999662913382053,0.004158323165029287,-0.008567572571337223,0.005404584109783173,0.0,0.006240630988031626
0.0061327554285526276,0.004013600759208202,-0.007971996441483498,0.005124183371663094,0.0,0.006279960740357637
0.005867136642336845,0.004093369469046593,-0.00789941567927599,0.005038068629801273,0.0,0.006753453053534031
0.005867136642336845,0.004093369469046593,-0.00789941567927599,0.005038068629801273,0.0,0.006753453053534031
0.006285208277404308,0.0038884279783815145,-0.008382530882954597,0.005183069966733456,0.0,0.006827888078987598
0.00663497531786561,0.003510928014293313,-0.008532927371561527,0.004906098823994398,0.0,0.006107228808104992
0.005833934992551804,0.0035551113542169333,-0.008702388033270836,0.004691447131335735,0.0,0.005850609391927719
0.005890320520848036,0.003953754901885986,-0.008653145283460617,0.004827871918678284,0.0,0.0059632807970047
0.005673028528690338,0.004050902556627989,-0.008220291696488857,0.004969445988535881,0.0,0.006552294362336397
0.006302160210907459,0.0038056769408285618,-0.008487542159855366,0.004931304138153791,0.0,0.006768485065549612
0.006078172940760851,0.003667024662718177,-0.008698401972651482,0.0051693301647901535,0.0,0.006558380555361509
0.005970530211925507,0.0036241686902940273,-0.008244019001722336,0.004969089291989803,0.0,0.006432363297790289
0.0057113743387162685,0.0036266008391976357,-0.00788052473217249,0.005125863011926413,0.0,0.0062078009359538555
0.006129106041043997,0.00358275487087667,-0.008540980517864227,0.005571285728365183,0.0,0.006357873789966106
0.006528873927891254,0.0034857422579079866,-0.008409985341131687,0.005173630081117153,0.0,0.0067513249814510345
0.006179491989314556,0.0034352655056864023,-0.008032570593059063,0.005194359924644232,0.0,0.00643670791760087
0.006065927911549807,0.003504089778289199,-0.0081596365198493,0.005183362867683172,0.0,0.006236058194190264
0.006462924648076296,0.0037011203821748495,-0.008001217618584633,0.005033319350332022,0.0,0.006155285518616438
0.00626751035451889,0.0037514956202358007,-0.008119314908981323,0.005264406092464924,0.0,0.006591253913938999
0.006275853142142296,0.0036850206088274717,-0.007795779965817928,0.005157669074833393,0.0,0.006577392108738422
0.0063929310999810696,0.003663022303953767,-0.00833239033818245,0.004861196503043175,0.0,0.006296833045780659
0.005633550230413675,0.003671889891847968,-0.007796405348926783,0.005293114576488733,0.0,0.006315357051789761
0.005906191188842058,0.003759698010981083,-0.008321771398186684,0.005320908967405558,0.0,0.006543660070747137
0.0059317611157894135,0.0038047421257942915,-0.00873887911438942,0.005042268428951502,0.0,0.006444417405873537
0.006358543410897255,0.0038399980403482914,-0.008269396610558033,0.005191675387322903,0.0,0.006361837033182383
0.0063870553858578205,0.003880678443238139,-0.007700847461819649,0.005160852335393429,0.0,0.006366531364619732
0.006040526553988457,0.003897662740200758,-0.007536734454333782,0.0054223318584263325,0.0,0.005951711442321539
0.0062677436508238316,0.003839996876195073,-0.00789923407137394,0.0057721808552742004,0.0,0.005757802631705999
0.0067807212471961975,0.003473315155133605,-0.008379247970879078,0.005257580429315567,0.0,0.005744251888245344
0.0067807212471961975,0.003473315155133605,-0.008379247970879078,0.005257580429315567,0.0,0.005744251888245344
0.006317035760730505,0.00350350234657526,-0.00785413570702076,0.005204577464610338,0.0,0.005974678788334131
0.006260756868869066,0.0036766717676073313,-0.008217943832278252,0.004944797605276108,0.0,0.0063750059343874454
0.006464497651904821,0.0037379772402346134,-0.008069982752203941,0.005103782285004854,0.0,0.006179132033139467
0.00630373228341341,0.0036800638772547245,-0.00807119533419609,0.005837974604219198,0.0,0.006352146156132221
0.006672569550573826,0.003994555678218603,-0.00795611459761858,0.005613958463072777,0.0,0.006536845583468676
0.006543820258229971,0.004194013774394989,-0.0077769518829882145,0.005348015110939741,0.0,0.006117089185863733
0.0065725925378501415,0.0035604711156338453,-0.008832231163978577,0.005095487926155329,0.0,0.006276695057749748
0.006513397209346294,0.0033274227753281593,-0.007580002769827843,0.005253579933196306,0.0,0.0073893265798687935
0.0069388896226882935,0.0034943753853440285,-0.0072088041342794895,0.005139016080647707,0.0,0.007034721318632364
0.006858734413981438,0.0036316222976893187,-0.007948308251798153,0.0052359928376972675,0.0,0.006306672468781471
0.006365935783833265,0.003657826455309987,-0.007969290018081665,0.005306837148964405,0.0,0.006286099553108215
0.006361676845699549,0.003674500621855259,-0.007485033478587866,0.004922105930745602,0.0,0.006137073505669832
0.006920422427356243,0.003737376071512699,-0.007588907144963741,0.004860145505517721,0.0,0.006480508483946323
0.006831182166934013,0.003839327022433281,-0.008739395998418331,0.005368894897401333,0.0,0.006576155312359333
0.006616026628762484,0.0035034806933254004,-0.007943287491798401,0.005497443955391645,0.0,0.006450218614190817
0.006190205458551645,0.0034948699176311493,-0.007774460595101118,0.00530462060123682,0.0,0.006938607431948185
0.006485025864094496,0.004171815700829029,-0.008456796407699585,0.004958705510944128,0.0,0.006637644022703171
0.006667485926300287,0.004075179807841778,-0.008350548334419727,0.00489072035998106,0.0,0.006587640848010778
0.007224719505757093,0.003532567759975791,-0.007810155861079693,0.005106722936034203,0.0,0.006609235890209675
0.0064415885135531425,0.0034650336019694805,-0.008279643021523952,0.005261746235191822,0.0,0.00655751908197999
0.0062257410027086735,0.004205001518130302,-0.008604738861322403,0.004880021791905165,0.0,0.006318822968751192
0.006621289532631636,0.004077948164194822,-0.008139650337398052,0.005745080299675465,0.0,0.006527148652821779
0.0064646354876458645,0.0032676770351827145,-0.007557091768831015,0.005909474566578865,0.0,0.006738024298101664
0.006626274436712265,0.002691156230866909,-0.008254580199718475,0.005507316906005144,0.0,0.006052520126104355
0.006626274436712265,0.002691156230866909,-0.008254580199718475,0.005507316906005144,0.0,0.006052520126104355
0.0065838429145514965,0.0026532672345638275,-0.00821425300091505,0.005677062552422285,0.0,0.006008119788020849
0.006454505026340485,0.003273565322160721,-0.00800990778952837,0.005625455640256405,0.0,0.006248952820897102
0.006417658645659685,0.0036786245182156563,-0.007870813831686974,0.005404699128121138,0.0,0.006511311512440443
0.006635700818151236,0.0036843360867351294,-0.008753427304327488,0.005501336883753538,1.4293344747784431e-06,0.00653756782412529
0.006564220413565636,0.0032212757505476475,-0.008637926541268826,0.0055869570933282375,9.332531902828123e-08,0.006568591110408306
0.006373641546815634,0.0030579359736293554,-0.008043995127081871,0.005114132072776556,6.093476834223566e-09,0.0063603767193853855
0.007309948559850454,0.0030910379718989134,-0.00793581921607256,0.005308186635375023,3.9786046679424203e-10,0.005679739639163017
0.006467796862125397,0.003049613442271948,-0.008875430561602116,0.005324068479239941,1.6961412743071724e-12,0.005984581541270018
0.006258020177483559,0.0028657717630267143,-0.0081930011510849,0.0050902049988508224,1.1074591222369479e-13,0.006461726501584053
0.007022648584097624,0.002938265213742852,-0.008809719234704971,0.004937230609357357,7.230916982802621e-15,0.006626477465033531
0.006839312147349119,0.0029003808740526438,-0.008663167245686054,0.0052146948873996735,4.721272180140416e-16,0.0067157805897295475
0.006446422543376684,0.0028375659603625536,-0.008321547880768776,0.0056043025106191635,3.082652996184633e-17,0.00713115930557251
0.006698046810925007,0.0027230833657085896,-0.008516131900250912,0.005264835897833109,2.0127521147456805e-18,0.0068554808385670185
0.006462669465690851,0.0028550701681524515,-0.009019437246024609,0.005070050247013569,1.3141833274405934e-19,0.006825549062341452
0.007258599158376455,0.0032595547381788492,-0.008801260031759739,0.0048961457796394825,8.580678112755705e-21,0.006729891989380121
0.00669487938284874,0.003232943592593074,-0.00947821419686079,0.0048292833380401134,5.602569413623382e-22,0.006913797464221716
0.0067764585837721825,0.0030666885431855917,-0.009220557287335396,0.005271012429147959,3.658077075153926e-23,0.006660739425569773
0.006415482610464096,0.0027687845285981894,-0.009501276537775993,0.005347867030650377,2.388462956160698e-24,0.006605068221688271
0.007146316114813089,0.0029089220333844423,-0.00824187695980072,0.005537412129342556,1.559495672264958e-25,0.006633294280618429
0.007068234495818615,0.002990303561091423,-0.00919237919151783,0.005208015441894531,1.0182393156719271e-26,0.006825264077633619
0.00661490811035037,0.0030049020424485207,-0.008968385867774487,0.004705618601292372,6.648375649642847e-28,0.006856938824057579
0.006543626077473164,0.0033739253412932158,-0.008748894557356834,0.004490318242460489,4.3409145897448144e-29,0.007111577782779932
0.006816093344241381,0.003080315189436078,-0.009324452839791775,0.0048362682573497295,2.8343070277987242e-30,0.006924774497747421
0.0071351975202560425,0.003191872965544462,-0.009335898794233799,0.005091691389679909,1.8505997995080105e-31,0.006677619181573391
0.0072448113933205605,0.003332276362925768,-0.008569248951971531,0.005200868938118219,1.2083093776514456e-32,0.006418333388864994
0.006885797716677189,0.0032165846787393093,-0.008621900342404842,0.005410249810665846,7.889397375455978e-34,0.006694043055176735
0.006190957501530647,0.003115665167570114,-0.009230120107531548,0.0052205524407327175,5.151212543676302e-35,0.00648620817810297
0.0065972874872386456,0.003256104653701186,-0.008835104294121265,0.0056695896200835705,3.3633738842476916e-36,0.006464725825935602
0.0065972874872386456,0.003256104653701186,-0.008835104294121265,0.0056695896200835705,3.3633738842476916e-36,0.006464725825935602
0.007256810553371906,0.0030275878962129354,-0.008358151651918888,0.005678613670170307,2.1960427583929713e-37,0.006781904026865959
0.006980572827160358,0.0032258308492600918,-0.009846129454672337,0.006233274471014738,1.433858895312022e-38,0.0069782063364982605
0.0067644380033016205,0.0034301942214369774,-0.00866872351616621,0.0065003796480596066,9.362075040154103e-40,0.0068518961779773235
0.007258290890604258,0.0034615262411534786,-0.008479409851133823,0.006110141985118389,6.112744161077717e-41,0.006771172396838665
0.006905508693307638,0.003613146720454097,-0.009113122709095478,0.0058525255881249905,3.990898026397079e-42,0.006840955000370741
0.006834632251411676,0.00398552231490612,-0.009075826965272427,0.005736368242651224,1.6815581571897805e-44,0.006402048747986555
0.0066824364475905895,0.003428282681852579,-0.00887552835047245,0.00577844912186265,1.401298464324817e-45,0.006765496451407671
0.006859163288027048,0.003556830808520317,-0.008485567755997181,0.005700348410755396,0.0,0.007935191504657269
0.00700285192579031,0.0034610622096806765,-0.008377963677048683,0.005505847278982401,0.0,0.007068044506013393
0.007036262657493353,0.0034787808544933796,-0.008593853563070297,0.005733854603022337,0.0,0.006319928914308548
0.0065037100575864315,0.003604235826060176,-0.009287012740969658,0.005914187524467707,0.0,0.006350285839289427
0.007248589303344488,0.0036141606979072094,-0.008705021813511848,0.005600001662969589,0.0,0.006962484680116177
0.007494787219911814,0.0036197600420564413,-0.008760127238929272,0.005668479483574629,0.0,0.007139691151678562
0.007465674076229334,0.0036688214167952538,-0.008882257156074047,0.005441991612315178,0.0,0.007273796014487743
0.006605545058846474,0.0036344127729535103,-0.008736993186175823,0.00530812656506896,0.0,0.007399834226816893
0.007080875337123871,0.0031596357002854347,-0.008869108743965626,0.005481989122927189,0.0,0.006936493329703808
0.006909511983394623,0.003037800779566169,-0.00823925156146288,0.005498030222952366,0.0,0.007444368209689856
0.006858762353658676,0.0033383674453943968,-0.008648025803267956,0.00543830543756485,0.0,0.007584678009152412
0.006864958442747593,0.003321785246953368,-0.009223579429090023,0.005138783250004053,0.0,0.006921716034412384
0.00727908406406641,0.003527945838868618,-0.008406257256865501,0.005357853136956692,0.0,0.006924760062247515
0.007532084826380014,0.0036677883472293615,-0.008841359987854958,0.005568183492869139,0.0,0.007301053032279015
0.007745073176920414,0.0037868234794586897,-0.008852495811879635,0.005800547078251839,0.0,0.0074142939411103725
0.007133807055652142,0.0034094471484422684,-0.008180685341358185,0.0060631041415035725,0.0,0.007017687428742647
0.0075321621261537075,0.003551337169483304,-0.008289783261716366,0.005731267388910055,0.0,0.006997121497988701
0.007651035208255053,0.003241300582885742,-0.008979275822639465,0.005846884101629257,0.0,0.00736868754029274
0.00820343941450119,0.0031474982388317585,-0.008303347043693066,0.005943490657955408,0.0,0.00755018275231123
0.007235091645270586,0.003237291472032666,-0.008355225436389446,0.006290911231189966,0.0,0.0076772901229560375
0.007187454029917717,0.0035895807668566704,-0.00924097653478384,0.006278709974139929,0.0,0.007121086120605469
0.007437301333993673,0.003422264475375414,-0.008590052835643291,0.00581422308459878,-7.160707173170522e-05,0.007061589043587446
0.007437301333993673,0.003422264475375414,-0.008590052835643291,0.00581422308459878,-7.160707173170522e-05,0.007061589043587446
0.008132503367960453,0.0034815934486687183,-0.008340520784258842,0.005802279803901911,-7.949089194880798e-05,0.007225487381219864
0.007212901022285223,0.003740674117580056,-0.00906653143465519,0.005800857208669186,-7.86981254350394e-05,0.007411944214254618
0.007276422809809446,0.00392549205571413,-0.00880296528339386,0.006162168923765421,-7.73839492467232e-05,0.0074300020933151245
0.007995330728590488,0.003463376546278596,-0.008605044335126877,0.00565671781077981,-7.481353532057256e-05,0.007504633627831936
0.006938446778804064,0.00351101066917181,-0.009144063107669353,0.005173447076231241,-7.359000301221386e-05,0.007343174424022436
0.007260210812091827,0.003166944021359086,-0.008544737473130226,0.005571162328124046,-7.240595732582733e-05,0.007331943605095148
0.008135231211781502,0.0034351213835179806,-0.008289149031043053,0.005511901341378689,-7.125939737306908e-05,0.007444830145686865
0.00789455883204937,0.0036192305851727724,-0.009013843722641468,0.005843700375407934,-7.014850416453555e-05,0.0076356204226613045
0.007516222540289164,0.0036372067406773567,-0.009204529225826263,0.005371429026126862,-6.907178612891585e-05,0.007075362838804722
0.007609538733959198,0.0036556741688400507,-0.00843794085085392,0.005451328121125698,-6.802771531511098e-05,0.007241944316774607
0.008010108955204487,0.003674273146316409,-0.008547183126211166,0.00524214468896389,-6.701457459712401e-05,0.007527252659201622
0.007801610045135021,0.003668449353426695,-0.009119604714214802,0.005489303730428219,-6.603125075343996e-05,0.007779870182275772
0.007501472253352404,0.0036805537529289722,-0.008905134163796902,0.0055930037051439285,-6.507633224828169e-05,0.007510650437325239
0.00882276427000761,0.004186313133686781,-0.00929947942495346,0.005695070140063763,-6.324704008875415e-05,0.007415194530040026
0.00882276427000761,0.004186313133686781,-0.00929947942495346,0.005695070140063763,-6.324704008875415e-05,0.007415194530040026
0.00840091798454523,0.004036952741444111,-0.009287795051932335,0.005547775886952877,-6.237043271539733e-05,0.007462684065103531
0.009033297188580036,0.003908528480678797,-0.008357862010598183,0.005938300862908363,-6.15178287262097e-05,0.0073915389366447926
0.008584046736359596,0.004381751641631126,-0.009429601021111012,0.006172747816890478,-6.06881694693584e-05,0.008013571612536907
0.008731333538889885,0.004166100174188614,-0.009093212895095348,0.006173317786306143,-5.9880629123654217e-05,0.008516552858054638
0.008791514672338963,0.003880951553583145,-0.009136490523815155,0.00615681754425168,-5.909428000450134e-05,0.008098047226667404
0.008747742511332035,0.0041948352009058,-0.009254105389118195,0.0057349796406924725,-5.8328299928689376e-05,0.00781798455864191
0.009414462372660637,0.0041380818001925945,-0.010088961571455002,0.005727533716708422,-5.758195402449928e-05,0.007463006768375635
0.009414462372660637,0.0041380818001925945,-0.010088961571455002,0.005727533716708422,-5.758195402449928e-05,0.007463006768375635
0.010785108432173729,0.003927707206457853,-0.008692375384271145,0.005857816431671381,-5.614511246676557e-05,0.008123071864247322
0.008432255126535892,0.0039662085473537445,-0.0093466117978096,0.005738387815654278,-5.545322346733883e-05,0.007923495955765247
0.008086171932518482,0.00395074300467968,-0.0093879085034132,0.005416044034063816,-5.477827289723791e-05,0.008195207454264164
0.008889099583029747,0.0041447230614721775,-0.008707870729267597,0.005713367369025946,-5.411940219346434e-05,0.007936226204037666
0.008955759927630424,0.00400796253234148,-0.009198379702866077,0.006025938782840967,-5.3476345783565193e-05,0.00748067069798708
0.008955759927630424,0.00400796253234148,-0.009198379702866077,0.006025938782840967,-5.3476345783565193e-05,0.00748067069798708
0.0088071059435606,0.0038278414867818356,-0.009004756808280945,0.00617546122521162,-5.28482960362453e-05,0.0076470160856842995
0.009247470647096634,0.003553250106051564,-0.009379896335303783,0.005833329167217016,-5.104973752168007e-05,0.007739998400211334
0.009247470647096634,0.003553250106051564,-0.009379896335303783,0.005833329167217016,-5.104973752168007e-05,0.007739998400211334
0.008722644299268723,0.00418118154630065,-0.008597875945270061,0.006015492603182793,-5.047707600169815e-05,0.0075549595057964325
0.009690104983747005,0.004405308980494738,-0.009123893454670906,0.006376281846314669,-4.991721289115958e-05,0.008236698806285858
0.009047253057360649,0.004226198419928551,-0.008915243670344353,0.006204540375620127,-6.429765562643297e-06,0.00841584987938404
0.009035324677824974,0.003486073575913906,-0.008827468380331993,0.005900817457586527,-4.1981778053923335e-07,0.007970036938786507
0.008795000612735748,0.003490172326564789,-0.009333368390798569,0.005951418541371822,-2.7411100944618738e-08,0.0075317262671887875
0.008976679295301437,0.003254761453717947,-0.009419037960469723,0.005932489410042763,-1.7897489046347914e-09,0.007812823168933392
0.009055138565599918,0.003660143120214343,-0.009263639338314533,0.0059206523001194,-1.1685780121339917e-10,0.007801284082233906
0.008574087172746658,0.004842640832066536,-0.009363708086311817,0.006127642001956701,-7.629979981160773e-12,0.007812651805579662
0.009455100633203983,0.005085000768303871,-0.009318800643086433,0.005547753535211086,-4.98183146211556e-13,0.007712905760854483
0.009513013064861298,0.003238243516534567,-0.00935801025480032,0.005754474550485611,-3.252779989804111e-14,0.00816412828862667
0.008990239351987839,0.0026681835297495127,-0.009581432677805424,0.005647459998726845,-2.123832836011777e-15,0.007910006679594517
0.009116156958043575,0.003767261514440179,-0.009957310743629932,0.006301815155893564,-1.3867111222212112e-16,0.008135093376040459
0.009222913533449173,0.004836871288716793,-0.009366109035909176,0.0061163087375462055,-9.054232131041123e-18,0.007988334633409977
0.008989032357931137,0.004354631062597036,-0.009273982606828213,0.005917626898735762,-5.911766263109694e-19,0.008465055376291275
0.009386692196130753,0.0034388999920338392,-0.00954786129295826,0.006114200223237276,-3.8599614265311304e-20,0.008341656066477299
0.00945732370018959,0.0035156733356416225,-0.009345581755042076,0.006368277128785849,-2.5202787703684267e-21,0.008733458817005157
0.008980670012533665,0.003916988614946604,-0.009467688389122486,0.006351723335683346,-1.6455618288071133e-22,0.008628575131297112
0.010133055970072746,0.00399284390732646,-0.009669771417975426,0.006444133818149567,-1.0744343904817167e-23,0.008037245832383633
0.009231655858457088,0.0038926824927330017,-0.00951755978167057,0.006039146333932877,-7.015289247209684e-25,0.007856336422264576
0.008839763700962067,0.0038551753386855125,-0.009200166910886765,0.006379763595759869,-4.5804826357157084e-26,0.008628911338746548
0.008839763700962067,0.0038551753386855125,-0.009200166910886765,0.006379763595759869,-4.5804826357157084e-26,0.008628911338746548
0.009493825025856495,0.003878419054672122,-0.009984252043068409,0.006697539240121841,-2.9907278846113456e-27,0.00860655028373003
0.009325237944722176,0.002837099600583315,-0.009356203489005566,0.0061412048526108265,-1.274994211206962e-29,0.008340039290487766
0.009245776571333408,0.0028884378261864185,-0.009765619412064552,0.0062259044498205185,-8.324801151562965e-31,0.008390361443161964
0.009542873129248619,0.003481689840555191,-0.009056584909558296,0.006786887533962727,-5.435500571881643e-32,0.00823656003922224
0.009475535713136196,0.0034545266535133123,-0.008724984712898731,0.007222690153867006,-3.548993401943125e-33,0.008335712365806103
0.009577350690960884,0.003532934235408902,-0.010044464841485023,0.006883681286126375,-2.3172391568065132e-34,0.008413673378527164
0.009682728908956051,0.0032236999832093716,-0.010156524367630482,0.0059586986899375916,-1.5129915211184582e-35,0.008691812865436077
0.009447569027543068,0.003413304453715682,-0.009271398186683655,0.005892508663237095,-9.878752393194269e-37,0.008673214353621006
0.01009075716137886,0.003741417545825243,-0.01073072012513876,0.006242101546376944,-6.450119658309789e-38,0.008778228424489498
0.009377158246934414,0.0032834180165082216,-0.010020583868026733,0.006441957782953978,-4.211466608577198e-39,0.008712063543498516
0.009478236548602581,0.0031760018318891525,-0.009537812322378159,0.006761013064533472,-2.7497819895292318e-40,0.008527800440788269
0.009477541781961918,0.0029752927366644144,-0.010241620242595673,0.00646204873919487,-1.795483722339388e-41,0.0081089548766613
0.009752742014825344,0.0033315340988337994,-0.0097486088052392,0.006420643534511328,-1.1728868146398719e-42,0.008260894566774368
0.009629460982978344,0.003355742199346423,-0.009232800453901291,0.006697797682136297,-7.707141553786494e-44,0.008788938634097576
0.009454112499952316,0.0035027696285396814,-0.010315992869436741,0.006649552378803492,-5.605193857299268e-45,0.008453589864075184
0.009874969720840454,0.0032402200158685446,-0.00972043164074421,0.006408712826669216,-5.460194734041579e-05,0.008469703607261181
0.009913304820656776,0.0031382497400045395,-0.009443425573408604,0.006267669145017862,-6.222187948878855e-05,0.008474905975162983
0.010304057039320469,0.003174328012391925,-0.010559800080955029,0.0063436017371714115,-6.19126803940162e-05,0.008360441774129868
0.0099008334800601,0.003507153131067753,-0.010002373717725277,0.0067521496675908566,-6.110765389166772e-05,0.008725685998797417
0.00962106604129076,0.0033457125537097454,-0.009799168445169926,0.006934240460395813,-6.029124779161066e-05,0.008299068547785282
0.009384004399180412,0.003092242870479822,-0.010267399251461029,0.006392653565853834,-5.9494315792107955e-05,0.008697960525751114
0.00961767416447401,0.003355300286784768,-0.010248172096908092,0.006571819074451923,-6.968469824641943e-05,0.009189707227051258
0.009888684377074242,0.00314747984521091,-0.009263967163860798,0.006799611728638411,-6.95033377269283e-05,0.008458948694169521
0.009888684377074242,0.00314747984521091,-0.009263967163860798,0.006799611728638411,-6.95033377269283e-05,0.008458948694169521
0.009505645371973515,0.0032380532938987017,-0.010344886220991611,0.0065400972962379456,-6.780710828024894e-05,0.008960708044469357
0.009505645371973515,0.0032380532938987017,-0.010344886220991611,0.0065400972962379456,-6.780710828024894e-05,0.008960708044469357
0.00975999515503645,0.0031972546130418777,-0.009818267077207565,0.006545239128172398,-6.696646596537903e-05,0.008764965459704399
0.009839817881584167,0.0037671143654733896,-0.009235602803528309,0.0068735829554498196,-7.514234312111512e-05,0.00923045352101326
0.009839817881584167,0.0037671143654733896,-0.009235602803528309,0.0068735829554498196,-7.514234312111512e-05,0.00923045352101326
0.009922720491886139,0.0033299766946583986,-0.010565906763076782,0.006473514251410961,-7.442330388585106e-05,0.00878288596868515
0.01004953682422638,0.0030360163655132055,-0.009906640276312828,0.006284975912421942,-7.356526475632563e-05,0.008962979540228844
0.009745503775775433,0.0030863198917359114,-0.009957846254110336,0.006160038523375988,-7.271692447829992e-05,0.008939261548221111
0.00966014713048935,0.0034389591310173273,-0.010941029526293278,0.00618653604760766,-7.69507241784595e-05,0.009138756431639194
0.009823187254369259,0.0034844137262552977,-0.00974216964095831,0.006057396996766329,-8.089009497780353e-05,0.0089893052354455
0.0095106465741992,0.003514109645038843,-0.009264943189918995,0.006163503974676132,-8.030156459426507e-05,0.008922532200813293
0.009612495079636574,0.003226465778425336,-0.00970584899187088,0.006607280112802982,-7.943608216010034e-05,0.009529808536171913
0.01083748135715723,0.003498175647109747,-0.009338387288153172,0.007039309944957495,-5.1866086323570926e-06,0.009972255676984787
0.009863322600722313,0.0032953841146081686,-0.009716533124446869,0.006479322444647551,-3.3864850479403685e-07,0.009828824549913406
0.009393326938152313,0.003438330255448818,-0.010102546773850918,0.006256044376641512,-2.2111326103413376e-08,0.0092281149700284
0.010732592083513737,0.0036702097859233618,-0.009967896156013012,0.006501457653939724,-0.0001094100225600414,0.00969489011913538
0.010091003961861134,0.003299530828371644,-0.00940702948719263,0.007427137810736895,-0.00017253411351703107,0.009478474035859108
0.009661502204835415,0.003342023817822337,-0.010758798569440842,0.006980729755014181,-0.00017039781960193068,0.009277131408452988
0.010077039711177349,0.0034147039987146854,-0.009945657104253769,0.0065331729128956795,-0.00016445707296952605,0.00958547368645668
0.009502756409347057,0.003427349030971527,-0.00961487740278244,0.0064835092052817345,-0.00015867619367782027,0.009518626146018505
0.00958311278373003,0.0035728286020457745,-0.010240182280540466,0.0067366850562393665,-0.00015327190340030938,0.00985600333660841
0.010423095896840096,0.0037731982301920652,-0.010853670537471771,0.007319289725273848,-0.00014822307275608182,0.009789492003619671
0.010423095896840096,0.0037731982301920652,-0.010853670537471771,0.007319289725273848,-0.00014822307275608182,0.009789492003619671
0.009689371101558208,0.0037243508268147707,-0.010865605436265469,0.006397591903805733,-0.00015270448056980968,0.009266691282391548
0.009689371101558208,0.0037243508268147707,-0.010865605436265469,0.006397591903805733,-0.00015270448056980968,0.009266691282391548
0.010332622565329075,0.0037235328927636147,-0.010075380094349384,0.0067988066002726555,-0.00016094549209810793,0.009226384572684765
0.009919884614646435,0.0036615615244954824,-0.010492809116840363,0.007139757741242647,-0.0001527101849205792,0.009300916455686092
0.009757018648087978,0.003669738071039319,-0.010623394511640072,0.006596686784178019,-0.0001485138782300055,0.009398899041116238
0.009757018648087978,0.003669738071039319,-0.010623394511640072,0.006596686784178019,-0.0001485138782300055,0.009398899041116238
0.010725721716880798,0.0035502829123288393,-0.009831407107412815,0.007059799507260323,-0.00015852732758503407,0.00908887479454279
0.010725721716880798,0.0035502829123288393,-0.009831407107412815,0.007059799507260323,-0.00015852732758503407,0.00908887479454279
0.009353992529213428,0.003762759268283844,-0.010473798029124737,0.006827200762927532,-0.0001559934753458947,0.009133358485996723
0.009775694459676743,0.0039262110367417336,-0.010003170929849148,0.0064980629831552505,-0.00015231264114845544,0.009177443571388721
0.01030757836997509,0.0034524346701800823,-0.0107114277780056,0.006792447529733181,-0.00014872304745949805,0.009248059242963791
0.009551925584673882,0.003598821582272649,-0.010519039817154408,0.007320618722587824,-0.0001452934229746461,0.009734729304909706
0.010624391958117485,0.0032015445176512003,-0.010396154597401619,0.007333035580813885,-0.00014201796147972345,0.009884991683065891
0.010224699974060059,0.0033132669050246477,-0.01024634763598442,0.007180722430348396,-0.0001388871023664251,0.010373561643064022
0.009964602999389172,0.003378908848389983,-0.010670162737369537,0.007261414546519518,-0.00013589100854005665,0.010107884183526039
0.01047198474407196,0.0034848900977522135,-0.009736607782542706,0.007470918353646994,-0.00014236771676223725,0.009869029745459557
0.010124762542545795,0.0037013499531894922,-0.01088731363415718,0.007366667967289686,-0.00014825061953160912,0.009916799142956734
0.009713699109852314,0.0034044927451759577,-0.010330128483474255,0.007148667238652706,-0.00014582372386939824,0.00999823771417141
0.009965622797608376,0.0036160580348223448,-0.009986860677599907,0.006882993504405022,-0.00014296580047812313,0.010281170718371868
0.009815727360546589,0.0034467007499188185,-0.010902761481702328,0.007041184231638908,-0.00014018472575116903,0.009822097606956959
0.009648231789469719,0.0033669015392661095,-0.010793862864375114,0.006974502000957727,-0.0001375075662508607,0.009961862117052078
0.010517407208681107,0.0030162937473505735,-0.010521985590457916,0.006732335779815912,-0.0001349305675830692,0.009870078414678574
0.010326547548174858,0.00319386157207191,-0.011011442169547081,0.0065069436095654964,-0.0001324484619544819,0.009811429306864738
0.009897440671920776,0.0033327206037938595,-0.010321692563593388,0.006717626936733723,-0.00013005576329305768,0.009759264066815376
0.010335329920053482,0.0035584531724452972,-0.010552353225648403,0.006711502093821764,-0.00012785570288542658,0.009874950163066387
0.009978785179555416,0.003684873692691326,-0.010880411602556705,0.006842880044132471,-0.00013546818809118122,0.01033727265894413
0.009907185100018978,0.0037166376132518053,-0.010447988286614418,0.006351823918521404,-0.0001322360330959782,0.010024317540228367
0.009907185100018978,0.0037166376132518053,-0.010447988286614418,0.006351823918521404,-0.0001322360330959782,0.010024317540228367
0.010572982020676136,0.003776592668145895,-0.010993304662406445,0.006605898030102253,-0.00012850829807575792,0.009974301792681217
0.010390126146376133,0.0038248200435191393,-0.01101779006421566,0.006804271601140499,-0.00012494338443502784,0.011039975099265575
0.010109425522387028,0.0033401751425117254,-0.010151165537536144,0.007041702046990395,-0.0001215677839354612,0.01052664965391159
0.01072477363049984,0.00309454626403749,-0.011087514460086823,0.007196160964667797,-0.00011836970952572301,0.01013700757175684
0.011103197000920773,0.003427026327699423,-0.01087687537074089,0.00707022612914443,-0.000115335984446574,0.010405270382761955
0.01046556793153286,0.003168319119140506,-0.010605442337691784,0.007385751232504845,-0.00012912429519928992,0.010399268008768559
0.010156821459531784,0.0032559398096054792,-0.010467477142810822,0.007683945819735527,-0.0001284958270844072,0.010621318593621254
0.01046273298561573,0.003523880382999778,-0.010552027262747288,0.0077699352987110615,-0.00012553116539493203,0.010220225900411606
0.01084351260215044,0.003834203351289034,-0.010588654316961765,0.007548981346189976,-0.00012268064892850816,0.009842230938374996
0.01158734131604433,0.0035017882473766804,-0.010419939644634724,0.007234592456370592,-0.00013478173059411347,0.010411038063466549
0.0127790542319417,0.0031291062477976084,-0.010981249623000622,0.006936343386769295,-0.0001365692151011899,0.010244802571833134
0.01165497675538063,0.0028355992399156094,-0.010793562978506088,0.006959577556699514,-0.00013397274597082287,0.010763880796730518
0.011854195035994053,0.0029664356261491776,-0.010197604075074196,0.007155957631766796,-0.0001312025124207139,0.010509410873055458
0.012287483550608158,0.0033214055001735687,-0.010893136262893677,0.0074593559838831425,-0.0001285272155655548,0.010445876978337765
0.012018105946481228,0.003296957118436694,-0.010267089121043682,0.0075836870819330215,-0.0001259573909919709,0.009940923191606998
0.012270534411072731,0.00346696050837636,-0.010847569443285465,0.00755517790094018,-0.00012348870222922415,0.009861613623797894
0.01241916324943304,0.0031897251028567553,-0.010590874589979649,0.007535080425441265,-0.00012111449905205518,0.010596354492008686
0.01219046488404274,0.0028422228060662746,-0.010574295185506344,0.007491244003176689,-0.00013142662646714598,0.010668320581316948
0.012028571218252182,0.0030363264959305525,-0.010333479382097721,0.0069947559386491776,-0.00013300553837325424,0.010478935204446316
0.012374922633171082,0.0032011885195970535,-0.010679846629500389,0.0073735760524868965,-0.00013085028331261128,0.009908489882946014
0.012615743093192577,0.002920549362897873,-0.010023882612586021,0.007656918838620186,-0.0001285313774133101,0.010276402346789837
0.012171922251582146,0.002753824694082141,-0.010373719036579132,0.007652207277715206,-0.00012627814430743456,0.01073827687650919
0.012720033526420593,0.0027344876434653997,-0.010036222636699677,0.007801881991326809,-0.0001241015997948125,0.010520952753722668
0.012130804359912872,0.0029007254634052515,-0.009955186396837234,0.007887526415288448,-0.0001555027993163094,0.010887110605835915
0.012348046526312828,0.003356743836775422,-0.010755756869912148,0.007755592465400696,-0.00016086736286524683,0.010421808809041977
0.01238264050334692,0.003232048824429512,-0.010695434175431728,0.007501335348933935,-0.0001560040982440114,0.010198138654232025
0.01238264050334692,0.003232048824429512,-0.010695434175431728,0.007501335348933935,-0.0001560040982440114,0.010198138654232025
0.012454625219106674,0.002964526182040572,-0.009991985745728016,0.008046216331422329,-0.0001508215646026656,0.011665597558021545
0.012531029060482979,0.002925531705841422,-0.010584517382085323,0.007955634966492653,-0.00014593280502595007,0.010204809717833996
0.011913873255252838,0.0030348477885127068,-0.010566341690719128,0.008019421249628067,-0.00014134874800220132,0.009618798270821571
0.01250846590846777,0.0033138173166662455,-0.00996877159923315,0.0075617567636072636,-0.0001370439276797697,0.01036634761840105
0.01246823649853468,0.003148144343867898,-0.010868879966437817,0.007239560596644878,-0.00015269278082996607,0.011147228069603443
0.012407862581312656,0.002967982552945614,-0.01065654493868351,0.007479874882847071,-0.00015455993707291782,0.011887382715940475
0.012352509424090385,0.002928525907918811,-0.010366708040237427,0.00810550432652235,-0.00015065510524436831,0.011478052474558353
0.012447628192603588,0.003128963289782405,-0.00977397058159113,0.007998893968760967,-0.0001427186216460541,0.011405069380998611
0.01232942659407854,0.003102590562775731,-0.010612761601805687,0.007902047596871853,-0.0001390438264934346,0.01109394896775484
0.01287807896733284,0.002993919188156724,-0.01116788387298584,0.007843956351280212,-0.00015663218800909817,0.011231970973312855
0.012839428149163723,0.0031056716106832027,-0.010168270207941532,0.007561535108834505,-0.00015417378745041788,0.011305307038128376
0.012840613722801208,0.0032470945734530687,-0.01033992599695921,0.007382282987236977,-0.00015057841665111482,0.011219303123652935
0.012699353508651257,0.0034631432499736547,-0.010491874068975449,0.007776033598929644,-0.00014706916408613324,0.011363563127815723
0.01280524954199791,0.0032121583353728056,-0.010015523061156273,0.008068975992500782,-0.00014371456927619874,0.010989696718752384
0.0129633080214262,0.0030375844798982143,-0.010647695511579514,0.008085419423878193,-0.00015794497448951006,0.010885809548199177
0.013080229051411152,0.00274626980535686,-0.010685443878173828,0.008180061355233192,-0.00015690617146901786,0.011556491255760193
0.012810220941901207,0.0028444749768823385,-0.009777804836630821,0.008089132606983185,-0.00015371340850833803,0.011142360046505928
0.012676211073994637,0.0029994207434356213,-0.011001315899193287,0.008153929375112057,-0.00020208150090184063,0.011629046872258186
0.013410737738013268,0.003429735079407692,-0.010280299931764603,0.007844364270567894,-0.00020054992637597024,0.01114278007298708
0.012801478616893291,0.0032611049246042967,-0.010599682107567787,0.007532505784183741,-0.0001924597891047597,0.010829728096723557
0.013115526176989079,0.0029975806828588247,-0.011060007847845554,0.007503789849579334,-0.00021900079445913434,0.011381497606635094
0.012602316215634346,0.0031156851910054684,-0.010464792139828205,0.008100681006908417,-0.00021262254449538887,0.011577832512557507
0.013146871700882912,0.00330109940841794,-0.010525592602789402,0.0077186208218336105,-0.00020470772869884968,0.011759532615542412
0.013408741913735867,0.003148903837427497,-0.011026323772966862,0.008056741207838058,-0.00022155599435791373,0.01191846001893282
0.013751216232776642,0.0030658175237476826,-0.01032092235982418,0.00759852072224021,-0.00022144397371448576,0.011801025830209255
0.013371970504522324,0.0032181201968342066,-0.010973216034471989,0.007634882815182209,-0.0002144088939530775,0.011559889651834965
0.013371970504522324,0.0032181201968342066,-0.010973216034471989,0.007634882815182209,-0.0002144088939530775,0.011559889651834965
0.013786692172288895,0.003067305078729987,-0.011043296195566654,0.007630027364939451,-0.0002219084999524057,0.011095630005002022
0.013397946022450924,0.003169054165482521,-0.010899053886532784,0.0077073462307453156,-0.00022847173386253417,0.010996497236192226
0.013296148739755154,0.003204772947356105,-0.011337798088788986,0.00745763024315238,-0.0002223058108938858,0.011487009935081005
0.013384513556957245,0.0034689917229115963,-0.010365215130150318,0.007704721298068762,-0.00021570335957221687,0.011237992905080318
0.01295421365648508,0.0033918838016688824,-0.010804464109241962,0.0076742819510400295,-0.00029957020888105035,0.011850704438984394
0.013637246564030647,0.003528877627104521,-0.010968088172376156,0.007888088002800941,-0.00030836198129691184,0.011397009715437889
0.013246298767626286,0.0036477481480687857,-0.010354886762797832,0.007933244109153748,-0.0002903764834627509,0.011333041824400425
0.013776447623968124,0.003801958402618766,-0.011186049319803715,0.00799606367945671,-0.0002728849940467626,0.011356533505022526
0.01340404711663723,0.003516780911013484,-0.01088313851505518,0.008141161873936653,-0.00029180513229221106,0.011955669149756432
0.01300027221441269,0.0038077542558312416,-0.011185901239514351,0.0078070093877613544,-0.00031700535328127444,0.011737164109945297
0.013727475889027119,0.003974258434027433,-0.010985948145389557,0.007446812931448221,-0.00030703991069458425,0.011827362701296806
0.013961960561573505,0.004043762572109699,-0.011298858560621738,0.007645913399755955,-0.0002931091876234859,0.01172923669219017
0.014067666605114937,0.003556919749826193,-0.011148195713758469,0.008157051168382168,-0.0002800982038024813,0.011610054410994053
0.014436698518693447,0.0035466961562633514,-0.010780315846204758,0.008365103974938393,-0.00029648165218532085,0.012142184190452099
0.013939997181296349,0.0035918254870921373,-0.011525080539286137,0.0077105360105633736,-0.000293315650196746,0.01222870871424675
0.014068077318370342,0.003611685009673238,-0.01096759457141161,0.0077387383207678795,-0.0002823924587573856,0.012823873199522495
0.014558876864612103,0.003606138750910759,-0.01039512362331152,0.008449838496744633,-0.00027176938601769507,0.011810490861535072
0.013506432995200157,0.0035707501228898764,-0.010928855277597904,0.008369233459234238,-0.0002973531954921782,0.011365492828190327
0.013303079642355442,0.0035121915861964226,-0.011188180185854435,0.007849800400435925,-0.0002902659180108458,0.012237784452736378
0.014189544133841991,0.0035266245249658823,-0.011449195444583893,0.008123797364532948,-0.00030003211577422917,0.01238019298762083
0.014091186225414276,0.003646359546110034,-0.011054577305912971,0.007888016290962696,-0.0003075228596571833,0.013096407055854797
0.014220829121768475,0.0037438462022691965,-0.010977726429700851,0.008072585798799992,-0.00029247000929899514,0.012456192634999752
0.01413949765264988,0.0037366519682109356,-0.011803877539932728,0.008161271922290325,-0.0002775392204057425,0.012163326144218445
0.014709354378283024,0.0037409947253763676,-0.011257159523665905,0.00888831540942192,-0.00030494885868392885,0.012087340466678143
0.014455248601734638,0.00372036499902606,-0.011724329553544521,0.008163406513631344,-0.00029341562185436487,0.011959097348153591
0.01448464673012495,0.0037059918977320194,-0.011642906814813614,0.007504942361265421,-0.0003178599290549755,0.012613031081855297
0.01396977063268423,0.0037376938853412867,-0.011488072574138641,0.008165581151843071,-0.000306760601233691,0.012284274213016033
0.01396977063268423,0.0037376938853412867,-0.011488072574138641,0.008165581151843071,-0.000306760601233691,0.012284274213016033
0.0146641805768013,0.004231935832649469,-0.011922182515263557,0.008610707707703114,-0.00029557719244621694,0.012632428668439388
0.014123727567493916,0.004067713860422373,-0.011061289347708225,0.008284400217235088,-0.00038426119135692716,0.01254369504749775
0.014505850151181221,0.003827047534286976,-0.011494304053485394,0.007684275507926941,-0.0003959012101404369,0.012240069918334484
0.014324214309453964,0.004274352919310331,-0.011755801737308502,0.007999472320079803,-0.00039902495336718857,0.012584278360009193
0.01498368475586176,0.0041177840903401375,-0.01158052496612072,0.007751637138426304,-0.00037353066727519035,0.01250529009848833
0.01461408007889986,0.003954182378947735,-0.012365785427391529,0.00786526408046484,-0.0003494812990538776,0.01243427861481905
0.014528977684676647,0.0038060510996729136,-0.01177385076880455,0.008760792203247547,-0.00036074212403036654,0.012777878902852535
0.015069066546857357,0.0038696331903338432,-0.011711640283465385,0.008135600946843624,-0.0003414024831727147,0.012841078452765942
0.014634627848863602,0.0038426287937909365,-0.010866818949580193,0.007719162851572037,-0.00032386116799898446,0.012548699975013733
0.015043842606246471,0.003705965355038643,-0.011971425265073776,0.008552860468626022,-0.0003080217866227031,0.012477871961891651
0.01524006761610508,0.003648091573268175,-0.011773424223065376,0.008682872168719769,-0.0002936599776148796,0.012288982048630714
0.01493910513818264,0.004132497124373913,-0.011948307044804096,0.008272770792245865,-0.00031018536537885666,0.012499675154685974
0.014971546828746796,0.004195800982415676,-0.011811036616563797,0.008894265629351139,-0.000306301808450371,0.012632329948246479
0.015185877680778503,0.004012820776551962,-0.0113044623285532,0.009419952519237995,-0.00029438454657793045,0.013052800670266151
0.015227407217025757,0.003468585666269064,-0.012290754355490208,0.009543968364596367,-0.00028285791631788015,0.012810632586479187
0.01499844528734684,0.0035960543900728226,-0.011373124085366726,0.009609733708202839,-0.0002721659548114985,0.013065246865153313
0.01522027887403965,0.004248712677508593,-0.011971844360232353,0.008476660586893559,-0.00026225170586258173,0.013196900486946106
0.014887814410030842,0.004222490359097719,-0.011884531006217003,0.009092318825423717,-0.00025138322962448,0.013197889551520348
0.01533244177699089,0.003694323357194662,-0.011401818133890629,0.009754665195941925,-0.00023761189368087798,0.01319290604442358
0.015241825953125954,0.0034612701274454594,-0.011972500942647457,0.00991271436214447,-0.00022566001280210912,0.01304059848189354
0.015781905502080917,0.003153137629851699,-0.011678209528326988,0.009436705149710178,-0.00021487918274942786,0.0133099015802145
0.015109878964722157,0.0035531222820281982,-0.011950111947953701,0.009276316501200199,-0.00022512652503792197,0.013315871357917786
0.015427367761731148,0.0038662010338157415,-0.012033184058964252,0.009523035027086735,-0.00023400169447995722,0.013410991989076138
0.015400485135614872,0.0034510695841163397,-0.011281787417829037,0.009245541878044605,-0.00022544861712958664,0.01324433647096157
0.015400485135614872,0.0034510695841163397,-0.011281787417829037,0.009245541878044605,-0.00022544861712958664,0.01324433647096157
0.015749510377645493,0.0034289055038243532,-0.011790486052632332,0.008827252313494682,-0.0002164887700928375,0.014528942294418812
0.015321764163672924,0.0034388576168566942,-0.011254354380071163,0.00914955697953701,-0.00020814710296690464,0.013854917138814926
0.015708932653069496,0.003392900340259075,-0.011538634076714516,0.008918767794966698,-0.00020042108371853828,0.012853696011006832
0.015611914917826653,0.003482429776340723,-0.012324209325015545,0.008520988747477531,-0.00020902699907310307,0.013122634962201118
0.015554958954453468,0.0032354751601815224,-0.011468512937426567,0.008951614610850811,-0.00021659232152160257,0.013314740732312202
0.015831168740987778,0.003516277065500617,-0.011689473874866962,0.00933411717414856,-0.0002103249862557277,0.013945221900939941
0.015780456364154816,0.003734943922609091,-0.011769091710448265,0.0086817666888237,-0.0002035902871284634,0.014322726987302303
0.01543665211647749,0.003816370852291584,-0.011680956929922104,0.009294387884438038,-0.0002114642265951261,0.01462030690163374
0.015875359997153282,0.0034043227788060904,-0.011594356037676334,0.009125259704887867,-0.00021165086945984513,0.014419689774513245
0.0156675074249506,0.003151932265609503,-0.011848971247673035,0.008920776657760143,-0.00020601246797014028,0.014407258480787277
0.015733784064650536,0.003177832579240203,-0.011476045474410057,0.009230334311723709,-0.00020030837913509458,0.014163329266011715
0.016023389995098114,0.003348741214722395,-0.012199652381241322,0.009156614542007446,-0.00019488779071252793,0.013869063928723335
0.01646791584789753,0.0034782555885612965,-0.011875060386955738,0.008939220570027828,-0.0002195155539084226,0.013624796643853188
0.016653593629598618,0.0034633881878107786,-0.011635325849056244,0.009489237330853939,-0.00021362610277719796,0.013796818442642689
0.016192415729165077,0.0035866773687303066,-0.01245161797851324,0.00958856288343668,-0.00020422461966518313,0.014152878895401955
0.016538290306925774,0.003466974478214979,-0.011488300748169422,0.008953280746936798,-0.00019537554180715233,0.014334484003484249
0.015989070758223534,0.0034763456787914038,-0.011993631720542908,0.009146544151008129,-0.0002055641234619543,0.01462682243436575
0.016322724521160126,0.003629409708082676,-0.012272217310965061,0.009303601458668709,-0.00021446787286549807,0.014542637392878532
0.01671690121293068,0.003714642021805048,-0.012629879638552666,0.009855055250227451,-0.00020734773715958,0.014154067263007164
0.01726667210459709,0.0033150019589811563,-0.012296739965677261,0.009488123469054699,-0.00019974939641542733,0.01419791579246521
0.017049690708518028,0.0030713158193975687,-0.012279010377824306,0.00952475517988205,-0.0001926276454469189,0.014757620170712471
0.01709974929690361,0.00309549318626523,-0.012695939280092716,0.00927237793803215,-0.00020893105829600245,0.014492710120975971
0.017036983743309975,0.003347234334796667,-0.012262427248060703,0.009655571542680264,-0.00020923871488776058,0.015222808346152306
0.016621431335806847,0.0034313553478568792,-0.012689540162682533,0.009909545071423054,-0.00021719223877880722,0.014968478120863438
0.017233917489647865,0.0034622009843587875,-0.0126945236697793,0.009757179766893387,-0.0002237955923192203,0.014631868340075016
0.017527762800455093,0.003653549822047353,-0.012583024799823761,0.010286267846822739,-0.00021789487800560892,0.014437737874686718
0.017118975520133972,0.003366660326719284,-0.0125987958163023,0.009869677014648914,-0.00021154955902602524,0.01456877775490284
0.016999391838908195,0.0035094129852950573,-0.012217500247061253,0.00939377211034298,-0.0002062180865323171,0.014445322565734386
0.01719186082482338,0.0033894104417413473,-0.012854968197643757,0.009585216641426086,-0.00026689638616517186,0.014633112587034702
0.01719186082482338,0.0033894104417413473,-0.012854968197643757,0.009585216641426086,-0.00026689638616517186,0.014633112587034702
0.017333989962935448,0.003379494184628129,-0.011223315261304379,0.010292347520589828,-0.00025645425193943083,0.015065225772559643
0.016781337559223175,0.0031450740061700344,-0.013721970841288567,0.010097977705299854,-0.00024291743466164917,0.01478628721088171
0.016683800145983696,0.003194754011929035,-0.012901602312922478,0.009945773519575596,-0.0002645004424266517,0.015198632143437862
0.017538661137223244,0.0034015087876468897,-0.012904669158160686,0.010167577303946018,-0.0002817066269926727,0.015936486423015594
0.016502398997545242,0.00357158575206995,-0.013436404056847095,0.010071579366922379,-0.00027898146072402596,0.014985267072916031
0.01782055012881756,0.003684916067868471,-0.013104460202157497,0.009752899408340454,-0.0002960291167255491,0.014860771596431732
0.017592215910553932,0.003736216342076659,-0.01298611331731081,0.009383187629282475,-0.00029292693943716586,0.0147001463919878
0.017424477264285088,0.003685626434162259,-0.013566186651587486,0.0095095569267869,-0.0002820356748998165,0.015294945798814297
0.017166731879115105,0.0036867856979370117,-0.013249251060187817,0.010194514878094196,-0.0003892929235007614,0.015458645299077034
0.017193956300616264,0.0036974758841097355,-0.013382731936872005,0.010070443153381348,-0.00037435494596138597,0.015569222159683704
0.01753278262913227,0.0037344901356846094,-0.01266507152467966,0.009916839189827442,-0.0004064803069923073,0.015165142714977264
0.0172901451587677,0.003746594535186887,-0.013306011445820332,0.009784409776329994,-0.000416903814766556,0.015466144308447838
0.017974471673369408,0.003859998192638159,-0.01302999909967184,0.009545265696942806,-0.0004183613054919988,0.015743808820843697
0.01771409995853901,0.003909728955477476,-0.013505025766789913,0.00925795640796423,-0.00042148545617237687,0.015690643340349197
0.01787533238530159,0.0035941586829721928,-0.012913071550428867,0.009808971546590328,-0.0004221090057399124,0.015443491749465466
0.018076365813612938,0.0034728338941931725,-0.013343940488994122,0.010522439144551754,-0.00040029187221080065,0.015381423756480217
0.018179168924689293,0.0036559889558702707,-0.012958027422428131,0.011105617508292198,-0.00048101443098858,0.01579907350242138
0.018277034163475037,0.0038441496435552835,-0.013576951809227467,0.01039778720587492,-0.0004658333782572299,0.015711136162281036
0.01827082969248295,0.003826905507594347,-0.013531845062971115,0.009638155810534954,-0.0004972224123775959,0.015426089987158775
0.017727499827742577,0.0037968482356518507,-0.012995369732379913,0.010474301874637604,-0.0004644922155421227,0.015169186517596245
0.018288331106305122,0.0038367374800145626,-0.013844246976077557,0.010006892494857311,-0.0004282825975678861,0.015649285167455673
0.018288331106305122,0.0038367374800145626,-0.013844246976077557,0.010006892494857311,-0.0004282825975678861,0.015649285167455673
0.018129324540495872,0.0034523080103099346,-0.013444464653730392,0.010505538433790207,-0.0004841679474338889,0.01572149060666561
0.018129324540495872,0.0034523080103099346,-0.013444464653730392,0.010505538433790207,-0.0004841679474338889,0.01572149060666561
0.01845879852771759,0.0035707876086235046,-0.01320679672062397,0.010162158869206905,-0.00046110551920719445,0.015756679698824883
0.018114961683750153,0.0032889090944081545,-0.01400547195225954,0.010105203837156296,-0.0005303053185343742,0.015990126878023148
0.01835942268371582,0.0033427253365516663,-0.013043160550296307,0.010647929273545742,-0.0004816268919967115,0.015634864568710327
0.01876523159444332,0.0034939092583954334,-0.013436089269816875,0.009946032427251339,-0.0005162991583347321,0.015653591603040695
0.018293064087629318,0.003640215378254652,-0.012893826700747013,0.00973487738519907,-0.0004760508600156754,0.015999669209122658
0.018794050440192223,0.0036157737486064434,-0.013437843881547451,0.010135076940059662,-0.000521656998898834,0.016875432804226875
0.01849675178527832,0.0035562668927013874,-0.013891876675188541,0.010659185238182545,-0.0005010375753045082,0.016802171245217323
0.018610414117574692,0.003444589674472809,-0.013575735501945019,0.011026771739125252,-0.00046938241575844586,0.01657428778707981
0.01871211640536785,0.0036044197622686625,-0.01387457363307476,0.010321078822016716,-0.0004913707380183041,0.016025489196181297
0.018758423626422882,0.003351770108565688,-0.01369683351367712,0.010572988539934158,-0.00045966231846250594,0.01569417491555214
0.018945632502436638,0.003567059524357319,-0.012931963428854942,0.01010144129395485,-0.0004793451225850731,0.015464567579329014
0.019035927951335907,0.003776853671297431,-0.013282966800034046,0.009697376750409603,-0.0004576706560328603,0.016559140756726265
0.01897839456796646,0.003381037851795554,-0.012812109664082527,0.010553615167737007,-0.00042303086956962943,0.016446908935904503
0.019280584529042244,0.0035001153592020273,-0.013843005523085594,0.01008977647870779,-0.00039235258009284735,0.01657501794397831
0.019045310094952583,0.0037372177466750145,-0.013488094322383404,0.009411702863872051,-0.0004224540025461465,0.016869518905878067
0.0191360991448164,0.003795634489506483,-0.013766927644610405,0.010396051220595837,-0.0003993610735051334,0.016404394060373306
0.01945168897509575,0.0033647464588284492,-0.013252833858132362,0.010361936874687672,-0.00041531320312060416,0.01703714393079281
0.01951642520725727,0.0032462331000715494,-0.013887275941669941,0.010024918243288994,-0.0004043648368678987,0.01721419394016266
0.019540730863809586,0.0032853034790605307,-0.01372229028493166,0.01039697416126728,-0.0004052155709359795,0.01771760731935501
0.02004537731409073,0.0033916940446943045,-0.013814231380820274,0.010252052918076515,-0.00039292318979278207,0.01741376332938671
0.02019888162612915,0.0036196543369442225,-0.013459734618663788,0.010413170792162418,-0.0004159887903369963,0.01676269620656967
0.01969216763973236,0.0037948801182210445,-0.013994860462844372,0.010969770140945911,-0.00040164412348531187,0.01715727336704731
0.019237082451581955,0.0038653977680951357,-0.013831214047968388,0.010937174782156944,-0.00042880797991529107,0.016775481402873993
0.019765472039580345,0.003870932385325432,-0.014030227437615395,0.010412042960524559,-0.0004084304382558912,0.016813427209854126
0.019632305949926376,0.0034159303177148104,-0.01385505124926567,0.011575557291507721,-0.0003840108111035079,0.017150457948446274
0.020258208736777306,0.0035913411993533373,-0.013993669301271439,0.010718652978539467,-0.0004066985275130719,0.017059510573744774
0.02009524405002594,0.003932453691959381,-0.013827071525156498,0.010996244847774506,-0.00039074019878171384,0.017972487956285477
0.01974436268210411,0.003522565821185708,-0.014324385672807693,0.011525852605700493,-0.00047941794036887586,0.017752211540937424
0.020331287756562233,0.0035900804214179516,-0.014144182205200195,0.011529290117323399,-0.00044858019100502133,0.01764467917382717
0.020633302628993988,0.003674843581393361,-0.01405053585767746,0.011406315490603447,-0.00040888928924687207,0.017578192055225372
0.020633302628993988,0.003674843581393361,-0.01405053585767746,0.011406315490603447,-0.00040888928924687207,0.017578192055225372
0.020536256954073906,0.004135873168706894,-0.014080163091421127,0.011284545063972473,-0.0003748650196939707,0.017123594880104065
0.02009672485291958,0.0042068837210536,-0.013870129361748695,0.01158183068037033,-0.0003460194857325405,0.01751122437417507
0.020680276677012444,0.0039386809803545475,-0.014250990934669971,0.011457553133368492,-0.0003212955198250711,0.017954224720597267
0.019999545067548752,0.0034008717630058527,-0.014227857813239098,0.01144089549779892,-0.0003370779159013182,0.017425846308469772
0.020626874640583992,0.0036763097159564495,-0.013902244158089161,0.01125216856598854,-0.0003174892335664481,0.017351945862174034
0.021438490599393845,0.003812839975580573,-0.014482379890978336,0.011233745142817497,-0.0002998660202138126,0.017732808366417885
0.020684896036982536,0.004332749173045158,-0.014107841067016125,0.011612195521593094,-0.00028408615617081523,0.01779532991349697
0.020445654168725014,0.004186985082924366,-0.014416960999369621,0.011246424168348312,-0.00030882610008120537,0.017439769580960274
0.02109472267329693,0.004054358694702387,-0.014220079407095909,0.011547081172466278,-0.0002994773385580629,0.017590783536434174
0.021186839789152145,0.0039324951358139515,-0.01439171377569437,0.01168118603527546,-0.00028621841920539737,0.01884712651371956
0.021139726042747498,0.003928300924599171,-0.014633667655289173,0.011450007557868958,-0.0002737989416345954,0.01780286431312561
0.02109166979789734,0.0034859839361160994,-0.014809074811637402,0.01143442839384079,-0.00026239376165904105,0.017156872898340225
0.02153310738503933,0.004167117644101381,-0.01441491674631834,0.010783984325826168,-0.00027850246988236904,0.01752716489136219
0.021476417779922485,0.0041620247066020966,-0.014965897426009178,0.01126683596521616,-0.00027620320906862617,0.01825922727584839
0.021282494068145752,0.003952821716666222,-0.014342596754431725,0.011109387502074242,-0.0002665256033651531,0.018541306257247925
0.021580668166279793,0.003856364171952009,-0.014960184693336487,0.011041123420000076,-0.00025704511790536344,0.018477663397789
0.022017911076545715,0.004171417560428381,-0.014803308062255383,0.011453509330749512,-0.00023396563483402133,0.018405314534902573
0.021836163476109505,0.00424454128369689,-0.01497611403465271,0.011221983470022678,-0.00020992822828702629,0.018131541088223457
0.021558525040745735,0.004110928624868393,-0.014869933016598225,0.011789963580667973,-0.0001997483632294461,0.01814189739525318
0.021717356517910957,0.004010314587503672,-0.015196509659290314,0.011681483127176762,-0.00022434121638070792,0.018601054325699806
0.0220784991979599,0.003535649972036481,-0.015554425306618214,0.011219230480492115,-0.00023769996187184006,0.018907828256487846
0.022222060710191727,0.00406437274068594,-0.015179580077528954,0.011745006777346134,-0.00024546493659727275,0.018818624317646027
0.021993489935994148,0.004145069979131222,-0.015408811159431934,0.011425193399190903,-0.00023732971749268472,0.018926098942756653
0.021993489935994148,0.004145069979131222,-0.015408811159431934,0.011425193399190903,-0.00023732971749268472,0.018926098942756653
0.021817341446876526,0.004183860030025244,-0.014966005459427834,0.011166003532707691,-0.00024479333660565317,0.01872207783162594
0.022168098017573357,0.004082963801920414,-0.015955908223986626,0.011379914358258247,-0.0002512188220862299,0.018490461632609367
0.02233634516596794,0.003782497253268957,-0.01581193134188652,0.011025119572877884,-0.0004213699430692941,0.018609968945384026
0.02238192968070507,0.0036568983923643827,-0.01603342778980732,0.011780771426856518,-0.000437779730418697,0.018650664016604424
0.0223152544349432,0.003738634055480361,-0.015377984382212162,0.01150486245751381,-0.00047175498912110925,0.018830236047506332
0.02257527969777584,0.0037906391080468893,-0.015339327044785023,0.011326571926474571,-0.00040974607691168785,0.018655670806765556
0.022592538967728615,0.0037619099020957947,-0.01611832156777382,0.011257665231823921,-0.0004275300307199359,0.01872689090669155
0.022045375779271126,0.0038312908727675676,-0.015954095870256424,0.011790190823376179,-0.0004139559459872544,0.01887180469930172
0.022493889555335045,0.004365806467831135,-0.01582113280892372,0.012053492479026318,-0.00038931542076170444,0.018774600699543953
0.022915072739124298,0.004206993151456118,-0.01627632975578308,0.01171756163239479,-0.0004154611087869853,0.01930878683924675
0.023707885295152664,0.003965367563068867,-0.015644261613488197,0.012132180854678154,-0.00039717432809993625,0.019282570108771324
0.02347394824028015,0.0038887031842023134,-0.01615750975906849,0.011959793977439404,-0.0004309036594349891,0.019071102142333984
0.02315353788435459,0.003437645733356476,-0.015352464281022549,0.012248780578374863,-0.000435963534982875,0.019423695281147957
0.02084268257021904,0.0035012676380574703,-0.01616821251809597,0.012014348059892654,-0.0004359365557320416,0.01949024200439453
0.023384615778923035,0.004225232172757387,-0.015721632167696953,0.011881951242685318,-0.00046384320012293756,0.020457683131098747
0.024180391803383827,0.004137492273002863,-0.01609921269118786,0.01211831346154213,-0.00043956731678918004,0.019854210317134857
0.023678310215473175,0.0039193895645439625,-0.016063030809164047,0.011897708289325237,-0.0004546265408862382,0.019062476232647896
0.023017840459942818,0.00340869277715683,-0.016065770760178566,0.01281264889985323,-0.00044033979065716267,0.019055867567658424
0.023668445646762848,0.0034325011074543,-0.016544057056307793,0.011999028734862804,-0.0005470819305628538,0.019439872354269028
0.02383420802652836,0.0042426371946930885,-0.015972210094332695,0.01240340806543827,-0.0005803502863273025,0.019881952553987503
0.023867182433605194,0.004486192483454943,-0.016539691016077995,0.012410825118422508,-0.0005896499496884644,0.020204996690154076
0.02398756705224514,0.004231220111250877,-0.015822699293494225,0.012161772698163986,-0.0006167577230371535,0.020070550963282585
0.023373151198029518,0.0039616241119802,-0.01648624800145626,0.01259704865515232,-0.0006039045983925462,0.020188448950648308
0.02301575243473053,0.003897931892424822,-0.015945976600050926,0.012024258263409138,-0.0007373334956355393,0.019638974219560623
0.02364189736545086,0.0038454795721918344,-0.01616228185594082,0.012510035187005997,-0.000786639517173171,0.01905043236911297
0.024350272491574287,0.0038478849455714226,-0.016117587685585022,0.012101170606911182,-0.0008034775382839143,0.019334102049469948
0.024362295866012573,0.004313662648200989,-0.016252556815743446,0.012333091348409653,-0.0007379709277302027,0.019854875281453133
0.024362295866012573,0.004313662648200989,-0.016252556815743446,0.012333091348409653,-0.0007379709277302027,0.019854875281453133
0.024150114506483078,0.004214848391711712,-0.01678442396223545,0.012465568259358406,-0.0007435168954543769,0.02032346837222576
0.02407667227089405,0.003969645127654076,-0.0159098282456398,0.012187274172902107,-0.0007513711461797357,0.020288052037358284
0.024225501343607903,0.0038588617462664843,-0.016387708485126495,0.01238524541258812,-0.0007055675378069282,0.020375922322273254
0.024294456467032433,0.003944693133234978,-0.01627601869404316,0.012138862162828445,-0.0007273986120708287,0.020776111632585526
0.0243392251431942,0.0039875865913927555,-0.016213838011026382,0.012762215919792652,-0.0007264086161740124,0.021216269582509995
0.024441443383693695,0.003883480094373226,-0.01583467610180378,0.012409618124365807,-0.0006732341716997325,0.021307477727532387
0.025131314992904663,0.0037506045773625374,-0.01642526686191559,0.012521444819867611,-0.0006337506929412484,0.02028818614780903
0.025118449702858925,0.0037734885700047016,-0.016113482415676117,0.012456235475838184,-0.0006229295395314693,0.020582454279065132
0.02510008029639721,0.003725089132785797,-0.01628597266972065,0.012613261118531227,-0.000643261824734509,0.020809462293982506
0.024827800691127777,0.003854556242004037,-0.015489965677261353,0.012249079532921314,-0.0005979909910820425,0.020649489015340805
0.025004394352436066,0.003912360407412052,-0.016283368691802025,0.012464926578104496,-0.0005398357170633972,0.02110891602933407
0.025550683960318565,0.003912927582859993,-0.016476362943649292,0.012212385423481464,-0.0005612827953882515,0.02132542058825493
0.025675270706415176,0.003898519091308117,-0.016454750671982765,0.013013589195907116,-0.000560395943466574,0.021214479580521584
0.025520695373415947,0.0042611975222826,-0.016610750928521156,0.013119133189320564,-0.0005511059425771236,0.020996924489736557
0.02550838328897953,0.004094529431313276,-0.01610725000500679,0.013996263965964317,-0.0005892888293601573,0.020662358030676842
0.025991756469011307,0.00353730795904994,-0.01661091484129429,0.013914155773818493,-0.0005841598031111062,0.021893922239542007
0.02565142512321472,0.0041046226397156715,-0.01611943729221821,0.013706604018807411,-0.0005690954276360571,0.02101244032382965
0.025952892377972603,0.004166950471699238,-0.016882816329598427,0.01353300828486681,-0.0005175560363568366,0.02080121636390686
0.02610461600124836,0.004562929272651672,-0.016278719529509544,0.012946045026183128,-0.000545525224879384,0.021092168986797333
0.026069043204188347,0.0041869827546179295,-0.01644548773765564,0.012896006926894188,-0.0005064267897978425,0.021305972710251808
0.02601504884660244,0.003512938041239977,-0.016801385208964348,0.012318241409957409,-0.0004690073837991804,0.021326983347535133
0.026032093912363052,0.0035312562249600887,-0.01638674922287464,0.013001617044210434,-0.0004365088534541428,0.021498603746294975
0.026263605803251266,0.003732208861038089,-0.016942914575338364,0.013118951581418514,-0.0004082084633409977,0.021652990952134132
0.025998348370194435,0.004363627638667822,-0.016217857599258423,0.013846156187355518,-0.0004343146283645183,0.0214036013931036
0.02497108094394207,0.00413883151486516,-0.01710548810660839,0.013834542594850063,-0.00041273096576333046,0.02130318619310856
0.026375815272331238,0.0039046271704137325,-0.01683906465768814,0.014180091209709644,-0.00039055300294421613,0.021730901673436165
0.026375815272331238,0.0039046271704137325,-0.01683906465768814,0.014180091209709644,-0.00039055300294421613,0.021730901673436165
0.02683139592409134,0.0042899963445961475,-0.01690797507762909,0.01356463972479105,-0.00037046478246338665,0.021674474701285362
0.026544220745563507,0.00421503372490406,-0.016951151192188263,0.01354209054261446,-0.0003534615971148014,0.02170647494494915
0.02674192003905773,0.004048533271998167,-0.016297990456223488,0.013504943810403347,-0.0003105540235992521,0.02187960222363472
0.026750897988677025,0.0038804677315056324,-0.017037712037563324,0.013818585313856602,-0.00028935735463164747,0.022338252514600754
0.025108469650149345,0.004045070614665747,-0.01696566306054592,0.014102732762694359,-0.0003118258318863809,0.02233503758907318
0.02585875615477562,0.0039623756892979145,-0.01696486957371235,0.013837111182510853,-0.00030662419158034027,0.022286226972937584
0.026585400104522705,0.004274909850209951,-0.01700848899781704,0.013644888997077942,-0.0003100409812759608,0.022649293765425682
0.026758655905723572,0.003996901214122772,-0.0177159421145916,0.014051754027605057,-0.00030565232736989856,0.022371754050254822
0.027607832103967667,0.003799188882112503,-0.01702863536775112,0.013243149034678936,-0.000292170443572104,0.02163316309452057
0.027304524555802345,0.0037398445419967175,-0.017140429466962814,0.013418037444353104,-0.0003164305235259235,0.02154459059238434
0.02678924985229969,0.0043222722597420216,-0.017358986660838127,0.012815559282898903,-0.0003056084387935698,0.0215131938457489
0.026682564988732338,0.0041572232730686665,-0.016853319481015205,0.013311192393302917,-0.00040427668136544526,0.02250046469271183
0.026475146412849426,0.003985671792179346,-0.017476635053753853,0.013486504554748535,-0.00041520840022712946,0.022586822509765625
0.02653122879564762,0.003933345433324575,-0.017377471551299095,0.01400898676365614,-0.00041701807640492916,0.022069916129112244
0.02691427245736122,0.003935365471988916,-0.01795746572315693,0.013944788835942745,-0.000420653959736228,0.0219177957624197
0.02657175064086914,0.003938205074518919,-0.017675893381237984,0.014330988749861717,-0.00042146959458477795,0.022515226155519485
0.026330282911658287,0.0035999228712171316,-0.017102714627981186,0.01407156977802515,-0.0004458304319996387,0.02245139144361019
0.026958616450428963,0.003473944030702114,-0.017847983166575432,0.014290716499090195,-0.00042624620255082846,0.022297950461506844
0.026977280154824257,0.0036246334202587605,-0.017495043575763702,0.013572454452514648,-0.0005519352271221578,0.021588986739516258
0.026951482519507408,0.0042830947786569595,-0.0183710977435112,0.013802691362798214,-0.0005869759479537606,0.022700568661093712
0.02664276398718357,0.004159869626164436,-0.018105430528521538,0.013784562237560749,-0.0005514433141797781,0.02135484106838703
0.027341622859239578,0.0035255157854408026,-0.016999201849102974,0.013946658000349998,-0.0005793740856461227,0.022015118971467018
0.02713024988770485,0.0035537315998226404,-0.018221940845251083,0.014310570433735847,-0.000601247709710151,0.022467592731118202
0.026929322630167007,0.003689030883833766,-0.017953861504793167,0.014086855575442314,-0.0007211315678432584,0.02237531915307045
0.02700774185359478,0.0037532427813857794,-0.017345819622278214,0.013793005608022213,-0.0007843336788937449,0.022396717220544815
0.027285443618893623,0.003764144843444228,-0.017986850813031197,0.01363285817205906,-0.0007865921943448484,0.02251746878027916
0.027706684544682503,0.003332090564072132,-0.01794799044728279,0.01377304457128048,-0.0007730305078439415,0.022523798048496246
0.0259994026273489,0.0033450934570282698,-0.017988724634051323,0.013603589497506618,-0.0007397440494969487,0.022783957421779633
0.027463769540190697,0.0035030809231102467,-0.01808362640440464,0.01384755689650774,-0.0007823720225133002,0.022803757339715958
0.027880115434527397,0.0036389476153999567,-0.017732908949255943,0.013998886570334435,-0.0008026952855288982,0.022831104695796967
0.02767680212855339,0.0037005844060331583,-0.01830190233886242,0.014508521184325218,-0.0007277367985807359,0.0233510322868824
0.02717628888785839,0.0036274914164096117,-0.018102215602993965,0.014148354530334473,-0.0007423432543873787,0.023359693586826324
0.02717628888785839,0.0036274914164096117,-0.018102215602993965,0.014148354530334473,-0.0007423432543873787,0.023359693586826324
0.027163540944457054,0.0034116848837584257,-0.017845310270786285,0.014582324773073196,-0.0007398407906293869,0.022972334176301956
0.02708596922457218,0.0034967439714819193,-0.017982129007577896,0.014458429999649525,-0.0006907063070684671,0.02319473586976528
0.02831960655748844,0.00372789753600955,-0.017685038968920708,0.014619216322898865,-0.0006768358289264143,0.023127876222133636
0.027972854673862457,0.0035904799588024616,-0.018167927861213684,0.014362680725753307,-0.0006622356595471501,0.02332342229783535
0.026727771386504173,0.00364879984408617,-0.017793506383895874,0.013758799061179161,-0.0006420345162041485,0.023448670282959938
0.02828691527247429,0.0035861534997820854,-0.01797380857169628,0.014544587582349777,-0.0006267304997891188,0.02379845641553402
0.02828691527247429,0.0035861534997820854,-0.01797380857169628,0.014544587582349777,-0.0006267304997891188,0.02379845641553402
0.02806796506047249,0.0036944150924682617,-0.018103018403053284,0.01461543794721365,-0.000675395131111145,0.023935290053486824
0.02828054688870907,0.003734267083927989,-0.01886751689016819,0.014217386022210121,-0.0006025430047884583,0.024009138345718384
0.02918080799281597,0.003375033149495721,-0.017882512882351875,0.014565215446054935,-0.0006308680749498308,0.02406463585793972
0.02925034798681736,0.0032821963541209698,-0.017925405874848366,0.014327853918075562,-0.0006401292630471289,0.023761553689837456
0.02835448645055294,0.003346594050526619,-0.018263190984725952,0.014764901250600815,-0.0006008092314004898,0.02367674931883812
0.028156733140349388,0.003401737893000245,-0.01779799908399582,0.014403099194169044,-0.000622685591224581,0.023569008335471153
0.02849235199391842,0.003612122731283307,-0.018114136531949043,0.014294703491032124,-0.0005775500903837383,0.02411779575049877
0.02947930060327053,0.003769782604649663,-0.018430765718221664,0.014004065655171871,-0.0005878718802705407,0.024454737082123756
0.029275046661496162,0.0038331239484250546,-0.018021121621131897,0.014448942616581917,-0.0005291038542054594,0.024397118017077446
0.029293915256857872,0.0033609874080866575,-0.01853911019861698,0.014402606524527073,-0.00047396443551406264,0.02426489070057869
0.02924780361354351,0.003512508003041148,-0.01845913752913475,0.014454259537160397,-0.0005083513678982854,0.023807305842638016
0.028968695551156998,0.003265622304752469,-0.018016736954450607,0.0141035420820117,-0.0005266953958198428,0.02400325983762741
0.029122626408934593,0.003076682798564434,-0.01864590309560299,0.014558926224708557,-0.0005027322913520038,0.024333791807293892
0.02826257236301899,0.003138944273814559,-0.017933927476406097,0.01454546581953764,-0.000524210452567786,0.02434556558728218
0.03016880713403225,0.003372438717633486,-0.017869457602500916,0.014960555359721184,-0.000496002146974206,0.02459479309618473
0.030157819390296936,0.0035962043330073357,-0.018215462565422058,0.015037214383482933,-0.000492792169097811,0.02542147785425186
0.02986868843436241,0.003532876493409276,-0.018186917528510094,0.014806988649070263,-0.00047053987509571016,0.0235433466732502
0.029974548146128654,0.0035835846792906523,-0.018991194665431976,0.014507553540170193,-0.000427691382355988,0.023546915501356125
0.030029339715838432,0.003674245672300458,-0.019000845029950142,0.014968893490731716,-0.00045798448263667524,0.02476459927856922
0.03033214434981346,0.003807486966252327,-0.018589768558740616,0.014933961443603039,-0.00046540453331544995,0.0254744254052639
0.03017142415046692,0.0038839492481201887,-0.018665095791220665,0.014703838154673576,-0.0004634812066797167,0.024582432582974434
0.030671341344714165,0.0034843969624489546,-0.01860303245484829,0.015303531661629677,-0.0004913058364763856,0.023630991578102112
0.03066437318921089,0.0035980946850031614,-0.01898808218538761,0.01578546315431595,-0.000541259185411036,0.02424456737935543
0.030991729348897934,0.00376329617574811,-0.01982061006128788,0.01613207347691059,-0.0005498612299561501,0.02554081380367279
0.030991729348897934,0.00376329617574811,-0.01982061006128788,0.01613207347691059,-0.0005498612299561501,0.02554081380367279
0.030917253345251083,0.0038423880469053984,-0.019498011097311974,0.01553286425769329,-0.0005793155869469047,0.02512890286743641
0.030908701941370964,0.003786554792895913,-0.018566593527793884,0.015568273141980171,-0.0005338243790902197,0.025077464058995247
0.03096051700413227,0.003733064280822873,-0.019852515310049057,0.015777960419654846,-0.0005199086735956371,0.026380864903330803
0.03141796961426735,0.0038353505078703165,-0.01941603235900402,0.015398306772112846,-0.0005401016096584499,0.02544150874018669
0.031221559271216393,0.003958108834922314,-0.01915772818028927,0.015812888741493225,-0.0005101296119391918,0.024763211607933044
0.03133334591984749,0.004013813566416502,-0.019461525604128838,0.015008114278316498,-0.00054535100935027,0.02439330518245697
0.031570468097925186,0.003648398444056511,-0.019485464319586754,0.014997451566159725,-0.0005833341856487095,0.025377433747053146
0.031740278005599976,0.003922509029507637,-0.01908208802342415,0.01453479565680027,-0.0006085588247515261,0.0259117279201746
0.03221764788031578,0.004201942589133978,-0.019307659938931465,0.014866468496620655,-0.0006037578568793833,0.02585090510547161
0.033373236656188965,0.004068881738930941,-0.01932971552014351,0.014525766484439373,-0.0005902969860471785,0.025940261781215668
0.0332493931055069,0.004011255688965321,-0.019944095984101295,0.015025442466139793,-0.0007440329645760357,0.025933992117643356
0.02986307442188263,0.004049268551170826,-0.019842030480504036,0.015342486090958118,-0.0007798406877554953,0.02577316388487816
0.032078128308057785,0.004132697358727455,-0.019101286306977272,0.01570192351937294,-0.0007962359231896698,0.025493137538433075
0.03321527689695358,0.004092660266906023,-0.019656002521514893,0.01583942398428917,-0.0008242577314376831,0.025815851986408234
0.03236841782927513,0.003518081735819578,-0.019834553822875023,0.015207776799798012,-0.0010843330528587103,0.025970231741666794
0.03301577642560005,0.0035713326651602983,-0.01941337063908577,0.015430903993546963,-0.001068314304575324,0.026072299107909203
0.03403299301862717,0.004332369659096003,-0.019714202731847763,0.015061775222420692,-0.001044089556671679,0.026279252022504807
0.03332781419157982,0.0041434308513998985,-0.019870659336447716,0.015251537784934044,-0.0009500440210103989,0.02640393190085888
0.03188259154558182,0.0038891215808689594,-0.019211458042263985,0.015102341771125793,-0.0009022035519592464,0.026089658960700035
0.032627709209918976,0.0038079903461039066,-0.019611526280641556,0.015662480145692825,-0.0008884465205483139,0.026107627898454666
0.033258914947509766,0.0038582475390285254,-0.01987800933420658,0.014976545237004757,-0.0007780728628858924,0.026163989678025246
0.033197708427906036,0.0038919493090361357,-0.01954122632741928,0.015054379589855671,-0.0007859054603613913,0.02624208852648735
0.03336389362812042,0.0038864659145474434,-0.019745483994483948,0.014959122985601425,-0.0007782618049532175,0.026889361441135406
0.033458411693573,0.004300596192479134,-0.01992352493107319,0.015181001275777817,-0.0007229929906316102,0.026904776692390442
0.033458411693573,0.004300596192479134,-0.01992352493107319,0.015181001275777817,-0.0007229929906316102,0.026904776692390442
0.03318662568926811,0.004225865937769413,-0.019477088004350662,0.01497685071080923,-0.0006497941794805229,0.02649218961596489
0.033431049436330795,0.003965676296502352,-0.01955772191286087,0.015173384919762611,-0.000674563751090318,0.02617582306265831
0.03349975496530533,0.003961457405239344,-0.02006187103688717,0.015143878757953644,-0.0006794750806875527,0.02618408203125
0.03301429748535156,0.004039540886878967,-0.019932236522436142,0.015705490484833717,-0.0006340560503304005,0.026897255331277847
0.033780016005039215,0.0038176628295332193,-0.019879553467035294,0.01611427217721939,-0.0006037754938006401,0.026840833947062492
0.033470433205366135,0.004193092696368694,-0.01978030987083912,0.016462378203868866,-0.0006497486028820276,0.026107868179678917
0.03336257487535477,0.004108911845833063,-0.01913212612271309,0.01576031558215618,-0.0006379628321155906,0.025654857978224754
0.03278220817446709,0.003909106366336346,-0.019948692992329597,0.016061246395111084,-0.0006156947929412127,0.026571037247776985
0.03135785460472107,0.0038779601454734802,-0.0200726967304945,0.01572198048233986,-0.0006352608907036483,0.027274278923869133
0.033701229840517044,0.0038885539397597313,-0.01881413348019123,0.015916751697659492,-0.0005870271124877036,0.027428502216935158
0.03494071960449219,0.003859488060697913,-0.019172484055161476,0.01586998999118805,-0.0006038142601028085,0.02806120179593563
0.03459208458662033,0.0038076438941061497,-0.01985285058617592,0.01615791954100132,-0.0005654158885590732,0.027832187712192535
0.03264113515615463,0.0038288088981062174,-0.019781721755862236,0.01643187366425991,-0.000576701364479959,0.02753179892897606
0.032830674201250076,0.003953908570110798,-0.01975361630320549,0.01638379506766796,-0.0005792809533886611,0.02634689211845398
0.03422728553414345,0.003997944761067629,-0.019784288480877876,0.01644480600953102,-0.0005652389372698963,0.026269014924764633
0.034002695232629776,0.003894074121490121,-0.01923125982284546,0.015947064384818077,-0.0005882405093871057,0.027058497071266174
0.034693825989961624,0.00377341965213418,-0.019684942439198494,0.016407784074544907,-0.0005473202909342945,0.02792242541909218
0.03453505039215088,0.003779212711378932,-0.020122388377785683,0.015965893864631653,-0.0005570051143877208,0.027883071452379227
0.03427853062748909,0.004372728522866964,-0.019659681245684624,0.01584307663142681,-0.0005322452634572983,0.027654049918055534
0.03336124122142792,0.004173107445240021,-0.01943373680114746,0.015259843319654465,-0.0005854890332557261,0.0274558924138546
0.03375859186053276,0.0038577967789024115,-0.01982150971889496,0.015529947355389595,-0.0006090769893489778,0.02742875926196575
0.034305717796087265,0.0037495282012969255,-0.020028822124004364,0.01575770229101181,-0.0005695100408047438,0.027846530079841614
0.034487463533878326,0.003803546540439129,-0.019579589366912842,0.015735231339931488,-0.0005964816082268953,0.02798624150454998
0.03474272042512894,0.004255123436450958,-0.019690673798322678,0.016090942546725273,-0.0005497093079611659,0.02800803631544113
0.034346066415309906,0.004167857579886913,-0.020072761923074722,0.01587514765560627,-0.0005682140472345054,0.02807462587952614
0.0340348556637764,0.004015001934021711,-0.020165929570794106,0.016145408153533936,-0.0005345140234567225,0.027967341244220734
0.03462095931172371,0.003950417507439852,-0.020945442840456963,0.016307219862937927,-0.0005750285345129669,0.028014352545142174
0.03475106880068779,0.003941792529076338,-0.020549682900309563,0.01700143702328205,-0.0005217058351263404,0.02801092155277729
0.03475106880068779,0.003941792529076338,-0.020549682900309563,0.01700143702328205,-0.0005217058351263404,0.02801092155277729
0.03465844690799713,0.003916998393833637,-0.019565727561712265,0.017078323289752007,-0.0005487476591952145,0.0282907634973526
0.03482217714190483,0.004113720264285803,-0.01989595778286457,0.01684851013123989,-0.0005080470582470298,0.027629366144537926
0.03529808297753334,0.003981873858720064,-0.02054923214018345,0.017176903784275055,-0.0005217806901782751,0.02793906442821026
0.03341633081436157,0.003712152596563101,-0.020467225462198257,0.016714604571461678,-0.0004981255042366683,0.02779725007712841
0.03555360808968544,0.0035395182203501463,-0.020341740921139717,0.017237018793821335,-0.0005112416693009436,0.028111999854445457
0.03499506413936615,0.00403522839769721,-0.020652491599321365,0.017626993358135223,-0.0005111697828397155,0.02839827351272106
0.03556463494896889,0.004515960346907377,-0.020577460527420044,0.018591025844216347,-0.00051229412201792,0.028505397960543633
0.035866230726242065,0.004179337061941624,-0.02115187980234623,0.017937010154128075,-0.0005054200883023441,0.02875169925391674
0.03553370013833046,0.003970003221184015,-0.020950183272361755,0.017483508214354515,-0.0005313666770234704,0.028409084305167198
0.03579385206103325,0.0038161026313900948,-0.020418226718902588,0.01686430722475052,-0.0004985448904335499,0.028311338275671005
0.035838186740875244,0.003783704014495015,-0.019886068999767303,0.016248617321252823,-0.0005239511374384165,0.028467532247304916
0.03618619963526726,0.004326434340327978,-0.021572021767497063,0.016749858856201172,-0.0006273040198720992,0.028580762445926666
0.036231689155101776,0.004174285568296909,-0.020207008346915245,0.016702601686120033,-0.0006783049902878702,0.028832120820879936
0.036128561943769455,0.004430209752172232,-0.02069466933608055,0.0174421314150095,-0.0007053001318126917,0.028658807277679443
0.03589538857340813,0.0043089184910058975,-0.021511942148208618,0.01784640923142433,-0.0007023305515758693,0.028757089748978615
0.036212775856256485,0.0042321947403252125,-0.021066565066576004,0.017498096451163292,-0.0006784686702303588,0.029551208019256592
0.03663089871406555,0.0043944246135652065,-0.021120142191648483,0.017848415300250053,-0.0008030141470953822,0.0297855194658041
0.037593696266412735,0.004202354233711958,-0.020848529413342476,0.01770840771496296,-0.0008287972887046635,0.028627699241042137
0.03681371733546257,0.00399788236245513,-0.021095970645546913,0.018464630469679832,-0.0007926641847006977,0.028031999245285988
0.035790711641311646,0.003905542893335223,-0.02108466811478138,0.017956500872969627,-0.0007509330753237009,0.02879541739821434
0.036941759288311005,0.004472706001251936,-0.02109794318675995,0.01698031648993492,-0.0007632299675606191,0.029360070824623108
0.037206146866083145,0.004642672371119261,-0.021306874230504036,0.017320746555924416,-0.0007960142684169114,0.029203500598669052
0.03852209821343422,0.004305575974285603,-0.021472519263625145,0.016619661822915077,-0.0008210939704440534,0.030291859060525894
0.03727143257856369,0.004316992592066526,-0.021456869319081306,0.016934625804424286,-0.0008239461458288133,0.030056271702051163
0.03637644648551941,0.004059121944010258,-0.020741920918226242,0.017191236838698387,-0.0008323984802700579,0.02824600413441658
0.03638490289449692,0.004319752566516399,-0.02075733058154583,0.017000872641801834,-0.0008498162496834993,0.028611429035663605
0.03775161877274513,0.004163098521530628,-0.021477865055203438,0.017442865297198296,-0.0007964338874444366,0.02967420034110546
0.036534570157527924,0.00448739156126976,-0.021602239459753036,0.01739075779914856,-0.0007984020048752427,0.030177321285009384
0.0379573330283165,0.004619973246008158,-0.0214092917740345,0.0167116466909647,-0.0007093927706591785,0.03009805828332901
0.0379573330283165,0.004619973246008158,-0.0214092917740345,0.0167116466909647,-0.0007093927706591785,0.03009805828332901
0.03825022280216217,0.004469095729291439,-0.021397124975919724,0.016641782596707344,-0.0007247150060720742,0.029719442129135132
0.03764745965600014,0.004179590847343206,-0.02137855440378189,0.016991514712572098,-0.0007240498089231551,0.029730593785643578
0.03783182054758072,0.004374003503471613,-0.02122540958225727,0.017411649227142334,-0.0006837430410087109,0.02994120866060257
0.03838527947664261,0.004227368161082268,-0.020518558099865913,0.01712813973426819,-0.0007338934228755534,0.030159112066030502
0.03760584443807602,0.003981457557529211,-0.02138904295861721,0.017339223995804787,-0.0007707782206125557,0.029966868460178375
0.03812619298696518,0.0038004370871931314,-0.021927712485194206,0.017260681837797165,-0.000786241318564862,0.03009982220828533
0.03851228579878807,0.004334042780101299,-0.02186540514230728,0.017836127430200577,-0.0007201612461358309,0.03017043136060238
0.03805416449904442,0.004359288606792688,-0.021392904222011566,0.017531361430883408,-0.0007535801851190627,0.030269354581832886
0.039725739508867264,0.003945686388760805,-0.021715987473726273,0.017862172797322273,-0.0007105083204805851,0.030214980244636536
0.03945020213723183,0.0037805826868861914,-0.021077821031212807,0.01782955788075924,-0.0006760406540706754,0.030551768839359283
0.037610720843076706,0.0037921902257949114,-0.02103574387729168,0.017308872193098068,-0.0006904020556248724,0.030930722132325172
0.03921652212738991,0.00407970417290926,-0.021899526938796043,0.01780831068754196,-0.0006329094176180661,0.030605971813201904
0.039036862552165985,0.003970379941165447,-0.022736171260476112,0.017636924982070923,-0.0006154790171422064,0.031108910217881203
0.040032293647527695,0.0038677689153701067,-0.022022193297743797,0.018265992403030396,-0.0006001483998261392,0.031158577650785446
0.04018700495362282,0.004304624628275633,-0.021420445293188095,0.018801435828208923,-0.0005448441370390356,0.030925283208489418
0.038909103721380234,0.004584817215800285,-0.021085720509290695,0.018517915159463882,-0.0005693480488844216,0.03021460771560669
0.03817544877529144,0.004191939253360033,-0.021732695400714874,0.018450763076543808,-0.0005893489578738809,0.030814604833722115
0.039557088166475296,0.003894190303981304,-0.022099953144788742,0.018179545179009438,-0.0005576472030952573,0.03195168450474739
0.039714984595775604,0.003748880699276924,-0.022529080510139465,0.017765894532203674,-0.0005816599004901946,0.03178141266107559
0.03930043801665306,0.004217701964080334,-0.02193322591483593,0.018358139321208,-0.0008952884818427265,0.030284419655799866
0.03942598029971123,0.004189525730907917,-0.02210816740989685,0.018747014924883842,-0.0008460287936031818,0.03028237074613571
0.03993287310004234,0.004397533368319273,-0.02262536808848381,0.019149884581565857,-0.0008499214891344309,0.031470417976379395
0.039655402302742004,0.004637200850993395,-0.02255961485207081,0.01879437267780304,-0.0008342742803506553,0.031321484595537186
0.03927481174468994,0.004224596079438925,-0.021864106878638268,0.017320360988378525,-0.0007759574800729752,0.031775832176208496
0.03958902135491371,0.003935646265745163,-0.02289951592683792,0.017715496942400932,-0.0008493862696923316,0.03260025382041931
0.03959938883781433,0.004342054482549429,-0.02211862988770008,0.018343225121498108,-0.0008605847833678126,0.031534772366285324
0.04016197472810745,0.004136171657592058,-0.02181442454457283,0.017997868359088898,-0.0008660379098728299,0.031033234670758247
0.04036441817879677,0.0042847986333072186,-0.0217165295034647,0.01852325350046158,-0.0008229547529481351,0.03075513429939747
0.04021929204463959,0.004344518296420574,-0.022594697773456573,0.018731333315372467,-0.0009868366178125143,0.032296739518642426
0.04021929204463959,0.004344518296420574,-0.022594697773456573,0.018731333315372467,-0.0009868366178125143,0.032296739518642426
0.040032319724559784,0.004145515616983175,-0.022912614047527313,0.018493477255105972,-0.0010036776075139642,0.03210947662591934
0.040032319724559784,0.004145515616983175,-0.022912614047527313,0.018493477255105972,-0.0010036776075139642,0.03210947662591934
0.040847163647413254,0.004270537756383419,-0.022382080554962158,0.01841040886938572,-0.0010271786013618112,0.032338544726371765
0.040852151811122894,0.0040457481518387794,-0.022526932880282402,0.01880541816353798,-0.001068060053512454,0.03203408047556877
0.04048958048224449,0.003920360468327999,-0.02259756810963154,0.019495461136102676,-0.001043555443175137,0.032188426703214645
0.04069436341524124,0.004250654950737953,-0.022726379334926605,0.019079899415373802,-0.0009865114698186517,0.03233124315738678
0.041088737547397614,0.004726361948996782,-0.022230325266718864,0.01868247427046299,-0.0010214209323748946,0.03232342749834061
0.041104599833488464,0.004466681741178036,-0.02279968559741974,0.018155377358198166,-0.0009857105324044824,0.032611943781375885
0.04099947214126587,0.004061812534928322,-0.023134151473641396,0.01840328238904476,-0.0009891247609630227,0.03246607631444931
0.04059131070971489,0.004153833724558353,-0.02262764796614647,0.018905987963080406,-0.0009797039674594998,0.0328500010073185
0.041421424597501755,0.004533007740974426,-0.022909417748451233,0.018835555762052536,-0.000966348685324192,0.03256919980049133
0.04247201606631279,0.00416838563978672,-0.022524135187268257,0.018603583797812462,-0.0008854253101162612,0.03255285695195198
0.04030141606926918,0.004350055940449238,-0.02234722673892975,0.0186932235956192,-0.0008826418197713792,0.032712385058403015
0.04039386659860611,0.004307042807340622,-0.02301781252026558,0.018314452841877937,-0.0008344281231984496,0.032659370452165604
0.04098666459321976,0.004470201209187508,-0.023561149835586548,0.019089173525571823,-0.0007907167891971767,0.032882075756788254
0.04174802824854851,0.004275239538401365,-0.023036520928144455,0.01935645192861557,-0.0007216135272756219,0.0332493856549263
0.043009690940380096,0.004141137003898621,-0.02244071289896965,0.018644165247678757,-0.0007177190273068845,0.033395178616046906
0.04142704978585243,0.004005677532404661,-0.02250479720532894,0.018907122313976288,-0.0006581109482795,0.032204270362854004
0.0404914915561676,0.004321826156228781,-0.022695206105709076,0.018558094277977943,-0.0007260980200953782,0.03389240801334381
0.04209762066602707,0.004548456985503435,-0.022764364257454872,0.018380900844931602,-0.0008311872370541096,0.03386995941400528
0.042662836611270905,0.004769443068653345,-0.022951768711209297,0.018992925062775612,-0.0008889486780390143,0.03444822132587433
0.04233973100781441,0.004495711997151375,-0.022782623767852783,0.01961863599717617,-0.0008938790997490287,0.03496997058391571
0.04247631877660751,0.004467133432626724,-0.022886142134666443,0.01944294385612011,-0.0008375950274057686,0.033970676362514496
0.04185247793793678,0.004456398077309132,-0.022726722061634064,0.01935945823788643,-0.0008410922018811107,0.032804183661937714
0.042721766978502274,0.004044799599796534,-0.02287651039659977,0.01951409876346588,-0.0008756430470384657,0.033181652426719666
0.042389046400785446,0.004368901252746582,-0.022761506959795952,0.019367044791579247,-0.0008907310548238456,0.033852800726890564
0.04256902262568474,0.004661052953451872,-0.023054566234350204,0.01934199593961239,-0.000892648589797318,0.03407149761915207
0.04180367663502693,0.004357120022177696,-0.02273116074502468,0.019329722970724106,-0.0008935124496929348,0.03497498482465744
0.04180367663502693,0.004357120022177696,-0.02273116074502468,0.019329722970724106,-0.0008935124496929348,0.03497498482465744
0.042480021715164185,0.004228230565786362,-0.022608889266848564,0.01873174123466015,-0.0010207932209596038,0.03465859219431877
