davideferrari95/blind_handover_controller/data/Test 230 - [2024-02-08 -- 12-28-02]/joint_states_data.csv
shoulder_pan_joint,shoulder_lift_joint,elbow_joint,wrist_1_joint,wrist_2_joint,wrist_3_joint
0.007207770366221666,0.007710330653935671,-0.010309849865734577,0.003862113691866398,-0.0,0.006992369424551725
0.0067404890432953835,0.00796765647828579,-0.010784979909658432,0.0037372105289250612,-0.0,0.006927774753421545
0.0067404890432953835,0.00796765647828579,-0.010784979909658432,0.0037372105289250612,-0.0,0.006927774753421545
0.007361707277595997,0.007435210980474949,-0.010573063977062702,0.003623934928327799,-0.0,0.007254330907016993
0.007412891369313002,0.007465681992471218,-0.010261381044983864,0.0036847225856035948,-0.0,0.0073760016821324825
0.00684207072481513,0.00873560644686222,-0.01067375112324953,0.0037404026370495558,-0.0,0.0076042660512030125
0.006675691343843937,0.00836555752903223,-0.010764818638563156,0.0034901099279522896,-0.0,0.007245851680636406
0.007175687700510025,0.007595687638968229,-0.010136212222278118,0.0034295700024813414,-0.0,0.007175407372415066
0.007175687700510025,0.007595687638968229,-0.010136212222278118,0.0034295700024813414,-0.0,0.007175407372415066
0.00735733425244689,0.007747147232294083,-0.010838638059794903,0.0035562857519835234,-0.0,0.007413838990032673
0.007097206544131041,0.008021311834454536,-0.010213441215455532,0.0036331049632281065,-0.0,0.007035429589450359
0.007051706314086914,0.007991362363100052,-0.010052894242107868,0.003547338070347905,-0.0,0.006554799620062113
0.007075412664562464,0.007581042125821114,-0.01061207801103592,0.003362624440342188,-0.0,0.006619543302804232
0.007353867404162884,0.008073251694440842,-0.010534622706472874,0.0033426773734390736,-0.0,0.006763467565178871
0.007563710678368807,0.008739623241126537,-0.010847372934222221,0.003195558674633503,-0.0,0.007250658236443996
0.006669325288385153,0.007892122492194176,-0.010664781555533409,0.0034133230801671743,-0.0,0.006962105631828308
0.007067979779094458,0.008750030770897865,-0.010970662347972393,0.0035313402768224478,-0.0,0.006955966353416443
0.006906392518430948,0.007990089245140553,-0.010760877281427383,0.003378242254257202,-0.0,0.007326735649257898
0.006519774440675974,0.007635604124516249,-0.010496743954718113,0.0032543051056563854,-0.0,0.007308383006602526
0.006266881711781025,0.007421599701046944,-0.010890351608395576,0.0031532333232462406,-0.0,0.0073478687554597855
0.006650071125477552,0.007921888493001461,-0.010367058217525482,0.003407514886930585,-0.0,0.007461193948984146
0.006874719634652138,0.008014894090592861,-0.010703875683248043,0.003682014998048544,-0.0,0.007611012551933527
0.006470152642577887,0.007570326793938875,-0.010825077071785927,0.0035353568382561207,-0.0,0.007493312004953623
0.006262871902436018,0.008991110138595104,-0.010001684539020061,0.0035086115822196007,-0.0,0.006766080856323242
0.006742662750184536,0.007747651543468237,-0.010599366389214993,0.0036698884796351194,-0.0,0.006670851726084948
0.006700893398374319,0.007942099124193192,-0.01076433900743723,0.0038945951964706182,-0.0,0.00710274325683713
0.0068461098708212376,0.008282695896923542,-0.011025001294910908,0.0039163073524832726,-0.0,0.007257448509335518
0.006666647270321846,0.00853942520916462,-0.011667469516396523,0.0037943827919662,-0.0,0.006880377884954214
0.006279236637055874,0.008144184947013855,-0.010456644929945469,0.0033812879119068384,-0.0,0.006831672973930836
0.006953451782464981,0.007942777127027512,-0.009960290975868702,0.0034488504752516747,-0.0,0.0071731857024133205
0.0072400555945932865,0.008154614828526974,-0.010873676277697086,0.003625270212069154,-0.0,0.0075167203322052956
0.006680850870907307,0.0084530645981431,-0.010349366813898087,0.003689427860081196,-0.0,0.007018981501460075
0.006870832294225693,0.008197827264666557,-0.010184050537645817,0.003675870131701231,-0.0,0.006807276047766209
0.007685516960918903,0.008117333054542542,-0.010780692100524902,0.0037126352544873953,-0.0,0.00673285685479641
0.007013145834207535,0.008723556064069271,-0.01053046714514494,0.0037602623924613,-0.0,0.007360072340816259
0.007362139876931906,0.00859336368739605,-0.011335226707160473,0.0037673446349799633,-0.0,0.007225015200674534
0.007362139876931906,0.00859336368739605,-0.011335226707160473,0.0037673446349799633,-0.0,0.007225015200674534
0.007613705471158028,0.007995535619556904,-0.01048523373901844,0.003706635907292366,-0.0,0.007196058053523302
0.006934845354408026,0.008217395283281803,-0.01012883335351944,0.0033629813697189093,-0.0,0.006913408171385527
0.007250103633850813,0.008780690841376781,-0.010946722701191902,0.0031577537301927805,-0.0,0.007252537179738283
0.0072129457257688046,0.008460283279418945,-0.010600954294204712,0.0030066845938563347,-0.0,0.007060086354613304
0.006764626130461693,0.00776414480060339,-0.010303392075002193,0.002779394621029496,-0.0,0.00746035436168313
0.0068924445658922195,0.008737409487366676,-0.011004353873431683,0.00298882438801229,-0.0,0.007101975381374359
0.0068924445658922195,0.008737409487366676,-0.011004353873431683,0.00298882438801229,-0.0,0.007101975381374359
0.006548476871103048,0.008179761469364166,-0.010486303828656673,0.0036222198978066444,-0.0,0.0068032811395823956
0.006357281468808651,0.008769654668867588,-0.010358136147260666,0.003493676194921136,-0.0,0.006893398240208626
0.006921425461769104,0.008532088249921799,-0.011444978415966034,0.0034043160267174244,-0.0,0.007152458652853966
0.0069994619116187096,0.00775575777515769,-0.010950962081551552,0.0031771131325513124,-0.0,0.007054624613374472
0.006876710802316666,0.008238318376243114,-0.010398225858807564,0.0032804408110678196,-0.0,0.007131386082619429
0.006689891219139099,0.00843733362853527,-0.010887084528803825,0.0033209258690476418,-0.0,0.006672296207398176
0.006852653808891773,0.008675037883222103,-0.010725467465817928,0.003122922731563449,-0.0,0.006536777596920729
0.007074524648487568,0.008103709667921066,-0.010814246721565723,0.0032051701564341784,-0.0,0.006901707965880632
0.006739411037415266,0.008640981279313564,-0.010683161206543446,0.0034578791819512844,-0.0,0.006646620109677315
0.006725390441715717,0.007842493243515491,-0.010649234987795353,0.0034194444306194782,-0.0,0.007027599960565567
0.007170750293880701,0.00803038477897644,-0.01149038877338171,0.00308992899954319,-0.0,0.0066259936429560184
0.007417701184749603,0.007955935783684254,-0.010572101920843124,0.002971211215481162,-0.0,0.006705888547003269
0.006998781114816666,0.008198627270758152,-0.010323303751647472,0.002834612736478448,-0.0,0.006890709046274424
0.00656508794054389,0.007601497229188681,-0.010828525759279728,0.0030798378866165876,-0.0,0.00677327997982502
0.006685704458504915,0.0075156427919864655,-0.009477435611188412,0.0033435921650379896,-0.0,0.006871331483125687
0.007243328727781773,0.007586227264255285,-0.010787568055093288,0.0034088061656802893,-0.0,0.006513810250908136
0.007243328727781773,0.007586227264255285,-0.010787568055093288,0.0034088061656802893,-0.0,0.006513810250908136
0.0068175308406353,0.007796667516231537,-0.011385568417608738,0.0031272033229470253,-0.0,0.006521460600197315
0.006735604722052813,0.007435778621584177,-0.009977403096854687,0.0030588838271796703,-0.0,0.006312980316579342
0.00720878504216671,0.007367802318185568,-0.009974545799195766,0.0037012947723269463,-0.0,0.006214373279362917
0.007094318978488445,0.0075753522105515,-0.010739419609308243,0.003981592133641243,-0.0,0.006682338193058968
0.007288925815373659,0.00742567190900445,-0.010614455677568913,0.003422384150326252,-0.0,0.006798955611884594
0.00688651017844677,0.007270005531609058,-0.010324232280254364,0.0029541989788413048,-0.0,0.0069038597866892815
0.007194249425083399,0.007433031685650349,-0.010207848623394966,0.0027641102205961943,-0.0,0.00619128905236721
0.0069679818116128445,0.007137020118534565,-0.010112586431205273,0.0029569645412266254,-0.0,0.006343993823975325
0.0070059699937701225,0.007202408276498318,-0.010142883285880089,0.003470189403742552,-0.0,0.006559639237821102
0.006987291853874922,0.007547678425908089,-0.010601195506751537,0.0032882702071219683,-0.0,0.006453448440879583
0.007048389874398708,0.007991394959390163,-0.01134650781750679,0.0031939856708049774,-0.0,0.006415410432964563
0.007356338202953339,0.007658036425709724,-0.010323300026357174,0.0030787247233092785,-0.0,0.006375809200108051
0.007478422485291958,0.007002779748290777,-0.009492956101894379,0.0031858375295996666,-0.0,0.006980304140597582
0.007502302061766386,0.006845567375421524,-0.010320222936570644,0.003160670166835189,-0.0,0.00695212883874774
0.0070769814774394035,0.007376060821115971,-0.010163960978388786,0.0030162199400365353,-0.0,0.006371522322297096
0.007942062802612782,0.0077199568040668964,-0.009583129547536373,0.0030007686000317335,-0.0,0.0064709302969276905
0.007951255887746811,0.007075171452015638,-0.010244564153254032,0.003162520471960306,-0.0,0.006398647092282772
0.007122136652469635,0.006442544050514698,-0.010050192475318909,0.0031496051233261824,-0.0,0.006634099874645472
0.006821204908192158,0.006829603109508753,-0.010076241567730904,0.003546634456142783,-0.0,0.006708862725645304
0.007953534834086895,0.007432229351252317,-0.010194635950028896,0.0033429404720664024,-0.0,0.006502687465399504
0.007688199169933796,0.007193446159362793,-0.01032550074160099,0.0031980418134480715,-0.0,0.006285773124545813
0.007559723220765591,0.007131523918360472,-0.010009159334003925,0.0031324143055826426,-0.0,0.006069249473512173
0.007855141535401344,0.007340217474848032,-0.010051587596535683,0.003155049169436097,-0.0,0.006383694242686033
0.007254451978951693,0.0078115398064255714,-0.009613804519176483,0.003086917567998171,-0.0,0.006314130034297705
0.007254451978951693,0.0078115398064255714,-0.009613804519176483,0.003086917567998171,-0.0,0.006314130034297705
0.007049758452922106,0.007475210353732109,-0.010274232365190983,0.0029190678615123034,-0.0,0.005981228314340115
0.0071359435096383095,0.006889434065669775,-0.010287928394973278,0.00284172291867435,-0.0,0.006256591994315386
0.007301685865968466,0.007130203768610954,-0.009576431475579739,0.0029782825149595737,-0.0,0.00639489246532321
0.00750696612522006,0.007542243227362633,-0.009862364269793034,0.003145965514704585,-0.0,0.006346374284476042
0.008045411668717861,0.0072552538476884365,-0.009768636897206306,0.0032613067887723446,-0.0,0.006142642814666033
0.007744919043034315,0.007049112115055323,-0.009670672006905079,0.0033231042325496674,-0.0,0.006275353953242302
0.006927055772393942,0.007083437405526638,-0.010592126287519932,0.003205330576747656,-0.0,0.006260983645915985
0.007984932512044907,0.007080395240336657,-0.009234719909727573,0.0030116108246147633,-0.0,0.00658115791156888
0.0075452569872140884,0.0072089009918272495,-0.009370694868266582,0.0031026583164930344,-0.0,0.006513170897960663
0.007493849843740463,0.0075214034877717495,-0.009645629674196243,0.0030616249423474073,-0.0,0.006472494453191757
0.007463649846613407,0.007719742134213448,-0.009675269015133381,0.002992506604641676,-0.0,0.006482594646513462
0.008089013397693634,0.007501459214836359,-0.009623941965401173,0.002802994567900896,-0.0,0.006597923580557108
0.0077547417022287846,0.007402344606816769,-0.009530247189104557,0.002929327543824911,-0.0,0.005835823714733124
0.007685466669499874,0.007322709541767836,-0.009185714647173882,0.0034225760027766228,-0.0,0.005810136906802654
0.007760950829833746,0.00742303254082799,-0.009519609622657299,0.0032740177121013403,-0.0,0.005924302618950605
0.007783285342156887,0.007621442899107933,-0.009896904230117798,0.003085421398282051,-0.0,0.005697960965335369
0.007120417430996895,0.007432255893945694,-0.00947957206517458,0.002830245066434145,-0.0,0.006256551016122103
0.008001468144357204,0.007090561557561159,-0.009370319545269012,0.0028333314694464207,-0.0,0.006413352210074663
0.00784794520586729,0.007987899705767632,-0.009800328873097897,0.0029287172947078943,-0.0,0.00605744356289506
0.0076955826953053474,0.007571247406303883,-0.009503623470664024,0.002930592279881239,-0.0,0.006168345920741558
0.007349324878305197,0.00730205187574029,-0.009495354257524014,0.0029077441431581974,-0.0,0.005838555749505758
0.0072111268527805805,0.00728753674775362,-0.009972394444048405,0.003040583338588476,-0.0,0.006032733246684074
0.00796994473785162,0.007371590938419104,-0.009551438502967358,0.0031668234150856733,-0.0,0.006017065141350031
0.007828912697732449,0.007213903125375509,-0.009545889683067799,0.0031153953168541193,-0.0,0.005816212855279446
0.007365467958152294,0.0074376598931849,-0.010123257525265217,0.0034552302677184343,-0.0,0.005611353553831577
0.00714521948248148,0.007377897389233112,-0.009204278700053692,0.0032888068817555904,-0.0,0.005546878091990948
0.007608172949403524,0.0077979350462555885,-0.009419945999979973,0.003152756951749325,-0.0,0.005671351216733456
0.0074190362356603146,0.0074094380252063274,-0.0098886014893651,0.0030787705909460783,-0.0,0.005662495736032724
0.0074190362356603146,0.0074094380252063274,-0.0098886014893651,0.0030787705909460783,-0.0,0.005662495736032724
0.0069712381809949875,0.007325056940317154,-0.009532700292766094,0.0028468738310039043,-0.0,0.005471815355122089
0.0073111108504235744,0.007385967765003443,-0.009814225137233734,0.0027416725642979145,-0.0,0.005646679550409317
0.007906800135970116,0.00754549028351903,-0.009739969857037067,0.003088788129389286,-0.0,0.00542939780279994
0.00820815097540617,0.007294120267033577,-0.00924774818122387,0.0029315068386495113,-0.0,0.005562541075050831
0.008319953456521034,0.006903632078319788,-0.00991687923669815,0.0026371104177087545,-0.0,0.005969072692096233
0.008014661259949207,0.0073712486773729324,-0.009819314815104008,0.00261685810983181,-0.0,0.0059044985100626945
0.007831277325749397,0.0072473580949008465,-0.009107939898967743,0.0029413907323032618,-0.0,0.005961637478321791
0.007534470874816179,0.007273539900779724,-0.00990142673254013,0.003225733758881688,-0.0,0.005570060573518276
0.008046664297580719,0.007658231537789106,-0.009536145254969597,0.0030410143081098795,-0.0,0.005459390580654144
0.008407799527049065,0.007696572691202164,-0.00893790926784277,0.0029267657082527876,-0.0,0.005483856424689293
0.007920868694782257,0.007182431872934103,-0.010225029662251472,0.0028289619367569685,-0.0,0.005401439964771271
0.007774815894663334,0.006847606040537357,-0.009634754620492458,0.0028838508296757936,-0.0,0.005600939970463514
0.007688306272029877,0.007075800094753504,-0.009256266988813877,0.0029808678664267063,-0.0,0.005484611727297306
0.008217410184442997,0.0074254670180380344,-0.009619394317269325,0.0027888906188309193,-0.0,0.005997577682137489
0.0077025205828249454,0.007053529843688011,-0.009642191231250763,0.003108008299022913,-0.0,0.005697375629097223
0.008049000054597855,0.0070534199476242065,-0.010117266327142715,0.003045595483854413,-0.0,0.005164794623851776
0.008091401308774948,0.007162855006754398,-0.010027064941823483,0.0034570652060210705,-0.0,0.004928623326122761
0.007771712727844715,0.007136987522244453,-0.00967523455619812,0.0035857893526554108,-0.0,0.005543403327465057
0.007593485526740551,0.0072494554333388805,-0.009435804560780525,0.003520249156281352,-0.0,0.005466245114803314
0.008867179043591022,0.007402749732136726,-0.0104566914960742,0.003382681868970394,-0.0,0.005496347788721323
0.008234614506363869,0.007432719226926565,-0.010067293420433998,0.003155688289552927,-0.0,0.0055358256213366985
0.007930105552077293,0.007537605706602335,-0.009878953918814659,0.00295923906378448,-0.0,0.005123707465827465
0.007575055118650198,0.007532954216003418,-0.01051779929548502,0.0030715365428477526,-0.0,0.005210231523960829
0.00811128318309784,0.007040190044790506,-0.01065217424184084,0.002916439436376095,-0.0,0.0054932874627411366
0.008712133392691612,0.007222904823720455,-0.009997486136853695,0.0032074504997581244,-0.0,0.00550695788115263
0.008712133392691612,0.007222904823720455,-0.009997486136853695,0.0032074504997581244,-0.0,0.00550695788115263
0.00832546316087246,0.007588291075080633,-0.010882705450057983,0.0033398903906345367,-0.0,0.005339954048395157
0.008386289700865746,0.0074792527593672276,-0.010473979637026787,0.0035728015936911106,-0.0,0.004973504226654768
0.008418504148721695,0.00741732819005847,-0.009789724834263325,0.003397143678739667,-0.0,0.0052690664306283
0.008355432190001011,0.006975502707064152,-0.010215110145509243,0.0029240362346172333,-0.0,0.005380052141845226
0.008194576017558575,0.007307141087949276,-0.009733435697853565,0.002766258083283901,-0.0,0.0053258310072124004
0.008382036350667477,0.0073353443294763565,-0.01022251881659031,0.002764918375760317,-0.0,0.005298266187310219
0.008758650161325932,0.007406356744468212,-0.010611786507070065,0.0028984039090573788,-0.0,0.005459967069327831
0.0090097114443779,0.006978717632591724,-0.01047234982252121,0.003291971515864134,-0.0,0.004967006854712963
0.008577592670917511,0.007234930992126465,-0.010137125849723816,0.003423326415941119,-0.0,0.005082559306174517
0.008509164676070213,0.006639259401708841,-0.010095339268445969,0.00361579074524343,-0.0,0.005127763841301203
0.00913750659674406,0.006607418414205313,-0.010357704944908619,0.003409934462979436,-0.0,0.005621972028166056
0.00883690919727087,0.007211913354694843,-0.010203688405454159,0.0032724880147725344,-0.0,0.0051779369823634624
0.008807865902781487,0.0076859877444803715,-0.01028068270534277,0.0032185562886297703,-0.0,0.004543451592326164
0.009067914448678493,0.0070258136838674545,-0.009414143860340118,0.003505044849589467,-0.0,0.004539591260254383
0.009025373496115208,0.006583960726857185,-0.010265138000249863,0.003368984442204237,-0.0,0.004984158556908369
0.008868812583386898,0.006807386875152588,-0.010265062563121319,0.0031457804143428802,-0.0,0.005010987166315317
0.008601168170571327,0.00749932648614049,-0.010532074607908726,0.0033112717792391777,-0.0,0.005247024819254875
0.00864056870341301,0.007391242776066065,-0.010051519609987736,0.0030948175117373466,-0.0,0.0053894189186394215
0.008821693249046803,0.007169329095631838,-0.010374383069574833,0.0033085939940065145,-0.0,0.004780719522386789
0.00866663921624422,0.006942266132682562,-0.011215806938707829,0.0035497588105499744,-0.0,0.004627021495252848
0.008555987849831581,0.0073798405937850475,-0.010323689319193363,0.0034607418347150087,-0.0,0.004934254568070173
0.009041056036949158,0.007542876992374659,-0.010148243978619576,0.00353028392419219,-0.0,0.00499334093183279
0.008790683001279831,0.007438809610903263,-0.010258015245199203,0.003270263783633709,-0.0,0.005042367149144411
0.008652913384139538,0.006929632276296616,-0.00984057318419218,0.0034955686423927546,-0.0,0.004798728507012129
0.009325236082077026,0.007371352985501289,-0.009838888421654701,0.0032561132684350014,-0.0,0.004633404780179262
0.009752294048666954,0.007239956874400377,-0.009989481419324875,0.0030046277679502964,-0.0,0.004860082641243935
0.00878856424242258,0.007054795045405626,-0.009700641967356205,0.002999690594151616,-0.0,0.004654780961573124
0.009211640805006027,0.007017761934548616,-0.010550441220402718,0.003282460616901517,-0.0,0.004820216912776232
0.009211640805006027,0.007017761934548616,-0.010550441220402718,0.003282460616901517,-0.0,0.004820216912776232
0.008936014957726002,0.007126141805201769,-0.010250086896121502,0.0037027308717370033,-0.0,0.004797218833118677
0.00886797346174717,0.007241348270326853,-0.009563575498759747,0.0037111255805939436,-0.0,0.004444641526788473
0.009089699015021324,0.007406648248434067,-0.010028636083006859,0.0035340667236596346,-0.0,0.004031800664961338
0.009277389384806156,0.007008475251495838,-0.010613762773573399,0.003592662513256073,-0.0,0.004154922906309366
0.00925337802618742,0.007963119074702263,-0.009266062639653683,0.003374415449798107,-0.0,0.004244167357683182
0.009176850318908691,0.007900724187493324,-0.009754526428878307,0.0034500532783567905,-0.0,0.00445957388728857
0.009919905103743076,0.007094244938343763,-0.009845270775258541,0.0033565519843250513,-0.0,0.004652217496186495
0.009027650579810143,0.007528307382017374,-0.010077208280563354,0.003358282847329974,-0.0,0.004534537438303232
0.009458337910473347,0.006932900287210941,-0.009993799030780792,0.0035190198104828596,-0.0,0.004163701552897692
0.00958236213773489,0.006765463389456272,-0.009692057967185974,0.00367795885540545,-0.0,0.004264881834387779
0.009775262326002121,0.00674973102286458,-0.010498866438865662,0.0035368315875530243,-0.0,0.004679791629314423
0.009336384944617748,0.007130854297429323,-0.010128344409167767,0.003511162707582116,-0.0,0.004848522134125233
0.009058712981641293,0.007347429636865854,-0.00963668618351221,0.003251316025853157,-0.0,0.004309394862502813
0.008883802220225334,0.007081276271492243,-0.01048059482127428,0.0034587436821311712,-0.0,0.00441041961312294
0.00949811190366745,0.0070564583875238895,-0.00983433797955513,0.003291123080998659,-0.0,0.0043456703424453735
0.010470552369952202,0.007413198240101337,-0.009452917613089085,0.0035271337255835533,-0.0,0.004246216733008623
0.009057712741196156,0.00723001966252923,-0.010295008309185505,0.003697500331327319,-0.0,0.0044520143419504166
0.010008576326072216,0.006970926653593779,-0.010203687474131584,0.003757759463042021,-0.0,0.0041052475571632385
0.009405971504747868,0.006902685388922691,-0.009593700058758259,0.0033900656271725893,-0.0,0.004302241839468479
0.009570105001330376,0.007343946024775505,-0.010295728221535683,0.0033405565191060305,-0.0,0.004432119429111481
0.010614731349050999,0.007542907726019621,-0.010224391706287861,0.0033695916645228863,-0.0,0.004452533088624477
0.010007201693952084,0.007441600318998098,-0.00990043394267559,0.003477606223896146,-0.0,0.004103772342205048
0.009268834255635738,0.006833124905824661,-0.010742236860096455,0.003646316472440958,-0.0,0.003875134279951453
0.010443750768899918,0.006798962596803904,-0.009933889843523502,0.003765691537410021,-0.0,0.0037733931094408035
0.010112152434885502,0.00692389439791441,-0.009785784408450127,0.004051552154123783,-0.0,0.0039755841717123985
0.0092899389564991,0.00679120933637023,-0.010427337139844894,0.003966558258980513,-0.0,0.004168182145804167
0.01041330210864544,0.007025702390819788,-0.009947066195309162,0.003562747733667493,-0.0,0.004438610747456551
0.01041330210864544,0.007025702390819788,-0.009947066195309162,0.003562747733667493,-0.0,0.004438610747456551
0.01016255933791399,0.006344564259052277,-0.009902305901050568,0.0035571546759456396,-0.0,0.004559024702757597
0.009379775263369083,0.006667690817266703,-0.010598930530250072,0.0036619589664041996,-0.0,0.0043560522608459
0.00961761549115181,0.006925010588020086,-0.010002908296883106,0.003966770134866238,-0.0,0.0037931627593934536
0.010135460644960403,0.006655912380665541,-0.010180533863604069,0.0039586713537573814,-0.0,0.003491987008601427
0.009602990001440048,0.006454158574342728,-0.010127587243914604,0.003771354677155614,-0.0,0.0035976592916995287
0.010432480834424496,0.0062372200191020966,-0.009773416444659233,0.003736209124326706,-0.0,0.0033118193969130516
0.010571690276265144,0.0066760508343577385,-0.009676842018961906,0.0036383590195327997,-0.0,0.004123547114431858
0.010571690276265144,0.0066760508343577385,-0.009676842018961906,0.0036383590195327997,-0.0,0.004123547114431858
0.010189825668931007,0.006723805330693722,-0.010471992194652557,0.0036292283330112696,-0.0,0.004381706938147545
0.00958425085991621,0.007339077536016703,-0.009922076016664505,0.003781824605539441,-0.0,0.0036702037323266268
0.010246556252241135,0.007071219850331545,-0.00990322232246399,0.0034520006738603115,-0.0,0.0035710420925170183
0.01001136377453804,0.006413605529814959,-0.010666104033589363,0.003550174878910184,-0.0,0.003742433385923505
0.009631399996578693,0.006548033095896244,-0.009918441995978355,0.0037588884588330984,-0.0,0.0033853668719530106
0.010059996508061886,0.006815773434937,-0.010748615488409996,0.004101522732526064,-0.0,0.0033868520986288786
0.010505827143788338,0.00719304708763957,-0.010480294935405254,0.004271651618182659,-0.0,0.0033205081708729267
0.009574847295880318,0.006316076498478651,-0.01026520412415266,0.0040398589335381985,-0.0,0.0035101131070405245
0.009954353794455528,0.006403771229088306,-0.009715390391647816,0.003775313263759017,-0.0,0.003719310276210308
0.010177409276366234,0.006346680223941803,-0.010231923311948776,0.0037398268468677998,-0.0,0.0037405528128147125
0.01043956819921732,0.007157592568546534,-0.010163739323616028,0.003846363862976432,-0.0,0.003330955980345607
0.010023537091910839,0.00690241064876318,-0.01062560360878706,0.003924304153770208,-0.0,0.0027813974302262068
0.010133452713489532,0.006287864409387112,-0.010836651548743248,0.004183335695415735,-0.0,0.002777453977614641
0.010158972814679146,0.006094276439398527,-0.010061854496598244,0.004625626839697361,-0.0,0.0030856109224259853
0.010557956993579865,0.006244909483939409,-0.010695305652916431,0.004770015366375446,-0.0,0.00314845098182559
0.010336266830563545,0.007069477811455727,-0.01078029628843069,0.0048849694430828094,-0.0,0.0034779042471200228
0.009778695181012154,0.006351897493004799,-0.009999020025134087,0.004395113326609135,-0.0,0.00328063010238111
0.010063987225294113,0.005764614790678024,-0.01056577917188406,0.004218732472509146,-0.0,0.00341052352450788
0.010063987225294113,0.005764614790678024,-0.01056577917188406,0.004218732472509146,-0.0,0.00341052352450788
0.010154283605515957,0.005791571456938982,-0.01002738531678915,0.004044876433908939,-0.0,0.0030923986341804266
0.010033183731138706,0.006169522646814585,-0.009736987762153149,0.004400728270411491,-0.0,0.00307543040253222
0.010714646428823471,0.006186651065945625,-0.010643809102475643,0.004266509786248207,-0.0,0.0029868828132748604
0.010019979439675808,0.006035833619534969,-0.010398291982710361,0.003967862110584974,-0.0,0.0029337271116673946
0.009910976514220238,0.006041166838258505,-0.010318746790289879,0.004301176406443119,-0.0,0.002923574298620224
0.010588872246444225,0.006263319868594408,-0.010892844758927822,0.004167919512838125,-0.0,0.002997246803715825
0.010013098828494549,0.006337553728371859,-0.01067344844341278,0.004163919948041439,-0.0,0.0028749704360961914
0.01119487825781107,0.005993411876261234,-0.010550567880272865,0.004116036929190159,-0.0,0.002755862893536687
0.010066306218504906,0.005865165498107672,-0.010574483312666416,0.004394262097775936,-0.0,0.002852553268894553
0.010061643086373806,0.006118820980191231,-0.011438562534749508,0.004537536762654781,-0.0,0.002873563440516591
0.010281149297952652,0.006596092600375414,-0.011031915433704853,0.004479813855141401,-0.0,0.0028129664715379477
0.010289736092090607,0.0059036267921328545,-0.010742072947323322,0.0043706139549613,-0.0,0.002694880124181509
0.010209864936769009,0.005782815627753735,-0.011232742108404636,0.004077085293829441,-0.0,0.0028398369904607534
0.010099276900291443,0.006127646658569574,-0.01089114136993885,0.0045424578711390495,-0.0,0.0029496238566935062
0.010099276900291443,0.006127646658569574,-0.01089114136993885,0.0045424578711390495,-0.0,0.0029496238566935062
0.01020290981978178,0.006628480274230242,-0.011076828464865685,0.004743746016174555,-0.0,0.00282044755294919
0.010602300986647606,0.0061945244669914246,-0.010937209241092205,0.004705111961811781,-0.0,0.0028084502555429935
0.009326419793069363,0.0063036666251719,-0.011514413170516491,0.004658056423068047,-0.0,0.0026473922189325094
0.010098698548972607,0.006441796664148569,-0.011765788309276104,0.004339712671935558,-0.0,0.002396050840616226
0.01007146667689085,0.006008318159729242,-0.011358870193362236,0.0039876471273601055,-0.0,0.002137568546459079
0.010841578245162964,0.006365508306771517,-0.011587031185626984,0.003816655371338129,-0.0,0.002100760117173195
0.010080349631607533,0.006512356922030449,-0.010741974227130413,0.0042683822102844715,-0.0,0.0023018831852823496
0.009686085395514965,0.0061131250113248825,-0.011916578747332096,0.004716700408607721,-0.0,0.0026584179140627384
0.010211247019469738,0.006225924473255873,-0.011463071219623089,0.004771598614752293,-0.0,0.0027006540913134813
0.00990577694028616,0.005793822929263115,-0.011044441722333431,0.0046916017308831215,-0.0,0.0025843647308647633
0.009997486136853695,0.006226885598152876,-0.011595037765800953,0.005073986016213894,-0.0,0.0022076431196182966
0.009893885813653469,0.006013472098857164,-0.011143693700432777,0.004875226877629757,-0.0,0.002061312785372138
0.010446490719914436,0.005682507995516062,-0.011140021495521069,0.004909088835120201,-0.0,0.001930632977746427
0.010446490719914436,0.005682507995516062,-0.011140021495521069,0.004909088835120201,-0.0,0.001930632977746427
0.009717642329633236,0.006161181256175041,-0.01223335787653923,0.004910831339657307,-0.0,0.0018680884968489408
0.009502964094281197,0.006483240984380245,-0.011346588842570782,0.004802054259926081,-0.0,0.0017715682042762637
0.01054584514349699,0.006221299525350332,-0.01127647515386343,0.00476918974891305,-0.0,0.0019327756017446518
0.009840397164225578,0.006238425616174936,-0.010954808443784714,0.004794986918568611,-0.0,0.0019603159744292498
0.009777482599020004,0.006284879054874182,-0.010888081975281239,0.004366832319647074,-0.0,0.0022068738471716642
0.010287091135978699,0.005768361501395702,-0.011487219482660294,0.004433857277035713,-0.0,0.0022016987204551697
0.010056923143565655,0.0063856118358671665,-0.011162908747792244,0.004906138405203819,-0.0,0.0021234212908893824
0.010183755308389664,0.005909111350774765,-0.011708767153322697,0.004870190285146236,-0.0,0.0019383985782042146
0.009625614620745182,0.006224546115845442,-0.010959921404719353,0.004900832194834948,-0.0,0.002116425195708871
0.010829982347786427,0.006155503913760185,-0.011886653490364552,0.005167139694094658,-0.0,0.00219234568066895
0.010258917696774006,0.00649251276627183,-0.010640294291079044,0.0049320971593260765,-0.0,0.002387664746493101
0.009492230601608753,0.0063193244859576225,-0.009543031454086304,0.005015001632273197,-0.0,0.002147216349840164
0.010198238305747509,0.006009336560964584,-0.012154492549598217,0.004719841759651899,-0.0,0.0020436143968254328
0.01004547905176878,0.006128116510808468,-0.011190077289938927,0.004617487080395222,-0.0,0.0018614181317389011
0.009816126897931099,0.006341231521219015,-0.01112447865307331,0.0043947394005954266,-0.0,0.0016609906451776624
0.010110894218087196,0.0072142877615988255,-0.011013584211468697,0.005050879903137684,-0.0,0.0015980734024196863
0.010331663303077221,0.0063225687481462955,-0.010513721965253353,0.005079032853245735,-0.0,0.0014305260265246034
0.009843886829912663,0.005665909498929977,-0.01106241438537836,0.004960689228028059,-0.0,0.0014430969022214413
0.010214606299996376,0.005599763710051775,-0.010763228870928288,0.005001803394407034,-0.0,0.0014390278374776244
0.009687731973826885,0.00632063252851367,-0.0113513870164752,0.004828181583434343,-0.0,0.0018424789886921644
0.010301917791366577,0.006665545981377363,-0.011500607244670391,0.004841585177928209,-0.0,0.0017551756463944912
0.010151378810405731,0.0061052702367305756,-0.010474829003214836,0.005295859649777412,-0.0,0.0017903597326949239
0.009918591938912868,0.005688659846782684,-0.010905293747782707,0.00579268392175436,-0.0,0.0017353201983496547
0.009858446195721626,0.0056979660876095295,-0.0103650176897645,0.005693067796528339,-0.0,0.0015593073330819607
0.01100953109562397,0.006314093712717295,-0.010803952813148499,0.005787242203950882,-0.0,0.0015907154884189367
0.010501513257622719,0.006941956002265215,-0.011506663635373116,0.0053358240984380245,-0.0,0.0014836590271443129
0.009808475151658058,0.0061217984184622765,-0.011144045740365982,0.005304844118654728,-0.0,0.00153117545414716
0.009808475151658058,0.0061217984184622765,-0.011144045740365982,0.005304844118654728,-0.0,0.00153117545414716
0.01013666670769453,0.005870644468814135,-0.011481482535600662,0.005117951426655054,-0.0,0.0014351665740832686
0.010139658115804195,0.0059175798669457436,-0.011292419396340847,0.00554662523791194,-0.0,0.0014718642923980951
0.009863433428108692,0.0059907520189881325,-0.01062795426696539,0.005392762832343578,-0.0,0.0016136766644194722
0.012016283348202705,0.006332931574434042,-0.011289596557617188,0.005636366084218025,-0.0,0.0015568904345855117
0.011462691240012646,0.0065434095449745655,-0.011112991720438004,0.005352160893380642,-3.6490821457846323e-06,0.0016490657581016421
0.0114910202100873,0.005820936989039183,-0.011725256219506264,0.0046205720864236355,-1.5556608445876918e-08,0.0014070587931200862
0.011430388316512108,0.006435791961848736,-0.011354946531355381,0.004669223912060261,-1.0157354957129883e-09,0.0011325855739414692
0.011844536289572716,0.006474170368164778,-0.011610743589699268,0.00511212320998311,-6.632026178232664e-11,0.0010745016625151038
0.01142910961061716,0.0061791520565748215,-0.011330800130963326,0.0056369127705693245,-4.3302392921384936e-12,0.0010335645638406277
0.012061563320457935,0.00558939203619957,-0.01216342393308878,0.0053590452298521996,-2.827336888916454e-13,0.0010135003831237555
0.010817904025316238,0.005706827621906996,-0.011614861898124218,0.0049393437802791595,-1.8460491856410292e-14,0.0009181767236441374
0.012534397654235363,0.00626267958432436,-0.010981300845742226,0.005253312643617392,-1.2053381542173548e-15,0.0009128250530920923
0.012742934748530388,0.006450366694480181,-0.011875712312757969,0.0053520179353654385,-7.869996856409988e-17,0.000910620263312012
0.011687949299812317,0.006044070702046156,-0.011818116530776024,0.0059737213887274265,-5.138545226852914e-18,0.0009091274696402252
0.012128891423344612,0.006021217908710241,-0.011904743500053883,0.0055621531791985035,-3.355102984145842e-19,0.0009464959148317575
0.012270506471395493,0.005598047748208046,-0.011219107545912266,0.005370846018195152,-2.19064228794593e-20,0.0009414817905053496
0.012146742083132267,0.00631347019225359,-0.010882029309868813,0.005643711891025305,-1.4303328059589575e-21,0.0009174537262879312
0.012249574065208435,0.006683873012661934,-0.011869078502058983,0.005608285777270794,-9.33905099549399e-23,0.0008278567111119628
0.0118740014731884,0.005834701005369425,-0.0116176912561059,0.005724203307181597,-6.097733080872851e-24,0.0008232906111516058
0.01224195584654808,0.005782564170658588,-0.011560660786926746,0.005472166929394007,-3.981384439916907e-25,0.0007765050977468491
0.012089340947568417,0.005789556540548801,-0.011670089326798916,0.005122120957821608,-2.599559533622044e-26,0.0007569596637040377
0.012298697605729103,0.0062968241982162,-0.011222961358726025,0.0052365465089678764,-1.6973266822203375e-27,0.0007163225673139095
0.012168098241090775,0.006390954367816448,-0.011781095527112484,0.005568244028836489,-1.1082329327032646e-28,0.0007267639157362282
0.01238841563463211,0.0059166657738387585,-0.011434375308454037,0.005356652196496725,-7.235969322418892e-30,0.0006627722177654505
0.012259667739272118,0.005642347503453493,-0.011652459390461445,0.005387031007558107,-4.724570874909695e-31,0.0006631059804931283
0.011994958855211735,0.00564640061929822,-0.011882930994033813,0.00574587844312191,-3.084807213192712e-32,0.0006249097059480846
0.012695609591901302,0.006363753695040941,-0.011457047425210476,0.005667189601808786,-2.0141585095981258e-33,0.0006005889154039323
0.012251384556293488,0.006937584839761257,-0.011751304380595684,0.005599008873105049,-1.315101638932334e-34,0.0005557245458476245
0.01263878121972084,0.006062271073460579,-0.011338026262819767,0.005402321461588144,-8.586674135562836e-36,0.0004962684470228851
0.01263878121972084,0.006062271073460579,-0.011338026262819767,0.005402321461588144,-8.586674135562836e-36,0.0004962684470228851
0.01231007557362318,0.005919774528592825,-0.01128796860575676,0.006013816688209772,-5.6064848455484815e-37,0.0005299391341395676
0.0122795095667243,0.005418989807367325,-0.01193584781140089,0.0061989882960915565,-3.660633838611763e-38,0.0004874761507380754
0.012761314399540424,0.005849776323884726,-0.011325603350996971,0.005644533783197403,-2.390131732167946e-39,0.000511700171045959
0.012257431633770466,0.00629448750987649,-0.011992908082902431,0.005766473710536957,-1.560584060764619e-40,0.0005147178308106959
0.01280673872679472,0.005609688349068165,-0.01184812467545271,0.005418525077402592,-1.0188841134105745e-41,0.0005108960322104394
0.012320701032876968,0.005856648553162813,-0.011252605356276035,0.005903005599975586,-0.00012651529686991125,0.0006082439213059843
0.012640443630516529,0.006287639494985342,-0.011381644755601883,0.005808942019939423,-0.0001357526343781501,0.0006234670872800052
0.012590906582772732,0.0058546168729662895,-0.01207276526838541,0.0054456740617752075,-0.00013184465933591127,0.0006323779816739261
0.01279139518737793,0.0057843090035021305,-0.01150584314018488,0.005707534030079842,-0.000128095896798186,0.000598645128775388
0.01229892484843731,0.005540019832551479,-0.011928204447031021,0.005487562622874975,-0.00014617473061662167,0.0005537996767088771
0.012513858266174793,0.005877638701349497,-0.011881373822689056,0.005919776391237974,-0.00014522024139296263,0.0005142943700775504
0.012621519155800343,0.006197086535394192,-0.011235801503062248,0.005804966203868389,-0.00014160669525153935,0.0004799906746484339
0.012800517491996288,0.006324046291410923,-0.012104473076760769,0.005714835599064827,-0.00015504701877944171,0.0004499764181673527
0.012570739723742008,0.006072747986763716,-0.012029613368213177,0.005662998184561729,-0.0001566003920743242,0.00042349647264927626
0.012781256809830666,0.0061964476481080055,-0.01207042671740055,0.006140532903373241,-0.00015314659685827792,0.00040702271508052945
0.01296849176287651,0.00587313249707222,-0.0120664918795228,0.00645579444244504,-0.0001495348260505125,0.0003801272832788527
0.012854942120611668,0.00628421176224947,-0.011426011100411415,0.006209527142345905,-0.00014606882177758962,0.000350947433616966
0.01322141569107771,0.005912713706493378,-0.01187819056212902,0.006226385943591595,-0.00016179053636733443,0.00032556941732764244
0.013093313202261925,0.005985433701425791,-0.011586000211536884,0.005838461220264435,-0.00015944865299388766,0.00030359209631569684
0.013214806094765663,0.006261032540351152,-0.012242710217833519,0.006052509415894747,-0.0001560732926009223,0.00028439422021619976
0.012832755222916603,0.006051378790289164,-0.01201645378023386,0.006158485077321529,-0.0001527671265648678,0.0002674807910807431
0.013253703713417053,0.006195410154759884,-0.012051515281200409,0.005589382257312536,-0.00014959349937271327,0.0002524674928281456
0.01300108339637518,0.006506328005343676,-0.012409418821334839,0.006222033407539129,-0.00022861234901938587,0.00023905043781269342
0.013202865608036518,0.006059428211301565,-0.011701090261340141,0.006749996915459633,-0.00022870715474709868,0.00022698860266245902
0.013202865608036518,0.006059428211301565,-0.011701090261340141,0.006749996915459633,-0.00022870715474709868,0.00022698860266245902
0.013142453506588936,0.005991547834128141,-0.012493412010371685,0.006474961061030626,-0.00020831156871281564,0.00020618191047105938
0.013443725183606148,0.0060149673372507095,-0.012672609649598598,0.0061936466954648495,-0.00023619463900104165,0.00016298354603350163
0.013443725183606148,0.0060149673372507095,-0.012672609649598598,0.0061936466954648495,-0.00023619463900104165,0.00016298354603350163
0.013670607469975948,0.006511533632874489,-0.012679710984230042,0.006068076007068157,-0.0002286126255057752,0.00015144003555178642
0.013552715070545673,0.006192189175635576,-0.01220628060400486,0.0059691984206438065,-0.00021947719505988061,0.00014503122656606138
0.01304520945996046,0.006453326437622309,-0.012874780222773552,0.00630727456882596,-0.00022710823395755142,0.00012937266728840768
0.01304520945996046,0.006453326437622309,-0.012874780222773552,0.00630727456882596,-0.00022710823395755142,0.00012937266728840768
0.013327598571777344,0.006361568346619606,-0.012044173665344715,0.006419477052986622,-0.00022018112940713763,0.00012488399806898087
0.013427406549453735,0.005776007194072008,-0.012973012402653694,0.006589418742805719,-0.00021280863438732922,0.00012069653166690841
0.01399260200560093,0.005658380687236786,-0.012719669379293919,0.006452332716435194,-0.00020585887250490487,0.00011678060400299728
0.013479544781148434,0.006077205296605825,-0.012492752633988857,0.006444273050874472,-0.00022590196749661118,8.673949196236208e-05
0.013879063539206982,0.006465532351285219,-0.012674612924456596,0.006366685498505831,-0.0002207088255090639,8.237326983362436e-05
0.013718195259571075,0.006160129327327013,-0.012416152283549309,0.006299078930169344,-0.0002142534649465233,7.982541137607768e-05
0.014252557419240475,0.006022532004863024,-0.012948588468134403,0.0066706277430057526,-0.00020822463557124138,7.752575038466603e-05
0.01366557739675045,0.006392158102244139,-0.01288615632802248,0.006637043785303831,-0.0002511896600481123,-5.189199509914033e-05
0.013685530051589012,0.00582387950271368,-0.01267393957823515,0.006296204868704081,-0.00024128986115101725,-6.737007788615301e-05
0.013574141077697277,0.006520006339997053,-0.012379752472043037,0.006038081366568804,-0.00022922857897356153,-6.603654037462547e-05
0.01409200020134449,0.006072562653571367,-0.012571395374834538,0.006186641287058592,-0.00021812897466588765,-8.736385643715039e-05
0.014079628512263298,0.005826552398502827,-0.012826909311115742,0.006760014221072197,-0.0002080421254504472,-9.184880036627874e-05
0.01398856658488512,0.00617111986503005,-0.01261527556926012,0.0067435665987432,-0.0002358997444389388,-8.929817704483867e-05
0.013987576588988304,0.005944633390754461,-0.013331263326108456,0.005999381188303232,-0.00022833967523183674,-0.00011147877376060933
0.013772333972156048,0.00611261697486043,-0.012425361201167107,0.0063054608181118965,-0.00021922537416685373,-0.00011146868200739846
0.013669310137629509,0.005812126211822033,-0.012975260615348816,0.006588260643184185,-0.0002106817701132968,-0.00010833876149263233
0.014244145713746548,0.005697910208255053,-0.012260467745363712,0.007246716413646936,-0.0002193187247030437,-0.0001280116121051833
0.014409463852643967,0.006127389147877693,-0.012444257736206055,0.006958499550819397,-0.0002268755342811346,-0.00012793861969839782
0.014279427006840706,0.005507578141987324,-0.011946231126785278,0.00637382548302412,-0.00021996347641106695,-0.0004031953285448253
0.01442302018404007,0.006056865677237511,-0.0121045783162117,0.00653658015653491,-0.0002126061008311808,-0.00047389697283506393
0.01442302018404007,0.006056865677237511,-0.0121045783162117,0.00653658015653491,-0.0002126061008311808,-0.00047389697283506393
0.014502352103590965,0.005804163403809071,-0.012749778106808662,0.00671484787017107,-0.0002056683588307351,-0.0005155907711014152
0.014888023026287556,0.005602072458714247,-0.011889072135090828,0.006589714903384447,-0.00019916669407393783,-0.0009386705933138728
0.014452148228883743,0.0053601861000061035,-0.012386132963001728,0.0071978191845119,-0.000218784756725654,-0.0010640642140060663
0.014426492154598236,0.005693141371011734,-0.011952567845582962,0.006834239233285189,-0.00021396034571807832,-0.0009057808201760054
0.014095818623900414,0.0058488608337938786,-0.012233582325279713,0.0064850132912397385,-0.00020789136760868132,-0.0007764319307170808
0.01418321579694748,0.006171043496578932,-0.012558333575725555,0.006492896471172571,-0.00020206416957080364,-0.0006786567391827703
0.014258776791393757,0.005640710704028606,-0.012449649162590504,0.006555698346346617,-0.00019654794596135616,-0.0006958125741221011
0.014646094292402267,0.0058343904092907906,-0.012811219319701195,0.006158466916531324,-0.00019132492889184505,-0.0007097257766872644
0.015232104808092117,0.005841128993779421,-0.011753695085644722,0.006333755794912577,-0.00018642724899109453,-0.000614187796600163
0.014649190939962864,0.006039137952029705,-0.012463252060115337,0.006957923993468285,-0.00018905787146650255,-0.0007444678922183812
0.014978121034801006,0.005823921877890825,-0.012659378349781036,0.006372357718646526,-0.00018150702817365527,-0.0013203296111896634
0.014795723371207714,0.006009304895997047,-0.012901917099952698,0.006280135829001665,-0.00019155582413077354,-0.0013524736277759075
0.014729308895766735,0.005824295803904533,-0.012142039835453033,0.006670680362731218,-0.0002003892295761034,-0.0011580411810427904
0.014887770637869835,0.005863094702363014,-0.012442381121218204,0.006832791492342949,-0.00019422339391894639,-0.001100285560823977
0.014810597524046898,0.006011940538883209,-0.01207018829882145,0.007233178708702326,-0.00018754512711893767,-0.000968252366874367
0.015009816735982895,0.005463957320898771,-0.012799611315131187,0.006746815051883459,-0.00019606245041359216,-0.0008029657183215022
0.014829758554697037,0.005742486100643873,-0.012227142229676247,0.006540489848703146,-0.0002035891084233299,-0.0007955132168717682
0.015187103301286697,0.005401074420660734,-0.012600740417838097,0.006850057281553745,-0.00019809367950074375,-0.0008720846381038427
0.01493985578417778,0.005773508455604315,-0.012621279805898666,0.0071144127286970615,-0.0001921110670082271,-0.001233888091519475
0.015181639231741428,0.006287704687565565,-0.012462496757507324,0.006903863046318293,-0.00018642960640136153,-0.0014910370809957385
0.01489059254527092,0.005827662535011768,-0.012749585323035717,0.007066291756927967,-0.0001810709945857525,-0.0021470433566719294
0.015511484816670418,0.005451838485896587,-0.01211769413203001,0.007585910148918629,-0.0001946404663613066,-0.0020967426244169474
0.01496993936598301,0.005637978203594685,-0.012355295941233635,0.007766991388052702,-0.00019526337564457208,-0.001990994205698371
0.015704652294516563,0.0061664339154958725,-0.011867162771522999,0.007773400750011206,-0.00019048291142098606,-0.0017258590087294579
0.015567664057016373,0.006054517813026905,-0.01271588820964098,0.007020675111562014,-0.0001855977752711624,-0.001532669528387487
0.015627508983016014,0.005556860938668251,-0.012686662375926971,0.00712175527587533,-0.00021576219296548516,-0.0011799127096310258
0.0152608472853899,0.005488508380949497,-0.012369915843009949,0.007308923173695803,-0.000237411426496692,-0.001216081902384758
0.015508863143622875,0.006186039187014103,-0.012358909472823143,0.007448412477970123,-0.00022756474209018052,-0.0016133239259943366
0.015755094587802887,0.0056215994991362095,-0.011987263336777687,0.007416099775582552,-0.0002542826405260712,-0.0019731740467250347
0.015761280432343483,0.005832555238157511,-0.012856535613536835,0.007451758719980717,-0.00024776722420938313,-0.0025886138901114464
0.015761280432343483,0.005832555238157511,-0.012856535613536835,0.007451758719980717,-0.00024776722420938313,-0.0025886138901114464
0.015241707675158978,0.005868163425475359,-0.012893354520201683,0.007315858732908964,-0.0002552436199039221,-0.0021544923074543476
0.015241707675158978,0.005868163425475359,-0.012893354520201683,0.007315858732908964,-0.0002552436199039221,-0.0021544923074543476
0.015692023560404778,0.005605840589851141,-0.012175272218883038,0.006957067176699638,-0.00025377696147188544,-0.0019317952683195472
0.015564564615488052,0.005691844038665295,-0.011980528943240643,0.007054222747683525,-0.0002445034042466432,-0.0017491194885224104
0.015982765704393387,0.005694243125617504,-0.01240663044154644,0.007264560554176569,-0.00023540318943560123,-0.0016258860705420375
0.015763767063617706,0.005707318428903818,-0.012199967168271542,0.007371815852820873,-0.00025714715593494475,-0.001892388449050486
0.01618264988064766,0.005547008942812681,-0.012273517437279224,0.0077854348346591,-0.00024208433751482517,-0.002494446700438857
0.01618264988064766,0.005547008942812681,-0.012273517437279224,0.0077854348346591,-0.00024208433751482517,-0.002494446700438857
0.016172997653484344,0.006000942084938288,-0.01237376406788826,0.008087812922894955,-0.00031626009149476886,-0.002963932463899255
0.015672890469431877,0.006380803417414427,-0.012611477635800838,0.0076173837296664715,-0.00033946719486266375,-0.0025975722819566727
0.016129884868860245,0.0055423881858587265,-0.013144873082637787,0.008081612177193165,-0.0003321929252706468,-0.0023626559413969517
0.015841715037822723,0.00540809566155076,-0.012787866406142712,0.007973706349730492,-0.00031377392588183284,-0.0023536232765764
0.016387397423386574,0.005639607552438974,-0.012915977276861668,0.008284077979624271,-0.0002965903840959072,-0.0023369002155959606
0.015810204669833183,0.006249237805604935,-0.012537588365375996,0.0079740509390831,-0.0003247775312047452,-0.002545536495745182
0.016120338812470436,0.0063806395046412945,-0.012945069931447506,0.008610149845480919,-0.000311557378154248,-0.002506920602172613
0.01625654101371765,0.005537295248359442,-0.012783631682395935,0.008133281953632832,-0.00033380466629751027,-0.0023496265057474375
0.016342727467417717,0.005945002194494009,-0.013085294514894485,0.007602198980748653,-0.0003238381468690932,-0.002256750827655196
0.016816966235637665,0.005513709969818592,-0.012643239460885525,0.007771480828523636,-0.0003116039442829788,-0.002749945968389511
0.016049755737185478,0.0060179042629897594,-0.01272206287831068,0.007825830020010471,-0.000375144969439134,-0.00347866746596992
0.016843220219016075,0.00643507344648242,-0.012975631281733513,0.00784293282777071,-0.0003857989504467696,-0.003816169686615467
0.016608133912086487,0.005976290907710791,-0.01260787807404995,0.007456342689692974,-0.0003894743858836591,-0.0037639648653566837
0.016446709632873535,0.00599566288292408,-0.013802019879221916,0.007423941511660814,-0.00039476610254496336,-0.003177369013428688
0.01586686074733734,0.005420210305601358,-0.012834702618420124,0.0075868722051382065,-0.00039715421735309064,-0.0028521991334855556
0.017510684207081795,0.006051843054592609,-0.01312979869544506,0.0076565793715417385,-0.0003752746561076492,-0.003039722330868244
0.017068997025489807,0.005968223325908184,-0.012972950004041195,0.008001219481229782,-0.0003542796475812793,-0.0032009645365178585
0.016527989879250526,0.005680788308382034,-0.013825777918100357,0.00830082781612873,-0.00037688695010729134,-0.003451489843428135
0.016527989879250526,0.005680788308382034,-0.013825777918100357,0.00830082781612873,-0.00037688695010729134,-0.003451489843428135
0.01693260855972767,0.00607807794585824,-0.013292471878230572,0.007971377111971378,-0.0003464068577159196,-0.003594085806980729
0.01693260855972767,0.00607807794585824,-0.013292471878230572,0.007971377111971378,-0.0003464068577159196,-0.003594085806980729
0.01727362349629402,0.006525378208607435,-0.013181686401367188,0.007852086797356606,-0.0003320765681564808,-0.0036398302763700485
0.017130328342318535,0.005970574915409088,-0.013169310055673122,0.007829170674085617,-0.00037152660661377013,-0.0037014735862612724
0.01708103157579899,0.005814434960484505,-0.01354093849658966,0.008002391085028648,-0.00034722965210676193,-0.003370440797880292
0.017184842377901077,0.005719667766243219,-0.013234499841928482,0.00761118158698082,-0.0003539188764989376,-0.003415222279727459
0.016800059005618095,0.005961462389677763,-0.013326234184205532,0.008005853742361069,-0.00035906812991015613,-0.003589463187381625
0.016819028183817863,0.006091974675655365,-0.013630839064717293,0.008352297358214855,-0.00031858182046562433,-0.0037458762526512146
0.016484837979078293,0.006268889177590609,-0.013034972362220287,0.008279744535684586,-0.0003377932298462838,-0.0036210883408784866
0.017220409587025642,0.00560135068371892,-0.013465629890561104,0.008393890224397182,-0.0003315854992251843,-0.003486873582005501
0.017585165798664093,0.005759791936725378,-0.013077856041491032,0.008396095596253872,-0.00035477621713653207,-0.003585848258808255
0.01779499463737011,0.005742129869759083,-0.013637600466609001,0.00861312821507454,-0.00034325855085626245,-0.003694874467328191
0.01736585423350334,0.006272829603403807,-0.012897522188723087,0.008553415536880493,-0.0003670547448564321,-0.0037048456724733114
0.016951078549027443,0.005943090654909611,-0.01329481229186058,0.008842157199978828,-0.0004103599931113422,-0.0037371846847236156
0.017588861286640167,0.0057569448836147785,-0.013979586772620678,0.009315873496234417,-0.0004144662816543132,-0.0038219194393604994
0.017202958464622498,0.006081374362111092,-0.013979775831103325,0.008292126469314098,-0.00044280511792749166,-0.003953722305595875
0.017467662692070007,0.005557458382099867,-0.013522440567612648,0.008285824209451675,-0.00045021678670309484,-0.003996048588305712
0.01770513691008091,0.005918973591178656,-0.01340444479137659,0.008134228177368641,-0.00045053387293592095,-0.00430447980761528
0.0175065528601408,0.005908503197133541,-0.013574857264757156,0.008066393435001373,-0.00076782435644418,-0.004535674583166838
0.01814916543662548,0.0058704549446702,-0.01293426938354969,0.008198719471693039,-0.0008027802687138319,-0.004208866506814957
0.017879310995340347,0.005495304707437754,-0.01369224488735199,0.008609028533101082,-0.0008158520213328302,-0.00396110350266099
0.017826611176133156,0.005746463779360056,-0.013113647699356079,0.008891460485756397,-0.0009526008507236838,-0.004317241720855236
0.017899909988045692,0.005936389323323965,-0.013563217595219612,0.008519954979419708,-0.0011840102961286902,-0.004284787457436323
0.018039705231785774,0.0058546303771436214,-0.013163906522095203,0.008593878708779812,-0.001190148526802659,-0.004318600986152887
0.018276020884513855,0.005514892749488354,-0.013701890595257282,0.00924709439277649,-0.0015384230064228177,-0.004133111331611872
0.018276020884513855,0.005514892749488354,-0.013701890595257282,0.00924709439277649,-0.0015384230064228177,-0.004133111331611872
0.01827177032828331,0.005663374438881874,-0.013034648261964321,0.008423397317528725,-0.001672100625000894,-0.004349441267549992
0.017871491611003876,0.005258551333099604,-0.013690335676074028,0.008640496991574764,-0.00210347562097013,-0.004104971420019865
0.018166469410061836,0.00576980272307992,-0.013397407718002796,0.009099548682570457,-0.0021502196323126554,-0.0042754607275128365
0.017937688156962395,0.00644685747101903,-0.013766951858997345,0.008384381420910358,-0.0021531679667532444,-0.004552637692540884
0.0182153582572937,0.005691043101251125,-0.013213648460805416,0.008335730992257595,-0.001980359898880124,-0.004884711466729641
0.01808232069015503,0.005373227875679731,-0.013671165332198143,0.00864221341907978,-0.0018574574496597052,-0.0048546805046498775
0.018070898950099945,0.0060472311452031136,-0.01352612767368555,0.008397839032113552,-0.001672542653977871,-0.00471108453348279
0.018047446385025978,0.006096014752984047,-0.01387879904359579,0.00849309004843235,-0.001491029397584498,-0.0046368069015443325
0.017954925075173378,0.00628725765272975,-0.013459846377372742,0.008857044391334057,-0.00137517717666924,-0.004694960080087185
0.01852574571967125,0.005542523693293333,-0.013709734193980694,0.008909830823540688,-0.0011188786011189222,-0.00472145015373826
0.01854158379137516,0.00539290439337492,-0.013518491759896278,0.008889542892575264,-0.0010237556416541338,-0.004763160366564989
0.01834488846361637,0.005462039262056351,-0.013906076550483704,0.009170732460916042,-0.0008921222179196775,-0.004731751978397369
0.018872138112783432,0.005678069312125444,-0.013526847586035728,0.009210843592882156,-0.0007674182998016477,-0.0049783335998654366
0.018714195117354393,0.005564386490732431,-0.013745645061135292,0.00890281330794096,-0.0006718371296301484,-0.004930836148560047
0.018642159178853035,0.005475986748933792,-0.013406505808234215,0.00921589694917202,-0.0005973669467493892,-0.004821132402867079
0.018921876326203346,0.0054873451590538025,-0.014110182411968708,0.009074883535504341,-0.0005377790657803416,-0.005086993332952261
0.018659908324480057,0.005578519310802221,-0.013568880967795849,0.008959130384027958,-0.0004890119889751077,-0.00519684748724103
0.01871350221335888,0.0056620994582772255,-0.013886217027902603,0.008991516195237637,-0.0004483653465285897,-0.0050156801007688046
0.01916837878525257,0.006218056660145521,-0.013381547294557095,0.009369960054755211,-0.0004473963053897023,-0.005265476182103157
0.01914464682340622,0.005602243356406689,-0.014238305389881134,0.009303256869316101,-0.0004462224605958909,-0.0051421718671917915
0.019043495878577232,0.005925210192799568,-0.013475860469043255,0.00937490165233612,-0.000418562296545133,-0.005273621995002031
0.018941162154078484,0.0055900574661791325,-0.013885006308555603,0.009397681802511215,-0.0003925961791537702,-0.00568851362913847
0.018941162154078484,0.0055900574661791325,-0.013885006308555603,0.009397681802511215,-0.0003925961791537702,-0.00568851362913847
0.01888948678970337,0.005932836327701807,-0.013393358327448368,0.009099199436604977,-0.000369562825653702,-0.00532904639840126
0.01768994890153408,0.005572655238211155,-0.013952761888504028,0.009348375722765923,-0.00034907791996374726,-0.005348898004740477
0.019292861223220825,0.004527818877249956,-0.014028332196176052,0.009472017176449299,-0.0003307450679130852,-0.005391374230384827
0.01946624368429184,0.0044013019651174545,-0.014300915412604809,0.00904836505651474,-0.0003142417990602553,-0.005459260195493698
0.01936229318380356,0.004804074764251709,-0.013840410858392715,0.008757809177041054,-0.00029930772143416107,-0.005266807973384857
0.019568294286727905,0.004785249009728432,-0.014137853868305683,0.00950368121266365,-0.0002857304352801293,-0.005648013204336166
0.019380319863557816,0.0047823162749409676,-0.013998989015817642,0.009557785466313362,-0.0002733294968493283,-0.005705033428966999
0.01915394514799118,0.004937153775244951,-0.013877815566956997,0.009425230324268341,-0.00025150267174467444,-0.005681917071342468
0.018378032371401787,0.004613214638084173,-0.01399625837802887,0.009466435760259628,-0.00024184584617614746,-0.0053632259368896484
0.019189920276403427,0.004873748403042555,-0.014536411501467228,0.008926993235945702,-0.00023290376702789217,-0.005247973371297121
0.019485360011458397,0.0049882568418979645,-0.01461793016642332,0.009399454109370708,-0.00022459890169557184,-0.005172742530703545
0.01935594342648983,0.004809780977666378,-0.014529064297676086,0.009353343397378922,-0.00021686669788323343,-0.005835001822561026
0.018713150173425674,0.004729227628558874,-0.01409901212900877,0.008939911611378193,-0.0002096492680720985,-0.006103720981627703
0.019213402643799782,0.004658520221710205,-0.014703437685966492,0.009212312288582325,-0.00020289646636229008,-0.005610035266727209
0.01976975053548813,0.004541873466223478,-0.0142440190538764,0.00929725356400013,-0.000196565204532817,-0.005469997879117727
0.02043667808175087,0.004634002689272165,-0.014680157415568829,0.00913618877530098,-0.00019061745842918754,-0.005656282417476177
0.01980706676840782,0.004687148611992598,-0.014334460720419884,0.009195072576403618,-0.00018501859449315816,-0.006061439402401447
0.01946757175028324,0.004734145011752844,-0.01489090546965599,0.009516194462776184,-0.00017973946523852646,-0.0060353041626513
0.019780384376645088,0.004242306109517813,-0.0146931242197752,0.009613183327019215,-0.00017475351342000067,-0.006092817056924105
0.019756238907575607,0.004446413833647966,-0.015006027184426785,0.010180704295635223,-0.0001700367429293692,-0.005841111298650503
0.019549522548913956,0.004596741870045662,-0.015090602450072765,0.010184206999838352,-0.0001655676169320941,-0.006036857608705759
0.01957680657505989,0.004260005429387093,-0.014710006304085255,0.009993437677621841,-0.00016132782911881804,-0.0066042677499353886
0.020243477076292038,0.0044164941646158695,-0.015238584950566292,0.010104726999998093,-0.00015729930601082742,-0.006359610706567764
0.020423710346221924,0.00493284035474062,-0.015361049212515354,0.010479922406375408,-0.00015346733562182635,-0.00615965249016881
0.01990019902586937,0.004912846721708775,-0.015692947432398796,0.010649589821696281,-0.00014981781714595854,-0.006673963740468025
0.020424455404281616,0.00480143167078495,-0.015274503268301487,0.010401742532849312,-0.00014633755199611187,-0.006926647387444973
0.020424455404281616,0.00480143167078495,-0.015274503268301487,0.010401742532849312,-0.00014633755199611187,-0.006926647387444973
0.020367231220006943,0.00511912489309907,-0.015545868314802647,0.010438352823257446,-0.00014301562623586506,-0.006285961717367172
0.02010519988834858,0.004961865488439798,-0.015165487304329872,0.0100174555554986,-0.00013984086399432272,-0.005910425912588835
0.020195050165057182,0.00457989564165473,-0.01581907831132412,0.010204841382801533,-0.00013680427218787372,-0.006130021531134844
0.02070438303053379,0.005084423813968897,-0.014853320084512234,0.010488885454833508,-0.00013389643572736531,-0.006443339865654707
0.02065686695277691,0.00504240533336997,-0.015785882249474525,0.01006318163126707,-0.00013110994768794626,-0.006846054922789335
0.020331155508756638,0.004983096849173307,-0.014945314265787601,0.010744601488113403,-0.00012843699369113892,-0.007396351546049118
0.020397242158651352,0.004806008655577898,-0.015784617513418198,0.01001795195043087,-0.00012340507237240672,-0.006889420095831156
0.020180726423859596,0.0048195659182965755,-0.015796193853020668,0.010121161118149757,-0.00012103440531063825,-0.007143278140574694
0.02041790261864662,0.00506964884698391,-0.015883231535553932,0.009865658357739449,-0.00011875283234985545,-0.007067583035677671
0.02065892331302166,0.004940477199852467,-0.015484984964132309,0.009950364008545876,-0.00011655574053293094,-0.007358680944889784
0.02036082185804844,0.005110473837703466,-0.015548031777143478,0.010458695702254772,-0.00011443851690273732,-0.00768692884594202
0.020523523911833763,0.005002327263355255,-0.015547978691756725,0.010048260912299156,-0.00011239686136832461,-0.007709410507231951
0.020630745217204094,0.004737683571875095,-0.016067197546362877,0.010523182339966297,-0.00011042675032513216,-0.007260625716298819
0.018498744815587997,0.004840651992708445,-0.015519019216299057,0.010970997624099255,-0.00010852436389541253,-0.007184446323662996
0.021411363035440445,0.004897323437035084,-0.015607118606567383,0.010357343591749668,-0.00010668670438462868,-0.007498968858271837
0.02128300815820694,0.005114895757287741,-0.014895380474627018,0.010945627465844154,-0.00010490998101886362,-0.007701036985963583
0.02127169445157051,0.005464625079184771,-0.015723589807748795,0.010419351980090141,-0.00010319172724848613,-0.007788542658090591
0.021113786846399307,0.005468268413096666,-0.01545643899589777,0.009757692925632,-0.00010152871254831553,-0.0075321923941373825
0.020959626883268356,0.004565761424601078,-0.015917647629976273,0.010493696667253971,-9.991848492063582e-05,-0.007473980076611042
0.021271837875247,0.0045369877479970455,-0.015424626879394054,0.010272519662976265,-9.835850505623966e-05,-0.007441357243806124
0.020971784368157387,0.004803874529898167,-0.015255803242325783,0.010476376861333847,-9.684641554486006e-05,-0.007950255647301674
0.021148566156625748,0.005199084989726543,-0.01603410765528679,0.010954958386719227,-9.538021549815312e-05,-0.007330687716603279
0.021881503984332085,0.005346465390175581,-0.015930667519569397,0.010542897507548332,-9.395778033649549e-05,-0.00790554191917181
0.0217500738799572,0.005432259291410446,-0.015801962465047836,0.010490060783922672,-9.257709461962804e-05,-0.007774336729198694
0.021920327097177505,0.004595092497766018,-0.015225991606712341,0.010638615116477013,-9.1236324806232e-05,-0.007578799035400152
0.021621132269501686,0.004611004609614611,-0.0158937219530344,0.010152440518140793,-8.993400115286931e-05,-0.007440789137035608
0.021621132269501686,0.004611004609614611,-0.0158937219530344,0.010152440518140793,-8.993400115286931e-05,-0.007440789137035608
0.020441604778170586,0.005138286855071783,-0.015405327081680298,0.010718447156250477,-8.866819553077221e-05,-0.008037051185965538
0.02168257348239422,0.005402861163020134,-0.015838421881198883,0.011180144734680653,-8.743763464735821e-05,-0.008237686939537525
0.02196316607296467,0.005384956952184439,-0.015583045780658722,0.010295872576534748,-8.624072506790981e-05,-0.00806955061852932
0.0218733511865139,0.0056320722214877605,-0.015844346955418587,0.010237610898911953,-8.50760770845227e-05,-0.008070772513747215
0.02133234590291977,0.005041329190135002,-0.015653854236006737,0.010553518310189247,-8.39425774756819e-05,-0.008224536664783955
0.021908150985836983,0.004971680231392384,-0.015927504748106003,0.01033827569335699,-9.162882633972913e-05,-0.008277392946183681
0.02251763828098774,0.005417454522103071,-0.016059936955571175,0.011080460622906685,-9.324543498223647e-05,-0.007713128812611103
0.0220459196716547,0.005726073868572712,-0.01620342768728733,0.010740570724010468,-9.107916412176564e-05,-0.008385011926293373
0.0218532532453537,0.005181601736694574,-0.015688791871070862,0.011057231575250626,-8.994223026093096e-05,-0.008349505253136158
0.02190924622118473,0.005025899037718773,-0.01608155108988285,0.010565427131950855,-8.883261034497991e-05,-0.008163071237504482
0.022285211831331253,0.005033223889768124,-0.015558644197881222,0.010317953303456306,-8.775002788752317e-05,-0.007886653766036034
0.022530708461999893,0.005799624603241682,-0.015985962003469467,0.010135232470929623,-8.669344242662191e-05,-0.008127760142087936
0.022661861032247543,0.0054826983250677586,-0.015831520780920982,0.010355787351727486,-7.108035060809925e-05,-0.0085454685613513
0.022874971851706505,0.005879093427211046,-0.016039498150348663,0.011138257570564747,-5.6349650549236685e-05,-0.008270050399005413
0.023261625319719315,0.005296217277646065,-0.015716856345534325,0.011033008806407452,-5.475987563841045e-05,-0.008566586300730705
0.023182818666100502,0.005286495201289654,-0.01563963294029236,0.010935281403362751,-5.404321927926503e-05,-0.008901446126401424
0.022429289296269417,0.005555434618145227,-0.01597592979669571,0.011690677143633366,-5.3398085583467036e-05,-0.008509879931807518
0.02249930240213871,0.005479472689330578,-0.015410471707582474,0.011087738908827305,-6.262864917516708e-05,-0.009369445033371449
0.023046407848596573,0.005946057382971048,-0.016269898042082787,0.011047331616282463,-6.254644540604204e-05,-0.009189028292894363
0.022957853972911835,0.005679174326360226,-0.0154468584805727,0.011015022173523903,-6.187176768435165e-05,-0.008976848796010017
0.022628137841820717,0.005114892963320017,-0.016209939494729042,0.010750355198979378,-7.004102371865883e-05,-0.008565989322960377
0.023676758632063866,0.005153931677341461,-0.015800006687641144,0.010949968360364437,-7.048331463010982e-05,-0.008130926638841629
0.02306574024260044,0.005555408541113138,-0.015788400545716286,0.010828505270183086,-6.978265446377918e-05,-0.008721750229597092
0.02328496426343918,0.005420037545263767,-0.01550409384071827,0.0110464533790946,-8.988991794467438e-06,-0.008480202406644821
0.023749439045786858,0.005845314357429743,-0.015947313979268074,0.01125555019825697,-5.869169399375096e-07,-0.008490393869578838
0.023471223190426826,0.005338032729923725,-0.016394298523664474,0.010926926508545876,-0.0002630639064591378,-0.009055068716406822
0.023389792069792747,0.005793771706521511,-0.015979252755641937,0.011018866673111916,-0.00031496002338826656,-0.008965013548731804
0.023725230246782303,0.005400086287409067,-0.016529690474271774,0.011028272099792957,-0.0003426496987231076,-0.008873742073774338
0.02369370497763157,0.006050821393728256,-0.015609979629516602,0.01085039135068655,-0.00033538389834575355,-0.00907561182975769
0.024169227108359337,0.005785906687378883,-0.016318878158926964,0.011006484739482403,-0.0003166290116496384,-0.008865115232765675
0.02446560561656952,0.005786641966551542,-0.016120189800858498,0.01087209489196539,-0.0003422787121962756,-0.009502241387963295
0.02446560561656952,0.005786641966551542,-0.016120189800858498,0.01087209489196539,-0.0003422787121962756,-0.009502241387963295
0.02419201284646988,0.00532903429120779,-0.016071904450654984,0.010879105888307095,-0.0003302390978205949,-0.009213593788444996
0.024332785978913307,0.005730386823415756,-0.016138607636094093,0.011138072237372398,-0.00035594942164607346,-0.009581200778484344
0.02470436505973339,0.005687665194272995,-0.016560392454266548,0.011201907880604267,-0.00048054158105514944,-0.009057319723069668
0.02415940724313259,0.0062539163045585155,-0.01733158901333809,0.011201960034668446,-0.0005584067548625171,-0.009348380379378796
0.024950357154011726,0.005384707357734442,-0.01705181412398815,0.011068378575146198,-0.0006206179969012737,-0.009347730316221714
0.024724965915083885,0.005235529039055109,-0.01671580597758293,0.01172478124499321,-0.0008988694753497839,-0.009042861871421337
0.025138383731245995,0.005664395168423653,-0.016872597858309746,0.011571161448955536,-0.000994660658761859,-0.00846099853515625
0.02479979768395424,0.005697278771549463,-0.01679217256605625,0.0117882015183568,-0.0009760074899531901,-0.008192714303731918
0.02497984655201435,0.005717976484447718,-0.0164583008736372,0.012452767230570316,-0.0009492618846707046,-0.008065679110586643
0.024850018322467804,0.00516477320343256,-0.017004357650876045,0.010972702875733376,-0.000934468349441886,-0.008576524443924427
0.025540204718708992,0.004862988367676735,-0.01658925972878933,0.011478731408715248,-0.0009590330300852656,-0.009188172407448292
0.02528686821460724,0.004525184165686369,-0.016969695687294006,0.011654707603156567,-0.0009165226365439594,-0.008739623241126537
0.025581371039152145,0.0045880163088440895,-0.016791651025414467,0.012016093358397484,-0.0009121605544351041,-0.008620578795671463
0.02558135986328125,0.004778486676514149,-0.016838638111948967,0.012622741051018238,-0.0008589379722252488,-0.008894690312445164
0.02627996727824211,0.005197742022573948,-0.01701199822127819,0.012285854667425156,-0.0008178091957233846,-0.008500616997480392
0.026782680302858353,0.004897406790405512,-0.016911953687667847,0.01139049232006073,-0.0007355431444011629,-0.008731390349566936
0.02562570385634899,0.004649280570447445,-0.017125947400927544,0.012384044006466866,-0.0006953398115001619,-0.008933458477258682
0.02442004904150963,0.004618910141289234,-0.016339290887117386,0.013077938929200172,-0.0006633273442275822,-0.009246870875358582
0.026483559980988503,0.00510813994333148,-0.016825683414936066,0.011999287642538548,-0.000685541657730937,-0.009530865587294102
0.026609085500240326,0.00509383250027895,-0.01709899492561817,0.011889254674315453,-0.0006238023051992059,-0.009891537949442863
0.025752458721399307,0.004917722661048174,-0.016711855307221413,0.012377971783280373,-0.0006070798262953758,-0.010237067006528378
0.02616756781935692,0.00509639410302043,-0.01719600521028042,0.011942566372454166,-0.0005926053272560239,-0.009831839241087437
0.02705134078860283,0.005050492938607931,-0.017098188400268555,0.0122809624299407,-0.0005490319454111159,-0.009229562245309353
0.027497274801135063,0.004669478628784418,-0.016987742856144905,0.012485511600971222,-0.000493917556013912,-0.009378477931022644
0.026906589046120644,0.00443603377789259,-0.017255552113056183,0.013259783387184143,-0.000488205929286778,-0.009738465771079063
0.025967951864004135,0.0048692491836845875,-0.01691546104848385,0.01247421558946371,-0.00048320769565179944,-0.010186953470110893
0.025967951864004135,0.0048692491836845875,-0.01691546104848385,0.01247421558946371,-0.00048320769565179944,-0.010186953470110893
0.026442278176546097,0.005000482313334942,-0.01747279055416584,0.012227430939674377,-0.0004458204784896225,-0.010369478724896908
0.027481095865368843,0.004369794856756926,-0.017156831920146942,0.01231770496815443,-0.0004119490913581103,-0.010691815055906773
0.026900501921772957,0.004241324029862881,-0.01748775690793991,0.012401563115417957,-0.000429629028076306,-0.011044306680560112
0.026788314804434776,0.0041324179619550705,-0.017710767686367035,0.013338296674191952,-0.00041585357394069433,-0.010304728522896767
0.026567846536636353,0.004454782698303461,-0.01719789206981659,0.013082454912364483,-0.00036819270462729037,-0.0100480942055583
0.02630547434091568,0.004568483214825392,-0.016972824931144714,0.012696967460215092,-0.00039411726174876094,-0.010425449348986149
0.026455571874976158,0.004253659397363663,-0.017956234514713287,0.012782435864210129,-0.00037651744787581265,-0.010742606595158577
0.026396170258522034,0.004278290085494518,-0.01779499463737011,0.012632180005311966,-0.00035798893077299,-0.011012425646185875
0.02691037580370903,0.004506093915551901,-0.01679261587560177,0.012755089439451694,-0.00034395622787997127,-0.010336373001337051
0.027103763073682785,0.004608154762536287,-0.017441119998693466,0.013352972455322742,-0.00032137773814611137,-0.01017515454441309
0.027049459517002106,0.004754094406962395,-0.01724647544324398,0.01284090243279934,-0.0003442142333369702,-0.010677686892449856
0.027023455128073692,0.004483347292989492,-0.017574124038219452,0.013267145492136478,-0.0003365307638887316,-0.01089920848608017
0.02714317850768566,0.005004447419196367,-0.017427358776330948,0.012828345410525799,-0.00035663717426359653,-0.011071044951677322
0.027056146413087845,0.004378411918878555,-0.01692175678908825,0.013259191066026688,-0.0003491297538857907,-0.011141190305352211
0.027173127979040146,0.0044458601623773575,-0.017734570428729057,0.013300428166985512,-0.00036649222602136433,-0.010405144654214382
0.02713412046432495,0.00450532790273428,-0.01737738586962223,0.01384191308170557,-0.0003592120483517647,-0.010792222805321217
0.026977388188242912,0.004384990315884352,-0.01727389544248581,0.013261948712170124,-0.00034327717730775476,-0.01088998094201088
0.025789935141801834,0.0042206221260130405,-0.01757519505918026,0.013375825248658657,-0.00046446529449895024,-0.010845181532204151
0.02788209356367588,0.004125938750803471,-0.017099624499678612,0.013295452110469341,-0.0004303157329559326,-0.010937761515378952
0.028079327195882797,0.004537079483270645,-0.017624562606215477,0.013251583091914654,-0.0004664473235607147,-0.011125016026198864
0.028002826496958733,0.004648648668080568,-0.01742156594991684,0.01334748137742281,-0.00048679992323741317,-0.011175151914358139
0.02746087871491909,0.00465810764580965,-0.01767565868794918,0.01355802919715643,-0.00046745172585360706,-0.011455677449703217
0.026435475796461105,0.004353496246039867,-0.017714418470859528,0.013645235449075699,-0.0004899870837107301,-0.010155215859413147
0.027359606698155403,0.004395631141960621,-0.01716076210141182,0.01304839737713337,-0.0004657090757973492,-0.011468636803328991
0.028171822428703308,0.0045938086695969105,-0.017537079751491547,0.013212761841714382,-0.0005553109804168344,-0.011862214654684067
0.027600200846791267,0.004779135342687368,-0.01775064691901207,0.013076922856271267,-0.0005600627046078444,-0.011546089313924313
0.027806181460618973,0.004643607418984175,-0.01794975996017456,0.013199038803577423,-0.0005483607528731227,-0.011215195059776306
0.02871372178196907,0.00434718606993556,-0.018837377429008484,0.012946086004376411,-0.0005778995691798627,-0.011583329178392887
0.028422681614756584,0.004310318734496832,-0.01746559888124466,0.013323294930160046,-0.0005900980322621763,-0.011184158734977245
0.028422681614756584,0.004310318734496832,-0.01746559888124466,0.013323294930160046,-0.0005900980322621763,-0.011184158734977245
0.02842225693166256,0.004218025598675013,-0.01827315054833889,0.01315916795283556,-0.0006652349838986993,-0.010842372663319111
0.027757974341511726,0.004417717922478914,-0.018363947048783302,0.013957802206277847,-0.000731130363419652,-0.011675190180540085
0.02843966893851757,0.004310954827815294,-0.018357304856181145,0.014119709841907024,-0.0007187147275544703,-0.011257709935307503
0.028813336044549942,0.004522431176155806,-0.018473155796527863,0.013710182160139084,-0.0007373028784058988,-0.01142002921551466
0.028897495940327644,0.004337086342275143,-0.018888281658291817,0.013736763037741184,-0.0008398772915825248,-0.011463609524071217
0.02886812761425972,0.004178182687610388,-0.0186719112098217,0.014007284305989742,-0.0008580430876463652,-0.011517763137817383
0.028471874073147774,0.004464533645659685,-0.01805262267589569,0.013979281298816204,-0.0008478228119201958,-0.011462953872978687
0.02835853211581707,0.004619286861270666,-0.01885986514389515,0.014143867418169975,-0.0008532363572157919,-0.01145765371620655
0.028781158849596977,0.004320631735026836,-0.019440237432718277,0.014225881546735764,-0.0008696307195350528,-0.011981332674622536
0.029000308364629745,0.004493207670748234,-0.01820804551243782,0.014310650527477264,-0.0008788463892415166,-0.011493992060422897
0.029200350865721703,0.004515313543379307,-0.01822599768638611,0.013793915510177612,-0.0008174062822945416,-0.011772236786782742
0.029414983466267586,0.004536809399724007,-0.019225066527724266,0.013597510755062103,-0.0008237019646912813,-0.011900389567017555
0.029461737722158432,0.004234734922647476,-0.018669134005904198,0.013230557553470135,-0.0008323887595906854,-0.012135756202042103
0.0298722293227911,0.00450200354680419,-0.01821024902164936,0.013824675232172012,-0.0008427442517131567,-0.011832408607006073
0.02983241342008114,0.004702878650277853,-0.018658285960555077,0.01327140349894762,-0.0008668858208693564,-0.011392243206501007
0.029095783829689026,0.004326319321990013,-0.018710805103182793,0.01409751083701849,-0.0008727340027689934,-0.011529401876032352
0.030178291723132133,0.004481047857552767,-0.01922925002872944,0.01426071859896183,-0.0008615078404545784,-0.012197363190352917
0.02973158098757267,0.004530320875346661,-0.01913430169224739,0.0142038743942976,-0.0007952386513352394,-0.01159640122205019
0.02958519570529461,0.004521461203694344,-0.018443243578076363,0.013710657134652138,-0.0008220807649195194,-0.01177861075848341
0.02973216585814953,0.004350296687334776,-0.018853412941098213,0.01438553724437952,-0.0008248962112702429,-0.011810608208179474
0.030125023797154427,0.004554201848804951,-0.018846411257982254,0.013607990927994251,-0.0007881679921410978,-0.012287722900509834
0.030264830216765404,0.004611842799931765,-0.018656304106116295,0.014095958322286606,-0.0007470945711247623,-0.012212811037898064
0.02982569858431816,0.004820127971470356,-0.01907147839665413,0.014116008765995502,-0.00074075220618397,-0.01245021540671587
0.030581828206777573,0.004849512595683336,-0.019180871546268463,0.014845171011984348,-0.0006913626566529274,-0.012355738319456577
0.0307477954775095,0.004730580374598503,-0.01860770210623741,0.014807408675551414,-0.000635696982499212,-0.012271003797650337
0.03057766519486904,0.00458773598074913,-0.01923050545156002,0.01523584220558405,-0.0005758671904914081,-0.012471971102058887
0.030866077169775963,0.004619102459400892,-0.019073735922574997,0.014702113345265388,-0.0005116835818625987,-0.01248775701969862
0.030866077169775963,0.004619102459400892,-0.019073735922574997,0.014702113345265388,-0.0005116835818625987,-0.01248775701969862
0.03131921589374542,0.004649593494832516,-0.01893901266157627,0.01512803416699171,-0.0005036499351263046,-0.012780490331351757
0.031069347634911537,0.0046858168207108974,-0.019050149247050285,0.015259967185556889,-0.0004575439961627126,-0.012821945361793041
0.03089025616645813,0.004696520511060953,-0.018859246745705605,0.01523309201002121,-0.00048726267414167523,-0.013079452328383923
0.0314253605902195,0.005167877301573753,-0.019338184967637062,0.015620932914316654,-0.0004562401445582509,-0.012811957858502865
0.03222596272826195,0.004680513869971037,-0.019175704568624496,0.016040818765759468,-0.00047035462921485305,-0.012784391641616821
0.0319359190762043,0.004560983274132013,-0.018736829981207848,0.015895595774054527,-0.0004546451673377305,-0.012583166360855103
0.030195467174053192,0.0044748480431735516,-0.01912178099155426,0.01554993074387312,-0.0004503055533859879,-0.012844085693359375
0.03124029003083706,0.005013878457248211,-0.019059425219893456,0.01480199582874775,-0.00047432290739379823,-0.01272837445139885
0.032302357256412506,0.004723976831883192,-0.018993066623806953,0.015306168235838413,-0.0005090978811495006,-0.01299114990979433
0.03165008872747421,0.004595414735376835,-0.019039519131183624,0.014710933901369572,-0.0005219739396125078,-0.012861473485827446
0.032773107290267944,0.004889902658760548,-0.018798980861902237,0.01496643852442503,-0.0005166365881450474,-0.012931154109537601
0.03227700665593147,0.005042702425271273,-0.019160687923431396,0.014477803371846676,-0.0007575360941700637,-0.012899474240839481
0.03154510632157326,0.004881744738668203,-0.019456040114164352,0.014780884608626366,-0.0007841961923986673,-0.012400385923683643
0.031431324779987335,0.004723654594272375,-0.018689844757318497,0.014443255960941315,-0.0007134696352295578,-0.012727565132081509
0.031611811369657516,0.005124048795551062,-0.019093604758381844,0.015225554816424847,-0.0007295340183191001,-0.013176096603274345
0.03256677836179733,0.005066123325377703,-0.019396506249904633,0.014506389386951923,-0.0007284373859874904,-0.013469582423567772
0.030918419361114502,0.005344671662896872,-0.019001970067620277,0.015044473111629486,-0.0006810532649978995,-0.013139045797288418
0.03223143517971039,0.004989787936210632,-0.01938175968825817,0.014844866469502449,-0.000654272676911205,-0.013284916989505291
0.03290022164583206,0.004552637226879597,-0.019452672451734543,0.015497727319598198,-0.0005986203905194998,-0.013137904927134514
0.032509781420230865,0.004621732980012894,-0.018881376832723618,0.01507944893091917,-0.0006282101385295391,-0.013250884599983692
0.03197086602449417,0.005111251026391983,-0.019423864781856537,0.015449968166649342,-0.0006377050885930657,-0.013009246438741684
0.03281817212700844,0.004958945792168379,-0.019798288121819496,0.015437914989888668,-0.0006615997408516705,-0.013075439259409904
0.03247176855802536,0.005007146392017603,-0.019140129908919334,0.01578853651881218,-0.0006277243955992162,-0.01324372086673975
0.0322888121008873,0.004922652151435614,-0.019061757251620293,0.01583155244588852,-0.0007108457502909005,-0.013549086637794971
0.0325390100479126,0.00477987015619874,-0.019317135214805603,0.01612124964594841,-0.0007396938744932413,-0.015085533261299133
0.03283892571926117,0.004660764709115028,-0.019197072833776474,0.016147738322615623,-0.0006577853346243501,-0.013506141491234303
0.03283892571926117,0.004660764709115028,-0.019197072833776474,0.016147738322615623,-0.0006577853346243501,-0.013506141491234303
0.03271668031811714,0.00523873558267951,-0.019387969747185707,0.01560304220765829,-0.000677356612868607,-0.012955528683960438
0.032831091433763504,0.0051443628035485744,-0.019514823332428932,0.016003917902708054,-0.0006813941290602088,-0.013283688575029373
0.0327974408864975,0.004807298071682453,-0.019458472728729248,0.0156820360571146,-0.0006977039156481624,-0.013676827773451805
0.03391209617257118,0.004771341569721699,-0.019823092967271805,0.016193490475416183,-0.0007166766445152462,-0.01365177147090435
0.03176533058285713,0.004998096264898777,-0.019623126834630966,0.016148552298545837,-0.0007831543334759772,-0.01343823317438364
0.033092815428972244,0.0054588294588029385,-0.019198307767510414,0.016247602179646492,-0.0008794908062554896,-0.013999875634908676
0.03388978913426399,0.005102755036205053,-0.01978994533419609,0.015858741477131844,-0.0009850618662312627,-0.013903030194342136
0.03322542458772659,0.00455645564943552,-0.020171331241726875,0.015282909385859966,-0.0009418478002771735,-0.013623176142573357
0.03439268097281456,0.004616426769644022,-0.019577614963054657,0.014822830446064472,-0.0008743084617890418,-0.013482174836099148
0.03395887464284897,0.004968456923961639,-0.020248830318450928,0.015532056801021099,-0.0008657767320983112,-0.013646085746586323
0.03319850191473961,0.00486469641327858,-0.01996001787483692,0.015563429333269596,-0.0008281015907414258,-0.013949554413557053
0.03273674473166466,0.004514624364674091,-0.019710661843419075,0.016310594975948334,-0.0007445572991855443,-0.014030183665454388
0.034324418753385544,0.0041258144192397594,-0.020491627976298332,0.016147024929523468,-0.0007514128228649497,-0.014200728386640549
0.034199632704257965,0.0038677628617733717,-0.02030959725379944,0.016784360632300377,-0.0006726642604917288,-0.014312014915049076
0.03368153050541878,0.00444649625569582,-0.020005103200674057,0.01681583747267723,-0.0006913951365277171,-0.014357203617691994
0.03363782539963722,0.004678250756114721,-0.019797062501311302,0.016644952818751335,-0.0006284493720158935,-0.014369084499776363
0.03363095968961716,0.004836011212319136,-0.020169531926512718,0.016320953145623207,-0.0006475560949184,-0.014247545041143894
0.03432242199778557,0.004294596146792173,-0.01979120261967182,0.015641935169696808,-0.0005986458854749799,-0.014174784533679485
0.03434689715504646,0.004299301654100418,-0.020271306857466698,0.015490628778934479,-0.0005561754223890603,-0.014277531765401363
0.03420967981219292,0.004534903913736343,-0.019475707784295082,0.015465245582163334,-0.0005002028192393482,-0.014271633699536324
0.0339127779006958,0.004171878565102816,-0.020592674612998962,0.01635100319981575,-0.000527955882716924,-0.014309314079582691
0.034076496958732605,0.004333737306296825,-0.020212387666106224,0.017121879383921623,-0.0004904991365037858,-0.014329416677355766
0.03437206894159317,0.004634287673979998,-0.020243532955646515,0.017207469791173935,-0.0005052866181358695,-0.014475449919700623
0.034801945090293884,0.004427149426192045,-0.02067089080810547,0.017205238342285156,-0.0004835734434891492,-0.014080802910029888
0.03463831916451454,0.004251418635249138,-0.020446201786398888,0.016940375789999962,-0.000481326540466398,-0.014730826020240784
0.034526605159044266,0.00419584009796381,-0.02040540613234043,0.016890933737158775,-0.0004780172894243151,-0.015109274536371231
0.03446389362215996,0.0044017573818564415,-0.020324528217315674,0.015718188136816025,-0.0005215255660004914,-0.015156274661421776
0.033690016716718674,0.004469019826501608,-0.02022673189640045,0.01652962528169155,-0.0005371444276534021,-0.015299404971301556
0.03544134274125099,0.004293731413781643,-0.02005930431187153,0.016753656789660454,-0.0005712857819162309,-0.015105998143553734
0.03556320071220398,0.004535457119345665,-0.02049010619521141,0.01739354431629181,-0.0005617588758468628,-0.014792409725487232
0.03556320071220398,0.004535457119345665,-0.02049010619521141,0.01739354431629181,-0.0005617588758468628,-0.014792409725487232
0.034550536423921585,0.0045646135695278645,-0.021124133840203285,0.017737137153744698,-0.0005820940132252872,-0.014721726067364216
0.035467956215143204,0.0047598774544894695,-0.01995457522571087,0.01777956262230873,-0.0007520864019170403,-0.01485309936106205
0.035467956215143204,0.0047598774544894695,-0.01995457522571087,0.01777956262230873,-0.0007520864019170403,-0.01485309936106205
0.035305265337228775,0.004236866254359484,-0.020634843036532402,0.01760144904255867,-0.0006371925119310617,-0.014877209439873695
0.03561556711792946,0.004197721369564533,-0.020796628668904305,0.01761140115559101,-0.0006581621710211039,-0.015040349215269089
0.035663358867168427,0.004685698542743921,-0.020901117473840714,0.017029911279678345,-0.0006424833554774523,-0.01551369670778513
0.03612016513943672,0.004803559742867947,-0.020385228097438812,0.017670566216111183,-0.0006245372933335602,-0.015420302748680115
0.035219885408878326,0.004471295513212681,-0.01983475871384144,0.017337888479232788,-0.0006001928122714162,-0.015057130716741085
0.035889286547899246,0.0045110490173101425,-0.02011561207473278,0.016758352518081665,-0.0005530893104150891,-0.015263715758919716
0.03686314448714256,0.0043769595213234425,-0.020855341106653214,0.017224125564098358,-0.0005856069037690759,-0.01576889492571354
0.03578859567642212,0.0041046361438930035,-0.021052755415439606,0.01718529872596264,-0.0006103644263930619,-0.015835462138056755
0.03492062911391258,0.004430807661265135,-0.020713727921247482,0.0177592895925045,-0.0006053604301996529,-0.015268542803823948
0.035830605775117874,0.0046098921447992325,-0.0207506213337183,0.01787508651614189,-0.0005917446687817574,-0.015121689066290855
0.03547341376543045,0.004372304771095514,-0.020417286083102226,0.017450880259275436,-0.0006816266104578972,-0.014749784022569656
0.03708602488040924,0.004440350458025932,-0.02050958201289177,0.017597006633877754,-0.0006326371803879738,-0.015001733787357807
0.037277039140462875,0.004340770188719034,-0.020843327045440674,0.01721210777759552,-0.0006528353551402688,-0.015047818422317505
0.035778485238552094,0.0040357680991292,-0.02102302759885788,0.017494523897767067,-0.0005940457922406495,-0.015263080596923828
0.034928299486637115,0.003980087582021952,-0.021237151697278023,0.017259102314710617,-0.000618715479504317,-0.01589561440050602
0.03678549453616142,0.003889738116413355,-0.02077310159802437,0.01744089089334011,-0.0006437276606447995,-0.01613420806825161
0.03694247826933861,0.003742984728887677,-0.02104300819337368,0.01795141212642193,-0.0006872962694615126,-0.016386715695261955
0.036595892161130905,0.003722728695720434,-0.021402359008789062,0.017921332269906998,-0.0007159444503486156,-0.01585523784160614
0.03722783178091049,0.0038714802358299494,-0.021276351064443588,0.017918508499860764,-0.0007379958406090736,-0.015907447785139084
0.0367254838347435,0.004023292101919651,-0.020677810534834862,0.017861802130937576,-0.0007553361938335001,-0.016134899109601974
0.03617791086435318,0.004359756130725145,-0.02092401497066021,0.01729685813188553,-0.0008964830776676536,-0.016320226714015007
0.036782156676054,0.0040276432409882545,-0.020994698628783226,0.01777936890721321,-0.000947308202739805,-0.016147766262292862
0.036908380687236786,0.0038095589261502028,-0.020893532782793045,0.018012462183833122,-0.0009528818773105741,-0.016270175576210022
0.03705758973956108,0.0042685153894126415,-0.02082575485110283,0.018131187185645103,-0.0009465691400691867,-0.01672610640525818
0.036729518324136734,0.004184001591056585,-0.021620307117700577,0.018305007368326187,-0.001013216096907854,-0.016489969566464424
0.036729518324136734,0.004184001591056585,-0.021620307117700577,0.018305007368326187,-0.001013216096907854,-0.016489969566464424
0.036650899797677994,0.004443965386599302,-0.022245388478040695,0.017969103530049324,-0.0009991151746362448,-0.016582271084189415
0.03761062026023865,0.0044046686962246895,-0.02096349000930786,0.017691023647785187,-0.0008624609326943755,-0.016714049503207207
0.035716671496629715,0.004429057240486145,-0.021954728290438652,0.01779703050851822,-0.0008627556962892413,-0.0169784314930439
0.03638307750225067,0.004125054460018873,-0.021588023751974106,0.01848752424120903,-0.0007921317010186613,-0.01699032261967659
0.036869969218969345,0.003927930258214474,-0.02125590853393078,0.018179794773459435,-0.0007996492204256356,-0.01690858043730259
0.036913711577653885,0.0043636164627969265,-0.021667083725333214,0.017857788130640984,-0.0007968367426656187,-0.017195526510477066
0.038184188306331635,0.00448610819876194,-0.022335270419716835,0.018296821042895317,-0.0007817109581083059,-0.017567643895745277
0.037228889763355255,0.004400232806801796,-0.022165844216942787,0.018266571685671806,-0.0007512459997087717,-0.017177818343043327
0.03558364138007164,0.004526300821453333,-0.021401353180408478,0.01849278435111046,-0.0008115423261187971,-0.01681966334581375
0.03737316653132439,0.004491675179451704,-0.02164076268672943,0.018478289246559143,-0.0008273754501715302,-0.01728394627571106
0.03826461359858513,0.00409086374565959,-0.02207569032907486,0.018326425924897194,-0.0008289105608128011,-0.017663735896348953
0.037948112934827805,0.004407591186463833,-0.021859193220734596,0.018209440633654594,-0.0007452806457877159,-0.017808936536312103
0.03758972883224487,0.004153504967689514,-0.021256834268569946,0.018026545643806458,-0.0007555328193120658,-0.017488976940512657
0.037728119641542435,0.0043706754222512245,-0.021481428295373917,0.01810550130903721,-0.0007211629417724907,-0.017262307927012444
0.03777000680565834,0.004483622498810291,-0.021744605153799057,0.018633391708135605,-0.0006554569117724895,-0.017494039610028267
0.037970755249261856,0.004671487025916576,-0.02219432219862938,0.019463978707790375,-0.0006805089651606977,-0.017271213233470917
0.037729207426309586,0.004261885304003954,-0.022045444697141647,0.018718695268034935,-0.0006848149350844324,-0.01734561286866665
0.03762797266244888,0.0039816806092858315,-0.021661290898919106,0.01894032396376133,-0.000705390702933073,-0.01769588328897953
0.03758350759744644,0.004365331958979368,-0.021778514608740807,0.01842513494193554,-0.0006625292589887977,-0.017648592591285706
0.03817475959658623,0.004524581134319305,-0.022276129573583603,0.018057797104120255,-0.0007242907304316759,-0.017728133127093315
0.038752272725105286,0.004303495399653912,-0.022192401811480522,0.018939906731247902,-0.0007350547821260989,-0.017744433134794235
0.038183264434337616,0.0043998355977237225,-0.021670710295438766,0.01894630864262581,-0.0007267605978995562,-0.018254496157169342
0.0388585664331913,0.004747104365378618,-0.022262204438447952,0.01884325034916401,-0.0006961948820389807,-0.018693508580327034
0.038929879665374756,0.004229091107845306,-0.022451091557741165,0.018999267369508743,-0.0007072144071571529,-0.018368370831012726
0.03878501057624817,0.004426106344908476,-0.02216002717614174,0.01849963702261448,-0.0007614883361384273,-0.018048923462629318
0.039212170988321304,0.004529470112174749,-0.02170567959547043,0.019238628447055817,-0.0008051209733821452,-0.017478380352258682
0.038925427943468094,0.004345153458416462,-0.0218515545129776,0.019688811153173447,-0.0008192468667402864,-0.01632322184741497
0.038925427943468094,0.004345153458416462,-0.0218515545129776,0.019688811153173447,-0.0008192468667402864,-0.01632322184741497
0.039285045117139816,0.004415995441377163,-0.022320464253425598,0.01961023174226284,-0.0008151170331984758,-0.017534522339701653
0.03914545848965645,0.004649113863706589,-0.02179757133126259,0.019005628302693367,-0.0009312486508861184,-0.018501855432987213
0.039025723934173584,0.004657111596316099,-0.02167990244925022,0.018043074756860733,-0.0008609134238213301,-0.018419556319713593
0.039572134613990784,0.0043297214433550835,-0.022016491740942,0.018384162336587906,-0.0008618158753961325,-0.018003173172473907
0.04004397243261337,0.004400687757879496,-0.02232331596314907,0.018642067909240723,-0.0008586504263803363,-0.018195364624261856
0.03960440307855606,0.004457897040992975,-0.022149980068206787,0.01878213882446289,-0.0008432542090304196,-0.018662521615624428
0.03895556926727295,0.004635129123926163,-0.02177787385880947,0.019391410052776337,-0.0008167916676029563,-0.019126806408166885
0.04058808460831642,0.004732915200293064,-0.02253212407231331,0.01969730108976364,-0.0008264073985628784,-0.01865345798432827
0.0414714477956295,0.0042460025288164616,-0.022400496527552605,0.01964011788368225,-0.000863583292812109,-0.017795490100979805
0.039237186312675476,0.003914977423846722,-0.021836239844560623,0.019636735320091248,-0.000975027505774051,-0.017780829221010208
0.038956183940172195,0.004046426620334387,-0.02204730547964573,0.019897468388080597,-0.001015694928355515,-0.017976542934775352
0.040872443467378616,0.004086469765752554,-0.022536134347319603,0.019526829943060875,-0.0010005105286836624,-0.01837150938808918
0.04070150852203369,0.004408251028507948,-0.02287416346371174,0.019341276958584785,-0.0009978216839954257,-0.019508451223373413
0.04169852286577225,0.004196727182716131,-0.02283410355448723,0.01932164467871189,-0.001160012441687286,-0.01877814158797264
0.041406262665987015,0.004533438477665186,-0.022749299183487892,0.019129682332277298,-0.0011240927269682288,-0.018041817471385002
0.03974974900484085,0.004667710047215223,-0.02154947817325592,0.01946612447500229,-0.0010896474123001099,-0.018045993521809578
0.041290756314992905,0.004297033417969942,-0.022244911640882492,0.019816629588603973,-0.0010498019400984049,-0.018523607403039932
0.04111151769757271,0.004389152862131596,-0.023247214034199715,0.019159527495503426,-0.0010460133198648691,-0.018700730055570602
0.041504811495542526,0.004510767757892609,-0.023179100826382637,0.018935726955533028,-0.0009129546233452857,-0.018465036526322365
0.04093373194336891,0.0040429383516311646,-0.022081982344388962,0.019642969593405724,-0.0009036160190589726,-0.018826749175786972
0.041517626494169235,0.004299613647162914,-0.022639859467744827,0.01955532096326351,-0.0008947993046604097,-0.018941452726721764
0.04148650914430618,0.00463876174762845,-0.023062342777848244,0.019896283745765686,-0.0008314945152960718,-0.018783973529934883
0.04148868843913078,0.0042965528555214405,-0.02309640310704708,0.020104406401515007,-0.0008296175510622561,-0.018673261627554893
0.04148868843913078,0.0042965528555214405,-0.02309640310704708,0.020104406401515007,-0.0008296175510622561,-0.018673261627554893
0.04096154123544693,0.004240888170897961,-0.02281770668923855,0.0197556484490633,-0.0008386442204937339,-0.01904623955488205
0.041702751070261,0.003967539872974157,-0.021907594054937363,0.019130300730466843,-0.0008461420657113194,-0.019363192841410637
0.043196700513362885,0.0037987884134054184,-0.022326748818159103,0.019837740808725357,-0.0009067755891010165,-0.01956699788570404
0.041183505207300186,0.004201740492135286,-0.023175833746790886,0.01948031783103943,-0.000973852991592139,-0.019701708108186722
0.041792042553424835,0.00401007104665041,-0.023097747936844826,0.020078472793102264,-0.000873207813128829,-0.01916157454252243
0.04291588068008423,0.004356445744633675,-0.022430041804909706,0.020151184871792793,-0.0008703622152097523,-0.019298400729894638
0.04280189424753189,0.004210475832223892,-0.022508565336465836,0.019910182803869247,-0.0008189148502424359,-0.019420502707362175
0.04178443178534508,0.004453599452972412,-0.023087263107299805,0.019956720992922783,-0.0007268773042596877,-0.019304092973470688
0.04121929407119751,0.004197766538709402,-0.022972071543335915,0.019669240340590477,-0.0007353093242272735,-0.01928696781396866
0.04299815371632576,0.003949344158172607,-0.022464187815785408,0.019242657348513603,-0.0007401307811960578,-0.019457314163446426
0.042158618569374084,0.004029374103993177,-0.022534247487783432,0.019644485786557198,-0.0007566174026578665,-0.019188236445188522
0.04162168875336647,0.004156405106186867,-0.022781342267990112,0.0196633692830801,-0.0007768356008455157,-0.01915663294494152
0.042150694876909256,0.00430649658665061,-0.02295674756169319,0.019765883684158325,-0.0008319085463881493,-0.01978154666721821
0.04214652255177498,0.004039850551635027,-0.023072095587849617,0.020021559670567513,-0.0008439004886895418,-0.019366484135389328
0.042702846229076385,0.004016871564090252,-0.022644028067588806,0.020483778789639473,-0.0008510194602422416,-0.019092416390776634
0.04239744693040848,0.004385264124721289,-0.022733505815267563,0.02032974362373352,-0.0009992342675104737,-0.0192380640655756
0.04235242307186127,0.004316621460020542,-0.02267015539109707,0.02063434012234211,-0.0010107196867465973,-0.0194611344486475
0.042401909828186035,0.004451456014066935,-0.023181525990366936,0.021084412932395935,-0.0009946016361936927,-0.0195444505661726
0.043203193694353104,0.0041898088529706,-0.022981084883213043,0.02091631479561329,-0.0009980162139981985,-0.019915292039513588
0.04293030872941017,0.004193670116364956,-0.02278408594429493,0.021526511758565903,-0.0009903048630803823,-0.02016599103808403
0.043180447071790695,0.003932812251150608,-0.022962016984820366,0.021605608984827995,-0.0009702530223876238,-0.019617507234215736
0.04309422895312309,0.003860378870740533,-0.022874485701322556,0.021716443821787834,-0.0008555371896363795,-0.019509268924593925
0.04317845404148102,0.004306441638618708,-0.022978650406003,0.021295541897416115,-0.0008545768796466291,-0.019874341785907745
0.043177954852581024,0.004057623445987701,-0.023264460265636444,0.020643578842282295,-0.0008652700344100595,-0.019978206604719162
0.043177954852581024,0.004057623445987701,-0.023264460265636444,0.020643578842282295,-0.0008652700344100595,-0.019978206604719162
0.04339635372161865,0.003859184682369232,-0.023481208831071854,0.021077608689665794,-0.0009250157163478434,-0.019830673933029175
0.043384600430727005,0.00384857808239758,-0.023475566878914833,0.02154293656349182,-0.0009247817215509713,-0.019953874871134758
0.043887194246053696,0.0043622758239507675,-0.023342259228229523,0.021882396191358566,-0.0009526205249130726,-0.019866272807121277
0.04390668869018555,0.0035005498211830854,-0.023833220824599266,0.021375929936766624,-0.001095917192287743,-0.020209208130836487
0.04390668869018555,0.0035005498211830854,-0.023833220824599266,0.021375929936766624,-0.001095917192287743,-0.020209208130836487
