davideferrari95/blind_handover_controller/data/Test 54 - [2024-02-07 -- 15-39-15]/joint_states_data.csv
shoulder_pan_joint,shoulder_lift_joint,elbow_joint,wrist_1_joint,wrist_2_joint,wrist_3_joint
0.0057506500743329525,0.0053052837029099464,-0.008612041361629963,0.003466842696070671,0.0006959243328310549,0.005551178939640522
0.0057506500743329525,0.0053052837029099464,-0.008612041361629963,0.003466842696070671,0.0006959243328310549,0.005551178939640522
0.006346333771944046,0.005030898842960596,-0.009173096157610416,0.0034078347962349653,0.0006530284881591797,0.005040976218879223
0.006661004386842251,0.005389268044382334,-0.008733836002647877,0.0031460339669138193,0.0005998992128297687,0.005108771380037069
0.005777714308351278,0.0055353050120174885,-0.008217362686991692,0.002684561302885413,0.0005538007244467735,0.005073325242847204
0.005864181090146303,0.005542995873838663,-0.009054192341864109,0.002452176995575428,0.0005142242298461497,0.00535479374229908
0.006138656288385391,0.00495737511664629,-0.00808611512184143,0.0032966204453259706,0.00045118146226741374,0.005441057961434126
0.006156209856271744,0.004820271395146847,-0.00792505033314228,0.0033435376826673746,0.00035881847725249827,0.005637733265757561
0.005471409764140844,0.004956766497343779,-0.009232035838067532,0.0033709537237882614,0.00032886353437788785,0.005253972485661507
0.005894480738788843,0.0052123782224953175,-0.008088824339210987,0.0033578388392925262,0.00030622491613030434,0.0053641302511096
0.005582984071224928,0.0051943776197731495,-0.007416686043143272,0.0035550587344914675,0.00033624572097323835,0.005615223664790392
0.005911644548177719,0.004581298679113388,-0.007892382331192493,0.003430322278290987,0.0003229025169275701,0.005402584094554186
0.00606885738670826,0.004470565356314182,-0.00820854026824236,0.003487067297101021,0.00030509449425153434,0.005382547155022621
0.005958811845630407,0.004494905471801758,-0.007667954079806805,0.0033640884794294834,0.0002887998125515878,0.0055601634085178375
0.0056012338027358055,0.004762675613164902,-0.008162781596183777,0.0033279380295425653,0.0002741352654993534,0.005313989706337452
0.00583503395318985,0.004887406714260578,-0.008704415522515774,0.003588027786463499,0.00030138532747514546,0.0059319427236914635
0.006225955206900835,0.004691483452916145,-0.008044376038014889,0.0032991687767207623,0.0002901427214965224,0.005484872031956911
0.006048681680113077,0.004875099286437035,-0.007545036729425192,0.0033593096304684877,0.0002775305765680969,0.0052274009212851524
0.005781208630651236,0.004444186110049486,-0.00774129293859005,0.003348694648593664,0.00026582935242913663,0.005440616514533758
0.0055440436117351055,0.004547762684524059,-0.008165528066456318,0.0031426933128386736,0.00028199891676194966,0.0051469043828547
0.0055440436117351055,0.004547762684524059,-0.008165528066456318,0.0031426933128386736,0.00028199891676194966,0.0051469043828547
0.006017123814672232,0.004543823190033436,-0.007764814887195826,0.0029110724572092295,0.00027953748940490186,0.005177740007638931
0.005808267276734114,0.004848580341786146,-0.007418482564389706,0.003218387020751834,0.0002936790697276592,0.005223576910793781
0.0059022242203354836,0.005145017523318529,-0.00811522826552391,0.003050893312320113,0.00028367573395371437,0.005712809041142464
0.006249449215829372,0.0045630913227796555,-0.008495330810546875,0.0031538482289761305,0.0003136216546408832,0.005772133823484182
0.005562771577388048,0.004475964233279228,-0.007822896353900433,0.003357173874974251,0.0003024132747668773,0.005659207236021757
0.005974018480628729,0.004542799200862646,-0.007631428074091673,0.003210278693586588,0.0002867644652724266,0.005579062737524509
0.005950374063104391,0.004589050076901913,-0.007622456643730402,0.003051184583455324,0.0002723248035181314,0.0054427580907940865
0.0061869327910244465,0.0048851254396140575,-0.007962695322930813,0.0032880923245102167,0.00029666663613170385,0.005509576760232449
0.005566583015024662,0.0048255641013383865,-0.0074287657625973225,0.003306956496089697,0.00028821927844546735,0.005591714754700661
0.005317451432347298,0.0046826633624732494,-0.007099606096744537,0.003268366912379861,0.0002759288181550801,0.00526437209919095
0.005220368504524231,0.004627985879778862,-0.007068801671266556,0.003223395673558116,0.0002643688640091568,0.005761133041232824
0.005394324194639921,0.004603007808327675,-0.007253881543874741,0.0032042665407061577,0.0002785782271530479,0.005427722819149494
0.005751372780650854,0.004867149516940117,-0.007039794698357582,0.0035993752535432577,0.0002683386264834553,0.005747221875935793
0.005639080889523029,0.004848836921155453,-0.007420041598379612,0.0034324077423661947,0.00025870470562949777,0.006161294411867857
0.005694617051631212,0.004735339432954788,-0.007797314319759607,0.003524323459714651,0.00029451982118189335,0.005772529169917107
0.005381650757044554,0.004389272071421146,-0.00702053913846612,0.0032461516093462706,0.00029052598983980715,0.005870661698281765
0.005831193178892136,0.004491186700761318,-0.007122103590518236,0.0033662288915365934,0.0003004803438670933,0.0058936988934874535
0.005821523256599903,0.004533507861196995,-0.007615522015839815,0.0034928936511278152,0.00030797140789218247,0.0057034301571547985
0.005554841831326485,0.00460022734478116,-0.007826775312423706,0.0033767411950975657,0.0002928751928266138,0.005461761262267828
0.0054457224905490875,0.004791701212525368,-0.00695437379181385,0.0033218194730579853,0.0002779024071060121,0.005450182594358921
0.006036544684320688,0.004781024996191263,-0.006651241797953844,0.003342194715514779,0.0003024458419531584,0.005680060014128685
0.005701422691345215,0.004786711651831865,-0.006691540591418743,0.003362292191013694,0.000293575954856351,0.0059437621384859085
0.005799292121082544,0.0048406096175313,-0.007350204978138208,0.00334725109860301,0.0003155878512188792,0.005646434146910906
0.00540791405364871,0.004809859208762646,-0.00723603880032897,0.0030620135366916656,0.00030692285508848727,0.0056786383502185345
0.005342000629752874,0.004346019122749567,-0.007146120071411133,0.003198145655915141,0.0002946722670458257,0.005499128717929125
0.0051375520415604115,0.0043856920674443245,-0.006921757012605667,0.0033206373918801546,0.0002831036690622568,0.005324625875800848
0.0051375520415604115,0.0043856920674443245,-0.006921757012605667,0.0033206373918801546,0.0002831036690622568,0.005324625875800848
0.005316421389579773,0.004967802669852972,-0.007556544616818428,0.0035697943530976772,0.0003361039562150836,0.005474384408444166
0.005444597918540239,0.0048912749625742435,-0.007607089355587959,0.0036965892650187016,0.0003327575686853379,0.005605550017207861
0.005160334054380655,0.004739876836538315,-0.006651822943240404,0.003357694251462817,0.00031114608282223344,0.005834884010255337
0.0057861157692968845,0.004618351347744465,-0.0065123168751597404,0.003126646624878049,0.00034525454975664616,0.006138271186500788
0.005521702114492655,0.004620687570422888,-0.007071406580507755,0.0028812389355152845,0.00032782586640678346,0.0062142121605575085
0.006606138776987791,0.004697269760072231,-0.007312300615012646,0.0029359119944274426,0.00030927304760552943,0.006066326517611742
0.006032681558281183,0.0047557600773870945,-0.006959218066185713,0.0031137652695178986,0.0002925280132330954,0.00625232420861721
0.004816094879060984,0.005178747698664665,-0.006742285098880529,0.0032902236562222242,0.0002774913446046412,0.005806291475892067
0.005177082493901253,0.004953625146299601,-0.007270143833011389,0.003566223895177245,0.00029638910200446844,0.0058098286390304565
0.005402622744441032,0.004534239415079355,-0.007488737814128399,0.003710441756993532,0.0002928074391093105,0.0055808997713029385
0.005946831312030554,0.00512591702863574,-0.0073471092619001865,0.0033442166168242693,0.0002804380201268941,0.0060108620673418045
0.005573859438300133,0.004821288865059614,-0.0070427837781608105,0.002970665693283081,0.00025754852686077356,0.005579986143857241
0.006063525099307299,0.0047770654782652855,-0.007885372266173363,0.003083739895373583,0.0002780736540444195,0.0058008902706205845
0.0055199069902300835,0.004956282675266266,-0.00737709691748023,0.0030698918271809816,0.0002717832976486534,0.005971434060484171
0.005474467296153307,0.004963047802448273,-0.00703738396987319,0.003039814531803131,0.00026216107653453946,0.006117938552051783
0.0058294981718063354,0.00516963005065918,-0.007046726532280445,0.003298616735264659,0.0002538974513299763,0.006325971335172653
0.006194998510181904,0.005052858032286167,-0.0075682224705815315,0.003599906340241432,0.0002588692295830697,0.005742841865867376
0.006103615276515484,0.005003529135137796,-0.007334457710385323,0.0037551976274698973,0.0002459952956996858,0.005947733297944069
0.005967940203845501,0.005054515786468983,-0.007171951700001955,0.0034552051220089197,0.00023331980628427118,0.005529186688363552
0.005383174400776625,0.004829633980989456,-0.007054422982037067,0.0032013647723942995,0.0002545608440414071,0.005416135303676128
0.005911805666983128,0.004768737591803074,-0.007874205708503723,0.0030022375285625458,0.0002529175253584981,0.005727116484194994
0.006204625125974417,0.004850179422646761,-0.0076578832231462,0.0031263919081538916,0.00024224176013376564,0.005985557567328215
0.005905374884605408,0.005582146812230349,-0.007287716027349234,0.003103319089859724,0.00023188117484096438,0.006057801190763712
0.0061064367182552814,0.005337998270988464,-0.007186777424067259,0.0030909180641174316,0.00022233487106859684,0.00672578951343894
0.005574287846684456,0.0048750219866633415,-0.008278902620077133,0.003137196647003293,0.00024671186110936105,0.006512164603918791
0.00589766725897789,0.004616077523678541,-0.007024672813713551,0.0033521356526762247,0.00023949430033098906,0.005752563942223787
0.0059042018838226795,0.0046050711534917355,-0.007116192020475864,0.00359511305578053,0.00023085871362127364,0.005844366271048784
0.005760177504271269,0.004742723423987627,-0.008165698498487473,0.003649802878499031,0.00022270566842053086,0.006019890774041414
0.0054749916307628155,0.005132465623319149,-0.008123314939439297,0.0035625642631202936,0.00021510162332560867,0.0061826989986002445
0.0054749916307628155,0.005132465623319149,-0.008123314939439297,0.0035625642631202936,0.00021510162332560867,0.0061826989986002445
0.00546184042468667,0.0050467620603740215,-0.0073499963618814945,0.003293175483122468,0.00020799900812562555,0.006121932994574308
0.006157071329653263,0.0049207680858671665,-0.007159273140132427,0.0034370177891105413,0.00020135031081736088,0.0060618361458182335
0.0061007230542600155,0.004453675821423531,-0.007607465144246817,0.0037024510093033314,0.00019511373830027878,0.006122613791376352
0.006214219145476818,0.004512148909270763,-0.00800545234233141,0.0033637485466897488,0.00018925203767139465,0.005928189028054476
0.005554509814828634,0.004713759757578373,-0.007425352931022644,0.0030211489647626877,0.00020651324302889407,0.005856234114617109
0.005362365394830704,0.004865395370870829,-0.007130020763725042,0.003055302193388343,0.0002038027159869671,0.006042178254574537
0.005642564035952091,0.005197399761527777,-0.0083821602165699,0.003327536629512906,0.0001983912952709943,0.006220078561455011
0.0062973168678581715,0.004880603868514299,-0.00793584156781435,0.0038545785937458277,0.00019308412447571754,0.0061245025135576725
0.006152596324682236,0.004539093933999538,-0.007487952243536711,0.0038921271916478872,0.00018804184219334275,0.006116397678852081
0.0057253045961260796,0.004581233020871878,-0.007546974811702967,0.003546155523508787,0.00018325539713259786,0.005926263984292746
0.0056172385811805725,0.005133064463734627,-0.007918855175375938,0.0031471417751163244,0.00017870686133392155,0.006106754299253225
0.006389172747731209,0.005370906088501215,-0.0076511274091899395,0.0034947218373417854,0.000171536928974092,0.0056756604462862015
0.006066629197448492,0.005259110126644373,-0.007016260642558336,0.0034207801800221205,0.0001668453187448904,0.0060072666965425014
0.0058981734327971935,0.004777791444212198,-0.008135500364005566,0.003567758947610855,0.000160984622198157,0.005506623070687056
0.0055582234635949135,0.004745110869407654,-0.007811153307557106,0.0032846408430486917,0.00015543060726486146,0.0054084486328065395
0.005680514965206385,0.005292990244925022,-0.007954655215144157,0.003454042598605156,0.00015024108870420605,0.005717396270483732
0.006088772788643837,0.005118940956890583,-0.007206672336906195,0.004102806560695171,0.00014538646792061627,0.0060071274638175964
0.0060545168817043304,0.005530041176825762,-0.008058425039052963,0.00416675116866827,0.0001408357493346557,0.005947488360106945
0.006010233890265226,0.005303346086293459,-0.00771537609398365,0.003724744077771902,0.0001365614589303732,0.006017488893121481
0.006128956098109484,0.0050011323764920235,-0.007471509277820587,0.003322504460811615,0.00013253894576337188,0.006390030030161142
0.005522866267710924,0.004932750482112169,-0.0075660389848053455,0.0031664634589105844,0.00012874655658379197,0.006290024612098932
0.00601343996822834,0.004925715737044811,-0.007966036908328533,0.003485563676804304,0.00012516524293459952,0.006221247371286154
0.0059109581634402275,0.00488239387050271,-0.008182588964700699,0.0034071828704327345,0.00012177776807220653,0.006120956968516111
0.006217300426214933,0.005130745004862547,-0.007526460103690624,0.003570086322724819,0.00011856892524519935,0.006122292950749397
0.00564871309325099,0.005068772006779909,-0.00695772934705019,0.003722366178408265,0.00011552477371878922,0.006537220440804958
0.005722820293158293,0.005106662400066853,-0.007884709164500237,0.0034708217717707157,0.00011263316264376044,0.006632595788687468
0.006291770841926336,0.004868126008659601,-0.008455160073935986,0.0034911679103970528,0.00010988261783495545,0.006165863946080208
0.006291770841926336,0.004868126008659601,-0.008455160073935986,0.0034911679103970528,0.00010988261783495545,0.006165863946080208
0.006204971112310886,0.004829707555472851,-0.008137994445860386,0.0036779053043574095,0.0001255349925486371,0.006007556803524494
0.006204971112310886,0.004829707555472851,-0.008137994445860386,0.0036779053043574095,0.0001255349925486371,0.006007556803524494
0.005664571654051542,0.005133415572345257,-0.00800123531371355,0.003426504088565707,0.00012284674448892474,0.006414402741938829
0.005967157427221537,0.005139597691595554,-0.007554658688604832,0.003379224566742778,0.00012012478691758588,0.006664216052740812
0.006772100459784269,0.005021543707698584,-0.007738817948848009,0.004045586101710796,0.00011751124111469835,0.006155157927423716
0.006798805668950081,0.004910866729915142,-0.007692927028983831,0.004138695076107979,0.00011500858818180859,0.005921811796724796
0.006285725627094507,0.004787573590874672,-0.007811780087649822,0.003528575412929058,0.00011261014151386917,0.006308573763817549
0.006385955028235912,0.004722966812551022,-0.007660211995244026,0.003364192321896553,0.00011030964378733188,0.00647363206371665
0.006412532180547714,0.005238040816038847,-0.00840356107801199,0.003337492933496833,0.00010810136154759675,0.00608260091394186
0.00640381732955575,0.0051878527738153934,-0.008714261464774609,0.0032635130919516087,0.00010597978689474985,0.006222581025213003
0.006576933898031712,0.004494309425354004,-0.007752795238047838,0.0036982963792979717,0.00010197685332968831,0.006380920298397541
0.0065741208381950855,0.004879172891378403,-0.007491304539144039,0.003460574895143509,0.00010008667595684528,0.006645149551331997
0.0064397454261779785,0.005004993174225092,-0.008067157119512558,0.003588813589885831,9.826543100643903e-05,0.0064847455359995365
0.006324284244328737,0.004840646870434284,-0.008265523239970207,0.0036576767452061176,9.650916035752743e-05,0.0062537179328501225
0.0066168890334665775,0.005314219277352095,-0.008540299721062183,0.0036825218703597784,9.481466258876026e-05,0.006123587489128113
0.006187126040458679,0.005197017453610897,-0.008034603670239449,0.0036538487765938044,9.317848889622837e-05,0.0061452435329556465
0.00608585262671113,0.004874097183346748,-0.008228642866015434,0.003761723404750228,9.159795445157215e-05,0.0062130228616297245
0.006669803988188505,0.0047772047109901905,-0.007506366819143295,0.003404581220820546,0.00010237765673082322,0.006412700284272432
0.006669803988188505,0.0047772047109901905,-0.007506366819143295,0.003404581220820546,0.00010237765673082322,0.006412700284272432
0.0064239208586514,0.004777114372700453,-0.008316400460898876,0.0035547392908483744,0.00010162553371628746,0.006371924187988043
0.006123991217464209,0.005224761553108692,-0.00845030415803194,0.003684290451928973,0.00010006999946199358,0.006414392031729221
0.006229771766811609,0.005387031007558107,-0.008061052300035954,0.0034904591739177704,9.850908099906519e-05,0.006445843260735273
0.006470997352153063,0.004932560957968235,-0.0077844043262302876,0.003516330849379301,9.699274960439652e-05,0.006551894824951887
0.006517725996673107,0.004880032502114773,-0.008300581015646458,0.0037207314744591713,9.552207484375685e-05,0.006652215961366892
0.00633707270026207,0.004846684169024229,-0.007980814203619957,0.003451491938903928,9.409544873051345e-05,0.006357318721711636
0.006491018924862146,0.0051146200858056545,-0.008130338042974472,0.0035325950011610985,9.271073940908536e-05,0.006490725092589855
0.0064289686270058155,0.005575825460255146,-0.007829015143215656,0.00366822793148458,9.136617154581472e-05,0.006200626492500305
0.00639680540189147,0.0051384586840868,-0.008159073069691658,0.0036878339014947414,9.006005711853504e-05,0.006286208052188158
0.0066033462062478065,0.004817610140889883,-0.008179164491593838,0.0036701601929962635,8.879080996848643e-05,0.006058344617486
0.006590057630091906,0.004655374214053154,-0.008288821205496788,0.0036903296131640673,8.755678572924808e-05,0.00609781127423048
0.006590057630091906,0.004655374214053154,-0.008288821205496788,0.0036903296131640673,8.755678572924808e-05,0.00609781127423048
0.006172392051666975,0.004603027831763029,-0.00855906680226326,0.0037144015077501535,8.635658741695806e-05,0.006910321302711964
0.006529257632791996,0.004603444132953882,-0.008063268847763538,0.003754613222554326,8.518889080733061e-05,0.00649764109402895
0.006806541234254837,0.005164868198335171,-0.007927605882287025,0.0037895541172474623,8.405234257224947e-05,0.006425765343010426
0.0066808233968913555,0.005451911129057407,-0.007610383443534374,0.0038467124104499817,8.294574945466593e-05,0.00635492941364646
0.006297552492469549,0.004996790550649166,-0.008579588495194912,0.0031850142404437065,8.18678381619975e-05,0.00624479865655303
0.006612410768866539,0.004896565806120634,-0.008486106060445309,0.002951049478724599,8.081762643996626e-05,0.006371418014168739
0.006800448521971703,0.004775823559612036,-0.007859624922275543,0.0034805345349013805,7.97940228949301e-05,0.006542189512401819
0.00697782589122653,0.004750571213662624,-0.00811949372291565,0.003934653475880623,7.879602344473824e-05,0.00684701232239604
0.0068443105556070805,0.005159798078238964,-0.008152545429766178,0.00419645244255662,7.782268221490085e-05,0.006476912181824446
0.006409215275198221,0.005506116431206465,-0.008159475401043892,0.003922690637409687,7.687308971071616e-05,0.006580990273505449
0.0068298461847007275,0.004187955055385828,-0.008708964101970196,0.0036042870488017797,7.50417893868871e-05,0.006800693925470114
0.006989031098783016,0.004089157562702894,-0.008261706680059433,0.0037415034603327513,7.415842264890671e-05,0.006771162152290344
0.0069258566945791245,0.004372121300548315,-0.008067167364060879,0.0038110436871647835,7.329567597480491e-05,0.006826060824096203
0.006657010409981012,0.0041203745640814304,-0.007890211418271065,0.0038081277161836624,7.245273445732892e-05,0.006703741382807493
0.006875941064208746,0.004507639445364475,-0.008354973047971725,0.004303935449570417,7.162900874391198e-05,0.006742945872247219
0.006745644845068455,0.004561353009194136,-0.008294493891298771,0.00415407121181488,7.082376396283507e-05,0.006470688618719578
0.006664558779448271,0.004361904226243496,-0.007670178078114986,0.003951760940253735,7.003641803748906e-05,0.006204001605510712
0.0066559892147779465,0.004365555476397276,-0.008204628713428974,0.00378714082762599,1.779711055860389e-05,0.006312030833214521
0.0072251842357218266,0.0046956236474215984,-0.00883770827203989,0.0037281890399754047,1.1620242048593354e-06,0.006456789560616016
0.007550968788564205,0.004259819630533457,-0.008446607738733292,0.0037265655118972063,7.587187411672858e-08,0.006482716649770737
0.0065159909427165985,0.004415314178913832,-0.007796069141477346,0.0033689795527607203,4.953891519221543e-09,0.0065967366099357605
0.00652277609333396,0.004362099803984165,-0.008654296398162842,0.003478096332401037,3.2345370826192266e-10,0.006794460117816925
0.007034432142972946,0.0045120129361748695,-0.008550344966351986,0.0036892215721309185,2.1119214016485088e-11,0.006629659794270992
0.007479862775653601,0.004346897825598717,-0.007903463207185268,0.0034781955182552338,1.378933859458309e-12,0.006685157772153616
0.007479862775653601,0.004346897825598717,-0.007903463207185268,0.0034781955182552338,1.378933859458309e-12,0.006685157772153616
0.007015109062194824,0.004308775067329407,-0.008220170624554157,0.0032687371131032705,9.003452687171218e-14,0.0068125114776194096
0.006409783381968737,0.004488986451178789,-0.009061910212039948,0.0031613861210644245,5.878611094819238e-15,0.007560194004327059
0.0070590791292488575,0.004557428415864706,-0.00927121751010418,0.003458093386143446,3.838313124521713e-16,0.006947055924683809
0.007106253411620855,0.004692288115620613,-0.007934752851724625,0.0038063102401793003,2.5061440088737577e-17,0.005888684187084436
0.0067909155040979385,0.004339656792581081,-0.008313992992043495,0.003824895014986396,1.6363329270530387e-18,0.005859796889126301
0.006791554857045412,0.004284183494746685,-0.008336319588124752,0.0037870549131184816,1.0684085157819968e-19,0.006720992736518383
0.007168403826653957,0.004488190170377493,-0.008683145977556705,0.003773852251470089,6.975944493228563e-21,0.007667790167033672
0.007500380743294954,0.00426415866240859,-0.008057949133217335,0.0037873429246246815,4.554793504582779e-22,0.007520050276070833
0.007400927599519491,0.004538729786872864,-0.008724945597350597,0.003722286783158779,2.973954494496556e-23,0.007064386270940304
0.006828221958130598,0.004639013204723597,-0.008008264936506748,0.003705422393977642,1.9417799349101627e-24,0.006626716814935207
0.0071694920770823956,0.00433712312951684,-0.008009875193238258,0.003878155490383506,1.2678435650648852e-25,0.006862968672066927
0.007547359447926283,0.004397477954626083,-0.008026011288166046,0.0038730809465050697,5.405016462775836e-28,0.00699152797460556
0.00683506578207016,0.004515438806265593,-0.007612745277583599,0.003691419493407011,3.5290893773494153e-29,0.006761356256902218
0.0068462202325463295,0.004612922202795744,-0.007386513985693455,0.003753046505153179,2.3042429588547472e-30,0.006829192861914635
0.0073443627916276455,0.00447677168995142,-0.00873084831982851,0.0038484458345919847,1.5045060507615094e-31,0.006848054472357035
0.007406190037727356,0.004851863719522953,-0.008644778281450272,0.0038380823098123074,9.823349885116584e-33,0.007053968962281942
0.007107882294803858,0.004972977098077536,-0.008025392889976501,0.0038082441315054893,6.413944876130171e-34,0.0070919799618422985
0.006899592932313681,0.004800778813660145,-0.007714989595115185,0.0038598114624619484,4.187847857485656e-35,0.007207093760371208
0.007348903454840183,0.0045085190795362,-0.008099171333014965,0.0038874009624123573,2.734365307398688e-36,0.007562695071101189
0.007296930532902479,0.004825159441679716,-0.007833674550056458,0.004084758926182985,1.7853451597941823e-37,0.007352585904300213
0.006894174963235855,0.004957972094416618,-0.007376169320195913,0.0041208816692233086,1.1657027778028178e-38,0.007181935012340546
0.006993442308157682,0.004791946616023779,-0.008397613652050495,0.004041023086756468,7.611208660918817e-40,0.006872886326164007
0.0074516781605780125,0.004792556166648865,-0.008612739853560925,0.0036546022165566683,4.969564873881531e-41,0.007025331724435091
0.007126686628907919,0.004968440625816584,-0.007866313681006432,0.003501645987853408,3.2454072433762763e-42,0.007221542298793793
0.007220281753689051,0.004406002350151539,-0.0077232676558196545,0.0035921211820095778,2.1159606811304738e-43,0.00717146834358573
0.00741842295974493,0.004526760429143906,-0.008414902724325657,0.004103757441043854,1.401298464324817e-44,0.00717195076867938
0.00755456555634737,0.004477487877011299,-0.007913058623671532,0.004047678783535957,1.401298464324817e-45,0.007430547382682562
0.0073745097033679485,0.004639888647943735,-0.008147284388542175,0.0039856815710663795,0.0,0.008083401247859001
0.007501423824578524,0.004772507585585117,-0.007987678050994873,0.00397638650611043,0.0,0.007833740673959255
0.007501423824578524,0.004772507585585117,-0.007987678050994873,0.00397638650611043,0.0,0.007833740673959255
0.0074750022031366825,0.004373272880911827,-0.007994011044502258,0.004626840818673372,0.0,0.006957941222935915
0.008010976947844028,0.004323404747992754,-0.007928106933832169,0.004345174878835678,0.0,0.007239978294819593
0.008010976947844028,0.004323404747992754,-0.007928106933832169,0.004345174878835678,0.0,0.007239978294819593
0.00764975231140852,0.004516224842518568,-0.008247322402894497,0.004042504820972681,0.0,0.00735736358910799
0.0071617295034229755,0.004556070081889629,-0.009156053885817528,0.004296876490116119,0.0,0.007341061718761921
0.007496515288949013,0.004661011975258589,-0.008146687410771847,0.004549170378595591,0.0,0.007421542424708605
0.007627198006957769,0.004749726504087448,-0.00753775192424655,0.0046873316168785095,0.0,0.007303515449166298
0.007455628830939531,0.00489055598154664,-0.008412307128310204,0.004710680805146694,0.0,0.007173079065978527
0.007820104248821735,0.004300449043512344,-0.008330837823450565,0.004197152331471443,0.0,0.007176208775490522
0.008528083562850952,0.004481073468923569,-0.00856056809425354,0.004052275326102972,0.0,0.007414447143673897
0.0072858924977481365,0.0046222154051065445,-0.009367341175675392,0.004029898438602686,0.0,0.007249047048389912
0.006996209267526865,0.005220203194767237,-0.008112221956253052,0.0042716581374406815,0.0,0.00733917998149991
0.008233060128986835,0.005164774134755135,-0.00792649481445551,0.004534960258752108,0.0,0.007840157486498356
0.008516068570315838,0.004415431991219521,-0.00855785608291626,0.004504759795963764,0.0,0.007872454822063446
0.00794596690684557,0.004286985378712416,-0.00890317838639021,0.004331888630986214,0.0,0.007540506776422262
0.007829333655536175,0.004851165227591991,-0.009038741700351238,0.0035896121989935637,0.0,0.00844782218337059
0.007829333655536175,0.004851165227591991,-0.009038741700351238,0.0035896121989935637,0.0,0.00844782218337059
0.007632325403392315,0.0047863502986729145,-0.008715941570699215,0.003844542894512415,0.0,0.007902274839580059
0.007433575112372637,0.004663218278437853,-0.008502686396241188,0.004197718109935522,0.0,0.007464414928108454
0.008087565191090107,0.004644486121833324,-0.008636062033474445,0.004327191971242428,0.0,0.007417643442749977
0.008229784667491913,0.004174765665084124,-0.008637922815978527,0.004275973420590162,0.0,0.007979261688888073
0.008374825119972229,0.004422650672495365,-0.008283453062176704,0.004247714765369892,0.0,0.00783387292176485
0.007923743687570095,0.004741123411804438,-0.008332648314535618,0.004048643168061972,0.0,0.00748454499989748
0.008260036818683147,0.004350588656961918,-0.009242345578968525,0.004242404364049435,0.0,0.007114858832210302
0.00837511382997036,0.004333010409027338,-0.008641817606985569,0.0040704673156142235,0.0,0.0078006284311413765
0.008698512800037861,0.004658496007323265,-0.008147460408508778,0.004377689678221941,0.0,0.007643058896064758
0.008641021326184273,0.004683052189648151,-0.008140397258102894,0.004635795950889587,0.0,0.00812030304223299
0.008256416767835617,0.004570224322378635,-0.00836570281535387,0.004642397630959749,0.0,0.008422651328146458
0.008616889826953411,0.004348821006715298,-0.008481260389089584,0.0047147683799266815,0.0,0.008110045455396175
0.008616889826953411,0.004348821006715298,-0.008481260389089584,0.0047147683799266815,0.0,0.008110045455396175
0.008379370905458927,0.004322674125432968,-0.00861398410052061,0.004675138276070356,0.0,0.007940461859107018
0.009515149518847466,0.004782825242727995,-0.00875841174274683,0.00455684307962656,0.0,0.007633760571479797
0.00809228140860796,0.004810711368918419,-0.008403182961046696,0.004458522889763117,0.0,0.008016561158001423
0.008064594119787216,0.00490152882412076,-0.007969523780047894,0.005009083077311516,0.0,0.008328847587108612
0.008373566903173923,0.004368643742054701,-0.008212822489440441,0.005436702631413937,0.0,0.008188674226403236
0.008759470656514168,0.004268003161996603,-0.00939323753118515,0.005226103588938713,0.0,0.0078867943957448
0.008701249957084656,0.004533385392278433,-0.008899870328605175,0.004875396378338337,0.0,0.007773627061396837
0.008476109243929386,0.004919024184346199,-0.008840976282954216,0.004699770826846361,0.0,0.008025314658880234
0.008841976523399353,0.004710412118583918,-0.00880418997257948,0.0047414423897862434,0.0,0.008236857131123543
0.008765107952058315,0.004865776747465134,-0.008157780393958092,0.005056914873421192,0.0,0.008478567004203796
0.008355521596968174,0.0047760289162397385,-0.008423378691077232,0.0050291926600039005,0.0,0.007951237261295319
0.009254127740859985,0.004341099876910448,-0.009056678041815758,0.004652435891330242,0.0,0.007906550541520119
0.008697166107594967,0.004369970411062241,-0.00850676093250513,0.004418304655700922,0.0,0.009351239539682865
0.008415540680289268,0.00430338503792882,-0.00822022557258606,0.004397156182676554,0.0,0.007889126427471638
0.009502941742539406,0.0043043275363743305,-0.009214927442371845,0.004614651203155518,0.0,0.008160963654518127
0.009539502672851086,0.004790895152837038,-0.00929364375770092,0.004745154641568661,0.0,0.008512147702276707
0.009343964047729969,0.004778592847287655,-0.009133139625191689,0.004814682062715292,0.0,0.008449351415038109
0.009208017960190773,0.004396951291710138,-0.008877158164978027,0.004805761389434338,0.0,0.008413014933466911
0.009565879590809345,0.004097623750567436,-0.00899534672498703,0.004779772367328405,0.0,0.008292030543088913
0.009305945597589016,0.004060016013681889,-0.008497269824147224,0.004725882783532143,0.0,0.008394688367843628
0.009221596643328667,0.004424552898854017,-0.008381467312574387,0.004749320913106203,4.455019734450616e-06,0.00835788156837225
0.009099301882088184,0.004438892938196659,-0.009097407571971416,0.004859033972024918,2.908809619839303e-07,0.008343840949237347
0.00937781110405922,0.004474327899515629,-0.008546849712729454,0.004902536515146494,1.899244850278592e-08,0.008685370907187462
0.008876296691596508,0.004559359513223171,-0.008712326176464558,0.004716780036687851,1.240071156871636e-09,0.008441850543022156
0.009855596348643303,0.00424415897578001,-0.009374983608722687,0.004935734905302525,8.096778109090152e-11,0.008478155359625816
0.009151419624686241,0.004349623806774616,-0.009058481082320213,0.004812160972505808,5.286617497934909e-12,0.008882114663720131
0.009151419624686241,0.004349623806774616,-0.009058481082320213,0.004812160972505808,5.286617497934909e-12,0.008882114663720131
0.009783067740499973,0.004236096981912851,-0.00912909209728241,0.0048503149300813675,3.4517836722605666e-13,0.008759982883930206
0.009263759478926659,0.004020258318632841,-0.009122796356678009,0.00449685612693429,2.2537681559887078e-14,0.008847811259329319
0.009529683738946915,0.004307971801608801,-0.008941153064370155,0.004871818702667952,1.4715495981110671e-15,0.008682324551045895
0.009357936680316925,0.004213480744510889,-0.008760282769799232,0.0053267041221261024,9.608168021179916e-17,0.008615702390670776
0.009440680965781212,0.004067922942340374,-0.010461018420755863,0.005134624429047108,6.273447367033325e-18,0.009106455370783806
0.009758025407791138,0.003930348437279463,-0.009722552262246609,0.004973547998815775,4.096112831867982e-19,0.008621335960924625
0.01001371257007122,0.004118649754673243,-0.008655613288283348,0.004954309668391943,1.7462372420298285e-21,0.008969271555542946
0.00978985708206892,0.004092835355550051,-0.009961691685020924,0.005574168171733618,1.1401681817843025e-22,0.008715787902474403
0.009315934963524342,0.003925001248717308,-0.008954521268606186,0.0054168663918972015,7.444484306875215e-24,0.008547901175916195
0.009653189219534397,0.004291359800845385,-0.008425095118582249,0.005270625464618206,4.860716351091256e-25,0.00884267222136259
0.009721648879349232,0.004675388336181641,-0.009299208410084248,0.005227349232882261,3.173700512310465e-26,0.009268482215702534
0.00961337424814701,0.004236412700265646,-0.009537767618894577,0.0047892308793962,2.07219970143158e-27,0.009308997541666031
0.010476572439074516,0.0039203776977956295,-0.008951209485530853,0.004624418914318085,1.3529984063704662e-28,0.008256346918642521
0.009927735663950443,0.003817794844508171,-0.009500879794359207,0.005485085770487785,8.834112761118881e-30,0.008399976417422295
0.00944233313202858,0.0042427615262568,-0.009137731976807117,0.005638041067868471,5.76804404459791e-31,0.00871451199054718
0.010113860480487347,0.004197824280709028,-0.009027373977005482,0.005682429298758507,3.766120506319845e-32,0.0088146748021245
0.009819990023970604,0.003984191454946995,-0.009317516349256039,0.005126542411744595,2.459007265264535e-33,0.009235695004463196
0.009417228400707245,0.003853237023577094,-0.00975019671022892,0.004958269651979208,1.6055560763215736e-34,0.00905408151447773
0.010085050016641617,0.003977055195719004,-0.00883630570024252,0.005134860519319773,1.0483133093480826e-35,0.008764161728322506
0.010758443735539913,0.004056192468851805,-0.009047969244420528,0.005165114067494869,6.844736292043617e-37,0.008929567411541939
0.009859558194875717,0.0038870731368660927,-0.00905490294098854,0.005405117757618427,4.469123917731988e-38,0.009389099664986134
0.009964062832295895,0.0037133980076760054,-0.009039199911057949,0.005166004411876202,2.9180190805591407e-39,0.009343079291284084
0.010065312497317791,0.0036799954250454903,-0.00946898479014635,0.004758387338370085,1.9052614440345943e-40,0.008717088028788567
0.009728031232953072,0.0037273389752954245,-0.009785013273358345,0.004960781894624233,1.24393264678114e-41,0.009549859911203384
0.010540315881371498,0.0043098581954836845,-0.009560838341712952,0.0054534063674509525,8.127531093083939e-43,0.009262760169804096
0.010514775291085243,0.004560172092169523,-0.00939948484301567,0.005579903721809387,5.324934164434305e-44,0.009510048665106297
0.010068824514746666,0.004296669736504555,-0.009759664535522461,0.005812583025544882,2.802596928649634e-45,0.009772861376404762
0.010195627808570862,0.003990508615970612,-0.00942386593669653,0.005321235861629248,0.0,0.009542201645672321
0.010195627808570862,0.003990508615970612,-0.00942386593669653,0.005321235861629248,0.0,0.009542201645672321
0.010564862750470638,0.003853920381516218,-0.009042123332619667,0.0052125477232038975,0.0,0.009395408444106579
0.010510087944567204,0.004127291962504387,-0.009764416143298149,0.005440862849354744,0.0,0.009616367518901825
0.010473614558577538,0.004231447819620371,-0.009387406520545483,0.005661161616444588,0.0,0.009598343633115292
0.009809217415750027,0.004204063676297665,-0.00899891834706068,0.00555999344214797,0.0,0.009447329677641392
0.010515500791370869,0.004175303503870964,-0.009491519071161747,0.005574014037847519,0.0,0.009774224832654
0.010782012715935707,0.0044814893044531345,-0.009516825899481773,0.0052717761136591434,0.0,0.009766144677996635
0.010125895962119102,0.0042139687575399876,-0.008700416423380375,0.005188262090086937,0.0,0.009385344572365284
0.009814632125198841,0.004369969945400953,-0.009571796283125877,0.005537819117307663,0.0,0.009519489482045174
0.010144704952836037,0.004293926525861025,-0.009470737539231777,0.0055638644844293594,0.0,0.009439237415790558
0.010407316498458385,0.004149145446717739,-0.009723198600113392,0.005452840123325586,-0.0003091948456130922,0.009606084786355495
0.00998582225292921,0.004262026399374008,-0.009100031107664108,0.005261329002678394,-0.0002929404145106673,0.009897654876112938
0.010100645944476128,0.004081778693944216,-0.008636864833533764,0.005352097097784281,-0.0002752667642198503,0.010287504643201828
0.010164844803512096,0.004294128622859716,-0.009002050384879112,0.005955792963504791,-0.0002976367832161486,0.010317809879779816
0.010111909359693527,0.004129789303988218,-0.009111491031944752,0.005902087315917015,-0.0002934253425337374,0.01043080072849989
0.010343079455196857,0.004487949889153242,-0.009094694629311562,0.00595835642889142,-0.00027904188027605414,0.009413410909473896
0.010192397981882095,0.004651910625398159,-0.009354081936180592,0.005526478867977858,-0.0003065674100071192,0.00958275143057108
0.010170644149184227,0.0042661200277507305,-0.009762367233633995,0.005747618619352579,-0.0002949032059404999,0.00986758153885603
0.010129240341484547,0.004301033914089203,-0.009466276504099369,0.005702109541743994,-0.0003193987940903753,0.010630721226334572
0.010291380807757378,0.0047295549884438515,-0.009234877303242683,0.006008924916386604,-0.00030818310915492475,0.010514648631215096
0.010378525592386723,0.004796548746526241,-0.009227920323610306,0.006436856463551521,-0.0002956847019959241,0.009991124272346497
0.011016382835805416,0.004401159472763538,-0.009141480550169945,0.005836223717778921,-0.00035273528192192316,0.009869151748716831
0.011322945356369019,0.00451832078397274,-0.009377670474350452,0.005730062257498503,-0.0003367993631400168,0.010342187248170376
0.010176767595112324,0.004301862325519323,-0.009499658830463886,0.005492916330695152,-0.00031397270504385233,0.010652369819581509
0.010862880386412144,0.004479192662984133,-0.008918427862226963,0.006112323142588139,-0.00029352502315305173,0.010189119726419449
0.010862880386412144,0.004479192662984133,-0.008918427862226963,0.006112323142588139,-0.00029352502315305173,0.010189119726419449
0.010601772926747799,0.00482470216229558,-0.009712961502373219,0.00676068477332592,-0.000311080104438588,0.010889627039432526
0.010601772926747799,0.00482470216229558,-0.009712961502373219,0.00676068477332592,-0.000311080104438588,0.010889627039432526
0.011179964058101177,0.004416180308908224,-0.009553943760693073,0.005896323826164007,-0.0002945326268672943,0.01043496374040842
0.010562745854258537,0.004627561662346125,-0.009838744066655636,0.006287316791713238,-0.0003039058647118509,0.010145976208150387
0.010562745854258537,0.004627561662346125,-0.009838744066655636,0.006287316791713238,-0.0003039058647118509,0.010145976208150387
0.010839005932211876,0.004632440395653248,-0.009937454015016556,0.006268796510994434,-0.00029492765315808356,0.010879216715693474
0.010402248241007328,0.004863430745899677,-0.008946404792368412,0.005988496355712414,-0.0002820628578774631,0.010430368594825268
0.010716901160776615,0.0046839104034006596,-0.009748807176947594,0.005850692745298147,-0.00030593376141041517,0.01003213133662939
0.010989299044013023,0.004830163437873125,-0.00948845874518156,0.006325664930045605,-0.0002957121469080448,0.010581297799944878
0.010947607457637787,0.0047692907974123955,-0.009077892638742924,0.006829380989074707,-0.0003163397777825594,0.010195421986281872
0.012268946506083012,0.004934077151119709,-0.0095718614757061,0.006910329218953848,-0.000306093308608979,0.010380697436630726
0.012343688867986202,0.004398687742650509,-0.009134183637797832,0.005826074164360762,-0.0002963696315418929,0.011146685108542442
0.01254667341709137,0.0051461621187627316,-0.009049780666828156,0.006799898110330105,-0.00030393098131753504,0.010529199615120888
0.01192757673561573,0.004963011015206575,-0.00940000917762518,0.006725967396050692,-0.00032479537185281515,0.01078779250383377
0.012340491637587547,0.004467709455639124,-0.008914725854992867,0.00651135016232729,-0.00031956785824149847,0.010732576251029968
0.012238758616149426,0.004435483831912279,-0.010299100540578365,0.00609622010961175,-0.00030483707087114453,0.010730350390076637
0.01252265740185976,0.004663912579417229,-0.009782225824892521,0.005827043205499649,-0.0002908101596403867,0.010301169939339161
0.01269227173179388,0.004777816124260426,-0.009078122675418854,0.006697224918752909,-0.0003149762051180005,0.010461944155395031
0.012422706931829453,0.004775704350322485,-0.009172292426228523,0.006991900969296694,-0.00030408374732360244,0.010861172340810299
0.012761793099343777,0.004705669824033976,-0.009183783084154129,0.006631243508309126,-0.0002919112448580563,0.010464212857186794
0.012576144188642502,0.004590453580021858,-0.009159917011857033,0.005815501324832439,-0.0002805449184961617,0.010741641744971275
0.012813735753297806,0.0041609350591897964,-0.009117390029132366,0.005766836926341057,-0.00027002242859452963,0.011127285659313202
0.012176696211099625,0.00444756681099534,-0.009486798197031021,0.006911266129463911,-0.0002602607710286975,0.011258203536272049
0.012776436284184456,0.004508442711085081,-0.009104491211473942,0.007463082671165466,-0.000286290654912591,0.010859481990337372
0.012476245872676373,0.004327952861785889,-0.00886864960193634,0.006692467723041773,-0.0002743061922956258,0.010417704470455647
0.012994801625609398,0.004481824114918709,-0.00932125560939312,0.006242828909307718,-0.00025887752417474985,0.01021046657115221
0.012714346870779991,0.004658967722207308,-0.00890530925244093,0.0067596351727843285,-0.000290393247269094,0.0110035864636302
0.01323331706225872,0.004657244775444269,-0.008390674367547035,0.006895635277032852,-0.00027839193353429437,0.011342652142047882
0.013014496304094791,0.004637349396944046,-0.010780639946460724,0.006453658454120159,-0.00026492460165172815,0.010871579870581627
0.01284097321331501,0.004253082443028688,-0.009853653609752655,0.005475610960274935,-0.0002889998722821474,0.011520885862410069
0.01284097321331501,0.004253082443028688,-0.009853653609752655,0.005475610960274935,-0.0002889998722821474,0.011520885862410069
0.013266514055430889,0.004274954553693533,-0.009083387441933155,0.00682901032269001,-0.00028110036510042846,0.01202154066413641
0.012742085382342339,0.0045415316708385944,-0.009154981933534145,0.007688475307077169,-0.0002694044087547809,0.011975323781371117
0.013265225104987621,0.004677105695009232,-0.00954864639788866,0.007140621077269316,-0.00025837498833425343,0.011457526125013828
0.012684729881584644,0.004855961538851261,-0.008986618369817734,0.0066322037018835545,-0.00027893195510841906,0.011279410682618618
0.013141845352947712,0.004463816061615944,-0.009628109633922577,0.006283121649175882,-0.00027259066700935364,0.012424468994140625
0.013328572735190392,0.004148483742028475,-0.009717516601085663,0.006795454770326614,-0.0002629110822454095,0.011288047768175602
0.013386480510234833,0.003950286190956831,-0.009243973530828953,0.006934777367860079,-0.00025366523186676204,0.010262984782457352
0.013433565385639668,0.004390476271510124,-0.010184437036514282,0.006819942966103554,-0.00024503248278051615,0.010871401987969875
0.013504116795957088,0.004434399306774139,-0.00960027240216732,0.006619270425289869,-0.0002691008849069476,0.011913573369383812
0.012639302760362625,0.004515363369137049,-0.009794139303267002,0.006565880496054888,-0.00025430918321944773,0.011609162203967571
0.013507205992937088,0.0041602253913879395,-0.0097306277602911,0.0063420371152460575,-0.00024072763335425407,0.011662358418107033
0.012907743453979492,0.004217238165438175,-0.009173457510769367,0.006890455260872841,-0.00026221820735372603,0.011871477589011192
0.013393418863415718,0.004560030531138182,-0.009821951389312744,0.006708668079227209,-0.00026016461197286844,0.011487431824207306
0.013296390883624554,0.0042388541623950005,-0.011541061103343964,0.007004760205745697,-0.0002691308909561485,0.01175567414611578
0.013499158434569836,0.004500056616961956,-0.01067559514194727,0.006887916475534439,-0.0002762131334748119,0.01158953458070755
0.01318120863288641,0.004692605696618557,-0.010939659550786018,0.006863368675112724,-0.0002657919831108302,0.011429949663579464
0.013339434750378132,0.0045688701793551445,-0.010931986384093761,0.006991180591285229,-0.0002820469962898642,0.011661277152597904
0.013417773880064487,0.00465861102566123,-0.010775330476462841,0.006955617573112249,-0.000279588857665658,0.011513832956552505
0.013452881947159767,0.004686754662543535,-0.011301979422569275,0.007330803666263819,-0.0003238099452573806,0.011848555877804756
0.013319459743797779,0.004393723327666521,-0.010906379669904709,0.006717837881296873,-0.0003502416948322207,0.011926391161978245
0.01357471663504839,0.0045198858715593815,-0.010914708487689495,0.006397905759513378,-0.000328079448081553,0.012070100754499435
0.013769885525107384,0.004554403945803642,-0.011790402233600616,0.006730278022587299,-0.0003588468534871936,0.012033961713314056
0.013500206172466278,0.004657785873860121,-0.010484401136636734,0.007292578928172588,-0.00034325753222219646,0.011854670941829681
0.013753294013440609,0.004204730968922377,-0.011990890838205814,0.00702804047614336,-0.0003231791197322309,0.012037894688546658
0.013478566892445087,0.0044163987040519714,-0.011283724568784237,0.006572664249688387,-0.0003049500519409776,0.011985030956566334
0.014006813056766987,0.004694553557783365,-0.011145197786390781,0.006296628620475531,-0.0003334341454319656,0.012208452448248863
0.013519279658794403,0.004310919903218746,-0.011498142965137959,0.007024887949228287,-0.000319444079650566,0.011779346503317356
0.014013590291142464,0.004280692432075739,-0.011097768321633339,0.007345862686634064,-0.0003362848365213722,0.01137511245906353
0.013712495565414429,0.00416800519451499,-0.011234085075557232,0.007029098458588123,-0.00033091509249061346,0.011377105489373207
0.013712495565414429,0.00416800519451499,-0.011234085075557232,0.007029098458588123,-0.00033091509249061346,0.011377105489373207
0.01353572029620409,0.004031939897686243,-0.01065998338162899,0.00769268162548542,-0.00042474933434277773,0.011838228441774845
0.01353572029620409,0.004031939897686243,-0.01065998338162899,0.00769268162548542,-0.00042474933434277773,0.011838228441774845
0.013979372568428516,0.0044065541587769985,-0.011388841085135937,0.00774901220574975,-0.00041010562563315034,0.01219805609434843
0.014086003415286541,0.00461148377507925,-0.011011635884642601,0.00768973957747221,-0.00044145435094833374,0.012143619358539581
0.014141262508928776,0.004241759888827801,-0.011217983439564705,0.007706356700509787,-0.00046762946294620633,0.01249968446791172
0.014661203138530254,0.003961143549531698,-0.010537411086261272,0.007851500995457172,-0.0007800166495144367,0.012312444858253002
0.0140922786667943,0.003928119316697121,-0.011091559194028378,0.00767035037279129,-0.0007891281857155263,0.012316985055804253
0.01463006529957056,0.0037176532205194235,-0.011709911748766899,0.007542524486780167,-0.00072578398976475,0.012474062852561474
0.013985900208353996,0.0036850932519882917,-0.011646685190498829,0.007716897875070572,-0.0007204238791018724,0.012767759151756763
0.014111969619989395,0.0037959713954478502,-0.011569327674806118,0.007728131487965584,-0.0007602249388583004,0.012761680409312248
0.013836418278515339,0.0038524516858160496,-0.010478462092578411,0.007604523561894894,-0.0007260455167852342,0.012707667425274849
0.014348084107041359,0.003823548788204789,-0.010823487304151058,0.007533073425292969,-0.0007214389625005424,0.012270325794816017
0.014261728152632713,0.004262125585228205,-0.011165238916873932,0.007662965916097164,-0.0006610931013710797,0.012609060853719711
0.014827833510935307,0.004201909527182579,-0.010730583220720291,0.007892928086221218,-0.0006623500376008451,0.012521774508059025
0.014827833510935307,0.004201909527182579,-0.010730583220720291,0.007892928086221218,-0.0006623500376008451,0.012521774508059025
0.014518480747938156,0.004219965543597937,-0.010680276900529861,0.0073712849989533424,-0.0006347220623865724,0.011805295944213867
0.01408133190125227,0.004377955105155706,-0.01058241631835699,0.007627510000020266,-0.0005931675550527871,0.011527292430400848
0.015033901669085026,0.004324034322053194,-0.011008531786501408,0.007802725303918123,-0.0005560537683777511,0.012369800359010696
0.014957066625356674,0.004315064288675785,-0.010207016952335835,0.007362373173236847,-0.0005694623687304556,0.012497288174927235
0.015642615035176277,0.004139523487538099,-0.010773402638733387,0.006700937170535326,-0.0005353468586690724,0.013331129215657711
0.01525851245969534,0.004434601869434118,-0.010931647382676601,0.007275705691426992,-0.0004883502260781825,0.013079610653221607
0.01525851245969534,0.004434601869434118,-0.010931647382676601,0.007275705691426992,-0.0004883502260781825,0.013079610653221607
0.01553216390311718,0.004092794377356768,-0.01068051252514124,0.007544332649558783,-0.00048400272498838603,0.013101549819111824
0.016715984791517258,0.003832870163023472,-0.010909318923950195,0.007475453894585371,-0.00047998002264648676,0.013057018630206585
0.015236970037221909,0.0043224189430475235,-0.011063051410019398,0.007125539239495993,-0.00044798431918025017,0.013101053424179554
0.01490089949220419,0.004209704231470823,-0.010349392890930176,0.007787048351019621,-0.0004183586861472577,0.013580182567238808
0.01545389648526907,0.0041391621343791485,-0.01074714120477438,0.007826301269233227,-0.00039498027763329446,0.013222151435911655
0.01545389648526907,0.0041391621343791485,-0.01074714120477438,0.007826301269233227,-0.00039498027763329446,0.013222151435911655
0.01528147142380476,0.0039322045631706715,-0.010677674785256386,0.00741189531981945,-0.00039690424455329776,0.012897715903818607
0.01602158695459366,0.0038319139275699854,-0.011210846714675426,0.007600519806146622,-0.00037763253203593194,0.013226693496108055
0.015721838921308517,0.003964659757912159,-0.010341481305658817,0.008153651840984821,-0.00035890383878722787,0.013021938502788544
0.016056375578045845,0.00381069746799767,-0.010936427861452103,0.00793150719255209,-0.0003418636624701321,0.01315613929182291
0.015684526413679123,0.003727960167452693,-0.010824671946465969,0.008219138719141483,-0.0003263634571339935,0.013267578557133675
0.015768440440297127,0.003986596595495939,-0.011080537922680378,0.008218033239245415,-0.0002699298202060163,0.0134858638048172
0.0162423774600029,0.004269023891538382,-0.01089563313871622,0.008290444500744343,-0.00025316060055047274,0.013653635047376156
0.01607154868543148,0.004427019041031599,-0.010873178020119667,0.008847169578075409,-0.00023957420489750803,0.01324906200170517
0.016508184373378754,0.004263825714588165,-0.011142689734697342,0.008719021454453468,-0.00022745420574210584,0.013316038995981216
0.016271308064460754,0.004067425616085529,-0.01050698384642601,0.008274433203041553,-0.0002165063633583486,0.013700964860618114
0.0160819198936224,0.003529035020619631,-0.010983899235725403,0.008234698325395584,-0.0002423508558422327,0.01348246168345213
0.01626897044479847,0.004218194168061018,-0.01098550669848919,0.008579099550843239,-0.0002366356347920373,0.013332284055650234
0.016017938032746315,0.0046414658427238464,-0.010558645240962505,0.008110557682812214,-0.00022700669069308788,0.013330060988664627
0.016752799972891808,0.004606703296303749,-0.011224987916648388,0.007568345870822668,-0.00021786699653603137,0.01378152146935463
0.01661926880478859,0.004679559729993343,-0.011239225044846535,0.007598435506224632,-0.00022650262690149248,0.014671104960143566
0.016371380537748337,0.004202738869935274,-0.011041601188480854,0.0082315094769001,-0.00023403498926199973,0.013938450254499912
0.01609904132783413,0.003928740508854389,-0.01145581342279911,0.007859904319047928,-0.00022665636788588017,0.013593116775155067
0.016281915828585625,0.004243304021656513,-0.011425964534282684,0.0074365208856761456,-0.00023417027841787785,0.013673465698957443
0.016281915828585625,0.004243304021656513,-0.011425964534282684,0.0074365208856761456,-0.00023417027841787785,0.013673465698957443
0.01686174049973488,0.004295161459594965,-0.011800444684922695,0.008000900968909264,-0.0002406800485914573,0.013842127285897732
0.016393689438700676,0.004561296664178371,-0.011004140600562096,0.008124426938593388,-0.0002338008489459753,0.014242160134017467
0.016640659421682358,0.004463421646505594,-0.011792559176683426,0.00775516964495182,-0.00022717415413353592,0.01379967201501131
0.016450610011816025,0.004424741491675377,-0.012045592069625854,0.007899681106209755,-0.000263852474745363,0.014180246740579605
0.016529422253370285,0.004372431896626949,-0.01166683528572321,0.008910893462598324,-0.0002895586658269167,0.014772346243262291
0.016601422801613808,0.003994804807007313,-0.01170179434120655,0.009206721559166908,-0.0003094107087235898,0.013720526359975338
0.01635107956826687,0.004347911570221186,-0.011463318951427937,0.008498422801494598,-0.00031624315306544304,0.013550017029047012
0.016748685389757156,0.004107614979147911,-0.0113757885992527,0.008517547510564327,-0.00032362662022933364,0.013686108402907848
0.016435952857136726,0.004316276870667934,-0.01178478728979826,0.008822432719171047,-0.0003285492421127856,0.014217222109436989
0.017012890428304672,0.004321102984249592,-0.011266865767538548,0.008396012708544731,-0.00031544105149805546,0.01464307215064764
0.016469860449433327,0.004457704722881317,-0.011910690926015377,0.008478900417685509,-0.0004922825028188527,0.01435874868184328
0.016932018101215363,0.004573581274598837,-0.011550581082701683,0.009087358601391315,-0.000499599555041641,0.014913474209606647
0.016577987000346184,0.003939304035156965,-0.011708796955645084,0.008785843849182129,-0.0004884885274805129,0.014900298789143562
0.01709049753844738,0.0038793759886175394,-0.012169036082923412,0.009143643081188202,-0.0004525307740550488,0.014929356053471565
0.01683230884373188,0.0042503271251916885,-0.012106552720069885,0.00949490163475275,-0.00041781505569815636,0.014746234752237797
0.016898641362786293,0.004290337674319744,-0.011727328412234783,0.009039410389959812,-0.00041916369809769094,0.01435033604502678
0.01691657491028309,0.004507077392190695,-0.012003895826637745,0.009395466186106205,-0.00041993579361587763,0.01471721101552248
0.01673273555934429,0.004290667362511158,-0.01170198991894722,0.009344177320599556,-0.0003954459971282631,0.01487690582871437
0.016883982345461845,0.004013068974018097,-0.011326167732477188,0.008473271504044533,-0.00037219509249553084,0.01501257810741663
0.01664229854941368,0.003812153125181794,-0.012343963608145714,0.008766422048211098,-0.0003514321579132229,0.014931428246200085
0.01724412478506565,0.0037431828677654266,-0.011502563022077084,0.009400315582752228,-0.00037401303416118026,0.014857134781777859
0.017607156187295914,0.003783741733059287,-0.011834811419248581,0.008564920164644718,-0.0003608949773479253,0.014430959708988667
0.01703854277729988,0.003861777950078249,-0.011623277328908443,0.008072064258158207,-0.0003440159489400685,0.014935554936528206
0.017264949157834053,0.004403023049235344,-0.011302712373435497,0.008505583740770817,-0.0003168774419464171,0.014756043441593647
0.016751056537032127,0.004687488544732332,-0.012281748466193676,0.00892313290387392,-0.00029534974601119757,0.015142550691962242
0.016751056537032127,0.004687488544732332,-0.012281748466193676,0.00892313290387392,-0.00029534974601119757,0.015142550691962242
0.01701502501964569,0.004516117740422487,-0.011923401616513729,0.008815966546535492,-0.0003179128107149154,0.015169802121818066
0.01688976027071476,0.004262708127498627,-0.012331615202128887,0.009171911515295506,-0.0003122702764812857,0.015175298787653446
0.01725880615413189,0.004070840775966644,-0.01237935945391655,0.008925884030759335,-0.00029598287073895335,0.01479699369519949
0.0173887237906456,0.003993225283920765,-0.011662257835268974,0.009218588471412659,-0.0002806498378049582,0.015258041210472584
0.01730303466320038,0.0040231370367109776,-0.01184048317372799,0.00940760225057602,-0.0002995962568093091,0.015003261156380177
0.017087096348404884,0.004017179366201162,-0.011492970399558544,0.00928591936826706,-0.00029582928982563317,0.014887937344610691
0.016828149557113647,0.00439305417239666,-0.012834499590098858,0.00885936338454485,-0.0003029757644981146,0.015456927008926868
0.017262371256947517,0.004298096057027578,-0.012214413844048977,0.00860791839659214,-0.0003084303461946547,0.01559524331241846
0.01759221963584423,0.0039080786518752575,-0.012089432217180729,0.008955596946179867,-0.0002969149500131607,0.015605874359607697
0.017244841903448105,0.0041504367254674435,-0.012727617286145687,0.008834155276417732,-0.00036118083517067134,0.0157195832580328
0.017174454405903816,0.004134583752602339,-0.01179499551653862,0.008719396777451038,-0.0003929161175619811,0.01685919053852558
0.016851317137479782,0.004104503430426121,-0.012875878252089024,0.008931959979236126,-0.00039745468529872596,0.015448996797204018
0.01704149879515171,0.004214951768517494,-0.013451811857521534,0.008889122866094112,-0.00040432807873003185,0.014688457362353802
0.01705619879066944,0.004735442344099283,-0.012543268501758575,0.00938731525093317,-0.00040818529669195414,0.015676453709602356
0.017275914549827576,0.004636864643543959,-0.013071657158434391,0.009271382354199886,-0.0004095426411367953,0.015904556959867477
0.017549961805343628,0.0041740769520401955,-0.012925221584737301,0.009269188158214092,-0.0004967890563420951,0.016209803521633148
0.01588716171681881,0.003960595931857824,-0.012660975567996502,0.009424988180398941,-0.0005384166724979877,0.015954995527863503
0.01836438663303852,0.003970352467149496,-0.013162837363779545,0.010120044462382793,-0.0005705247167497873,0.016200942918658257
0.017604561522603035,0.0036127762869000435,-0.012648802250623703,0.009163080714643002,-0.0005266163498163223,0.016087904572486877
0.01761043444275856,0.004050713498145342,-0.013392498716711998,0.00965068954974413,-0.0005191517993807793,0.01597238890826702
0.017272286117076874,0.0044567096047103405,-0.01279063243418932,0.009936921298503876,-0.0005120643181726336,0.015710318461060524
0.01717599853873253,0.004854149650782347,-0.013291694223880768,0.009503270499408245,-0.0005256026051938534,0.015506853349506855
0.017651790753006935,0.00420413538813591,-0.013239379040896893,0.00990850105881691,-0.0005060523399151862,0.015970423817634583
0.017674792557954788,0.0038077235221862793,-0.013549295254051685,0.0096849724650383,-0.0005423063994385302,0.01603403128683567
0.018064267933368683,0.004260820336639881,-0.013269556686282158,0.009347112849354744,-0.0005611698725260794,0.01596314087510109
0.018225660547614098,0.0041651674546301365,-0.013287889771163464,0.008459844626486301,-0.0005285638617351651,0.015612517483532429
0.017965130507946014,0.003938016947358847,-0.013625254854559898,0.009996761567890644,-0.0005574322422035038,0.015947777777910233
0.017965130507946014,0.003938016947358847,-0.013625254854559898,0.009996761567890644,-0.0005574322422035038,0.015947777777910233
0.018427621573209763,0.004371257033199072,-0.013232417404651642,0.009789032861590385,-0.0005803470266982913,0.01600748673081398
0.018114885315299034,0.004626255948096514,-0.013287261128425598,0.009462953545153141,-0.000545796996448189,0.015949081629514694
0.01801135018467903,0.004512692801654339,-0.012866486795246601,0.009632756002247334,-0.0006452252273447812,0.01593714952468872
0.01847243122756481,0.004027673043310642,-0.013595235534012318,0.009322197176516056,-0.0006731252069585025,0.015968110412359238
0.018306035548448563,0.004335153382271528,-0.013316921889781952,0.009553458541631699,-0.0006109553505666554,0.01605634205043316
0.01885056681931019,0.004169882275164127,-0.013655776157975197,0.010142451152205467,-0.0006345524452626705,0.01608753204345703
0.01891488768160343,0.003942991141229868,-0.012853189371526241,0.009585477411746979,-0.0006423863233067095,0.01641923375427723
0.018646638840436935,0.004312289413064718,-0.013381552882492542,0.009214145131409168,-0.0006073180120438337,0.01659345254302025
0.018921058624982834,0.004265876486897469,-0.013476314954459667,0.009936567395925522,-0.0006477597635239363,0.01689094863831997
0.01878989301621914,0.004233960993587971,-0.014048420824110508,0.010529499500989914,-0.0006640732171945274,0.0167250894010067
0.019171403720974922,0.003890746273100376,-0.01309952512383461,0.010182948783040047,-0.0005536708631552756,0.01612762175500393
0.01936047337949276,0.003879166441038251,-0.013129102066159248,0.009956142865121365,-0.0005742986686527729,0.015785934403538704
0.018970640376210213,0.0042506675235927105,-0.013554677367210388,0.010356996208429337,-0.0005352652515284717,0.01688740961253643
0.019568195566534996,0.004071827046573162,-0.0125119024887681,0.009948968887329102,-0.00054570147767663,0.01653563790023327
0.019560471177101135,0.003956128843128681,-0.014050103724002838,0.009527386166155338,-0.0005222192266955972,0.01666836254298687
0.019450288265943527,0.003890031948685646,-0.014005434699356556,0.010176772251725197,-0.0005085503216832876,0.017209483310580254
0.01966875046491623,0.004318793769925833,-0.013291510753333569,0.010869361460208893,-0.00046489108353853226,0.016744235530495644
0.019709184765815735,0.0041585215367376804,-0.013935879804193974,0.010075354017317295,-0.0004944909014739096,0.017184965312480927
0.019783983007073402,0.0039855120703577995,-0.013765997253358364,0.009920252487063408,-0.000499334535561502,0.017363494262099266
0.01981215924024582,0.004012524615973234,-0.014279784634709358,0.010245834477245808,-0.0004946424160152674,0.01798124797642231
0.020220013335347176,0.0039045740850269794,-0.013283474370837212,0.009779167361557484,-0.0004926418187096715,0.01767423190176487
0.01986059732735157,0.004181542433798313,-0.014261765405535698,0.009921821765601635,-0.0004885713569819927,0.016945356503129005
0.01993953064084053,0.004147630650550127,-0.01375568937510252,0.010128774680197239,-0.00045931251952424645,0.017397280782461166
0.020167119801044464,0.004091226030141115,-0.014073610305786133,0.009707685559988022,-0.0004771234525833279,0.01725439541041851
0.020589502528309822,0.003999032080173492,-0.013497812673449516,0.00966615229845047,-0.0004722566809505224,0.017200415953993797
0.020513024181127548,0.003946447279304266,-0.01448624674230814,0.009902268648147583,-0.0004930097493343055,0.01737126335501671
0.021010616794228554,0.0038808220997452736,-0.01423291303217411,0.009658565744757652,-0.0004697045951616019,0.01780739612877369
0.021010616794228554,0.0038808220997452736,-0.01423291303217411,0.009658565744757652,-0.0004697045951616019,0.01780739612877369
0.021115384995937347,0.004283473826944828,-0.01471519935876131,0.010180267505347729,-0.0005003729020245373,0.01859262026846409
0.020271316170692444,0.004142553545534611,-0.013850102201104164,0.010328941978514194,-0.0004676675598602742,0.01846514642238617
0.01985592395067215,0.003955743741244078,-0.01427606213837862,0.010277378372848034,-0.0004356021818239242,0.01832900196313858
0.021007400006055832,0.003816908458247781,-0.014054928906261921,0.010690838098526001,-0.0004615737125277519,0.01832468993961811
0.021370094269514084,0.003782130079343915,-0.01448699738830328,0.010911760851740837,-0.000437075097579509,0.017747392877936363
0.02115943655371666,0.003876462345942855,-0.013974945060908794,0.010165526531636715,-0.0004500052600633353,0.018002256751060486
0.020364411175251007,0.0038568133022636175,-0.0145119559019804,0.010608873330056667,-0.0004440558550413698,0.01837324909865856
0.02130117081105709,0.0040543293580412865,-0.01400727592408657,0.010227961465716362,-0.0004064392705913633,0.0183185413479805
0.02156931161880493,0.00396206509321928,-0.014419174753129482,0.010117733851075172,-0.0003728900628630072,0.018135610967874527
0.021931208670139313,0.003775728866457939,-0.014829033985733986,0.01055061724036932,-0.00038262346060946584,0.018427802249789238
0.021749379113316536,0.003880229080095887,-0.014285833574831486,0.010086442343890667,-0.00040985652594827116,0.018469437956809998
0.02139105834066868,0.0043737939558923244,-0.014742421917617321,0.010091482661664486,-0.00039148994255810976,0.018084479495882988
0.020896807312965393,0.004061177372932434,-0.014029167592525482,0.009945024736225605,-0.00041807827074080706,0.017833737656474113
0.02133830077946186,0.0043793641962111,-0.014256374910473824,0.010107078589498997,-0.0003981812042184174,0.019426962360739708
0.022229112684726715,0.004175846930593252,-0.013927565887570381,0.010649082250893116,-0.0003775079967454076,0.017555123195052147
0.021536950021982193,0.003984612412750721,-0.01436553243547678,0.009985705837607384,-0.0003811705973930657,0.017444616183638573
0.02144681289792061,0.004360787570476532,-0.01393720880150795,0.010428075678646564,-0.0003725510905496776,0.018118884414434433
0.02206166833639145,0.004188986029475927,-0.014548572711646557,0.010775865986943245,-0.00040507339872419834,0.01849655620753765
0.02210863120853901,0.00409088796004653,-0.014232608489692211,0.009986408054828644,-0.0003844444581773132,0.01868724264204502
0.02231193706393242,0.004167360253632069,-0.0147935776039958,0.010567516088485718,-0.00035938224755227566,0.01846274733543396
0.022146685048937798,0.004441407509148121,-0.014326692558825016,0.010959258303046227,-0.000389229622669518,0.018615221604704857
0.02231498248875141,0.004080250859260559,-0.014933672733604908,0.01094107422977686,-0.0004087304405402392,0.018768401816487312
0.022314079105854034,0.004376679193228483,-0.014395142905414104,0.011169476434588432,-0.0003985069924965501,0.01852783001959324
0.022447019815444946,0.004553585313260555,-0.01512670237571001,0.011092168278992176,-0.0005048279417678714,0.018987344577908516
0.022281387820839882,0.004428882151842117,-0.014530600048601627,0.011219911277294159,-0.0004921251093037426,0.019281160086393356
0.022404028102755547,0.00405885698273778,-0.015182804316282272,0.011102168820798397,-0.0005228801746852696,0.01892443746328354
0.02280319854617119,0.0038663072045892477,-0.014646360650658607,0.010866623371839523,-0.0005255451542325318,0.01919340342283249
0.022865427657961845,0.004158889874815941,-0.014883485622704029,0.010988214984536171,-0.000518500164616853,0.019144726917147636
0.022865427657961845,0.004158889874815941,-0.014883485622704029,0.010988214984536171,-0.000518500164616853,0.019144726917147636
0.022809237241744995,0.004735030233860016,-0.01463621947914362,0.011316811665892601,-0.0005145637551322579,0.01864335872232914
0.022906020283699036,0.004321205895394087,-0.015448610298335552,0.011177008971571922,-0.0005087847821414471,0.01922965794801712
0.02312001772224903,0.004379133228212595,-0.015006317757070065,0.01152705680578947,-0.0005713709979318082,0.019323881715536118
0.02308844029903412,0.00464452151209116,-0.01541763823479414,0.011261303909122944,-0.0006147147505544126,0.019039373844861984
0.02332012727856636,0.004391619469970465,-0.015109778381884098,0.011682819575071335,-0.0005753280711360276,0.01917567290365696
0.023530563339591026,0.004073030315339565,-0.015506360679864883,0.011839005164802074,-0.0005962371942587197,0.019610673189163208
0.023235248401761055,0.004266815725713968,-0.01547092292457819,0.011618269607424736,-0.000554027734324336,0.019526904448866844
0.02304254099726677,0.004497579298913479,-0.015878085047006607,0.011891784146428108,-0.0005726433591917157,0.019541185349225998
0.02358590066432953,0.004584057722240686,-0.01656470261514187,0.011757184751331806,-0.0005383957177400589,0.019851164892315865
0.02380523830652237,0.004693042486906052,-0.015513750724494457,0.012074564583599567,-0.0005719210021197796,0.019746199250221252
0.023869996890425682,0.004709682427346706,-0.015954334288835526,0.012074059806764126,-0.00053090212168172,0.019605236127972603
0.02293483354151249,0.004161668475717306,-0.0160989947617054,0.012155492790043354,-0.0005906791775487363,0.0197756290435791
0.02346137911081314,0.0044601247645914555,-0.015337271615862846,0.011073896661400795,-0.0006173191941343248,0.020620370283722878
0.024351153522729874,0.004639214836061001,-0.015920955687761307,0.011844534426927567,-0.0007717718835920095,0.01977204531431198
0.02414557710289955,0.00455071683973074,-0.015720153227448463,0.011704571545124054,-0.0008209924562834203,0.019111277535557747
0.023667722940444946,0.00469928327947855,-0.014670009724795818,0.011633637361228466,-0.0008029392338357866,0.019746143370866776
0.021291475743055344,0.004282443318516016,-0.01653796061873436,0.011705836281180382,-0.0007606083527207375,0.020168039947748184
0.024402054026722908,0.004502513445913792,-0.015860246494412422,0.011691352352499962,-0.0006817684043198824,0.020632881671190262
0.02454959601163864,0.004206209909170866,-0.0158012006431818,0.012027520686388016,-0.0006968569359742105,0.02060735411942005
0.023818757385015488,0.0043502808548510075,-0.015427391044795513,0.011667988263070583,-0.0006401738501153886,0.020811760798096657
0.023818757385015488,0.0043502808548510075,-0.015427391044795513,0.011667988263070583,-0.0006401738501153886,0.020811760798096657
0.024416249245405197,0.004424271639436483,-0.015931788831949234,0.0126697588711977,-0.0005921534611843526,0.020344343036413193
0.02453659102320671,0.0047371601685881615,-0.015556667931377888,0.011611595749855042,-0.0006221187650226057,0.019430560991168022
0.02427801676094532,0.004660396836698055,-0.015767939388751984,0.011911243200302124,-0.0006069032242521644,0.01979997381567955
0.023687617853283882,0.0042751990258693695,-0.01617705635726452,0.011660151183605194,-0.0006246991106308997,0.020180383697152138
0.023641720414161682,0.00449535483494401,-0.01566949486732483,0.012331610545516014,-0.0005835366901010275,0.02085224911570549
0.024309024214744568,0.004477407783269882,-0.015576650388538837,0.01213989406824112,-0.000648149405606091,0.020697079598903656
0.024309024214744568,0.004477407783269882,-0.015576650388538837,0.01213989406824112,-0.000648149405606091,0.020697079598903656
0.0252971351146698,0.00426320219412446,-0.01601777970790863,0.012091710232198238,-0.0006005201139487326,0.02073209546506405
0.02481442131102085,0.004584155976772308,-0.01660136692225933,0.012250552885234356,-0.0005673175328411162,0.02102632261812687
0.02481442131102085,0.004584155976772308,-0.01660136692225933,0.012250552885234356,-0.0005673175328411162,0.02102632261812687
0.02471167966723442,0.004630190320312977,-0.015184159390628338,0.012265585362911224,-0.0005958753172308207,0.020970188081264496
0.024312810972332954,0.004183853045105934,-0.01559730526059866,0.012249375693500042,-0.000606829475145787,0.0206783227622509
0.02471909113228321,0.004226283635944128,-0.01565082184970379,0.013033486902713776,-0.0005763741210103035,0.019959721714258194
0.025273334234952927,0.00423574261367321,-0.016399472951889038,0.012312919832766056,-0.0005902259144932032,0.020360663533210754
0.024776484817266464,0.0043782321736216545,-0.015746895223855972,0.011783155612647533,-0.0005407365970313549,0.02065044827759266
0.025006776675581932,0.0045641399919986725,-0.015639686957001686,0.012262032367289066,-0.000554562546312809,0.02071794681251049
0.024913372471928596,0.004602138884365559,-0.015823233872652054,0.011746005155146122,-0.0005226223147474229,0.02120382897555828
0.025056250393390656,0.0038508265279233456,-0.01638752780854702,0.012244245037436485,-0.0005114257801324129,0.02117135562002659
0.025321466848254204,0.003433655481785536,-0.015628427267074585,0.012510783970355988,-0.0005063626449555159,0.020794305950403214
0.02522227354347706,0.003522894810885191,-0.015932245180010796,0.012833826243877411,-0.0005011222674511373,0.020974716171622276
0.02522200345993042,0.004077638033777475,-0.015159305185079575,0.013012279756367207,-0.0005001354147680104,0.021606754511594772
0.025580504909157753,0.004101742058992386,-0.015768900513648987,0.013117851689457893,-0.00047887919936329126,0.020847070962190628
0.02544707991182804,0.003981487825512886,-0.015525220893323421,0.01296534389257431,-0.00043467056821100414,0.020595470443367958
0.024894600734114647,0.003822238417342305,-0.015871474519371986,0.012934217229485512,-0.00043476445716805756,0.020948395133018494
0.02546844445168972,0.0037582330405712128,-0.015356325544416904,0.012699653394520283,-0.0004345351189840585,0.02140299789607525
0.02528616040945053,0.0036286877002567053,-0.015673084184527397,0.012977789156138897,-0.00043693732004612684,0.021513136103749275
0.025347888469696045,0.0035997903905808926,-0.015954846516251564,0.01294649112969637,-0.0004366656066849828,0.021617388352751732
0.025591455399990082,0.0036862397100776434,-0.015587936155498028,0.013048372231423855,-0.00046471302630379796,0.021953999996185303
0.026166465133428574,0.0037778050173074007,-0.0157974474132061,0.012657970190048218,-0.0005241321050561965,0.02172408252954483
0.025579601526260376,0.0038027267437428236,-0.015125026926398277,0.01232653297483921,-0.0005691775004379451,0.021394766867160797
0.025579601526260376,0.0038027267437428236,-0.015125026926398277,0.01232653297483921,-0.0005691775004379451,0.021394766867160797
0.02620605006814003,0.0035897772759199142,-0.015612506307661533,0.012750445865094662,-0.0005682985065504909,0.021692777052521706
0.02602115459740162,0.003709449665620923,-0.016326621174812317,0.012446694076061249,-0.0005931950290687382,0.02196451649069786
0.02606484480202198,0.003745303489267826,-0.015646254643797874,0.012922735884785652,-0.000554715923499316,0.021869126707315445
0.025175506249070168,0.003774693701416254,-0.016192536801099777,0.013230002485215664,-0.0006990146357566118,0.021916760131716728
0.026337264105677605,0.0038577981758862734,-0.016391571611166,0.012714902870357037,-0.000677112431731075,0.021839141845703125
0.02677702158689499,0.003435263643041253,-0.015788115561008453,0.01270539965480566,-0.0006488155340775847,0.021963289007544518
0.02677702158689499,0.003435263643041253,-0.015788115561008453,0.01270539965480566,-0.0006488155340775847,0.021963289007544518
0.02673983760178089,0.003543984377756715,-0.015712743625044823,0.012589053250849247,-0.0006288827862590551,0.0228926632553339
0.026482995599508286,0.003825726453214884,-0.015910377725958824,0.012740187346935272,-0.0006100372993387282,0.022619562223553658
0.025979863479733467,0.003925110213458538,-0.016782859340310097,0.013194371946156025,-0.0006274402257986367,0.02264108695089817
0.026009557768702507,0.003810914931818843,-0.016096550971269608,0.013018309138715267,-0.0005860869423486292,0.0214545801281929
0.02673325687646866,0.003682201961055398,-0.016347985714673996,0.013696953654289246,-0.0005692736594937742,0.02125483751296997
0.026879850775003433,0.004056005273014307,-0.016309240832924843,0.013365128077566624,-0.0005574299138970673,0.021457090973854065
0.02645225264132023,0.004216709174215794,-0.016987862065434456,0.013507953844964504,-0.0005450777825899422,0.02248651161789894
0.026799919083714485,0.004046404734253883,-0.01743370294570923,0.01345356646925211,-0.0005584268365055323,0.02230212092399597
0.026430707424879074,0.0038947162684053183,-0.016703017055988312,0.01378999836742878,-0.0005577608826570213,0.02205166220664978
0.026408089324831963,0.004226584453135729,-0.016317108646035194,0.013674233108758926,-0.0006423199665732682,0.02257155440747738
0.026148507371544838,0.004279186017811298,-0.01728636585175991,0.013466977514326572,-0.0005801772931590676,0.02252054214477539
0.026456601917743683,0.004006892908364534,-0.0171505194157362,0.013708025217056274,-0.0006034745601937175,0.02217341959476471
0.027219073846936226,0.004068020731210709,-0.016805903986096382,0.013321801088750362,-0.0005535976961255074,0.021696612238883972
0.02697211503982544,0.0040914881974458694,-0.017050648108124733,0.013268484733998775,-0.0005641203024424613,0.021900484338402748
0.027044320479035378,0.004367233719676733,-0.01688789576292038,0.013849999755620956,-0.0005351503496058285,0.02140025421977043
0.027188051491975784,0.004492322448641062,-0.017152884975075722,0.01416587270796299,-0.0004943670355714858,0.022385016083717346
0.02763879857957363,0.004343884997069836,-0.018281908705830574,0.01423956174403429,-0.000514987506903708,0.022950461134314537
0.02743504010140896,0.004428227432072163,-0.017063535749912262,0.014466342516243458,-0.00048779629287309945,0.022705072537064552
0.02716103196144104,0.004151628818362951,-0.017283016815781593,0.0144188879057765,-0.00046858072164468467,0.02266348898410797
0.027828020974993706,0.004175734240561724,-0.016957396641373634,0.013996511697769165,-0.0005007996805943549,0.02287207916378975
0.027455464005470276,0.004103498067706823,-0.01715259812772274,0.01425001211464405,-0.000524811097420752,0.02300274930894375
0.027313774451613426,0.004338775761425495,-0.01721312291920185,0.013751651160418987,-0.0005540988058783114,0.023002199828624725
0.027523281052708626,0.00408364599570632,-0.01672864891588688,0.01400805078446865,-0.0005307875107973814,0.02294742502272129
0.027341045439243317,0.004481517244130373,-0.017282728105783463,0.01397764217108488,-0.0007404193165712059,0.023174932226538658
0.027612468227744102,0.004132076166570187,-0.01669301837682724,0.014456553384661674,-0.0006687103305011988,0.023450450971722603
0.026367248967289925,0.00434477673843503,-0.01747797429561615,0.014469037763774395,-0.0006843596347607672,0.023640941828489304
0.026367248967289925,0.00434477673843503,-0.01747797429561615,0.014469037763774395,-0.0006843596347607672,0.023640941828489304
0.028300199657678604,0.004190520383417606,-0.01745714619755745,0.014888189733028412,-0.0006194254965521395,0.02383759617805481
0.028189482167363167,0.003975252620875835,-0.01733577810227871,0.014699308201670647,-0.0006423855666071177,0.02376122958958149
0.02796282432973385,0.004198478534817696,-0.01771700195968151,0.01497368048876524,-0.0005880362587049603,0.023819321766495705
0.02774481102824211,0.004637602716684341,-0.016947615891695023,0.015428601764142513,-0.000609515467658639,0.024099227041006088
0.027933936566114426,0.004771461710333824,-0.01756567694246769,0.015568750910460949,-0.0005662284675054252,0.024249626323580742
0.02754982002079487,0.00463102338835597,-0.01772608608007431,0.015209471806883812,-0.00052288529695943,0.023699050769209862
0.028925146907567978,0.004378396552056074,-0.01731455698609352,0.015038032084703445,-0.0005157964769750834,0.023793155327439308
0.02863633818924427,0.004182443954050541,-0.01781884767115116,0.014744126237928867,-0.0005491842748597264,0.023660242557525635
0.02892705798149109,0.004446871113032103,-0.017659233883023262,0.014341093599796295,-0.0005417809588834643,0.023615917190909386
0.02838873118162155,0.004776965361088514,-0.017706401646137238,0.014692412689328194,-0.0005295516457408667,0.024430831894278526
0.029020186513662338,0.004719438496977091,-0.01753394491970539,0.014428656548261642,-0.000592966447584331,0.024286704137921333
0.028107641264796257,0.004584267735481262,-0.018199454993009567,0.013659358955919743,-0.0006067762151360512,0.024298634380102158
0.028729869052767754,0.004222483839839697,-0.01752634346485138,0.014507369138300419,-0.0006401144783012569,0.02353328838944435
0.030157193541526794,0.004393523558974266,-0.01790464296936989,0.014231412671506405,-0.0006488380022346973,0.02379286102950573
0.0296627264469862,0.00465804198756814,-0.018230149522423744,0.01477624662220478,-0.0006082195322960615,0.02441590465605259
0.02906101755797863,0.004406653344631195,-0.01761423982679844,0.014502990059554577,-0.0006296844221651554,0.024820303544402122
0.028844160959124565,0.004554246552288532,-0.01847374625504017,0.01484692469239235,-0.0006833477527834475,0.024875232949852943
0.02912772446870804,0.004529529716819525,-0.018149426206946373,0.01481324341148138,-0.0007329702493734658,0.024407800287008286
0.02997204288840294,0.004540655296295881,-0.017688952386379242,0.015143080614507198,-0.0007404204807244241,0.024623870849609375
0.030161863192915916,0.00450459960848093,-0.01831430196762085,0.015027150511741638,-0.0006853855447843671,0.02441553585231304
0.030100123956799507,0.004401262849569321,-0.018328821286559105,0.015389641746878624,-0.0006195706664584577,0.02444148063659668
0.03012058325111866,0.004562011919915676,-0.018363960087299347,0.015163857489824295,-0.0006389414775185287,0.024628110229969025
0.03012058325111866,0.004562011919915676,-0.018363960087299347,0.015163857489824295,-0.0006389414775185287,0.024628110229969025
0.029949145391583443,0.004999472759664059,-0.01787410117685795,0.015292325988411903,-0.0006073454860597849,0.024525415152311325
0.02953156642615795,0.0043100398033857346,-0.01830776408314705,0.01516565028578043,-0.0006192455184645951,0.02497679553925991
0.0312759205698967,0.004030899610370398,-0.018892474472522736,0.014627791941165924,-0.0005774294841103256,0.025795266032218933
0.03095148503780365,0.00405313353985548,-0.01820167899131775,0.015400834381580353,-0.0005868083680979908,0.025750327855348587
0.03095148503780365,0.00405313353985548,-0.01820167899131775,0.015400834381580353,-0.0005868083680979908,0.025750327855348587
0.030350154265761375,0.004653760232031345,-0.018604924902319908,0.015113175846636295,-0.0005646665231324732,0.02407226897776127
0.030350154265761375,0.004653760232031345,-0.018604924902319908,0.015113175846636295,-0.0005646665231324732,0.02407226897776127
0.03089614398777485,0.004411492496728897,-0.01825784146785736,0.014813095331192017,-0.0005412789760157466,0.025306103751063347
0.030737116932868958,0.004552770871669054,-0.018994897603988647,0.015343678183853626,-0.0006219440838322043,0.02556389942765236
0.03114250861108303,0.004452492110431194,-0.018584443256258965,0.015191116370260715,-0.000655866926535964,0.025014108046889305
0.030723845586180687,0.004632086027413607,-0.018555905669927597,0.015266192145645618,-0.0006809373153373599,0.02555883675813675
0.031021354719996452,0.0047546555288136005,-0.01927676610648632,0.015050374902784824,-0.0006647785194218159,0.026853211224079132
0.03141631931066513,0.004822838585823774,-0.01902257651090622,0.015417422167956829,-0.0009861510479822755,0.025941206142306328
0.03072849102318287,0.004786832723766565,-0.018638748675584793,0.015683282166719437,-0.0009901599260047078,0.024608559906482697
0.03149716183543205,0.005511160008609295,-0.019161293283104897,0.015237758867442608,-0.0009157751919701695,0.024403482675552368
0.031930770725011826,0.00470677250996232,-0.019381670281291008,0.015304639004170895,-0.0008155927644111216,0.026445256546139717
0.0319095253944397,0.0042388602159917355,-0.019466102123260498,0.01591990329325199,-0.0007629161700606346,0.026535039767622948
0.032090358436107635,0.0043889801017940044,-0.019488263875246048,0.015518763102591038,-0.0007692876970395446,0.026493338868021965
0.03238591179251671,0.004591494332998991,-0.0194434504956007,0.01573726162314415,-0.0006867665797472,0.026173751801252365
0.031947098672389984,0.004656942095607519,-0.02003766968846321,0.015695299953222275,-0.0007042437791824341,0.02622114308178425
0.032220907509326935,0.004664446227252483,-0.019605427980422974,0.016028834506869316,-0.0007175160571932793,0.02609536238014698
0.03296386078000069,0.004688300658017397,-0.019493259489536285,0.01625063084065914,-0.0007386850193142891,0.026226099580526352
0.03382202610373497,0.004563090391457081,-0.019578801468014717,0.015767589211463928,-0.0007577764336019754,0.026255004107952118
0.03211766481399536,0.004654398653656244,-0.01968580298125744,0.016152743250131607,-0.0007758600986562669,0.026032688096165657
0.03168359026312828,0.004425982479006052,-0.019437994807958603,0.016054293140769005,-0.0007644842262379825,0.026281660422682762
0.03328733518719673,0.004389012232422829,-0.020358538255095482,0.016571812331676483,-0.0007324584876187146,0.02655021660029888
0.03282409533858299,0.004667864181101322,-0.020374871790409088,0.016099797561764717,-0.0008214786066673696,0.026376409456133842
0.0329984687268734,0.004722814075648785,-0.01864907704293728,0.01630549505352974,-0.0008407965651713312,0.02643650397658348
0.033630214631557465,0.0046750279143452644,-0.01957983337342739,0.016331277787685394,-0.0008494053035974503,0.02665964514017105
0.033874303102493286,0.0044198185205459595,-0.021275823935866356,0.0166649017482996,-0.0008413931936956942,0.026895953342318535
0.03244657814502716,0.004088696092367172,-0.020679159089922905,0.016582682728767395,-0.0007758674910292029,0.0269364882260561
0.03275202214717865,0.0038314734119921923,-0.020010456442832947,0.016191551461815834,-0.0007951405714266002,0.026864752173423767
0.03275202214717865,0.0038314734119921923,-0.020010456442832947,0.016191551461815834,-0.0007951405714266002,0.026864752173423767
0.03397512063384056,0.0043396493420004845,-0.020560944452881813,0.01646958291530609,-0.000809353543445468,0.02684493362903595
0.03335275128483772,0.00459668505936861,-0.019833682104945183,0.016130924224853516,-0.0008213167893700302,0.026577306911349297
0.03315969184041023,0.004653004929423332,-0.019014019519090652,0.016157856211066246,-0.000830566103104502,0.02635025791823864
0.03358863294124603,0.00438991142436862,-0.020443586632609367,0.015462706796824932,-0.0009008036577142775,0.026822185143828392
0.033595699816942215,0.0040101464837789536,-0.021396415308117867,0.015713710337877274,-0.0009424189338460565,0.027275482192635536
0.0338602177798748,0.003775190794840455,-0.02044847421348095,0.01608869433403015,-0.0009386297315359116,0.02717841975390911
0.033574365079402924,0.0037923252675682306,-0.020279966294765472,0.016282720491290092,-0.0009255676413886249,0.026002783328294754
0.03325450047850609,0.0041541121900081635,-0.020824160426855087,0.01663186028599739,-0.0009054450201801956,0.025456687435507774
0.03359799459576607,0.004573777783662081,-0.020358800888061523,0.01610560528934002,-0.0008176572737284005,0.02645828202366829
0.033930085599422455,0.004174406640231609,-0.01996767893433571,0.016344619914889336,-0.0008243706542998552,0.027278685942292213
0.03420720249414444,0.004249576944857836,-0.021120524033904076,0.016033373773097992,-0.000736005837097764,0.027786878868937492
0.03407035022974014,0.004293530713766813,-0.02068946696817875,0.016089363023638725,-0.000746397243347019,0.02820720337331295
0.03232844918966293,0.0034755964297801256,-0.02062288299202919,0.016683753579854965,-0.0007167219300754368,0.02784433402121067
0.034306999295949936,0.003853927133604884,-0.021124141290783882,0.01734459213912487,-0.0007398526649922132,0.027013733983039856
0.035782940685749054,0.005256670992821455,-0.020476529374718666,0.016534021124243736,-0.0007594394264742732,0.026652634143829346
0.035236768424510956,0.0043381936848163605,-0.02023291401565075,0.01664026267826557,-0.0007748659118078649,0.027220232412219048
0.033483874052762985,0.003438156796619296,-0.021217767149209976,0.01615007594227791,-0.0009688182035461068,0.028165196999907494
0.03333641216158867,0.004162321798503399,-0.02144841104745865,0.015576593577861786,-0.0010666423477232456,0.02811702899634838
0.03503013029694557,0.004869041498750448,-0.020820697769522667,0.015402771532535553,-0.001083211973309517,0.027512656524777412
0.035012826323509216,0.004637800622731447,-0.020717257633805275,0.01603555865585804,-0.0011029877932742238,0.027371680364012718
0.035525333136320114,0.004181636497378349,-0.02077769674360752,0.016501985490322113,-0.0010813866974785924,0.027788199484348297
0.03505316004157066,0.004325308836996555,-0.0208301804959774,0.01644941233098507,-0.0009732430335134268,0.02815346233546734
0.03428686782717705,0.00404963456094265,-0.020270541310310364,0.01655442640185356,-0.0008290677214972675,0.02790728583931923
0.03356073051691055,0.004410457331687212,-0.021305853500962257,0.01574273407459259,-0.0008213285473175347,0.027734175324440002
0.03452735394239426,0.004576873499900103,-0.02223692275583744,0.016259700059890747,-0.0007893404690548778,0.02780108153820038
0.035209979861974716,0.004405096638947725,-0.02142849750816822,0.016300562769174576,-0.0007528482819907367,0.028224050998687744
0.035209979861974716,0.004405096638947725,-0.02142849750816822,0.016300562769174576,-0.0007528482819907367,0.028224050998687744
0.03521735966205597,0.004053426906466484,-0.020182939246296883,0.01739020086824894,-0.0006891910452395678,0.028150970116257668
0.035173457115888596,0.004101444035768509,-0.020196564495563507,0.017304740846157074,-0.0005519116530194879,0.027882816269993782
0.03463452309370041,0.004067424684762955,-0.02085445448756218,0.016863416880369186,-0.0005352753796614707,0.028278641402721405
0.03494355455040932,0.004320099018514156,-0.020606352016329765,0.017398620024323463,-0.0005250428803265095,0.027380703017115593
0.0352843813598156,0.004043403547257185,-0.02124275080859661,0.016125431284308434,-0.0005554290255531669,0.028051355853676796
0.03528688848018646,0.00437312014400959,-0.021319232881069183,0.016269594430923462,-0.0005834221374243498,0.028408927842974663
0.03521415591239929,0.00444244546815753,-0.021245187148451805,0.01624158024787903,-0.0007990049198269844,0.028681466355919838
0.035728998482227325,0.004301472567021847,-0.020932164043188095,0.017509780824184418,-0.0008717189775779843,0.02857038751244545
0.03601106256246567,0.00401171762496233,-0.02141381986439228,0.017871716991066933,-0.0008792482549324632,0.028686514124274254
0.035108499228954315,0.004189976956695318,-0.021243738010525703,0.018118657171726227,-0.0008080422994680703,0.028419900685548782
0.03614586591720581,0.004201417788863182,-0.02120446227490902,0.018287979066371918,-0.0009358712704852223,0.028414586558938026
0.03556794673204422,0.004179720301181078,-0.02142169140279293,0.017540691420435905,-0.0009191337157972157,0.028292223811149597
0.03574933111667633,0.0044104657135903835,-0.021791301667690277,0.017506403848528862,-0.0008286884403787553,0.028520921245217323
0.03618898242712021,0.0043053654953837395,-0.022215181961655617,0.0171074066311121,-0.0008239849121309817,0.028769822791218758
0.03614766150712967,0.004479866940528154,-0.021404070779681206,0.01729455590248108,-0.000750308739952743,0.02882838062942028
0.03652862459421158,0.004605049733072519,-0.021528685465455055,0.017476577311754227,-0.0006738766678608954,0.02864573337137699
0.0362619124352932,0.004650638904422522,-0.02183571457862854,0.01722540892660618,-0.0006894383695907891,0.028980959206819534
0.03641606494784355,0.004690546076744795,-0.022317955270409584,0.01778130978345871,-0.0006993854185566306,0.02970358356833458
0.037007663398981094,0.004798772279173136,-0.021738050505518913,0.017672099173069,-0.0006511479150503874,0.02986564114689827
0.03704868629574776,0.00444834353402257,-0.02161923050880432,0.017838817089796066,-0.0006699476507492363,0.028693152591586113
0.036607299000024796,0.004446631763130426,-0.022323520854115486,0.018077649176120758,-0.0007036294555291533,0.028320156037807465
0.03690267726778984,0.004487247206270695,-0.022287573665380478,0.017572427168488503,-0.0007974038016982377,0.028963027521967888
0.03858170658349991,0.004689832683652639,-0.021765630692243576,0.01819494739174843,-0.0007997506181709468,0.029650473967194557
0.03797787055373192,0.004666971508413553,-0.021798377856612206,0.018354810774326324,-0.0007845535292290151,0.029400259256362915
0.035946398973464966,0.0042379447259008884,-0.02232051081955433,0.01817471720278263,-0.0007496479083783925,0.030628198757767677
0.03747573867440224,0.004314010497182608,-0.0226338729262352,0.018637072294950485,-0.0008318984764628112,0.030272236093878746
0.03772949427366257,0.004526438657194376,-0.022425366565585136,0.018617557361721992,-0.0007932028383947909,0.02816116251051426
0.037983156740665436,0.004666305612772703,-0.021757399663329124,0.018388178199529648,-0.00074532360304147,0.029261797666549683
0.03907305747270584,0.004789459053426981,-0.021937504410743713,0.018874824047088623,-0.0007108634454198182,0.03008083812892437
0.03907305747270584,0.004789459053426981,-0.021937504410743713,0.018874824047088623,-0.0007108634454198182,0.03008083812892437
0.03787974268198013,0.004357778001576662,-0.022714965045452118,0.018682722002267838,-0.0007279750425368547,0.03057166375219822
0.03692636266350746,0.004339924082159996,-0.022948293015360832,0.018713820725679398,-0.0007042111828923225,0.030041024088859558
0.03789630904793739,0.0045192367397248745,-0.02242204174399376,0.01885933056473732,-0.0007350657251663506,0.02986093983054161
0.038511909544467926,0.004564541857689619,-0.02198151871562004,0.018448561429977417,-0.0007007400854490697,0.029858004301786423
0.0378694161772728,0.004851052537560463,-0.02218455635011196,0.018592791631817818,-0.0007200179970823228,0.029917152598500252
0.03917922079563141,0.004705019295215607,-0.022370560094714165,0.018815286457538605,-0.0006967851077206433,0.02987646870315075
0.038599107414484024,0.004843276459723711,-0.021954847499728203,0.018739735707640648,-0.0006724274135194719,0.029842423275113106
0.03800513967871666,0.0046766833402216434,-0.021559979766607285,0.018970100209116936,-0.0007484799134545028,0.030010076239705086
0.039070818573236465,0.004265757743269205,-0.022114314138889313,0.01921619288623333,-0.0007244434091262519,0.030633194372057915
0.03844061121344566,0.004409465938806534,-0.02203594334423542,0.018706941977143288,-0.000688848493155092,0.031073378399014473
0.03919535502791405,0.004396624397486448,-0.021886976435780525,0.01816818118095398,-0.0007282139267772436,0.030856281518936157
0.038641199469566345,0.0049316491931676865,-0.022024713456630707,0.01780659891664982,-0.0007602309924550354,0.030646728351712227
0.03834594041109085,0.004503082949668169,-0.022372443228960037,0.018604183569550514,-0.0007972274906933308,0.030810410156846046
0.04020608589053154,0.004499941598623991,-0.022257696837186813,0.018989617004990578,-0.0007668221369385719,0.030711935833096504
0.04006956145167351,0.00416405638679862,-0.022337941452860832,0.019201016053557396,-0.0007293011876754463,0.031105898320674896
0.03765871375799179,0.00428329361602664,-0.022089747712016106,0.01880774274468422,-0.0007435560110025108,0.03101792372763157
0.039113882929086685,0.004599632229655981,-0.023097887635231018,0.01844254694879055,-0.0007779308944009244,0.031070910394191742
0.039175089448690414,0.004172317683696747,-0.022973032668232918,0.019049791619181633,-0.0008902683039195836,0.031027140095829964
0.03984905406832695,0.004445907659828663,-0.022313741967082024,0.019706938415765762,-0.0008979422273114324,0.03216829150915146
0.04053759202361107,0.004643091466277838,-0.02258983626961708,0.019132833927869797,-0.0008528186590410769,0.03228437528014183
0.03933113068342209,0.004353408236056566,-0.022801408544182777,0.01859303191304207,-0.0010888050310313702,0.03144017606973648
0.0384957380592823,0.004172970540821552,-0.022850459441542625,0.018784591928124428,-0.0010694258380681276,0.030192898586392403
0.04028588905930519,0.004455980844795704,-0.02290118858218193,0.018070003017783165,-0.0009774935897439718,0.03085196763277054
0.04018799960613251,0.00425543449819088,-0.023693189024925232,0.018573468551039696,-0.0009624767699278891,0.031577158719301224
0.04004758968949318,0.0044652316719293594,-0.023575056344270706,0.01906569115817547,-0.0008871503523550928,0.03128974139690399
0.03991415351629257,0.00464741000905633,-0.02383885718882084,0.01946891099214554,-0.0007694178493693471,0.03211868554353714
0.04047667235136032,0.004505097400397062,-0.023608718067407608,0.019906049594283104,-0.0008429440786130726,0.032235052436590195
0.04047667235136032,0.004505097400397062,-0.023608718067407608,0.019906049594283104,-0.0008429440786130726,0.032235052436590195
0.04013538360595703,0.004019038286060095,-0.023321978747844696,0.020569464191794395,-0.0008539712289348245,0.03168213739991188
0.040141694247722626,0.0037818029522895813,-0.022840863093733788,0.019794095307588577,-0.0009211506694555283,0.031131163239479065
0.04053009673953056,0.004333599004894495,-0.023217041045427322,0.019202115014195442,-0.0010026354575529695,0.03156304731965065
0.04021308571100235,0.004604266956448555,-0.02382085844874382,0.019406361505389214,-0.001070405007340014,0.03302858769893646
0.04095974564552307,0.004689883906394243,-0.023271778598427773,0.019598307088017464,-0.0010091423755511642,0.03273328021168709
0.0407741479575634,0.004398037679493427,-0.024006059393286705,0.020145563408732414,-0.0012021752772852778,0.032452456653118134
0.04060479253530502,0.004198557231575251,-0.02417367324233055,0.020893894135951996,-0.001181826344691217,0.032336942851543427
0.04062484949827194,0.004010839853435755,-0.024349169805645943,0.020925983786582947,-0.0011386418482288718,0.03154744580388069
0.0403742752969265,0.003893651068210602,-0.023966500535607338,0.020373936742544174,-0.0010028869146481156,0.03174799680709839
0.0417642742395401,0.0038859525229781866,-0.022956395521759987,0.02036726288497448,-0.0008989359484985471,0.03239889815449715
0.04098396375775337,0.004594254773110151,-0.023780714720487595,0.02015858143568039,-0.0007722885929979384,0.03232911229133606
0.04135177284479141,0.004602785687893629,-0.024777386337518692,0.019735027104616165,-0.0007818431477062404,0.032685332000255585
0.04113668203353882,0.004400206264108419,-0.024442028254270554,0.01996619626879692,-0.0007877621101215482,0.03284675255417824
0.0416664183139801,0.0039904299192130566,-0.023652274161577225,0.019867854192852974,-0.0007540890946984291,0.03324781730771065
0.04100590944290161,0.003998811822384596,-0.02353154495358467,0.019950324669480324,-0.0007745933253318071,0.032644033432006836
0.04143105074763298,0.004142825026065111,-0.024110671132802963,0.020321572199463844,-0.0007906422833912075,0.032594501972198486
0.04098664969205856,0.004355447832494974,-0.024407414719462395,0.02017497457563877,-0.0008032391779124737,0.033078789710998535
0.0427771657705307,0.004514065571129322,-0.024129852652549744,0.01969439536333084,-0.001114267623052001,0.03281581401824951
0.042982667684555054,0.004489442333579063,-0.02398793026804924,0.019755475223064423,-0.001093629514798522,0.03334561735391617
0.040852829813957214,0.004329743795096874,-0.024096107110381126,0.019865434616804123,-0.0009963879128918052,0.03349417820572853
0.04127884283661842,0.004018834792077541,-0.024153241887688637,0.01997704990208149,-0.0009785215370357037,0.03366798162460327
0.04136774688959122,0.0039525930769741535,-0.024427933618426323,0.020391907542943954,-0.0009204730740748346,0.033262379467487335
0.043289560824632645,0.004110291600227356,-0.02408408932387829,0.020926130935549736,-0.0008977347752079368,0.034620530903339386
0.0433151051402092,0.0044911024160683155,-0.024366768077015877,0.02081703394651413,-0.000800006149802357,0.03421089053153992
0.04140589386224747,0.004183242563158274,-0.024263164028525352,0.020631682127714157,-0.0008063045679591596,0.03515459597110748
0.04139798879623413,0.004481075331568718,-0.0239714402705431,0.021096616983413696,-0.0008165391045622528,0.03441687300801277
0.042891163378953934,0.00465213181450963,-0.02410968951880932,0.020861398428678513,-0.0008059976971708238,0.03299693390727043
0.04284254461526871,0.004219416528940201,-0.024437611922621727,0.020463500171899796,-0.0008255023276433349,0.03270966559648514
0.04284254461526871,0.004219416528940201,-0.024437611922621727,0.020463500171899796,-0.0008255023276433349,0.03270966559648514
0.042953990399837494,0.0041374205611646175,-0.024659613147377968,0.020437434315681458,-0.0008357322658412158,0.03423355147242546
0.04263376444578171,0.003951224498450756,-0.024456817656755447,0.020574690774083138,-0.0008432844770140946,0.034242838621139526
0.042877357453107834,0.003942646086215973,-0.024401340633630753,0.020450515672564507,-0.0009580389014445245,0.03503892570734024
0.0426187664270401,0.0043788813054561615,-0.025169353932142258,0.02045368030667305,-0.0010473983129486442,0.0348394475877285
0.04305379092693329,0.004619990941137075,-0.024733060970902443,0.021221674978733063,-0.0010660728439688683,0.03431638702750206
0.04263652488589287,0.004646319430321455,-0.02456263080239296,0.021147727966308594,-0.0011407154379412532,0.03316974639892578
0.04291267693042755,0.004201692529022694,-0.024399923160672188,0.02046537958085537,-0.0011331266723573208,0.0338711254298687
0.043785322457551956,0.0038574659265577793,-0.024642476812005043,0.02051663212478161,-0.0010943772504106164,0.03491396829485893
0.043050434440374374,0.003921302035450935,-0.025461295619606972,0.020937858149409294,-0.0010781371966004372,0.03473426401615143
0.0415719635784626,0.0041153933852910995,-0.025544296950101852,0.021809615194797516,-0.0011158752022311091,0.03462656959891319
