davideferrari95/blind_handover_controller/data/Test 37 - [2024-02-07 -- 14-49-06]/joint_states_data.csv
shoulder_pan_joint,shoulder_lift_joint,elbow_joint,wrist_1_joint,wrist_2_joint,wrist_3_joint
0.013722608797252178,-0.0025917801540344954,-0.017791245132684708,0.017683083191514015,-0.0,0.011281438171863556
0.013722608797252178,-0.0025917801540344954,-0.017791245132684708,0.017683083191514015,-0.0,0.011281438171863556
0.013303720392286777,-0.0029181349091231823,-0.01737452670931816,0.0179043710231781,-0.0,0.011786548420786858
0.013303720392286777,-0.0029181349091231823,-0.01737452670931816,0.0179043710231781,-0.0,0.011786548420786858
0.013463233597576618,-0.004052431788295507,-0.016967926174402237,0.017790738493204117,-0.0,0.012038381770253181
0.013498714193701744,-0.004432634450495243,-0.017460433766245842,0.017215227708220482,-0.0,0.011918023228645325
0.01339686382561922,-0.004085626918822527,-0.01673230528831482,0.017121005803346634,-0.0,0.011445682495832443
0.013589004054665565,-0.0027874237857759,-0.017646653577685356,0.016870899125933647,-0.0,0.011029587127268314
0.013986973091959953,-0.0009247995330952108,-0.017649026587605476,0.01673206314444542,-0.0,0.011339711956679821
0.014065999537706375,-0.0005340069183148444,-0.01725747250020504,0.01599733904004097,-0.0,0.011798480525612831
0.013971453532576561,-0.0007363640470430255,-0.017331762239336967,0.015678200870752335,-0.0,0.01156780868768692
0.014093002304434776,-0.0008837865316309035,-0.01666887477040291,0.015258225612342358,-0.0,0.012028929777443409
0.013557800091803074,-0.0032371594570577145,-0.017586957663297653,0.01509817037731409,-0.0,0.011415669694542885
0.013923363760113716,-0.0033217542804777622,-0.01728556677699089,0.0159421656280756,-0.0,0.01163807138800621
0.013660959899425507,-0.0025337846018373966,-0.01698155142366886,0.01698840782046318,-0.0,0.011932780966162682
0.013720677234232426,-0.001979311928153038,-0.01752448081970215,0.018265776336193085,-0.0,0.011806775815784931
0.013366345316171646,-0.001607887214049697,-0.016803927719593048,0.01797454245388508,-0.0,0.01217481680214405
0.0139447171241045,-0.0010630277683958411,-0.0170255359262228,0.017437906935811043,-0.0,0.01206778921186924
0.013392722234129906,-0.0011082692071795464,-0.01681673340499401,0.017904730513691902,-0.0,0.013163906522095203
0.013605506159365177,-0.0017550643533468246,-0.017952891066670418,0.01734095811843872,-0.0,0.011300160549581051
0.013656535185873508,-0.0016398872248828411,-0.016217654570937157,0.017776116728782654,-0.0,0.011317500844597816
0.013331151567399502,-0.0017258331645280123,-0.016740240156650543,0.018293816596269608,-0.0,0.01130685955286026
0.01397229265421629,-0.0014747045934200287,-0.01650850474834442,0.018675969913601875,-0.0,0.011829742230474949
0.013308016583323479,-0.0012459998251870275,-0.0166324395686388,0.018239883705973625,-0.0,0.011769977398216724
0.013708667829632759,-0.0011705595534294844,-0.01650569960474968,0.018390603363513947,-0.0,0.01197710633277893
0.013708667829632759,-0.0011705595534294844,-0.01650569960474968,0.018390603363513947,-0.0,0.01197710633277893
0.014346310868859291,-0.0010202934499830008,-0.01639438606798649,0.01928659714758396,-0.0,0.012005625292658806
0.013695764355361462,-0.0007631288608536124,-0.016446270048618317,0.018695082515478134,-0.0,0.011734145693480968
0.013554605655372143,-0.0008559105917811394,-0.0164963286370039,0.018221523612737656,-0.0,0.01153898611664772
0.013554605655372143,-0.0008559105917811394,-0.0164963286370039,0.018221523612737656,-0.0,0.01153898611664772
0.013863973319530487,-0.0010511936852708459,-0.016388557851314545,0.017062745988368988,-0.0,0.011736270040273666
0.013467885553836823,-0.001134931924752891,-0.016749776899814606,0.01698523759841919,-0.0,0.011735009960830212
0.013532943092286587,-0.0010998480720445514,-0.017418431118130684,0.016901345923542976,-0.0,0.011612353846430779
0.013128676451742649,-0.001066166558302939,-0.017117511481046677,0.01704597659409046,-0.0,0.011885940097272396
0.013552104122936726,-0.0010467484826222062,-0.016731148585677147,0.017581213265657425,-0.0,0.011848515830934048
0.013387378305196762,-0.0010294741950929165,-0.016750972718000412,0.017200762405991554,-0.0,0.012470889836549759
0.013669646345078945,-0.0010086529655382037,-0.017401713877916336,0.017137078568339348,-0.0,0.012263876385986805
0.01312912255525589,-0.0010116205085068941,-0.017377570271492004,0.016447048634290695,-0.0,0.012026515789330006
0.013238182291388512,-0.0012010055361315608,-0.016896162182092667,0.016639871522784233,-0.0,0.012145542539656162
0.012959334068000317,-0.0012974649434909225,-0.01738077402114868,0.016898421570658684,-0.0,0.011891374364495277
0.013236187398433685,-0.0014281895710155368,-0.01722596026957035,0.016945846378803253,-0.0,0.012420639395713806
0.01321440003812313,-0.0014814749592915177,-0.01684815250337124,0.017647596076130867,-0.0,0.012512736022472382
0.01322118565440178,-0.0014095244696363807,-0.017618566751480103,0.017666110768914223,-0.0,0.012727758847177029
0.013327302411198616,-0.0012579536996781826,-0.016913870349526405,0.01783953607082367,-0.0,0.012204393744468689
0.013486300595104694,-0.0013173989718779922,-0.017155848443508148,0.017687963321805,-0.0,0.011685277335345745
0.013724480755627155,-0.0012945858761668205,-0.016773397102952003,0.017432017251849174,-0.0,0.012025617994368076
0.014330727979540825,-0.001522416714578867,-0.017031339928507805,0.017705945298075676,-0.0,0.012095382437109947
0.013073964044451714,-0.0015400578267872334,-0.01697317138314247,0.017608538269996643,-0.0,0.01210005208849907
0.013575967401266098,-0.0016237093368545175,-0.01709994301199913,0.01815345510840416,-0.0,0.012391659431159496
0.013223763555288315,-0.0014962671557441354,-0.01629621349275112,0.017738638445734978,-0.0,0.012370477430522442
0.01323065347969532,-0.0015313654439523816,-0.016952618956565857,0.018050989136099815,-0.0,0.01224500872194767
0.013071090914309025,-0.0014087083982303739,-0.016541337594389915,0.017927275970578194,-0.0,0.012025113217532635
0.013062221929430962,-0.0013200220419093966,-0.01683550514280796,0.017657287418842316,-0.0,0.01222554687410593
0.013106751255691051,-0.0013014932628720999,-0.01704276166856289,0.01791849173605442,-0.0,0.012295789085328579
0.0131594343110919,-0.001280069351196289,-0.016428017988801003,0.017644893378019333,-0.0,0.012058463878929615
0.013113047927618027,-0.0012424951419234276,-0.017024090513586998,0.017882224172353745,-0.0,0.011976000852882862
0.01294831745326519,-0.0013886097585782409,-0.01606946624815464,0.018170274794101715,-0.0,0.012330343015491962
0.013291635550558567,-0.001415212987922132,-0.016519702970981598,0.01784874126315117,-0.0,0.012282985262572765
0.012458475306630135,-0.001386484713293612,-0.016422651708126068,0.01846652664244175,-0.0,0.012736559845507145
0.012458475306630135,-0.001386484713293612,-0.016422651708126068,0.01846652664244175,-0.0,0.012736559845507145
0.013011975213885307,-0.0014804023085162044,-0.01666284166276455,0.0183714609593153,-0.0,0.012575838714838028
0.012524605728685856,-0.0014091315679252148,-0.016789833083748817,0.018158430233597755,-0.0,0.012457674369215965
0.013170392252504826,-0.0015098584117367864,-0.016372209414839745,0.01915098913013935,-0.0,0.012319679372012615
0.01297391951084137,-0.0015768196899443865,-0.016984401270747185,0.018391361460089684,-0.0,0.012376568280160427
0.012970014475286007,-0.0015478128334507346,-0.016445070505142212,0.01817820779979229,-0.0,0.012597084045410156
0.013298386707901955,-0.0016741935396566987,-0.016909733414649963,0.01803773269057274,-0.0,0.012475547380745411
0.013000398874282837,-0.0017558069666847587,-0.01663358323276043,0.017382269725203514,-0.0,0.012698439881205559
0.013271511532366276,-0.0018440063577145338,-0.016398167237639427,0.01753733679652214,-0.0,0.012732811272144318
0.012170161120593548,-0.001847525592893362,-0.016894130036234856,0.01775466836988926,-0.0,0.012976620346307755
0.01263233833014965,-0.001835838658735156,-0.016354041174054146,0.017971724271774292,-0.0,0.012154213152825832
0.012154167518019676,-0.0017245190683752298,-0.016918689012527466,0.01833193190395832,-0.0,0.012350490316748619
0.012631210498511791,-0.0018553981790319085,-0.016252262517809868,0.01785062998533249,-0.0,0.012727371416985989
0.01266318466514349,-0.0017384581733494997,-0.01622423529624939,0.01799098029732704,-0.0,0.012960412539541721
0.012440815567970276,-0.0019637406803667545,-0.016668494790792465,0.018013453111052513,-0.0,0.012878740206360817
0.012791832908987999,-0.001839752891100943,-0.016447938978672028,0.01738334260880947,-0.0,0.012691731564700603
0.012613147497177124,-0.0020048695150762796,-0.01591441221535206,0.01790064014494419,-0.0,0.012233803048729897
0.012208749540150166,-0.0019399671582505107,-0.01640883833169937,0.017630677670240402,-0.0,0.012539478950202465
0.012479346245527267,-0.0017668893560767174,-0.016300754621624947,0.018041467294096947,-0.0,0.012974053621292114
0.012437666766345501,-0.0019036016892641783,-0.016623176634311676,0.01815810054540634,-0.0,0.01269466057419777
0.012496885843575,-0.001745985820889473,-0.01680133119225502,0.018518725410103798,-0.0,0.012781169265508652
0.012496885843575,-0.001745985820889473,-0.01680133119225502,0.018518725410103798,-0.0,0.012781169265508652
0.012725630775094032,-0.002032137243077159,-0.016406934708356857,0.019040977582335472,-0.0,0.012364470399916172
0.012456957250833511,-0.0018680163193494081,-0.016741758212447166,0.018392447382211685,-0.0,0.012780644930899143
0.012602481059730053,-0.002054559998214245,-0.015988189727067947,0.01804552972316742,-0.0,0.01240006648004055
0.012265280820429325,-0.0019033111166208982,-0.016807276755571365,0.01815691404044628,-0.0,0.012349163182079792
0.01230151578783989,-0.0020237828139215708,-0.01646912284195423,0.017879696562886238,-0.0,0.012600475922226906
0.012455260381102562,-0.00202256185002625,-0.016662904992699623,0.018161125481128693,-0.0,0.012483988888561726
0.012256762944161892,-0.0018302163807675242,-0.016141531988978386,0.01823689602315426,-0.0,0.012090015225112438
0.012256762944161892,-0.0018302163807675242,-0.016141531988978386,0.01823689602315426,-0.0,0.012090015225112438
0.012199848890304565,-0.0016956261824816465,-0.01664261892437935,0.018320634961128235,-0.0,0.012425299733877182
0.012300143018364906,-0.0016999434446915984,-0.016415555030107498,0.017607422545552254,-0.0,0.012110583484172821
0.011988749727606773,-0.0016485446831211448,-0.017435669898986816,0.018050188198685646,-0.0,0.012226137332618237
0.012694495730102062,-0.0016829437809064984,-0.01692257821559906,0.01843767799437046,-0.0,0.012656934559345245
0.012171974405646324,-0.0019813706167042255,-0.017436558380723,0.018507665023207664,-0.0,0.0126632796600461
0.01204589195549488,-0.0019455631263554096,-0.0175540279597044,0.019004391506314278,-0.0,0.012543960474431515
0.012241455726325512,-0.0018934619147330523,-0.0167076513171196,0.018652595579624176,-0.0,0.012308063916862011
0.011818143539130688,-0.0017223409377038479,-0.017017105594277382,0.018006157130002975,-0.0,0.012888099066913128
0.012211041525006294,-0.0016015415312722325,-0.017301330342888832,0.017940035089850426,-0.0,0.012352940626442432
0.011986304074525833,-0.001501918421126902,-0.01770518720149994,0.01743468828499317,-0.0,0.012489993125200272
0.012762172147631645,-0.0015481573063880205,-0.0181705504655838,0.017317596822977066,-0.0,0.012463491410017014
0.012456937693059444,-0.0016955356113612652,-0.016929874196648598,0.018061282113194466,-0.0,0.012531323358416557
0.01183893159031868,-0.001783047686330974,-0.0174125824123621,0.018256722018122673,-0.0,0.012576491571962833
0.012433900497853756,-0.002210687380284071,-0.017115427181124687,0.01889335922896862,-0.0,0.01248407643288374
0.0121238948777318,-0.002249762648716569,-0.017358751967549324,0.018826037645339966,-0.0,0.012240397743880749
0.012006075121462345,-0.002197675406932831,-0.017098048701882362,0.018423687666654587,-0.0,0.012339761480689049
0.012098388746380806,-0.0020974562503397465,-0.017727430909872055,0.018058424815535545,-0.0,0.01221840176731348
0.01225836481899023,-0.002054199343547225,-0.01720832847058773,0.017965292558073997,-0.0,0.01219150796532631
0.01225836481899023,-0.002054199343547225,-0.01720832847058773,0.017965292558073997,-0.0,0.01219150796532631
0.01166541501879692,-0.0020640152506530285,-0.01691247522830963,0.018640799447894096,-0.0,0.012239954434335232
0.012042354792356491,-0.0022879329044371843,-0.01606295444071293,0.01886201649904251,-0.0,0.012371580116450787
0.011595961637794971,-0.002090380061417818,-0.01761600933969021,0.018603086471557617,-0.0,0.012397829443216324
0.012032504193484783,-0.002222224371507764,-0.01850026659667492,0.01829177886247635,-0.0,0.012029259465634823
0.012451875023543835,-0.002066313521936536,-0.017382999882102013,0.018054025247693062,-0.0,0.013281489722430706
0.011930848471820354,-0.002027092734351754,-0.01698499359190464,0.018717167899012566,-0.0,0.012425894849002361
0.012193145230412483,-0.0019219898385927081,-0.018005097284913063,0.018757205456495285,-0.0,0.01217679213732481
0.0124156903475523,-0.0021002963185310364,-0.017220115289092064,0.018145227804780006,-0.0,0.012691891752183437
0.012365696020424366,-0.0022876416333019733,-0.01738116145133972,0.0183122456073761,-0.0,0.012547709979116917
0.012592003680765629,-0.0021964285988360643,-0.017309365794062614,0.018558071926236153,-0.0,0.013077965006232262
0.01182980090379715,-0.002352640265598893,-0.017357850447297096,0.017977088689804077,-0.0,0.012804980389773846
0.012189444154500961,-0.0021928611677139997,-0.018119510263204575,0.018186049535870552,-0.0,0.012777406722307205
0.012403503060340881,-0.0021212773863226175,-0.0174915362149477,0.01828884705901146,-0.0,0.012786674313247204
0.013142705895006657,-0.0019722941797226667,-0.01764202117919922,0.01877427287399769,-0.0,0.01259182021021843
0.012464893981814384,-0.0019565431866794825,-0.017782919108867645,0.0190720334649086,-0.0,0.012777013704180717
0.012386308051645756,-0.002164316363632679,-0.01690329983830452,0.018551170825958252,-0.0,0.012413178570568562
0.012716350145637989,-0.0021266972180455923,-0.016975773498415947,0.018387088552117348,-0.0,0.012552827596664429
0.012813284993171692,-0.0022387707140296698,-0.016928307712078094,0.0181302260607481,-0.0,0.01274438388645649
0.01284501887857914,-0.0021198741160333157,-0.017447322607040405,0.017690271139144897,-0.0,0.013249525800347328
0.01266087032854557,-0.0020071431063115597,-0.0176850613206625,0.018006818369030952,-0.0,0.01295617874711752
0.013108231127262115,-0.0019521653885021806,-0.016962988302111626,0.018369516357779503,-0.0,0.01280307024717331
0.01288654189556837,-0.0018359151436015964,-0.016345400363206863,0.018857441842556,-0.0,0.012913040816783905
0.012413171119987965,-0.0018477659905329347,-0.017507774755358696,0.018110424280166626,-0.0,0.012965917587280273
0.012928079813718796,-0.0016751392977312207,-0.017437994480133057,0.017731748521327972,-0.0,0.01247283723205328
0.01317219901829958,-0.001526476233266294,-0.017003174871206284,0.018101215362548828,-0.0,0.012766117230057716
0.01317219901829958,-0.001526476233266294,-0.017003174871206284,0.018101215362548828,-0.0,0.012766117230057716
0.012932785786688328,-0.0013102327939122915,-0.01646791398525238,0.018551211804151535,-0.0,0.012977383099496365
0.012566616758704185,-0.001298066577874124,-0.017355289310216904,0.01825683005154133,-0.0,0.012915791012346745
0.012566616758704185,-0.001298066577874124,-0.017355289310216904,0.01825683005154133,-0.0,0.012915791012346745
0.01338659506291151,-0.00146088982000947,-0.0169781856238842,0.017567994073033333,-0.0,0.013003651052713394
0.012916507199406624,-0.001534873154014349,-0.01700611039996147,0.018301790580153465,-0.0,0.012677637860178947
0.013119944371283054,-0.0016894858563318849,-0.01733601652085781,0.017916113138198853,-0.0,0.012637474574148655
0.012581457383930683,-0.0015745973214507103,-0.016575949266552925,0.01820245571434498,-0.0,0.012867155484855175
0.0128102395683527,-0.001480532344430685,-0.01694333739578724,0.018391545861959457,-0.0,0.01292893011122942
0.012914959341287613,-0.0014873953768983483,-0.016847124323248863,0.01742831990122795,-0.0,0.013264719396829605
0.013058716431260109,-0.0013771370286121964,-0.017371324822306633,0.01754741556942463,-0.0,0.01312751229852438
0.01299462653696537,-0.001291060820221901,-0.01786353997886181,0.018869850784540176,-0.0,0.013323944061994553
0.012790205888450146,-0.0011280779726803303,-0.016574813053011894,0.016997776925563812,-0.0,0.013081947341561317
0.013357069343328476,-0.0011994235683232546,-0.017184391617774963,0.017178712412714958,-0.0,0.0129118412733078
0.013200069777667522,-0.0011856085620820522,-0.016630051657557487,0.017434004694223404,-0.0,0.012930216267704964
0.01322123408317566,-0.0012064564507454634,-0.016927454620599747,0.0186786986887455,-0.0,0.01254903431981802
0.012697415426373482,-0.0011651209788396955,-0.017174778506159782,0.018620744347572327,-0.0,0.012706156820058823
0.013217249885201454,-0.0012209503911435604,-0.01658817008137703,0.01799106039106846,-0.0,0.01290086004883051
0.013064499013125896,-0.0012203205842524767,-0.01730286329984665,0.018028434365987778,-0.0,0.013109440915286541
0.013089507818222046,-0.0011964797740802169,-0.01720675826072693,0.01802537776529789,-0.0,0.013035077601671219
0.012863927520811558,-0.0012628624681383371,-0.01731572300195694,0.018088484182953835,-0.0,0.01328594982624054
0.013126623816788197,-0.0011493426281958818,-0.01734498143196106,0.01874762773513794,-0.0,0.012330083176493645
0.013035002164542675,-0.0012174785370007157,-0.017684703692793846,0.018085170537233353,-0.0,0.012859595008194447
0.013148699887096882,-0.0011658507864922285,-0.017501460388302803,0.017791910097002983,-0.0,0.012608615681529045
0.012944433838129044,-0.0012300884118303657,-0.01745145581662655,0.017301328480243683,-0.0,0.012850589118897915
0.012944433838129044,-0.0012300884118303657,-0.01745145581662655,0.017301328480243683,-0.0,0.012850589118897915
0.013178031891584396,-0.0012113606790080667,-0.017497461289167404,0.017817115411162376,-0.0,0.012770299799740314
0.01295272633433342,-0.0011729375692084432,-0.01696818880736828,0.01766301319003105,-0.0,0.013252798467874527
0.01328139565885067,-0.0011697537265717983,-0.017367880791425705,0.01733892783522606,-0.0,0.013031159527599812
0.012836946174502373,-0.001254842383787036,-0.0170153621584177,0.017619827762246132,-0.0,0.012949705123901367
0.013118979521095753,-0.0011952713830396533,-0.01779177598655224,0.017381567507982254,-0.0,0.013069497421383858
0.01309952326118946,-0.0011810207506641746,-0.018060173839330673,0.0180627703666687,-0.0,0.01290818490087986
0.013193143531680107,-0.001170097035355866,-0.01735416054725647,0.017961226403713226,-0.0,0.012726780958473682
0.012994872406125069,-0.0012306749122217298,-0.017643902450799942,0.017831917852163315,-0.0,0.012868475168943405
0.013052050024271011,-0.0012568075908347964,-0.017082324251532555,0.017930779606103897,-0.0,0.013036852702498436
0.013515026308596134,-0.0012339360546320677,-0.01710100658237934,0.017563704401254654,-0.0,0.01285911351442337
0.01307334378361702,-0.0011854483745992184,-0.017269529402256012,0.017605772241950035,-0.0,0.013240124098956585
0.013319317251443863,-0.0011441915994510055,-0.017148280516266823,0.017444750294089317,-0.0,0.012783064506947994
0.012960398569703102,-0.0010737432166934013,-0.017519671469926834,0.017254000529646873,-0.0,0.013156432658433914
0.013424593955278397,-0.001155071659013629,-0.01698954775929451,0.017908116802573204,-0.0,0.013111614622175694
0.012932397425174713,-0.0011488492600619793,-0.017063967883586884,0.01796208694577217,-0.0,0.013128940016031265
0.013379160314798355,-0.0011807553237304091,-0.01724134013056755,0.017999444156885147,-0.0,0.01293009240180254
0.013283195905387402,-0.0012675023172050714,-0.017151998355984688,0.01825651526451111,-0.0,0.012910529039800167
0.013682657852768898,-0.0012052643578499556,-0.01740495301783085,0.01799503155052662,-0.0,0.013177553191781044
0.01329182181507349,-0.001193893258459866,-0.016675734892487526,0.01818802021443844,-0.0,0.013013436459004879
0.012778851203620434,-0.0011695334687829018,-0.01672482304275036,0.01869138516485691,-0.0,0.013204204849898815
0.013036780059337616,-0.0011212247190997005,-0.016853520646691322,0.01806703209877014,-0.0,0.013178759254515171
0.013212488032877445,-0.0010546980192884803,-0.017503878101706505,0.018196284770965576,-0.0,0.013212494552135468
0.012682300992310047,-0.0011498496169224381,-0.016217149794101715,0.01769488863646984,-0.0,0.012938116677105427
0.013300574384629726,-0.0011446283897385001,-0.016651928424835205,0.017776349559426308,-0.0,0.012885804288089275
0.013300574384629726,-0.0011446283897385001,-0.016651928424835205,0.017776349559426308,-0.0,0.012885804288089275
0.013043668121099472,-0.0014282084302976727,-0.01683150604367256,0.017479851841926575,-0.0,0.013139420188963413
0.01297216210514307,-0.0013715310487896204,-0.017032718285918236,0.017841743305325508,-0.0,0.013018024154007435
0.012755375355482101,-0.0012866243487223983,-0.01680040918290615,0.018700867891311646,-0.0,0.01304329838603735
0.013119131326675415,-0.0011821652296930552,-0.01636403799057007,0.017417313531041145,-0.0,0.012682958506047726
0.013329289853572845,-0.0010991498129442334,-0.01681235060095787,0.017591292038559914,-0.0,0.012519484385848045
0.012987559661269188,-0.000960467616096139,-0.016193920746445656,0.017376944422721863,-0.0,0.012571746483445168
0.01384788379073143,-0.0010375899728387594,-0.016849180683493614,0.017277700826525688,-0.0,0.012883189134299755
0.01346192043274641,-0.001027831225655973,-0.01673632301390171,0.017528751865029335,-0.0,0.013941283337771893
0.013444622047245502,-0.0010299351997673512,-0.016665102913975716,0.017343634739518166,-0.0,0.01306465920060873
0.0129858972504735,-0.001021054689772427,-0.016399594023823738,0.018203359097242355,-0.0,0.012529258616268635
0.01378520019352436,-0.0010041930945590138,-0.01573978364467621,0.018213337287306786,-0.0,0.012699505314230919
0.012819547206163406,-0.0010774461552500725,-0.016599392518401146,0.017870908603072166,-0.0,0.013357691466808319
0.013372385874390602,-0.0010505226673558354,-0.015955453738570213,0.01796201430261135,-0.0,0.01374242827296257
0.013115295208990574,-0.0011205688351765275,-0.016375865787267685,0.017887290567159653,-0.0,0.013362616300582886
0.013384833000600338,-0.00120029307436198,-0.016445444896817207,0.01789850927889347,-0.0,0.01315563265234232
0.013288233429193497,-0.0012874924577772617,-0.016295934095978737,0.01829804852604866,-0.0,0.013147935271263123
0.013681055046617985,-0.0012575765140354633,-0.016099656000733376,0.01744730956852436,-0.0,0.01326744258403778
0.013762539252638817,-0.0012322001857683063,-0.015701575204730034,0.017414143308997154,-0.0,0.013018091209232807
0.013584855943918228,-0.0012205308303236961,-0.016428017988801003,0.01719185896217823,-0.0,0.013178929686546326
0.0134945809841156,-0.001161659136414528,-0.015610293485224247,0.017787493765354156,-0.0,0.013188358396291733
0.013337609358131886,-0.0011205734917894006,-0.01606457494199276,0.018449390307068825,-0.0,0.01341528445482254
0.013783557340502739,-0.0011259199818596244,-0.01645902544260025,0.017588457092642784,-0.0,0.013452963903546333
0.013783557340502739,-0.0011259199818596244,-0.01645902544260025,0.017588457092642784,-0.0,0.013452963903546333
0.013325302861630917,-0.0014222683385014534,-0.016645250841975212,0.017759641632437706,-0.0,0.013717611320316792
0.013867232948541641,-0.001321405521593988,-0.016279617324471474,0.018179578706622124,-0.0,0.01335898321121931
0.013543650507926941,-0.0012453541858121753,-0.01584218069911003,0.017953284084796906,-0.0,0.01274899672716856
0.013885061256587505,-0.0011207383358851075,-0.016651222482323647,0.017636731266975403,-0.0,0.013059797696769238
0.013662475161254406,-0.0010898548644036055,-0.01616719923913479,0.017889337614178658,-0.0,0.012729769572615623
0.013796285726130009,-0.001056696637533605,-0.016222313046455383,0.017112761735916138,-0.0,0.01274202112108469
0.013796285726130009,-0.001056696637533605,-0.016222313046455383,0.017112761735916138,-0.0,0.01274202112108469
0.013370528817176819,-0.0010642163688316941,-0.015952348709106445,0.01740051805973053,-0.0,0.012759980745613575
0.013888288289308548,-0.0010907981777563691,-0.0165649875998497,0.017481161281466484,-0.0,0.01345475111156702
0.013840186409652233,-0.0011879949597641826,-0.016733979806303978,0.017577415332198143,-0.0,0.013512593694031239
0.013964520767331123,-0.0011763920774683356,-0.016918454319238663,0.01820206642150879,-0.0,0.013793697580695152
0.013697575777769089,-0.0011727656237781048,-0.016593944281339645,0.01756386086344719,-0.0,0.013963843695819378
0.013642032630741596,-0.0011661462485790253,-0.016687266528606415,0.017935970798134804,-0.0,0.013820424675941467
0.014008129015564919,-0.0011187223717570305,-0.01720050349831581,0.018459124490618706,-0.0,0.013257520273327827
0.01411924697458744,-0.0010964071843773127,-0.016880657523870468,0.018316209316253662,-0.0,0.013736918568611145
0.01356294471770525,-0.0010730247013270855,-0.01639830693602562,0.01817651465535164,-0.0,0.013858330436050892
0.013749792240560055,-0.0011562166037037969,-0.016463929787278175,0.017217975109815598,-0.0,0.013561095111072063
0.013899016194045544,-0.0011498365784063935,-0.015833936631679535,0.017195282503962517,-0.0,0.014337756671011448
0.013646925799548626,-0.0012048652861267328,-0.016595497727394104,0.017853301018476486,-0.0,0.013874741271138191
0.013996263965964317,-0.0013362645404413342,-0.016410619020462036,0.01772884838283062,-0.0,0.013307434506714344
0.014052728191018105,-0.001274401438422501,-0.01640031300485134,0.018114110454916954,-0.0,0.01321587897837162
0.014311670325696468,-0.0012719961814582348,-0.016009479761123657,0.017704114317893982,-0.0,0.01390425767749548
0.01380209531635046,-0.0012067875359207392,-0.015599973499774933,0.018381968140602112,-0.0,0.012777158990502357
0.014296773821115494,-0.0011503914138302207,-0.01672356016933918,0.01716350018978119,-0.0,0.012477279640734196
0.013804929330945015,-0.0011114084627479315,-0.016150327399373055,0.01690908893942833,-0.0,0.013161602430045605
0.013942893594503403,-0.0009808329632505774,-0.016745250672101974,0.017420249059796333,-0.0,0.013816656544804573
0.013733359053730965,-0.0010736683616414666,-0.016566939651966095,0.017520630732178688,-0.0,0.013687673956155777
0.01439407467842102,-0.0010801927419379354,-0.016521677374839783,0.017425186932086945,-0.0,0.014080813154578209
0.014040420763194561,-0.0012127564987167716,-0.016209591180086136,0.01733303815126419,-0.0,0.013973857276141644
0.013600009493529797,-0.0011554177617654204,-0.01634208671748638,0.017486494034528732,-0.0,0.013975195586681366
0.014002193696796894,-0.0011115310480818152,-0.01615436002612114,0.017240161076188087,-0.0,0.013763298280537128
0.013599317520856857,-0.0009776386432349682,-0.01657029241323471,0.016661908477544785,-0.0,0.013722398318350315
0.014169878326356411,-0.0008212302927859128,-0.016319697722792625,0.016918664798140526,-0.0,0.013582529500126839
0.014087305404245853,-0.0009209829149767756,-0.016576750203967094,0.01706794463098049,-0.0,0.013485419563949108
0.014457207173109055,-0.0009469431242905557,-0.01633620634675026,0.01769167371094227,-0.0,0.013330171816051006
0.014457207173109055,-0.0009469431242905557,-0.01633620634675026,0.01769167371094227,-0.0,0.013330171816051006
0.014347744174301624,-0.0010864933719858527,-0.016252931207418442,0.01762634888291359,-0.0,0.013457128778100014
0.014350424520671368,-0.0010804987978190184,-0.01650969125330448,0.016716456040740013,-0.0,0.013391870073974133
0.01380334421992302,-0.0010505099780857563,-0.015901345759630203,0.01712183468043804,-0.0,0.013648656196892262
0.014169411733746529,-0.0010251456405967474,-0.01644965633749962,0.01675965078175068,-0.0,0.013605611398816109
0.014138666912913322,-0.0009139418252743781,-0.015998106449842453,0.01676744595170021,-0.0,0.013888469897210598
0.014500273391604424,-0.0008226489298976958,-0.016573576256632805,0.016729485243558884,-0.0,0.013701177202165127
0.014242570847272873,-0.0008332529687322676,-0.016006771475076675,0.0170125775039196,-0.0,0.013856352306902409
0.014315517619252205,-0.0008421041420660913,-0.016524679958820343,0.01717805676162243,-0.0,0.013602969236671925
0.01432310976088047,-0.0008578645647503436,-0.016714775934815407,0.01724712736904621,-0.0,0.013981090858578682
0.01459785457700491,-0.0010065542301163077,-0.016506200656294823,0.01741708442568779,-0.0,0.013729352504014969
0.014367908239364624,-0.0010252072243019938,-0.016879599541425705,0.01719212718307972,-0.0,0.013947680592536926
0.014901788905262947,-0.0010079150088131428,-0.016142264008522034,0.017505459487438202,-0.0,0.013883519917726517
0.0143201919272542,-0.0009116442524828017,-0.016731247305870056,0.01828991249203682,-0.0,0.013683968223631382
0.014781281352043152,-0.001013303524814546,-0.016538137570023537,0.018234621733427048,-0.0,0.013649928383529186
0.014517536386847496,-0.0009960613679140806,-0.01633971370756626,0.018000220879912376,-0.0,0.013826313428580761
0.014568407088518143,-0.0009824843145906925,-0.016868071630597115,0.01720552146434784,-0.0,0.013877764344215393
0.013838475570082664,-0.0008993207011371851,-0.016449162736535072,0.01666318252682686,-0.0,0.013824574649333954
0.014588039368391037,-0.0008811897714622319,-0.01669319160282612,0.016990043222904205,-0.0,0.013863625004887581
0.014575233682990074,-0.000870696094352752,-0.01622406393289566,0.017035476863384247,-0.0,0.013942411169409752
0.015150339342653751,-0.0007633165805600584,-0.017031678929924965,0.0177714042365551,-0.0,0.014106962829828262
0.014616870321333408,-0.000789207813795656,-0.016472386196255684,0.017989370971918106,-0.0,0.013628876768052578
0.014307204633951187,-0.0007818499580025673,-0.016776863485574722,0.018254196271300316,-0.0,0.0132329436019063
0.015106289647519588,-0.000804621260613203,-0.01631084829568863,0.017361275851726532,-0.0,0.013698365539312363
0.014628314413130283,-0.0008076919475570321,-0.016689099371433258,0.017172275111079216,-0.0,0.014012567698955536
0.01537706982344389,-0.0007945878896862268,-0.01653173565864563,0.01724054105579853,-0.0,0.014224812388420105
0.015091938897967339,-0.0007446528761647642,-0.01670951209962368,0.016887564212083817,-0.0,0.01360602118074894
0.01526055671274662,-0.0008156743715517223,-0.01743955910205841,0.017183439806103706,-0.0,0.01372423954308033
0.01526055671274662,-0.0008156743715517223,-0.01743955910205841,0.017183439806103706,-0.0,0.01372423954308033
0.016351697966456413,-0.0008295162697322667,-0.01682223752140999,0.016758857294917107,-0.0,0.013247528113424778
0.014350454322993755,-0.0007438957691192627,-0.01625501550734043,0.01705590821802616,-0.0,0.013887898996472359
0.014350454322993755,-0.0007438957691192627,-0.01625501550734043,0.01705590821802616,-0.0,0.013887898996472359
0.014975226484239101,-0.0007567692082375288,-0.0166791882365942,0.0167233906686306,-0.0,0.01414830144494772
0.014990799129009247,-0.0007396605215035379,-0.016377583146095276,0.016634410247206688,-0.0,0.014059199020266533
0.015085307881236076,-0.0007448456599377096,-0.016771305352449417,0.016438856720924377,-0.0,0.014084258116781712
0.015439733862876892,-0.0007645576843060553,-0.017088420689105988,0.017098402604460716,-0.0,0.013876941986382008
0.015028745867311954,-0.0007137153879739344,-0.01693313755095005,0.017387880012392998,-0.0,0.013906409963965416
0.015037019737064838,-0.0006414880626834929,-0.017102712765336037,0.016409479081630707,-0.0,0.013924320228397846
0.01497912872582674,-0.0005821839440613985,-0.016883941367268562,0.016914550215005875,-0.0,0.014098464511334896
0.015054191462695599,-0.0005329226260073483,-0.01752523146569729,0.01667199097573757,-0.0,0.014259479939937592
0.014985015615820885,-0.000553071266040206,-0.01749017834663391,0.017151182517409325,-0.0,0.014431322924792767
0.015175809152424335,-0.000520785863045603,-0.017237193882465363,0.016858596354722977,-0.0,0.014019799418747425
0.014697382226586342,-0.0004857472376897931,-0.017822425812482834,0.016879310831427574,-0.0,0.014250998385250568
0.015163346193730831,-0.00044152321061119437,-0.017493456602096558,0.016812918707728386,-3.4248826068505878e-06,0.014128021895885468
0.01520184613764286,-0.000401449971832335,-0.017317848280072212,0.016400761902332306,-2.2362034712841705e-07,0.014337721280753613
0.015160957351326942,-0.0004411833651829511,-0.017294395714998245,0.017020491883158684,-1.4600810338549763e-08,0.014273487962782383
0.014694884419441223,-0.00046868372010067105,-0.01703783869743347,0.016406100243330002,-9.533287492757836e-10,0.014449257403612137
0.015516113489866257,-0.00044322360190562904,-0.0176304429769516,0.01650988683104515,-6.224555593181691e-11,0.014447697438299656
0.01562575064599514,-0.00044411487760953605,-0.017397357150912285,0.017440592870116234,-2.6536254747397403e-13,0.014481584541499615
0.014933198690414429,-0.0004183356068097055,-0.01763954572379589,0.017343536019325256,-1.7326277470587105e-14,0.014431552030146122
0.015207895077764988,-0.0004866914823651314,-0.01718185283243656,0.016676414757966995,-1.1312820636389114e-15,0.01439058780670166
0.015067558735609055,-0.00047978220391087234,-0.017678575590252876,0.017266634851694107,-7.38646280451395e-17,0.014379407279193401
0.015438742935657501,-0.00043408822966739535,-0.01700076088309288,0.016888152807950974,-4.822832307327656e-18,0.01418271940201521
0.015178398229181767,-0.0004654720250982791,-0.017143459990620613,0.016813086345791817,-3.1489646641127403e-19,0.014400050044059753
0.015234316699206829,-0.00043651036685332656,-0.017438894137740135,0.01718105375766754,-2.0560486931736152e-20,0.015057365410029888
0.015158778056502342,-0.00040396497934125364,-0.017022617161273956,0.016674485057592392,-1.3424529438108677e-21,0.01401993352919817
0.015252719633281231,-0.00043758380343206227,-0.017098866403102875,0.017298433929681778,-8.765258185496469e-23,0.0140498336404562
0.015333589166402817,-0.00040993464062921703,-0.016440249979496002,0.01710420288145542,-5.7230868653348354e-24,0.014011463150382042
0.015333589166402817,-0.00040993464062921703,-0.016440249979496002,0.01710420288145542,-5.7230868653348354e-24,0.014011463150382042
0.015127301216125488,-0.00043760929838754237,-0.01702270470559597,0.017660504207015038,-3.736767054854989e-25,0.0145107451826334
0.015304637141525745,-0.0004145215207245201,-0.017109554260969162,0.017237581312656403,-2.4398417011108237e-26,0.014682461507618427
0.01511586643755436,-0.0004294794925954193,-0.01656368002295494,0.016682881861925125,-1.5930423905566296e-27,0.014463573694229126
0.015161705203354359,-0.0003969355020672083,-0.017272287979722023,0.017209624871611595,-1.0401428832256692e-28,0.015033219940960407
0.014934181235730648,-0.00043471617391332984,-0.01694991998374462,0.01721365563571453,-6.791389459615866e-30,0.015297871083021164
0.015548410825431347,-0.0004048989212606102,-0.0168251171708107,0.01771607995033264,-4.434292419126678e-31,0.015578728169202805
0.014826677739620209,-0.000436857488239184,-0.016940567642450333,0.017606642097234726,-2.8952760876642926e-32,0.015117711387574673
0.015505717135965824,-0.00041077216155827045,-0.016774898394942284,0.017338812351226807,-1.8904083418153095e-33,0.014650666154921055
0.015188559889793396,-0.0003856565454043448,-0.017093118280172348,0.017255248501896858,-1.2343015551701678e-34,0.013982568867504597
0.01553882472217083,-0.0004091279406566173,-0.016522815451025963,0.017012111842632294,-8.059106473798098e-36,0.014357403852045536
0.015089225955307484,-0.00039258511969819665,-0.01690850593149662,0.017462750896811485,-5.262020571748961e-37,0.014579791575670242
0.015396585687994957,-0.0003723576955962926,-0.01634938083589077,0.017470432445406914,-3.43572347326978e-38,0.015199951827526093
0.01504676602780819,-0.00041586393490433693,-0.016834229230880737,0.017169704660773277,-2.2432812583005623e-39,0.015282701700925827
0.015221385285258293,-0.00038860627682879567,-0.01714075356721878,0.017428113147616386,-1.464707219835515e-40,0.015042795799672604
0.01542335469275713,-0.00035781582118943334,-0.01664603501558304,0.016604850068688393,-9.563862019016877e-42,0.014385560527443886
0.015138732269406319,-0.0003087088989559561,-0.016719253733754158,0.017466606572270393,-4.0637655465419695e-44,0.014890125021338463
0.015050158835947514,-0.0002888888993766159,-0.016652433201670647,0.01757008582353592,-2.802596928649634e-45,0.015196266584098339
0.015377604402601719,-0.00032350694527849555,-0.0166777316480875,0.017982294782996178,-0.0,0.015060627833008766
0.015089296735823154,-0.0003071845858357847,-0.016545211896300316,0.01740415021777153,-0.0,0.01517673209309578
0.015624013729393482,-0.00029067567083984613,-0.01691720262169838,0.01729687862098217,-0.0,0.014938648790121078
0.015163673087954521,-0.00027582660550251603,-0.016304204240441322,0.016851531341671944,-0.0,0.01501520350575447
0.015759741887450218,-0.00029108862509019673,-0.016396619379520416,0.01659528538584709,-0.0,0.014548799023032188
0.015177540481090546,-0.00029176584212109447,-0.01619793474674225,0.017052970826625824,-0.0,0.014409217052161694
0.015268789604306221,-0.00027903320733457804,-0.016814062371850014,0.017235364764928818,-0.0,0.014604606665670872
0.015268789604306221,-0.00027903320733457804,-0.016814062371850014,0.017235364764928818,-0.0,0.014604606665670872
0.015408869832754135,-0.0002672009577509016,-0.016588106751441956,0.017860103398561478,-8.32343939691782e-05,0.015123066492378712
0.01585407927632332,-0.0002914569340646267,-0.015966465696692467,0.017510119825601578,-0.0001054136737366207,0.01519186981022358
0.015454004518687725,-0.0002814730105455965,-0.016391636803746223,0.01708429493010044,-0.00010454053699504584,0.015261000953614712
0.015734197571873665,-0.0002709021500777453,-0.016221141442656517,0.017177358269691467,-0.0001022675569402054,0.015041917562484741
0.015776293352246284,-0.0002586234186310321,-0.016489621251821518,0.016822906211018562,-0.00011483377602417022,0.015471423044800758
0.015318582765758038,-0.00024458044208586216,-0.015660781413316727,0.017457740381360054,-0.00011705607903422788,0.014028788544237614
0.015277298167347908,-0.00023197149857878685,-0.016327690333127975,0.017314160242676735,-0.00011487367009976879,0.014252212829887867
0.015290118753910065,-0.000264095317106694,-0.016149628907442093,0.017176324501633644,-0.00012172241986263543,0.0147541593760252
0.01595497690141201,-0.0002523387665860355,-0.016569441184401512,0.0173037126660347,-0.00012795122165698558,0.015441136434674263
0.015604441985487938,-0.00024108009529300034,-0.0165015310049057,0.01628674939274788,-0.00012596133456099778,0.016066959127783775
0.01580018177628517,-0.0002307767135789618,-0.01589837111532688,0.016935793682932854,-0.00012352861813269556,0.015609515830874443
0.015523738227784634,-0.000221318201511167,-0.016553305089473724,0.015898626297712326,-0.0001296713453484699,0.015479330904781818
0.015815796330571175,-0.00021260385983623564,-0.016160614788532257,0.016061976552009583,-0.00013527675764635205,0.015261190012097359
0.015150591731071472,-0.00020455021876841784,-0.016557440161705017,0.016880912706255913,-0.00013329755165614188,0.015547627583146095
0.01573311910033226,-0.00019708495528902858,-0.016309550032019615,0.01675749011337757,-0.00013090827269479632,0.014937981963157654
0.016276106238365173,-0.00019014444842468947,-0.016642317175865173,0.01666216179728508,-0.00012873126252088696,0.014952996745705605
0.016390498727560043,-0.000207099350518547,-0.01659875363111496,0.01697422005236149,-0.0002599484578240663,0.015246408060193062
0.015373953618109226,-0.000200638547539711,-0.016840260475873947,0.01689712144434452,-0.0002463334531057626,0.015035436488687992
0.017082901671528816,-0.0001944478281075135,-0.016579197719693184,0.016629118472337723,-0.000277082493994385,0.01514038722962141
0.016407907009124756,-0.0001347570650978014,-0.01723109558224678,0.016830841079354286,-0.0002662565966602415,0.015085246413946152
0.01638864539563656,-0.00010120221122633666,-0.016861021518707275,0.016446346417069435,-0.00025391948292963207,0.01557252462953329
0.016296684741973877,-9.548354137223214e-05,-0.016386764124035835,0.01677868701517582,-0.00024252380535472184,0.015644250437617302
0.016270337626338005,-9.066873462870717e-05,-0.017349058762192726,0.016610976308584213,-0.0002320980856893584,0.015726815909147263
0.0164035577327013,-8.632012759335339e-05,-0.016914453357458115,0.016812609508633614,-0.00024994308478198946,0.015791498124599457
0.016413535922765732,-8.236969006247818e-05,-0.016930287703871727,0.017085693776607513,-0.0002487108577042818,0.015584654174745083
0.01672935113310814,-7.876496238168329e-05,-0.016555601730942726,0.01654411293566227,-0.0002398069336777553,0.015453430823981762
0.016249746084213257,-7.54628999857232e-05,-0.01691092737019062,0.016873808577656746,-0.00023104775755200535,0.015390430577099323
0.016249746084213257,-7.54628999857232e-05,-0.01691092737019062,0.016873808577656746,-0.00023104775755200535,0.015390430577099323
0.016714517027139664,-7.242616993607953e-05,-0.017526770010590553,0.01705550216138363,-0.00022287541651166975,0.016001487150788307
0.0168327484279871,-6.962474435567856e-05,-0.017149247229099274,0.01746169663965702,-0.00024193378339987248,0.015829261392354965
0.017032412812113762,-6.70318040647544e-05,-0.01702207699418068,0.01742442138493061,-0.00023761516786180437,0.016134656965732574
0.017134884372353554,-6.462512101279572e-05,-0.01638074778020382,0.016899049282073975,-0.00023025510017760098,0.01595860719680786
0.016466815024614334,-6.238523928914219e-05,-0.016941111534833908,0.017299026250839233,-0.0002231341932201758,0.01572880893945694
0.01688935048878193,-6.02953732595779e-05,-0.01697971299290657,0.016390493139624596,-0.0002164273028029129,0.015414941124618053
0.01659070886671543,-5.834101466462016e-05,-0.01630396395921707,0.01612790860235691,-0.00022356440604198724,0.015009603463113308
0.016892803832888603,-5.6509405112592503e-05,-0.016726642847061157,0.016352783888578415,-0.0002254316641483456,0.015227969735860825
0.01688545197248459,-5.4789350542705506e-05,-0.016544606536626816,0.01647912710905075,-0.00021548908262047917,0.01596844010055065
0.016499685123562813,-5.317083923728205e-05,-0.017212839797139168,0.0172299575060606,-0.00020569234038703144,0.01573607511818409
0.016962192952632904,-5.1645289204316214e-05,-0.017078489065170288,0.017080986872315407,-0.00019670266192406416,0.01574285514652729
0.016435524448752403,-5.020480239181779e-05,-0.016692034900188446,0.017276771366596222,-0.00020689847588073462,0.015832751989364624
0.0170875433832407,-4.884252484771423e-05,-0.01699642837047577,0.016687368974089622,-0.00021580577595159411,0.015228905715048313
0.017247091978788376,-4.755213012685999e-05,-0.016273358836770058,0.01651758886873722,-0.00020859140204265714,0.016115965321660042
0.016964420676231384,-4.632823038264178e-05,-0.01678411476314068,0.01637142524123192,-0.0002009028394240886,0.016034523025155067
0.01666855998337269,-4.406023072078824e-05,-0.016336603090167046,0.016896037384867668,-0.000186991979717277,0.016496585682034492
0.01728683151304722,-4.3007428757846355e-05,-0.016509372740983963,0.016579724848270416,-0.0002068637404590845,0.015728073194622993
0.01704852096736431,-4.2003870476037264e-05,-0.016410313546657562,0.016652533784508705,-0.0002037649101112038,0.01591826044023037
0.017053812742233276,-4.1046056139748544e-05,-0.017383920028805733,0.016065623611211777,-0.00019760806753765792,0.01587054505944252
0.017053812742233276,-4.1046056139748544e-05,-0.017383920028805733,0.016065623611211777,-0.00019760806753765792,0.01587054505944252
0.01709502935409546,-4.0130958950612694e-05,-0.01645076461136341,0.016207361593842506,-0.0001916124310810119,0.01564275659620762
0.017471319064497948,-3.8417911127908155e-05,-0.015939373522996902,0.017097068950533867,-0.00018062524031847715,0.01605096459388733
0.01742476597428322,-3.7615081964759156e-05,-0.016230076551437378,0.017294546589255333,-0.00018790473404806107,0.016271773725748062
0.01754092238843441,-3.6845118302153423e-05,-0.016763517633080482,0.015953531488776207,-0.00019439922471065074,0.016881490126252174
0.01754092238843441,-3.6845118302153423e-05,-0.016763517633080482,0.015953531488776207,-0.00019439922471065074,0.016881490126252174
0.017571425065398216,-3.6106033803662285e-05,-0.016248775646090508,0.0166254211217165,-0.00019002403132617474,0.016747362911701202
0.016869675368070602,-3.539605313562788e-05,-0.016388557851314545,0.016033831983804703,-0.00018518557772040367,0.0165419764816761
0.017289550974965096,-3.4713426430244e-05,-0.015965063124895096,0.01613238826394081,-0.00020775529264938086,0.01629733294248581
0.017077770084142685,-3.405665120226331e-05,-0.016805369406938553,0.01607838273048401,-0.00020249738008715212,0.015783941373229027
0.017500102519989014,-3.342425043229014e-05,-0.0164926890283823,0.016064397990703583,-0.00019403158512432128,0.01604279689490795
0.017493221908807755,-3.2814914447953925e-05,-0.0163088608533144,0.01683545857667923,-0.00022069791157264262,0.016120681539177895
0.017442449927330017,-3.222742088837549e-05,-0.016405634582042694,0.01658797264099121,-0.00021420393022708595,0.016522396355867386
0.018150057643651962,-3.166054739267565e-05,-0.016597524285316467,0.016810636967420578,-0.00020617210248019546,0.01623186655342579
0.018073735758662224,-3.111331898253411e-05,-0.016694724559783936,0.016062024980783463,-0.00022945390082895756,0.01621324010193348
0.017568811774253845,-3.058466245420277e-05,-0.016233177855610847,0.016008060425519943,-0.00022333192464429885,0.016281699761748314
0.017385249957442284,-1.6793186659924686e-05,-0.01685049571096897,0.01566949672996998,-0.00023862742818892002,0.01619466207921505
0.017238937318325043,-1.4813297639193479e-05,-0.016315817832946777,0.015868961811065674,-0.00023795808374416083,0.01657125912606716
0.017770010977983475,-1.455093934055185e-05,-0.016697293147444725,0.01614660955965519,-0.0003686885174829513,0.016017474234104156
0.017964603379368782,-1.4319126421469264e-05,-0.016474731266498566,0.01616733893752098,-0.00038217686233110726,0.016275733709335327
0.01786314696073532,-1.4094880498305429e-05,-0.01654205657541752,0.01667717471718788,-0.00042095044045709074,0.01751815900206566
0.017939461395144463,-1.3877545825380366e-05,-0.017041092738509178,0.016468895599246025,-0.0003946671786252409,0.016522550955414772
0.01791154220700264,-1.3666808627021965e-05,-0.01663171499967575,0.016493670642375946,-0.00042103740270249546,0.015552482567727566
0.017843034118413925,-1.3263987966638524e-05,-0.01679532788693905,0.0166066512465477,-0.00041759671876206994,0.016291271895170212
0.017843034118413925,-1.3263987966638524e-05,-0.01679532788693905,0.0166066512465477,-0.00041759671876206994,0.016291271895170212
0.018521759659051895,-1.2884227544418536e-05,-0.017178645357489586,0.01632697321474552,-0.00038680346915498376,0.016426751390099525
0.018521759659051895,-1.2884227544418536e-05,-0.017178645357489586,0.01632697321474552,-0.00038680346915498376,0.016426751390099525
0.018148545175790787,-1.2702386811724864e-05,-0.016421625390648842,0.01631120592355728,-0.0004754106921609491,0.01604214496910572
0.017360879108309746,-1.2525597412604839e-05,-0.01706511713564396,0.01603512093424797,-0.00043765470036305487,0.016366293653845787
0.017655998468399048,-1.2353692909528036e-05,-0.01711536943912506,0.016476159915328026,-0.00039933156222105026,0.016357867047190666
0.017957940697669983,-4.853397399529058e-07,-0.01776021346449852,0.01604795828461647,-0.00043004899634979665,0.016332847997546196
0.018235009163618088,-6.511451822177605e-09,-0.017510104924440384,0.01623757742345333,-0.0004062878433614969,0.016406025737524033
0.018676813691854477,-8.73594321881832e-11,-0.016475189477205276,0.01651332899928093,-0.00037836586125195026,0.016540469601750374
0.018127230927348137,-1.1720382693883313e-12,-0.017590243369340897,0.01636327989399433,-0.0003822535800281912,0.016632257029414177
0.018630532547831535,-1.57243907835964e-14,-0.01758195273578167,0.016627555713057518,-0.00038520334055647254,0.016412926837801933
0.01860899291932583,-2.109627405272053e-16,-0.017664315178990364,0.016238590702414513,-0.00039000107790343463,0.016791867092251778
0.017953835427761078,-2.8303347438561023e-18,-0.017112934961915016,0.01648915931582451,-0.00039228456444106996,0.0168822780251503
0.018479347229003906,-3.797255319985929e-20,-0.017086848616600037,0.01634507067501545,-0.0003915412235073745,0.016739165410399437
0.018546011298894882,-5.094502096111724e-22,-0.018328461796045303,0.01649743877351284,-0.0003779458347707987,0.016562093049287796
0.01822294294834137,-6.834925174523697e-24,-0.017068687826395035,0.016545753926038742,-0.00034980932832695544,0.01657847687602043
0.018735192716121674,-9.169924389383915e-26,-0.01660347916185856,0.016433177515864372,-0.00038069847505539656,0.016625508666038513
0.01856578141450882,-1.2302624780591891e-27,-0.017130978405475616,0.016927938908338547,-0.00036276315222494304,0.01646193489432335
0.018291136249899864,-1.650554011017842e-29,-0.01693115383386612,0.016268158331513405,-0.000340385566232726,0.01639997772872448
0.018523694947361946,-2.214428701723108e-31,-0.01780422404408455,0.016774896532297134,-0.000346205459209159,0.01685568317770958
0.0184670127928257,-2.9709385447964953e-33,-0.01722647249698639,0.017021141946315765,-0.0003508852096274495,0.016972452402114868
0.018745241686701775,-3.985893278842394e-35,-0.017071770504117012,0.017075354233384132,-0.00033385364804416895,0.01710899919271469
0.01881673000752926,-5.347584528603897e-37,-0.017143256962299347,0.016963355243206024,-0.0003392540675122291,0.016866128891706467
0.01856059767305851,-7.174467369841166e-39,-0.01687830314040184,0.016614219173789024,-0.0003435667895246297,0.017037928104400635
0.01883406937122345,-9.625519151447168e-41,-0.01714647375047207,0.016651129350066185,-0.0003841846191789955,0.01664925366640091
0.018776169046759605,-1.2919971841074813e-42,-0.016725219786167145,0.0173196941614151,-0.00037174089811742306,0.016629239544272423
0.018415935337543488,-1.6815581571897805e-44,-0.01707078143954277,0.016645634546875954,-0.00034452465479262173,0.016776934266090393
0.018878912553191185,0.0,-0.016629846766591072,0.016198376193642616,-0.00034278753446415067,0.01696111261844635
0.018869716674089432,0.0,-0.01723402366042137,0.016395460814237595,-0.00033521311706863344,0.01810663379728794
0.019241150468587875,0.0,-0.01651926152408123,0.016401302069425583,-0.00031645834678784013,0.01652880199253559
0.01863759756088257,0.0,-0.017036015167832375,0.0168729517608881,-0.00032327225198969245,0.016211535781621933
0.01863759756088257,0.0,-0.017036015167832375,0.0168729517608881,-0.00032327225198969245,0.016211535781621933
0.01827261596918106,0.0,-0.016819089651107788,0.01638174243271351,-0.0003288485750090331,0.01700352132320404
0.018893606960773468,0.0,-0.016873683780431747,0.016321497038006783,-0.00031392689561471343,0.01715676859021187
0.019022241234779358,0.0,-0.017265096306800842,0.016470517963171005,-0.00029911406454630196,0.017000455409288406
0.01854354701936245,0.0,-0.016594307497143745,0.016957029700279236,-0.00028555869357660413,0.017743973061442375
0.019053470343351364,0.0,-0.017288997769355774,0.016891110688447952,-0.00030953489476814866,0.017996463924646378
0.01910668984055519,0.0,-0.01674267090857029,0.0164091307669878,-0.00029904741677455604,0.017579572275280952
0.018814614042639732,0.0,-0.01684103161096573,0.016931850463151932,-0.00028726866003125906,0.017598740756511688
0.019000153988599777,0.0,-0.01717228814959526,0.0168610829859972,-0.00027752621099352837,0.01712309569120407
0.019169388338923454,0.0,-0.016845347359776497,0.017122311517596245,-0.0002753692679107189,0.01683022640645504
0.01899547129869461,0.0,-0.017214948311448097,0.01684669964015484,-0.0003054583794437349,0.01709214597940445
0.01991748809814453,0.0,-0.016722260043025017,0.016342779621481895,-0.0002949934278149158,0.017245741561055183
0.019090289250016212,0.0,-0.016904346644878387,0.01660085655748844,-0.0003235668409615755,0.017512397840619087
0.019421366974711418,0.0,-0.0170371625572443,0.016124900430440903,-0.00033214298309758306,0.017356451600790024
0.019123613834381104,0.0,-0.016477715224027634,0.016062099486589432,-0.0003368844336364418,0.01712850108742714
0.018229292705655098,0.0,-0.017299160361289978,0.01586742140352726,-0.0004730877699330449,0.01731153577566147
0.01995779573917389,0.0,-0.016628669574856758,0.016179554164409637,-0.0006073081167414784,0.0174836665391922
0.019805287942290306,0.0,-0.016779892146587372,0.016819681972265244,-0.0005972775397822261,0.017901258543133736
0.019350305199623108,0.0,-0.01662670262157917,0.016510512679815292,-0.0006247995770536363,0.018040496855974197
0.018948649987578392,0.0,-0.0169710461050272,0.016309132799506187,-0.0006442011217586696,0.018122291192412376
0.02015579305589199,4.64729564555455e-05,-0.017172791063785553,0.015979181975126266,-0.0007174527272582054,0.01796552538871765
0.019320053979754448,0.0002105951716657728,-0.01678261160850525,0.016016246750950813,-0.0009234900353476405,0.01760750263929367
0.019746869802474976,0.00020121026318520308,-0.016395261511206627,0.016716912388801575,-0.0011190093355253339,0.017386896535754204
0.019735882058739662,0.00019259765394963324,-0.016704846173524857,0.016592970117926598,-0.0012729367008432746,0.01739879883825779
0.01904730312526226,0.00022012869885656983,-0.016973432153463364,0.016923245042562485,-0.0012131091207265854,0.018013862892985344
0.01904730312526226,0.00022012869885656983,-0.016973432153463364,0.016923245042562485,-0.0012131091207265854,0.018013862892985344
0.019359827041625977,0.0002128734195139259,-0.016482049599289894,0.01699940487742424,-0.0011822516098618507,0.017912933602929115
0.019554810598492622,0.00020481797400861979,-0.017013197764754295,0.016437137499451637,-0.0011964108562096953,0.01791839301586151
0.01967235654592514,0.00019733361841645092,-0.016205234453082085,0.01677471213042736,-0.0011434252373874187,0.017992982640862465
0.020469380542635918,0.00019037631864193827,-0.016785282641649246,0.01656235381960869,-0.001103609916754067,0.017834341153502464
0.020200025290250778,0.00020401606161613017,-0.016724595800042152,0.01729985699057579,-0.0010759158758446574,0.018024204298853874
0.01973895914852619,0.0002073350769933313,-0.017036575824022293,0.017126839607954025,-0.0011720015900209546,0.018096979707479477
0.01995084062218666,0.0002008592855418101,-0.01698463037610054,0.017046600580215454,-0.0011837382335215807,0.01862049289047718
0.020107651129364967,0.00021292046585585922,-0.016497205942869186,0.017199967056512833,-0.001561096403747797,0.01774688810110092
0.020014027133584023,0.00021566696523223072,-0.016920017078518867,0.01590367779135704,-0.0014880093513056636,0.017714068293571472
0.020081855356693268,0.00020951418264303356,-0.017277618870139122,0.015690499916672707,-0.0013905084924772382,0.017980610951781273
0.020615912973880768,0.00020435258920770139,-0.01764751225709915,0.015586672350764275,-0.0012236490147188306,0.017939437180757523
0.020165877416729927,0.0002629921364132315,-0.017623528838157654,0.01615411601960659,-0.00111551268491894,0.017591172829270363
0.01989094726741314,0.0002493661013431847,-0.016775159165263176,0.016874071210622787,-0.000959010561928153,0.01800542138516903
0.02055772952735424,0.0002672397531569004,-0.017004113644361496,0.016488151624798775,-0.0008162757148966193,0.01791243813931942
0.020477762445807457,0.00026917559443973005,-0.016660477966070175,0.01647341437637806,-0.0007089464925229549,0.01822412759065628
0.020168542861938477,0.00025658964295871556,-0.016917716711759567,0.015939295291900635,-0.0007232074276544154,0.01830173283815384
0.020437339320778847,0.0002809381694532931,-0.01745634526014328,0.01612177863717079,-0.0006543069612234831,0.01833168789744377
0.02093392051756382,0.00027331250021234155,-0.017386024817824364,0.01593085378408432,-0.0005930427578277886,0.01854873262345791
0.02081035077571869,0.0002950070775114,-0.01739095151424408,0.01623171754181385,-0.0005419905064627528,0.018508313223719597
0.020273718982934952,0.00028742002905346453,-0.0168437622487545,0.016422471031546593,-0.0004990195739082992,0.01833772473037243
0.02068260870873928,0.0004253782390151173,-0.017144475132226944,0.01637800596654415,-0.00046236414345912635,0.018552005290985107
0.020871683955192566,0.00040637110942043364,-0.0174943208694458,0.016678132116794586,-0.0004307311901357025,0.018358569592237473
0.020879801362752914,0.0004464414087124169,-0.01765245757997036,0.01642410270869732,-0.0004031510034110397,0.01845775917172432
0.020879801362752914,0.0004464414087124169,-0.01765245757997036,0.01642410270869732,-0.0004031510034110397,0.01845775917172432
0.021249080076813698,0.00047701349831186235,-0.017259754240512848,0.016274122521281242,-0.0003617502225097269,0.01842929981648922
0.02083832211792469,0.0006562937051057816,-0.016908373683691025,0.01628846488893032,-0.0003651944862212986,0.01907460205256939
0.020848572254180908,0.0005970785859972239,-0.017213240265846252,0.016283297911286354,-0.00034891811083070934,0.018736453726887703
0.021159479394555092,0.0006313006742857397,-0.016866086050868034,0.016294915229082108,-0.0003328754100948572,0.018819842487573624
0.021159479394555092,0.0006313006742857397,-0.016866086050868034,0.016294915229082108,-0.0003328754100948572,0.018819842487573624
0.02137593738734722,0.000566455943044275,-0.016755476593971252,0.01588616333901882,-0.00031816840055398643,0.018135426566004753
0.020970897749066353,0.0005968452896922827,-0.017604675143957138,0.015835857018828392,-0.00030470071942545474,0.01777677983045578
0.021044589579105377,0.0006209601415321231,-0.016848867759108543,0.015849916264414787,-0.0002923267020378262,0.017925696447491646
0.021357975900173187,0.0006856060354039073,-0.016830459237098694,0.016718950122594833,-0.0002809189900290221,0.018216516822576523
0.021317295730113983,0.0007157041109167039,-0.01742919348180294,0.01703134924173355,-0.00027036829851567745,0.018902461975812912
0.02099679224193096,0.0007132918108254671,-0.017077187076210976,0.01719750091433525,-0.00026058172807097435,0.018477538600564003
0.021421875804662704,0.0006705914856866002,-0.017456969246268272,0.017496664077043533,-0.00025147886481136084,0.018347376957535744
0.020504705607891083,0.000691804161760956,-0.016841815784573555,0.01670360192656517,-0.0002429908636258915,0.018424097448587418
0.021313639357686043,0.0008049079915508628,-0.016933729872107506,0.016088122501969337,-0.00023505714489147067,0.018538931384682655
0.021908311173319817,0.0008372828015126288,-0.01730038784444332,0.015375621616840363,-0.00022762504522688687,0.018866799771785736
0.0219881609082222,0.0008459648815914989,-0.0169861800968647,0.015665430575609207,-0.00022064827498979867,0.018371667712926865
0.02177469991147518,0.000852377328556031,-0.017494067549705505,0.015535064041614532,-0.00021408706379588693,0.0180391613394022
0.021773768588900566,0.0009513965924270451,-0.017037849873304367,0.016164880245923996,-0.00020790456619579345,0.017651943489909172
0.0216506514698267,0.0009663708624430001,-0.017010634765028954,0.01656329445540905,-0.0002020691754296422,0.018525952473282814
0.021179959177970886,0.0010449228575453162,-0.016872597858309746,0.016307514160871506,-0.00019655257347039878,0.018075086176395416
0.02122560143470764,0.0009662964730523527,-0.01668483577668667,0.01678505912423134,-0.0001913290616357699,0.017953094094991684
0.02170458436012268,0.0011775114107877016,-0.017558151856064796,0.016694407910108566,-0.0001863761426648125,0.019180184230208397
0.02180049940943718,0.0011299829930067062,-0.01714872196316719,0.017170296981930733,-0.00018167310918215662,0.01973114348948002
0.02147308737039566,0.0010837207082659006,-0.017048118636012077,0.0164505485445261,-0.0001729450887069106,0.019059795886278152
0.02206220105290413,0.0011735234875231981,-0.01673087663948536,0.01669170707464218,-0.00016888817481230944,0.018916811794042587
0.02206220105290413,0.0011735234875231981,-0.01673087663948536,0.01669170707464218,-0.00016888817481230944,0.018916811794042587
0.022102292627096176,0.0012595896841958165,-0.016715096309781075,0.01609925739467144,-0.00013514325837604702,0.019040750339627266
0.022194767370820045,0.0013410239480435848,-0.017260516062378883,0.01542355865240097,-0.00010716564429458231,0.01905752718448639
0.022194767370820045,0.0013410239480435848,-0.017260516062378883,0.01542355865240097,-0.00010716564429458231,0.01905752718448639
0.022126108407974243,0.0012624323135241866,-0.01708231307566166,0.01617386005818844,-0.0001030921921483241,0.018927929922938347
0.022003086283802986,0.001228672219440341,-0.016556160524487495,0.016542252153158188,-0.00010067981202155352,0.019242942333221436
0.021661460399627686,0.0013314004754647613,-0.01703360117971897,0.017091354355216026,-9.846980537986383e-05,0.01928991638123989
0.022396517917513847,0.0013112525921314955,-0.016521461308002472,0.017284465953707695,-9.636059257900342e-05,0.0192877147346735
0.022494466975331306,0.001515913987532258,-0.01693098433315754,0.016778036952018738,-9.434039384359494e-05,0.019338881596922874
0.022004486992955208,0.001584965968504548,-0.016388118267059326,0.016893159598112106,-9.240316285286099e-05,0.01944427564740181
0.02210368774831295,0.0015274987090379,-0.016823196783661842,0.01653321273624897,-9.054389374796301e-05,0.019558925181627274
0.022478707134723663,0.001596835907548666,-0.017180919647216797,0.0169236958026886,-0.00010532709711696953,0.019414730370044708
0.022414714097976685,0.001512406044639647,-0.016646940261125565,0.017155108973383904,-0.00010437208402436227,0.01930280216038227
0.022083880379796028,0.0016028054524213076,-0.016951197758316994,0.016877556219697,-0.00010246230522170663,0.01936441659927368
0.02223888412117958,0.0015987793449312449,-0.016775164753198624,0.017199616879224777,-0.00010055882012238726,0.01974635384976864
0.022411353886127472,0.0017940605757758021,-0.017155282199382782,0.01678706333041191,-9.872067312244326e-05,0.019497346132993698
0.02287653088569641,0.001822568359784782,-0.017527608200907707,0.016938818618655205,-9.694830077933148e-05,0.0194067545235157
0.02242324687540531,0.0019930326379835606,-0.01662367582321167,0.016865931451320648,-9.52384143602103e-05,0.01990359090268612
0.022128388285636902,0.0020281411707401276,-0.01724184677004814,0.017072446644306183,-9.358781244372949e-05,0.019684987142682076
0.022396640852093697,0.0020082469563931227,-0.01673118583858013,0.016933076083660126,-9.1993497335352e-05,0.019103040918707848
0.022343989461660385,0.0019505979726091027,-0.016829410567879677,0.016479359939694405,-0.00010355583799537271,0.01928316429257393
0.02255086414515972,0.0018980033928528428,-0.016480056568980217,0.016647692769765854,-0.00010366062633693218,0.019565686583518982
0.022935135290026665,0.0019433875568211079,-0.016670137643814087,0.01618378236889839,-0.00010209886386292055,0.019467011094093323
0.0222469512373209,0.00225679948925972,-0.016631590202450752,0.016274789348244667,-0.00010047818068414927,0.019905420020222664
0.023803243413567543,0.002217046683654189,-0.01708984188735485,0.016162272542715073,-0.00011036056093871593,0.019514944404363632
0.023143934085965157,0.00231345696374774,-0.016748817637562752,0.016484638676047325,-0.0001469460257794708,0.020082812756299973
0.022812753915786743,0.002277396386489272,-0.017075372859835625,0.016306322067975998,-0.00019421118486206979,0.020593926310539246
0.022812753915786743,0.002277396386489272,-0.017075372859835625,0.016306322067975998,-0.00019421118486206979,0.020593926310539246
0.02264988236129284,0.002504050964489579,-0.017568981274962425,0.016616329550743103,-0.00022238642850425094,0.020556511357426643
0.02330721542239189,0.002373351017013192,-0.017460599541664124,0.016128860414028168,-0.00023120612604543567,0.020618921145796776
0.023018987849354744,0.0024660429917275906,-0.01729186810553074,0.016664082184433937,-0.00025394733529537916,0.02061256766319275
0.023334532976150513,0.0027194046415388584,-0.01717335358262062,0.016807829961180687,-0.0006934948614798486,0.02032146416604519
0.024439668282866478,0.0028867137152701616,-0.017793569713830948,0.016608335077762604,-0.0008469457970932126,0.020424196496605873
0.023515259847044945,0.002690093358978629,-0.017277199774980545,0.016004687175154686,-0.0007545166299678385,0.020616564899683
0.023655010387301445,0.002634493401274085,-0.01669086515903473,0.01571875996887684,-0.000765677890740335,0.020566267892718315
0.022925466299057007,0.0026805938687175512,-0.017502445727586746,0.016484279185533524,-0.0006886509945616126,0.020816676318645477
0.023103317245841026,0.0025508864782750607,-0.017560139298439026,0.016129156574606895,-0.0007034059381112456,0.02136371098458767
0.023667514324188232,0.002839847467839718,-0.017694739624857903,0.016465868800878525,-0.0006456628907471895,0.020616451278328896
0.023771746084094048,0.0030048706103116274,-0.01734650880098343,0.016378886997699738,-0.0005952371866442263,0.02004881203174591
0.023158341646194458,0.0030159077141433954,-0.016969388350844383,0.01652306132018566,-0.0005314957234077156,0.020213233307003975
0.02351813204586506,0.002963312203064561,-0.017612306401133537,0.016301456838846207,-0.0005451219622045755,0.02095913141965866
0.02429134026169777,0.003000053344294429,-0.01739504747092724,0.016073906794190407,-0.0005145022296346724,0.02135145477950573
0.024250708520412445,0.0031628224533051252,-0.01751934364438057,0.016481362283229828,-0.00047098268987610936,0.020856522023677826
0.024311523884534836,0.0031892454717308283,-0.017623748630285263,0.016006246209144592,-0.0004955338081344962,0.019626226276159286
0.023714466020464897,0.003317848313599825,-0.01719781383872032,0.016439704224467278,-0.00046724523417651653,0.019749660044908524
0.023371296003460884,0.0031601060181856155,-0.01768067292869091,0.016246240586042404,-0.0004933353629894555,0.020581882447004318
0.02387966588139534,0.0030070168431848288,-0.017099900171160698,0.01679793745279312,-0.0004652515926863998,0.0212111659348011
0.02467000111937523,0.003103365423157811,-0.017413176596164703,0.016255080699920654,-0.00048436364158988,0.021128134801983833
0.024523356929421425,0.0032102179247885942,-0.017836732789874077,0.01602853648364544,-0.0005215069395489991,0.02092544548213482
0.024631863459944725,0.0035163729917258024,-0.0175635889172554,0.01632746309041977,-0.0004855355655308813,0.02109191007912159
0.02450522594153881,0.003419842105358839,-0.018026528880000114,0.01615174673497677,-0.0005151709774509072,0.022010210901498795
0.02451961301267147,0.003720271633937955,-0.01731473207473755,0.016267158091068268,-0.00051408406579867,0.02101658284664154
0.024698158726096153,0.003824803978204727,-0.018022973090410233,0.01664748229086399,-0.000659571960568428,0.020184073597192764
0.025141868740320206,0.003387007163837552,-0.0173796433955431,0.01628849469125271,-0.000688828993588686,0.020293887704610825
0.024797527119517326,0.003591121407225728,-0.017433548346161842,0.01584904082119465,-0.0006237393245100975,0.021103523671627045
0.025624219328165054,0.00382643798366189,-0.017635518684983253,0.01597578264772892,-0.0005599157884716988,0.02178497612476349
0.025089552626013756,0.0039605009369552135,-0.01730194501578808,0.01590663194656372,-0.0005800991784781218,0.021755388006567955
0.025175485759973526,0.0034940610639750957,-0.017625436186790466,0.016638632863759995,-0.0005402087117545307,0.021749623119831085
0.025175485759973526,0.0034940610639750957,-0.017625436186790466,0.016638632863759995,-0.0005402087117545307,0.021749623119831085
0.024892741814255714,0.003485915018245578,-0.017301509156823158,0.016189629212021828,-0.0004981075180694461,0.021894365549087524
0.025101499632000923,0.004254482686519623,-0.0177681352943182,0.016459275037050247,-0.0005229206290096045,0.021830912679433823
0.025346366688609123,0.004136495757848024,-0.017686326056718826,0.01608608290553093,-0.0004943370586261153,0.02144220471382141
0.025439979508519173,0.003576174145564437,-0.017227860167622566,0.01606135070323944,-0.0004507984558586031,0.02137603424489498
0.025908028706908226,0.0032963489647954702,-0.017299484461545944,0.016450313851237297,-0.0004496436449699104,0.0214874017983675
0.025942111387848854,0.0034840682055801153,-0.01688496023416519,0.01647295616567135,-0.00044819668983109295,0.022103989496827126
0.0254193227738142,0.00381006533280015,-0.017591901123523712,0.01681862585246563,-0.00041599999531172216,0.022246265783905983
0.025808220729231834,0.004332515876740217,-0.017744671553373337,0.016461234539747238,-0.0004462333454284817,0.02218039147555828
0.026179710403084755,0.004221918992698193,-0.017289945855736732,0.01661313697695732,-0.000420360651332885,0.02218313328921795
0.025434862822294235,0.00445183739066124,-0.01755712367594242,0.0162668339908123,-0.000446699297754094,0.02232706919312477
0.025748031213879585,0.004324447829276323,-0.016976768150925636,0.01670345664024353,-0.0004238293622620404,0.02201096899807453
0.02631032094359398,0.004084159154444933,-0.01795898750424385,0.01686495915055275,-0.00048754055751487613,0.021711675450205803
0.02628154493868351,0.003967832308262587,-0.018599821254611015,0.016661854460835457,-0.0004524973046500236,0.022086303681135178
0.027045752853155136,0.004295997321605682,-0.017840607091784477,0.016633829101920128,-0.0004884247900918126,0.022193942219018936
0.026698892936110497,0.0043708765879273415,-0.01836877502501011,0.01596776396036148,-0.00045251610572449863,0.022186893969774246
0.02709142304956913,0.004356564488261938,-0.01835360936820507,0.016168178990483284,-0.000417805218603462,0.021854551509022713
0.027105603367090225,0.0047605871222913265,-0.017725694924592972,0.01618528552353382,-0.0003877999843098223,0.022199848666787148
0.027049507945775986,0.004896016791462898,-0.01823933981359005,0.01646200567483902,-0.00041389768011868,0.022396469488739967
0.026739444583654404,0.004792423918843269,-0.01851092278957367,0.016521956771612167,-0.00039504520827904344,0.022574353963136673
0.027063677087426186,0.00431649386882782,-0.018612343817949295,0.016507254913449287,-0.0003980497131124139,0.022040868178009987
0.028328657150268555,0.004707300569862127,-0.018261771649122238,0.016104359179735184,-0.00038173861685208976,0.022587517276406288
0.02768864296376705,0.004781849216669798,-0.018690666183829308,0.016719594597816467,-0.00038475971086882055,0.023104792460799217
0.025956111028790474,0.004920382983982563,-0.018673205748200417,0.01608921028673649,-0.00035659095738083124,0.023225516080856323
0.027635734528303146,0.004721399396657944,-0.017626028507947922,0.01664806343615055,-0.0003305315040051937,0.02242838591337204
0.027661321684718132,0.004616637248545885,-0.018495507538318634,0.01636497490108013,-0.000337814271915704,0.021709781140089035
0.027335140854120255,0.004731766879558563,-0.01911131478846073,0.01573939062654972,-0.0003437470004428178,0.021572891622781754
0.02800385095179081,0.004805670585483313,-0.018424881622195244,0.016035832464694977,-0.0003248570719733834,0.02211568132042885
0.028508519753813744,0.0045995088294148445,-0.018285222351551056,0.015443731099367142,-0.000306526490021497,0.02273680828511715
0.028508519753813744,0.0045995088294148445,-0.018285222351551056,0.015443731099367142,-0.000306526490021497,0.02273680828511715
0.028398793190717697,0.005433234386146069,-0.01841416209936142,0.015902211889624596,-0.00032571121118962765,0.022579368203878403
0.027384402230381966,0.004673614166676998,-0.01836150884628296,0.015627950429916382,-0.00032032118178904057,0.022822599858045578
0.026863237842917442,0.003221527673304081,-0.019028116017580032,0.015775779262185097,-0.0003055143170058727,0.023345882073044777
0.02767856977880001,0.0017977727111428976,-0.01826927624642849,0.015622646547853947,-0.00031176398624666035,0.02327791601419449
0.028470318764448166,0.001752430573105812,-0.018165472894906998,0.015963327139616013,-0.00031694199424237013,0.022828498855233192
0.028180565685033798,0.0017507389420643449,-0.018536578863859177,0.016532287001609802,-0.00030476029496639967,0.022696511819958687
0.02816827781498432,0.0030454455409199,-0.017343712970614433,0.016609065234661102,-0.00029348389944061637,0.022228794172406197
0.028152870014309883,0.0037840127479285,-0.01821104995906353,0.016891848295927048,-0.00030036523821763694,0.022585321217775345
0.0281390193849802,0.0032269370276480913,-0.018548861145973206,0.014927434735000134,-0.0003107474185526371,0.023249631747603416
0.02791360579431057,0.002687136409804225,-0.01792597584426403,0.016598301008343697,-0.0003179289342369884,0.0233793705701828
0.027952104806900024,0.002276881830766797,-0.01873341202735901,0.016645057126879692,-0.0003389150951988995,0.02310488559305668
0.028183864429593086,0.0023536160588264465,-0.018406391143798828,0.016802502796053886,-0.000355976284481585,0.0230546947568655
0.028173070400953293,0.00309741566888988,-0.018194206058979034,0.016253933310508728,-0.00036129384534433484,0.023108722642064095
0.028124233707785606,0.003270824672654271,-0.018269840627908707,0.015728790313005447,-0.0006880710134282708,0.023234056308865547
0.02857297472655773,0.002738695126026869,-0.017981547862291336,0.01598517969250679,-0.0006772350752726197,0.023468438535928726
0.028485016897320747,0.0026668482460081577,-0.018073678016662598,0.015520247630774975,-0.0006997294840402901,0.023503240197896957
0.028444450348615646,0.002270222408697009,-0.018210599198937416,0.015888702124357224,-0.0006355031509883702,0.02359791472554207
0.028767447918653488,0.002219925168901682,-0.017796684056520462,0.015595712698996067,-0.0006541714537888765,0.023443255573511124
0.028574226424098015,0.002634030533954501,-0.018479522317647934,0.015958720818161964,-0.0006042490713298321,0.02365437150001526
0.028507700189948082,0.0029758315067738295,-0.0185629241168499,0.015743043273687363,-0.0006411385256797075,0.02346205525100231
0.02787006087601185,0.0026574910152703524,-0.01809002086520195,0.0158949363976717,-0.0006805276498198509,0.023593591526150703
0.029828812927007675,0.002667330903932452,-0.018343545496463776,0.01625707559287548,-0.000639313948340714,0.024545731022953987
0.029684538021683693,0.002763889729976654,-0.01833278499543667,0.01617543026804924,-0.0006533231353387237,0.024306247010827065
0.028583429753780365,0.00264806323684752,-0.01872684247791767,0.015524311922490597,-0.0006079401355236769,0.023392437025904655
0.028611361980438232,0.002979639219120145,-0.017968669533729553,0.015688534826040268,-0.0006542010814882815,0.023596517741680145
0.02915145643055439,0.0029681434389203787,-0.01799795962870121,0.015391585417091846,-0.0006864178576506674,0.023982269689440727
0.029718119651079178,0.0029025720432400703,-0.01847781240940094,0.016150932759046555,-0.000711107044480741,0.024048777297139168
0.029207229614257812,0.002777418354526162,-0.01770961657166481,0.016455145552754402,-0.0007306678453460336,0.024064715951681137
0.030120674520730972,0.0028944876976311207,-0.018131615594029427,0.017272857949137688,-0.0008989094640128314,0.024032913148403168
0.030120674520730972,0.0028944876976311207,-0.018131615594029427,0.017272857949137688,-0.0008989094640128314,0.024032913148403168
0.029708106070756912,0.002890585921704769,-0.017939353361725807,0.017360186204314232,-0.0009547524969093502,0.023852897807955742
0.030182549729943275,0.0028696227818727493,-0.017778407782316208,0.016517024487257004,-0.0008972191135399044,0.023756371811032295
0.028979038819670677,0.003321903757750988,-0.018234359100461006,0.016795242205262184,-0.0008370556170120835,0.023614034056663513
0.02899971790611744,0.003106525633484125,-0.017593005672097206,0.016909291967749596,-0.0007421600166708231,0.023790856823325157
0.030043989419937134,0.003232242539525032,-0.017944572493433952,0.01767849177122116,-0.0007456030580215156,0.023720894008874893
0.029969293624162674,0.0032931577879935503,-0.01804235391318798,0.016996223479509354,-0.0006934769335202873,0.023901941254734993
0.030119527131319046,0.0031532414723187685,-0.017636967822909355,0.016228215768933296,-0.0006064950139261782,0.02422291971743107
0.030053332448005676,0.0035172435455024242,-0.018182950094342232,0.016520626842975616,-0.0006849285564385355,0.024298470467329025
0.02974574640393257,0.003790947375819087,-0.018014080822467804,0.0161399245262146,-0.0007107428391464055,0.02415592409670353
0.02953905239701271,0.003413824364542961,-0.017804428935050964,0.0165089163929224,-0.0006899799918755889,0.02416686713695526
0.030193248763680458,0.0034461410250514746,-0.018434833735227585,0.015973953530192375,-0.0008776698959991336,0.024140499532222748
0.030131595209240913,0.003183591878041625,-0.017728598788380623,0.015882696956396103,-0.0008910803007893264,0.024419482797384262
0.029787352308630943,0.003331558546051383,-0.01802697218954563,0.016112428158521652,-0.0008928504539653659,0.02494901232421398
0.02995111048221588,0.0034837310668081045,-0.017915816977620125,0.01651129126548767,-0.0008860095986165106,0.025035299360752106
0.03032614476978779,0.003964946139603853,-0.01799301616847515,0.016744796186685562,-0.0008875291678123176,0.024697227403521538
0.030468052253127098,0.003905109828338027,-0.01838845945894718,0.01632538251578808,-0.0008464023121632636,0.02365967258810997
0.02932625077664852,0.0031978976912796497,-0.018757984042167664,0.01652059704065323,-0.0007886618259362876,0.0239181499928236
0.030780816450715065,0.003266796702519059,-0.01866002567112446,0.015941794961690903,-0.0006917613791301847,0.024514198303222656
0.030873415991663933,0.0037896456196904182,-0.018936380743980408,0.016365045681595802,-0.0006623278604820371,0.02520838752388954
0.030677607282996178,0.004004410468041897,-0.01833251491189003,0.016210665926337242,-0.0006389799527823925,0.024856552481651306
0.03075665794312954,0.004040902014821768,-0.01792496256530285,0.016407020390033722,-0.0005826969863846898,0.025059649720788002
0.031005078926682472,0.004003717564046383,-0.018961677327752113,0.016537951305508614,-0.0005893639754503965,0.025957411155104637
0.03113354742527008,0.0036341671366244555,-0.019041258841753006,0.016212133690714836,-0.0005253978306427598,0.023584477603435516
0.03140723705291748,0.004207208286970854,-0.01903269812464714,0.0164753720164299,-0.00044198569958098233,0.024742988869547844
0.031290095299482346,0.004295397084206343,-0.0181520227342844,0.016807224601507187,-0.00040050307870842516,0.025971535593271255
0.030932728201150894,0.004027378745377064,-0.019001295790076256,0.016766801476478577,-0.00043590256245806813,0.02629885822534561
0.03149120509624481,0.004326133523136377,-0.01954585500061512,0.016926174983382225,-0.00044037928455509245,0.02604064904153347
0.03149120509624481,0.004326133523136377,-0.01954585500061512,0.016926174983382225,-0.00044037928455509245,0.02604064904153347
0.031515754759311676,0.004295228980481625,-0.018891841173171997,0.016447721049189568,-0.00045657253940589726,0.025515802204608917
0.031515754759311676,0.004295228980481625,-0.018891841173171997,0.016447721049189568,-0.00045657253940589726,0.025515802204608917
0.03170979395508766,0.004117994103580713,-0.01918756775557995,0.01656358502805233,-0.0004422015626914799,0.025526301935315132
0.03133328631520271,0.004286353010684252,-0.018607022240757942,0.015932327136397362,-0.0005416546482592821,0.02530813403427601
0.03190048411488533,0.00459822965785861,-0.01937713287770748,0.01620742306113243,-0.0005492271739058197,0.02548988349735737
0.032765768468379974,0.004599390085786581,-0.0191335529088974,0.016045348718762398,-0.0005388963036239147,0.025248197838664055
0.03290900960564613,0.004367765039205551,-0.01876969449222088,0.016362611204385757,-0.0005633594118990004,0.025237806141376495
0.03127770870923996,0.004402725026011467,-0.01959766261279583,0.016346853226423264,-0.0005260859616100788,0.025518322363495827
0.031462136656045914,0.004282538313418627,-0.019704578444361687,0.016194995492696762,-0.0005506360321305692,0.02550770528614521
0.0327741838991642,0.004352253396064043,-0.01906949281692505,0.016397742554545403,-0.0005183426546864212,0.025730911642313004
0.0322459451854229,0.004496040288358927,-0.019258014857769012,0.016218867152929306,-0.000583290122449398,0.025864029303193092
0.03321459889411926,0.004689973313361406,-0.01914292573928833,0.01688416115939617,-0.0006140843033790588,0.02546495571732521
0.03340335562825203,0.004423380363732576,-0.018910063430666924,0.016410524025559425,-0.0006435659597627819,0.025921504944562912
0.03271549195051193,0.0042153820395469666,-0.019459092989563942,0.016394827514886856,-0.0006568149547092617,0.025774039328098297
0.03224088251590729,0.004199792165309191,-0.019428696483373642,0.016419438645243645,-0.0008248001686297357,0.025991981849074364
0.032209862023591995,0.004449464380741119,-0.019105607643723488,0.01617671735584736,-0.0008892540936358273,0.02595295011997223
0.0334034338593483,0.00452810525894165,-0.019330358132719994,0.01665951870381832,-0.0009032347588799894,0.02658148482441902
0.03188663721084595,0.004301780369132757,-0.01928543858230114,0.01624692976474762,-0.0009035468683578074,0.02623666636645794
0.03353087231516838,0.00450223358348012,-0.018951663747429848,0.016927851364016533,-0.0009784819558262825,0.02609954960644245
0.03374366834759712,0.004469440784305334,-0.01950446516275406,0.016206707805395126,-0.0010011246195062995,0.025770079344511032
0.03315509110689163,0.004366707056760788,-0.019632775336503983,0.01575883850455284,-0.0009684236720204353,0.025938622653484344
0.03366481140255928,0.004512812942266464,-0.019714530557394028,0.015857849270105362,-0.0008693237323313951,0.02710816264152527
0.03314772620797157,0.004075722303241491,-0.01972792111337185,0.016019532456994057,-0.0008124391897581518,0.026739969849586487
0.03322681039571762,0.00430819857865572,-0.019504962489008904,0.01563780941069126,-0.0008254399290308356,0.025889920070767403
0.03389688953757286,0.0043867179192602634,-0.019826088100671768,0.01584225334227085,-0.0008270647376775742,0.02556479349732399
0.03371085226535797,0.004460901487618685,-0.020012611523270607,0.015754079446196556,-0.0007437966414727271,0.026737259700894356
0.0336415059864521,0.00489647826179862,-0.019505100324749947,0.016537774354219437,-0.0007354625849984586,0.027077004313468933
0.0336415059864521,0.00489647826179862,-0.019505100324749947,0.016537774354219437,-0.0007354625849984586,0.027077004313468933
0.03345491364598274,0.004937340505421162,-0.01973053812980652,0.01628853939473629,-0.0006866498151794076,0.02684996835887432
0.034605011343955994,0.00426772516220808,-0.02009902149438858,0.01666329614818096,-0.0006491317762993276,0.027395837008953094
0.03500004857778549,0.00418848404660821,-0.019950663670897484,0.016519075259566307,-0.0005898050148971379,0.02814086154103279
0.03334611654281616,0.004600544460117817,-0.01948852837085724,0.01621367037296295,-0.0005990535137243569,0.026920069009065628
0.03311845660209656,0.0047623226419091225,-0.019943973049521446,0.01666845753788948,-0.0005602637538686395,0.02693467028439045
0.0345391109585762,0.004866275005042553,-0.020053433254361153,0.016457635909318924,-0.0005819810321554542,0.026393350213766098
0.0337584912776947,0.004602765664458275,-0.01970723271369934,0.016854967921972275,-0.0005419013905338943,0.026864536106586456
0.03447195142507553,0.004457957576960325,-0.01986856199800968,0.016540788114070892,-0.0005658603040501475,0.02792840451002121
0.03488742187619209,0.004398126620799303,-0.02017502672970295,0.016666756942868233,-0.0005311513668857515,0.02780642919242382
0.035025060176849365,0.0045675975270569324,-0.01980612985789776,0.016797853633761406,-0.0005517358076758683,0.026729602366685867
0.03311038389801979,0.004743717610836029,-0.020209452137351036,0.016496002674102783,-0.0005885207210667431,0.02706213667988777
0.03409400209784508,0.004562826361507177,-0.02010374702513218,0.01651361584663391,-0.0006193734589032829,0.027254750952124596
0.03484925255179405,0.004453748930245638,-0.019718168303370476,0.017435019835829735,-0.0006447369232773781,0.027295192703604698
0.034767456352710724,0.004870392847806215,-0.01998188905417919,0.01720430888235569,-0.0008685532957315445,0.027624167501926422
0.034595511853694916,0.004958221223205328,-0.020401885733008385,0.016764482483267784,-0.0008377372869290411,0.02795831300318241
0.03493577241897583,0.004417631309479475,-0.020804403349757195,0.016603438183665276,-0.0007821685867384076,0.027693776413798332
0.0348777212202549,0.0044649140909314156,-0.020031249150633812,0.016838088631629944,-0.0007700787973590195,0.027757761999964714
0.03477013111114502,0.004956849850714207,-0.02039812132716179,0.016811221837997437,-0.0007089569699019194,0.02793405018746853
0.035173289477825165,0.004454351961612701,-0.02033301629126072,0.016968559473752975,-0.000638664118014276,0.027986200526356697
0.03511732071638107,0.0045514521189033985,-0.01972021907567978,0.016056085005402565,-0.0005799082573503256,0.027869731187820435
0.03516004607081413,0.0046938336454331875,-0.020069103688001633,0.01620921678841114,-0.000601425941567868,0.02832457423210144
0.035352811217308044,0.00509597035124898,-0.02181382291018963,0.015747062861919403,-0.0005592731758952141,0.028221730142831802
0.035857729613780975,0.0045342580415308475,-0.020494142547249794,0.01570993661880493,-0.0004960607038810849,0.02806113101541996
0.035586439073085785,0.004473353736102581,-0.02066243253648281,0.016153952106833458,-0.00046442681923508644,0.028165416792035103
0.035755228251218796,0.004691935610026121,-0.021371090784668922,0.016495242714881897,-0.0004988508298993111,0.028030598536133766
0.03474694862961769,0.004849305376410484,-0.020786847919225693,0.016371550038456917,-0.000528557226061821,0.02849215269088745
0.03635186329483986,0.0050818584859371185,-0.01994706690311432,0.016360728070139885,-0.0006730923778377473,0.028412315994501114
0.036452945321798325,0.00501533318310976,-0.021328289061784744,0.015782790258526802,-0.0007291177753359079,0.02873094566166401
0.03576158359646797,0.005286532919853926,-0.021008916199207306,0.01583142764866352,-0.0007457691826857626,0.027631258592009544
0.03582717105746269,0.004794660024344921,-0.019732864573597908,0.01594294235110283,-0.0006686815759167075,0.029043933376669884
0.03647059202194214,0.005042466800659895,-0.02052300237119198,0.01616874895989895,-0.000681094010360539,0.028772585093975067
0.03647059202194214,0.005042466800659895,-0.02052300237119198,0.01616874895989895,-0.000681094010360539,0.028772585093975067
0.036395903676748276,0.0053046210668981075,-0.0215824656188488,0.01649346761405468,-0.0006250618607737124,0.02886434830725193
0.036221928894519806,0.0048741186037659645,-0.02060866355895996,0.016166040673851967,-0.0006393342628143728,0.029969362542033195
0.03629697486758232,0.004888718016445637,-0.020769814029335976,0.016487233340740204,-0.0005959462141618133,0.029712814837694168
0.03636667877435684,0.004909219220280647,-0.021198438480496407,0.016308393329381943,-0.0005523823783732951,0.028615975752472878
0.036382321268320084,0.004820478614419699,-0.02083788812160492,0.01721699722111225,-0.0005680537433363497,0.028037726879119873
0.03591176122426987,0.004158266820013523,-0.020148128271102905,0.01692926324903965,-0.0005772876320406795,0.02830497734248638
0.037526316940784454,0.0041513522155582905,-0.020525604486465454,0.01690869964659214,-0.0005657011643052101,0.02952430211007595
0.037544939666986465,0.004639083053916693,-0.020809713751077652,0.017308438196778297,-0.0005907006561756134,0.028958020731806755
0.035524822771549225,0.004778777249157429,-0.02061687782406807,0.01599787548184395,-0.0008803445962257683,0.02979099005460739
0.035279013216495514,0.004877966362982988,-0.020571140572428703,0.016597362235188484,-0.0009183604852296412,0.029785556718707085
0.03675895556807518,0.0043664490804076195,-0.020659305155277252,0.01624850556254387,-0.0009182817884720862,0.029243595898151398
0.0368594154715538,0.004348413553088903,-0.02033397927880287,0.01669710874557495,-0.0008643267792649567,0.028453979641199112
0.0379166454076767,0.005023108795285225,-0.020533833652734756,0.016852766275405884,-0.0009194032172672451,0.028240369632840157
0.03754681348800659,0.005049857776612043,-0.020641855895519257,0.016882093623280525,-0.0008602010202594101,0.029345979914069176
0.03590550273656845,0.004533515311777592,-0.02063876762986183,0.017433419823646545,-0.0007988825091160834,0.02972453646361828
0.036141637712717056,0.004549677949398756,-0.020273175090551376,0.01658632420003414,-0.0007994644693098962,0.02979438193142414
0.037145160138607025,0.004528443329036236,-0.020538967102766037,0.01663488708436489,-0.0007967708515934646,0.02964177541434765
0.03701077029109001,0.004689689725637436,-0.02050229161977768,0.01662258803844452,-0.0006757820956408978,0.02918059751391411
0.03706193342804909,0.005096139386296272,-0.020034797489643097,0.01712011732161045,-0.00069928023731336,0.029386945068836212
0.036930736154317856,0.004879887215793133,-0.02026853710412979,0.01668194681406021,-0.000715067726559937,0.02979038655757904
0.03754573315382004,0.004679621662944555,-0.020900538191199303,0.01684746891260147,-0.0007400896865874529,0.029590971767902374
0.03706838935613632,0.004484986886382103,-0.020460182800889015,0.01665668748319149,-0.0009000047575682402,0.029416443780064583
0.036574628204107285,0.004966350272297859,-0.020217012614011765,0.016774849966168404,-0.000926321605220437,0.02940192073583603
0.036574628204107285,0.004966350272297859,-0.020217012614011765,0.016774849966168404,-0.000926321605220437,0.02940192073583603
0.036704715341329575,0.004789669532328844,-0.020326975733041763,0.01645771972835064,-0.000811567937489599,0.029897097498178482
0.036704715341329575,0.004789669532328844,-0.020326975733041763,0.01645771972835064,-0.000811567937489599,0.029897097498178482
0.03722815960645676,0.005027483683079481,-0.020182522013783455,0.016868147999048233,-0.0007955805049277842,0.028585275635123253
0.03789814934134483,0.00481735123321414,-0.020611146464943886,0.016887975856661797,-0.0007371340179815888,0.030228417366743088
0.03689712658524513,0.004848281387239695,-0.020349832251667976,0.017032165080308914,-0.0006743333069607615,0.030749808996915817
0.03627556934952736,0.004619949031621218,-0.020463641732931137,0.017837779596447945,-0.0005939296679571271,0.030251342803239822
0.037152551114559174,0.004831251688301563,-0.020595895126461983,0.017447473481297493,-0.0006015672697685659,0.03037964552640915
0.03686055541038513,0.005397485103458166,-0.021092204377055168,0.017636876553297043,-0.0005622994503937662,0.030131811276078224
0.03818075731396675,0.005088308826088905,-0.020836325362324715,0.016410112380981445,-0.0005838855286128819,0.030536269769072533
0.038128502666950226,0.005178034771233797,-0.020287636667490005,0.01655244268476963,-0.0006005123141221702,0.03035413660109043
0.03645835071802139,0.0051001375541090965,-0.020269179716706276,0.01679076813161373,-0.0005760038620792329,0.03044651448726654
0.03647078946232796,0.004915995057672262,-0.020849261432886124,0.01675805076956749,-0.0007122313254512846,0.0316934734582901
0.03805965557694435,0.005232546012848616,-0.020403193309903145,0.01692940667271614,-0.0007414813153445721,0.031763769686222076
0.03809855133295059,0.005289517808705568,-0.02089507319033146,0.016871469095349312,-0.000772081664763391,0.030518965795636177
0.03789091482758522,0.005743836518377066,-0.020887380465865135,0.01700771227478981,-0.0010008028475567698,0.02971915528178215
0.03770358860492706,0.005240319762378931,-0.020264845341444016,0.016829995438456535,-0.0010573836043477058,0.030550559982657433
0.03779967129230499,0.005253992509096861,-0.02060782164335251,0.017646389082074165,-0.0010359307052567601,0.030983174219727516
0.03843510150909424,0.0054784175008535385,-0.021478740498423576,0.018475204706192017,-0.0010254767257720232,0.03111279383301735
0.03843098506331444,0.006160390097647905,-0.02134241722524166,0.017504068091511726,-0.0010254541411995888,0.032228272408246994
0.0376213937997818,0.005983372218906879,-0.020686976611614227,0.017033841460943222,-0.0010020919144153595,0.031323231756687164
0.03841990604996681,0.0052714417688548565,-0.0206918865442276,0.01656440459191799,-0.0008348083356395364,0.029936939477920532
0.038731396198272705,0.005789970979094505,-0.02069249004125595,0.016579506918787956,-0.0007611901964992285,0.03125700727105141
0.038972239941358566,0.0060271089896559715,-0.0204362440854311,0.015726661309599876,-0.0006806163000874221,0.03198360279202461
0.03894968703389168,0.006154518108814955,-0.021462326869368553,0.016104312613606453,-0.0006897872663103044,0.030474672093987465
0.039365433156490326,0.00612045219168067,-0.02134394459426403,0.016607383266091347,-0.0006387868779711425,0.03190890699625015
0.039365433156490326,0.00612045219168067,-0.02134394459426403,0.016607383266091347,-0.0006387868779711425,0.03190890699625015
0.039181411266326904,0.005475678481161594,-0.020758172497153282,0.016954947263002396,-0.0005391534650698304,0.032221198081970215
0.03915417939424515,0.005480297841131687,-0.020850446075201035,0.017083020880818367,-0.0005156604456715286,0.03189290314912796
0.039458367973566055,0.005663545802235603,-0.021164022386074066,0.01641503907740116,-0.0005070235347375274,0.03187694028019905
0.03971102088689804,0.006131669040769339,-0.021021084859967232,0.016661204397678375,-0.0005755161982960999,0.0317516028881073
0.03940141201019287,0.0059839170426130295,-0.020725399255752563,0.01613599620759487,-0.0005733833531849086,0.03181840106844902
0.03994046896696091,0.005395661573857069,-0.021057788282632828,0.01668357662856579,-0.0009367106249555945,0.03223082795739174
0.03994007408618927,0.00542991841211915,-0.021012352779507637,0.016710562631487846,-0.00097010558238253,0.0324033722281456
0.03979172930121422,0.0061018988490104675,-0.021088311448693275,0.017199266701936722,-0.0009715043124742806,0.032531846314668655
0.04046643152832985,0.005918342154473066,-0.020823758095502853,0.01714789681136608,-0.0011982647702097893,0.032623954117298126
0.04028686508536339,0.0059568374417722225,-0.02161817066371441,0.01687152497470379,-0.0010874044382944703,0.032525427639484406
0.039814770221710205,0.005335141904652119,-0.021525120362639427,0.01735631935298443,-0.001051861559972167,0.03246602043509483
0.040887653827667236,0.005668597761541605,-0.021316107362508774,0.01712268963456154,-0.000971127359662205,0.03271995484828949
0.04151851311326027,0.005796666257083416,-0.02092861384153366,0.017553282901644707,-0.0009040208533406258,0.0326535627245903
0.03992275521159172,0.006009312346577644,-0.021507233381271362,0.017726194113492966,-0.0007866154774092138,0.0327911339700222
0.039216477423906326,0.005922772455960512,-0.021618828177452087,0.01747450791299343,-0.0006707200082018971,0.03315465897321701
0.04100102558732033,0.0057092588394880295,-0.02156860940158367,0.018148498609662056,-0.0006915394333191216,0.0334896482527256
0.040681786835193634,0.005965469870716333,-0.0217631496489048,0.017614923417568207,-0.0007148454315029085,0.03304704651236534
0.041347894817590714,0.0056450581178069115,-0.022449247539043427,0.017317023128271103,-0.0007338374853134155,0.0318027026951313
0.042198821902275085,0.005993298254907131,-0.022073915228247643,0.0179107878357172,-0.0008185958140529692,0.033992648124694824
0.03966130316257477,0.006233318243175745,-0.022176271304488182,0.017689354717731476,-0.0009154113940894604,0.03494713455438614
0.041587214916944504,0.005931911990046501,-0.021962856873869896,0.017735403031110764,-0.0009498508297838271,0.033972449600696564
0.041892021894454956,0.006486732047051191,-0.022493068128824234,0.01731414534151554,-0.0011609721696004272,0.032919853925704956
0.04115089029073715,0.006218212656676769,-0.02243475615978241,0.017527855932712555,-0.001129613257944584,0.03325935825705528
0.041546355932950974,0.006243114359676838,-0.021896228194236755,0.01725909113883972,-0.0010855150176212192,0.033560384064912796
0.04165305197238922,0.005592697765678167,-0.02177896350622177,0.017568126320838928,-0.0010111468145623803,0.03462563455104828
0.041425950825214386,0.005935020744800568,-0.022090671584010124,0.017338508740067482,-0.0009942015167325735,0.034135252237319946
0.04094932973384857,0.006318744271993637,-0.022594353184103966,0.01735767163336277,-0.0009793764911592007,0.03315599262714386
0.04154563322663307,0.005789489019662142,-0.022436004132032394,0.017780976369976997,-0.000952329661231488,0.03229281306266785
0.043375950306653976,0.005898790899664164,-0.02150651253759861,0.017452422529459,-0.0009398352121934295,0.0339382067322731
0.040206532925367355,0.005771353840827942,-0.02203911356627941,0.01762925460934639,-0.0009603950311429799,0.03435404598712921
0.040206532925367355,0.005771353840827942,-0.02203911356627941,0.01762925460934639,-0.0009603950311429799,0.03435404598712921
0.04077093303203583,0.006047251168638468,-0.02208312414586544,0.01763763837516308,-0.0009714430198073387,0.03449266776442528
0.04150664433836937,0.005601869896054268,-0.022227391600608826,0.017340056598186493,-0.0009630165877752006,0.03393876552581787
0.04259519651532173,0.005943130701780319,-0.022721005603671074,0.017872299998998642,-0.0009971334366127849,0.03261038288474083
0.04271199554204941,0.006227020174264908,-0.022814221680164337,0.017530592158436775,-0.0010060761123895645,0.03395729884505272
0.041816964745521545,0.005841096863150597,-0.023085560649633408,0.01759391464293003,-0.0009356927475892007,0.034900881350040436
0.040910400450229645,0.005659047514200211,-0.022357137873768806,0.017808346077799797,-0.0009272651514038444,0.03494947403669357
0.04262164980173111,0.005675478372722864,-0.02212066389620304,0.01757926493883133,-0.0008713955758139491,0.03468823432922363
0.042814552783966064,0.006227067206054926,-0.022465791553258896,0.018040580675005913,-0.0008095474913716316,0.03447858616709709
0.041894637048244476,0.006344438064843416,-0.023075755685567856,0.017169933766126633,-0.0007999148219823837,0.034706078469753265
0.042160551995038986,0.006170528940856457,-0.02287212200462818,0.017673015594482422,-0.0007239968399517238,0.0345635749399662
0.04206593707203865,0.006085475906729698,-0.0226413756608963,0.01810530200600624,-0.0007388715748675168,0.03440800681710243
0.04264076054096222,0.006256338208913803,-0.022931575775146484,0.01755536161363125,-0.0007555177435278893,0.034616563469171524
0.042713239789009094,0.006113685201853514,-0.023223508149385452,0.017743375152349472,-0.0007455834420397878,0.03481888025999069
0.04235193133354187,0.006409666500985622,-0.02301999367773533,0.018018512055277824,-0.000691163819283247,0.034941960126161575
0.04195397347211838,0.006352221127599478,-0.023561904206871986,0.017460929229855537,-0.000705614045727998,0.03510729968547821
0.04274376481771469,0.005987538956105709,-0.02369603142142296,0.017617356032133102,-0.0007139001972973347,0.034481991082429886
0.04265682399272919,0.006275827530771494,-0.022989362478256226,0.01744835078716278,-0.0006632590666413307,0.035730279982089996
0.04259319230914116,0.006687435787171125,-0.02254035696387291,0.01758856512606144,-0.000681209668982774,0.03467266634106636
0.04295386001467705,0.005995459854602814,-0.023429006338119507,0.01774994097650051,-0.000720685173291713,0.03491100296378136
0.042945776134729385,0.006442465353757143,-0.023458002135157585,0.017577150836586952,-0.0007457476458512247,0.03470586612820625
0.04322357475757599,0.006259941030293703,-0.023803923279047012,0.018030619248747826,-0.0007879984914325178,0.03548846021294594
0.043500181287527084,0.006545828189700842,-0.024635400623083115,0.01759948581457138,-0.0011111745843663812,0.03677145019173622
0.043617501854896545,0.006340546067804098,-0.02264586091041565,0.018104152753949165,-0.0011147968471050262,0.03608894720673561
0.04367738589644432,0.0058695655316114426,-0.023026632145047188,0.018272660672664642,-0.00108443689532578,0.0351879745721817
0.043686121702194214,0.006258194334805012,-0.024193011224269867,0.018604790791869164,-0.0012581178452819586,0.034716010093688965
0.044825479388237,0.006806467659771442,-0.024451108649373055,0.018764495849609375,-0.0012611669953912497,0.03543534502387047
0.0437178798019886,0.0067861671559512615,-0.02367996610701084,0.018251242116093636,-0.0012035432737320662,0.03643931820988655
0.043757740408182144,0.006219771690666676,-0.023588091135025024,0.018346020951867104,-0.0010624711867421865,0.03612034022808075
0.043757740408182144,0.006219771690666676,-0.023588091135025024,0.018346020951867104,-0.0010624711867421865,0.03612034022808075
0.04398493096232414,0.006581454537808895,-0.023853538557887077,0.018903721123933792,-0.000949111592490226,0.03612023964524269
