davideferrari95/blind_handover_controller/data/Test 280 - [2024-02-08 -- 13-53-23]/joint_states_data.csv
shoulder_pan_joint,shoulder_lift_joint,elbow_joint,wrist_1_joint,wrist_2_joint,wrist_3_joint
-0.007902289740741253,-0.008783905766904354,0.004699996672570705,0.0036670949775725603,1.2471556332490872e-43,-0.00828484445810318
-0.007902289740741253,-0.008783905766904354,0.004699996672570705,0.0036670949775725603,1.2471556332490872e-43,-0.00828484445810318
-0.008065491914749146,-0.009181375615298748,0.004274998791515827,0.0029521076940000057,8.407790785948902e-45,-0.007943807169795036
-0.008380899205803871,-0.009242471307516098,0.004424446728080511,0.0027477687690407038,0.0,-0.008090422488749027
-0.007975073531270027,-0.009224154986441135,0.0047306399792432785,0.0027311367448419333,0.0,-0.007900252938270569
-0.00847708247601986,-0.008412373252213001,0.004775354638695717,0.0029873619787395,0.0,-0.008283712901175022
-0.008037789724767208,-0.008950255811214447,0.004756353795528412,0.003194134682416916,0.0,-0.008194793947041035
-0.007789422292262316,-0.009025868959724903,0.0050576855428516865,0.0034917446319013834,0.0,-0.008013861253857613
-0.007181437220424414,-0.008897502906620502,0.004979113582521677,0.0031138670165091753,0.0,-0.008079834282398224
-0.007745792157948017,-0.008923402056097984,0.004291289020329714,0.002855875063687563,0.0,-0.007748482283204794
-0.007745792157948017,-0.008923402056097984,0.004291289020329714,0.002855875063687563,0.0,-0.007748482283204794
-0.007769207935780287,-0.008809353224933147,0.004022351466119289,0.0027977193240076303,0.0,-0.00787589605897665
-0.007288177497684956,-0.008429735898971558,0.004401172045618296,0.003123760223388672,0.0,-0.007926256395876408
-0.007201387081295252,-0.0086241215467453,0.004953844007104635,0.003550449851900339,0.0,-0.00870592799037695
-0.007501454558223486,-0.0089531559497118,0.004905903246253729,0.0036985070910304785,0.0,-0.007815477438271046
-0.00771056953817606,-0.008763919584453106,0.004635934252291918,0.0032533123157918453,0.0,-0.007113669067621231
-0.007200470194220543,-0.008119141682982445,0.004190596751868725,0.0031328462064266205,0.0,-0.0073599787428975105
-0.006818040274083614,-0.008708538487553596,0.004366204608231783,0.002979290671646595,0.0,-0.00805317796766758
-0.007379790768027306,-0.008389252237975597,0.004762887489050627,0.0034102932550013065,0.0,-0.008124281652271748
-0.007309268228709698,-0.00830235704779625,0.00475454842671752,0.0038006033282727003,0.0,-0.007709046360105276
-0.007031553890556097,-0.00786562543362379,0.0047117010690271854,0.003849916160106659,0.0,-0.0077502611093223095
-0.0071474118158221245,-0.008141030557453632,0.005084137432277203,0.003735110629349947,0.0,-0.007758233230561018
-0.007457982283085585,-0.007879174314439297,0.004554225597530603,0.0037064526695758104,0.0,-0.0071925087831914425
-0.007401207461953163,-0.008299675770103931,0.004513667896389961,0.0037357572000473738,0.0,-0.007471194490790367
-0.007326595485210419,-0.008015441708266735,0.004456853959709406,0.003439962863922119,0.0,-0.007624407764524221
-0.007469756994396448,-0.008179744705557823,0.004895531572401524,0.0034780933056026697,0.0,-0.00768284173682332
-0.007224904373288155,-0.007576781790703535,0.00474636722356081,0.0040373182855546474,0.0,-0.007690697442740202
-0.0074235908687114716,-0.007950551807880402,0.004318877123296261,0.00419470202177763,0.0,-0.008454946801066399
-0.006751045119017363,-0.007844562642276287,0.004438157193362713,0.0036244126968085766,0.0,-0.008505726233124733
-0.006866220384836197,-0.007572501432150602,0.004529712256044149,0.003520600963383913,0.0,-0.00790121778845787
-0.007281753234565258,-0.007582823745906353,0.004550188314169645,0.003281711135059595,0.0,-0.007709796074777842
-0.006945088505744934,-0.008229916915297508,0.004322241526097059,0.0032767015509307384,0.0,-0.0075720795430243015
-0.006871271878480911,-0.007546200416982174,0.0045141312293708324,0.0034947774838656187,0.0,-0.007559256162494421
-0.007059156429022551,-0.0076090143993496895,0.004578032530844212,0.0036635897122323513,0.0,-0.0075662462040781975
-0.007418444845825434,-0.007516702637076378,0.004758640192449093,0.003763512708246708,0.0,-0.007088290061801672
-0.007562946528196335,-0.008148898370563984,0.004289697390049696,0.0037896884605288506,0.0,-0.007288047578185797
-0.006936109159141779,-0.007678299676626921,0.004483912605792284,0.0038032715674489737,0.0,-0.008016669191420078
-0.00668215611949563,-0.007639408111572266,0.004618900362402201,0.003602387383580208,0.0,-0.0077134608291089535
-0.006976481527090073,-0.007763803470879793,0.0044236741960048676,0.003370378166437149,0.0,-0.007871243171393871
-0.007115371059626341,-0.007771003991365433,0.004429928958415985,0.0031492409761995077,0.0,-0.007690590340644121
-0.007115371059626341,-0.007771003991365433,0.004429928958415985,0.0031492409761995077,0.0,-0.007690590340644121
-0.006810099817812443,-0.007820557802915573,0.004681143444031477,0.0034342806320637465,0.0,-0.007965577766299248
-0.006924576126039028,-0.007765760645270348,0.004873685538768768,0.003696836531162262,0.0,-0.0075655654072761536
-0.007086607627570629,-0.0078164953738451,0.004734705667942762,0.0036321808584034443,0.0,-0.007893784902989864
-0.007201361004263163,-0.007761598099023104,0.003772124880924821,0.0034990489948540926,0.0,-0.007680980488657951
-0.007378686685115099,-0.008212905377149582,0.004047446418553591,0.0035828829277306795,0.0,-0.00742308096960187
-0.007006016094237566,-0.007977833971381187,0.004230614751577377,0.003718384075909853,0.0,-0.007835970260202885
-0.006552298553287983,-0.008177588693797588,0.004929522518068552,0.00374686811119318,0.0,-0.007835816591978073
-0.0066778105683624744,-0.00800730288028717,0.004826707299798727,0.004248850047588348,0.0,-0.007772726472467184
-0.0067217363975942135,-0.0077551971189677715,0.004389002453535795,0.003640409791842103,0.0,-0.007211660500615835
-0.006290932185947895,-0.007786833215504885,0.003992244601249695,0.003565204096958041,0.0,-0.007229264825582504
-0.0061988127417862415,-0.006992214825004339,0.0038812709972262383,0.003414797829464078,0.0,-0.007550689857453108
-0.006800011731684208,-0.008552111685276031,0.004409427754580975,0.0034237345680594444,0.0,-0.007768759038299322
-0.006808735430240631,-0.006952769123017788,0.0044816783629357815,0.0035576464142650366,0.0,-0.007731818128377199
-0.006579281762242317,-0.008851321414113045,0.004320154897868633,0.004061724059283733,0.0,-0.006952628027647734
-0.006451580673456192,-0.0080396244302392,0.004149635322391987,0.0035109631717205048,0.0,-0.006925715133547783
-0.0066246455535292625,-0.007777645252645016,0.0039651342667639256,0.003379880217835307,0.0,-0.0076585803180933
-0.006544181611388922,-0.007809074595570564,0.004396163392812014,0.003514630254358053,0.0,-0.007541957311332226
-0.006306330673396587,-0.008047402836382389,0.004488043487071991,0.0037166026886552572,0.0,-0.007370899897068739
-0.0061146910302340984,-0.007576524745672941,0.004386868793517351,0.003835496725514531,0.0,-0.007013901602476835
-0.006500418297946453,-0.007794166915118694,0.004303597379475832,0.0036016814410686493,0.0,-0.007171269506216049
-0.006700833328068256,-0.007907952181994915,0.00403524748980999,0.003598212031647563,0.0,-0.007397967390716076
-0.006534632295370102,-0.008196108043193817,0.00397097785025835,0.00378200551494956,0.0,-0.0073713939636945724
-0.005998449865728617,-0.007690182887017727,0.0043526263907551765,0.003580029122531414,0.0,-0.007234374992549419
-0.006266079843044281,-0.008296938613057137,0.004036881495267153,0.003971456550061703,0.0,-0.007062006741762161
-0.0067865136079490185,-0.008047539740800858,0.004405615385621786,0.004121134523302317,0.0,-0.006924085784703493
-0.006160369608551264,-0.007792512886226177,0.004177219700068235,0.004035453777760267,0.0,-0.007143850903958082
-0.006160369608551264,-0.007792512886226177,0.004177219700068235,0.004035453777760267,0.0,-0.007143850903958082
-0.0064392052590847015,-0.007679943926632404,0.004168215673416853,0.0037922111805528402,0.0,-0.006641378626227379
-0.0064392052590847015,-0.007679943926632404,0.004168215673416853,0.0037922111805528402,0.0,-0.006641378626227379
-0.006333357188850641,-0.007449546828866005,0.004029421601444483,0.003952874802052975,0.0,-0.006722289137542248
-0.006333357188850641,-0.007449546828866005,0.004029421601444483,0.003952874802052975,0.0,-0.006722289137542248
-0.006178546231240034,-0.007311748340725899,0.004025432281196117,0.00374179077334702,0.0,-0.006920869927853346
-0.006342480890452862,-0.008121433667838573,0.003834301372990012,0.0034622428938746452,0.0,-0.00712764635682106
-0.006347254849970341,-0.008349110372364521,0.003791871713474393,0.0035416295286267996,0.0,-0.006875115446746349
-0.006412175018340349,-0.007752785459160805,0.003908881917595863,0.0037752813659608364,0.0,-0.006645128130912781
-0.006162055768072605,-0.007162321824580431,0.004320986568927765,0.003863536287099123,0.0,-0.006770216394215822
-0.006030025891959667,-0.007882400415837765,0.004057371057569981,0.0040634796023368835,0.0,-0.007113745901733637
-0.005998498294502497,-0.007951229810714722,0.004382791463285685,0.003929221536964178,0.0,-0.006781809497624636
-0.006564287468791008,-0.007507378701120615,0.003618513932451606,0.003647657111287117,0.0,-0.006796421483159065
-0.0065435790456831455,-0.006948514375835657,0.0035769350361078978,0.0035352830309420824,0.0,-0.007330440450459719
-0.006144901271909475,-0.0071528819389641285,0.003809714922681451,0.003650069935247302,0.0,-0.007851747795939445
-0.005642280913889408,-0.008043183945119381,0.0039232331328094006,0.004110343754291534,0.0,-0.0064989482052624226
-0.005674909334629774,-0.007409824524074793,0.0037208949215710163,0.0042523848824203014,0.0,-0.006520215887576342
-0.005898676812648773,-0.0071967970579862595,0.003334977198392153,0.003931311424821615,0.0,-0.007237473502755165
-0.005841895937919617,-0.006979227066040039,0.0032636302057653666,0.003765336936339736,0.0,-0.006986305117607117
-0.005764005705714226,-0.006985394284129143,0.003470547730103135,0.0037506045773625374,0.0,-0.006927550304681063
-0.005571277812123299,-0.0067385053262114525,0.003643045434728265,0.004120364785194397,0.0,-0.00651906430721283
-0.0058062877506017685,-0.007058196701109409,0.00345982750877738,0.004261158872395754,0.0,-0.006417309865355492
-0.0058062877506017685,-0.007058196701109409,0.00345982750877738,0.004261158872395754,0.0,-0.006417309865355492
-0.006237581837922335,-0.007055443245917559,0.0035155622754245996,0.004081761464476585,0.0,-0.006536006927490234
-0.005861456505954266,-0.006298589054495096,0.004035487771034241,0.004096073564141989,0.0,-0.006813872139900923
-0.005894877482205629,-0.006800579372793436,0.00410522660240531,0.004086253698915243,0.0,-0.006995651870965958
-0.006521362345665693,-0.007391883060336113,0.003999445587396622,0.003621407551690936,0.0,-0.0068031963892281055
-0.006521362345665693,-0.007391883060336113,0.003999445587396622,0.003621407551690936,0.0,-0.0068031963892281055
-0.006273603066802025,-0.0073428344912827015,0.003955181688070297,0.0035853993613272905,0.0,-0.006732554640620947
-0.005471463315188885,-0.007004565559327602,0.003613619599491358,0.004163162317126989,0.0,-0.006260039750486612
-0.005471463315188885,-0.007004565559327602,0.003613619599491358,0.004163162317126989,0.0,-0.006260039750486612
-0.006087144836783409,-0.007088705897331238,0.004228866193443537,0.004082693252712488,0.0,-0.006267361808568239
-0.005700058303773403,-0.007372409570962191,0.00436666002497077,0.004414011258631945,0.0,-0.006468116771429777
-0.0060026273131370544,-0.006774458102881908,0.0040025957860052586,0.004300501197576523,0.0,-0.006561321206390858
-0.005713972263038158,-0.007121328730136156,0.0034841056913137436,0.00421971594914794,0.0,-0.006378097925335169
-0.005774377379566431,-0.006769516505300999,0.0033894130028784275,0.00404125964269042,0.0,-0.006059865467250347
-0.0054917121306061745,-0.007096255198121071,0.003202926367521286,0.0039124260656535625,0.0,-0.006403523497283459
-0.006649569608271122,-0.006709926761686802,0.004355278331786394,0.004252065904438496,0.0,-0.0063600377179682255
-0.006649569608271122,-0.006709926761686802,0.004355278331786394,0.004252065904438496,0.0,-0.0063600377179682255
-0.006083064712584019,-0.006839805282652378,0.004128769040107727,0.004243387840688229,0.0,-0.00607652124017477
-0.00594040472060442,-0.007036647759377956,0.0034034117124974728,0.004441794939339161,0.0,-0.005997335538268089
-0.0053945318795740604,-0.006813733372837305,0.003029436571523547,0.0037127977702766657,0.0,-0.005968049168586731
-0.005835765041410923,-0.006467737723141909,0.003002182114869356,0.0035791024565696716,0.0,-0.006184019148349762
-0.0057098641991615295,-0.006615972146391869,0.0031642382964491844,0.0037269131280481815,0.0,-0.006160379853099585
-0.005460235755890608,-0.006840442307293415,0.003630618564784527,0.004354017786681652,0.0,-0.006260965950787067
-0.00498169707134366,-0.006437254603952169,0.0032786414958536625,0.0041693649254739285,0.0,-0.006406824104487896
-0.005028541665524244,-0.006579091772437096,0.003044945653527975,0.003909583203494549,0.0,-0.005918560549616814
-0.005537346936762333,-0.0068187713623046875,0.0027901530265808105,0.003898069728165865,0.0,-0.005814055446535349
-0.005593364126980305,-0.007125702686607838,0.003202698891982436,0.0039455099031329155,0.0,-0.005815432406961918
-0.005546567961573601,-0.006695292890071869,0.003431234508752823,0.004404924344271421,0.0,-0.006332250311970711
-0.005215651821345091,-0.0067146215587854385,0.0035753119736909866,0.004160797223448753,0.0,-0.006342504173517227
-0.005007994826883078,-0.006934596691280603,0.003253614529967308,0.004034619312733412,0.0,-0.006026805844157934
-0.005151474382728338,-0.007487436290830374,0.0030347639694809914,0.003648185869678855,0.0,-0.006003271322697401
-0.0053502582013607025,-0.006612925324589014,0.0029287447687238455,0.003917887806892395,0.0,-0.005649926606565714
-0.005609510000795126,-0.006313256919384003,0.003186397021636367,0.004601007793098688,0.0,-0.0058576068840920925
-0.00523209385573864,-0.006916653364896774,0.003229855326935649,0.004891241434961557,-4.530428850557655e-05,-0.0063203973695635796
-0.00523209385573864,-0.006916653364896774,0.003229855326935649,0.004891241434961557,-4.530428850557655e-05,-0.0063203973695635796
-0.005055428948253393,-0.006933094933629036,0.003131394274532795,0.004780711140483618,-6.553631101269275e-05,-0.0064120362512767315
-0.005092220846563578,-0.007528822403401136,0.003242901060730219,0.004283360205590725,-6.594001752091572e-05,-0.006317342631518841
-0.005325880832970142,-0.00649514514952898,0.0036638074088841677,0.003628586884588003,-6.507554644485936e-05,-0.006196214817464352
-0.005637214984744787,-0.006306191440671682,0.003905287478119135,0.003996230196207762,-6.415356619982049e-05,-0.005791569594293833
-0.005179394502192736,-0.006620180327445269,0.003945742733776569,0.004178567789494991,-6.325229333015159e-05,-0.0058250888250768185
-0.004901808686554432,-0.007133518811315298,0.0033905149903148413,0.004411856643855572,-6.237550405785441e-05,-0.005601710639894009
-0.005102645140141249,-0.006660517305135727,0.0030156360007822514,0.004444843623787165,-6.152276182547212e-05,-0.005518821068108082
-0.004937163554131985,-0.006049345713108778,0.003163909539580345,0.0041372934356331825,-6.069300070521422e-05,-0.0050193145871162415
-0.004957308992743492,-0.0063130054622888565,0.0035127531737089157,0.00404697610065341,-5.988530392642133e-05,-0.004864702932536602
-0.005634187255054712,-0.006232989486306906,0.003468088572844863,0.004066299647092819,-5.909884566790424e-05,-0.005385188385844231
-0.0051994360983371735,-0.0064687528647482395,0.0035402143839746714,0.00428646570071578,-5.833274553879164e-05,-0.005253096576780081
-0.004790634382516146,-0.006135276053100824,0.003671070095151663,0.004281932953745127,-5.7586279581300914e-05,-0.005830477923154831
-0.004759937524795532,-0.005743715912103653,0.003320633666589856,0.004050648305565119,-5.685867654392496e-05,-0.005586705636233091
-0.005053120199590921,-0.006958983838558197,0.0038447969127446413,0.004265701863914728,-5.545725434785709e-05,-0.0054718563333153725
-0.005053120199590921,-0.006958983838558197,0.0038447969127446413,0.004265701863914728,-5.545725434785709e-05,-0.0054718563333153725
-0.004869386553764343,-0.006577657535672188,0.003553632413968444,0.004515151958912611,-5.4123258450999856e-05,-0.005748704541474581
-0.005051818210631609,-0.0063240728341042995,0.003141507040709257,0.004574356600642204,-5.348007471184246e-05,-0.005708165001124144
-0.004863066133111715,-0.006678244099020958,0.0032734316773712635,0.004250021185725927,-5.2851930377073586e-05,-0.005207429639995098
-0.004398034419864416,-0.007333060726523399,0.00354434153996408,0.004539008717983961,-5.223842163104564e-05,-0.005181389395147562
-0.004523977171629667,-0.007051337976008654,0.0034693486522883177,0.00466225715354085,-5.163898822502233e-05,-0.005315626040101051
-0.004764006473124027,-0.006273000501096249,0.0035377941094338894,0.00455752108246088,-5.105313175590709e-05,-0.005078490357846022
-0.004764006473124027,-0.006273000501096249,0.0035377941094338894,0.00455752108246088,-5.105313175590709e-05,-0.005078490357846022
-0.004884397145360708,-0.006928369402885437,0.003578904550522566,0.00438893586397171,-4.9920457968255505e-05,-0.005010704975575209
-0.004884397145360708,-0.006928369402885437,0.003578904550522566,0.00438893586397171,-4.9920457968255505e-05,-0.005010704975575209
-0.004695807583630085,-0.0069705708883702755,0.0034213759936392307,0.004501939285546541,-1.2685547517321538e-05,-0.004868138115853071
-0.004471666645258665,-0.006377919111400843,0.0035755494609475136,0.004609703551977873,-8.282756311928097e-07,-0.005420308094471693
-0.004598759114742279,-0.00632872898131609,0.0036267670802772045,0.004806517157703638,-5.4080476985518544e-08,-0.00535218883305788
-0.004686388187110424,-0.006353923585265875,0.0031936904415488243,0.004781887400895357,-3.531068770712409e-09,-0.00504704937338829
-0.004741473589092493,-0.00640343502163887,0.0030990010127425194,0.004456165712326765,-2.3055354847478782e-10,-0.005130640231072903
-0.004972569644451141,-0.006579746026545763,0.003046121448278427,0.004286079201847315,-1.5053498378381214e-11,-0.005049976985901594
-0.005046700593084097,-0.006504896096885204,0.0032672772649675608,0.004308145958930254,-9.828859731317308e-13,-0.004915759898722172
-0.004427901469171047,-0.006406549364328384,0.0033583457116037607,0.00481231976300478,-6.417543091993133e-14,-0.0050869290716946125
-0.004402974154800177,-0.006165673956274986,0.003439562162384391,0.005187614820897579,-4.190197027651192e-15,-0.005337543785572052
-0.005082664079964161,-0.006456886883825064,0.0031493371352553368,0.004835845902562141,-2.735899214274649e-16,-0.005548098124563694
-0.004977398552000523,-0.006691868882626295,0.002951113972812891,0.00454602250829339,-1.7863468253895065e-17,-0.00530250696465373
-0.00456197839230299,-0.00618607085198164,0.002844863571226597,0.004402882419526577,-1.1663566135509289e-18,-0.0053298212587833405
-0.004461267031729221,-0.006132874172180891,0.0026030398439615965,0.004174672998487949,-7.615475144856102e-20,-0.005432894919067621
-0.004619917832314968,-0.00662189582362771,0.002739110728725791,0.004457119852304459,-4.9723611844345445e-21,-0.005301563069224358
-0.004206289537250996,-0.007263085804879665,0.0030606265645474195,0.004646544344723225,-3.2465965615912076e-22,-0.005230250768363476
-0.004500934388488531,-0.006365221459418535,0.0030827855225652456,0.0048811305314302444,-2.119795627845875e-23,-0.005044671706855297
-0.00438423128798604,-0.006574114318937063,0.002354957163333893,0.004698982462286949,-9.037021048376805e-26,-0.0050444286316633224
-0.004288981668651104,-0.006702246144413948,0.002321057952940464,0.004383676219731569,-5.900529348517506e-27,-0.004913622979074717
-0.004852961283177137,-0.006274119950830936,0.0027182898484170437,0.004476712550967932,-3.8526242422211504e-28,-0.004930129740387201
-0.0048282756470143795,-0.006279766093939543,0.002923073712736368,0.0046289111487567425,-2.515488396725765e-29,-0.004893672186881304
-0.004314245656132698,-0.006786052603274584,0.0028827821370214224,0.0046326592564582825,-1.6424341850480115e-30,-0.005100251641124487
-0.004369583912193775,-0.0062044281512498856,0.002621228341013193,0.004808136727660894,-1.07239209395997e-31,-0.0049402895383536816
-0.0042984322644770145,-0.005953317973762751,0.0024256419856101274,0.004378230310976505,-7.001954058211853e-33,-0.005504954140633345
-0.004414171911776066,-0.005914175882935524,0.002561359666287899,0.004290104378014803,-4.571775791901235e-34,-0.004614428151398897
-0.004627719055861235,-0.005915939342230558,0.0030843662098050117,0.0042050606571137905,-2.985042778049684e-35,-0.003974054008722305
-0.004627719055861235,-0.005915939342230558,0.0030843662098050117,0.0042050606571137905,-2.985042778049684e-35,-0.003974054008722305
-0.004684179089963436,-0.0061896787956357,0.003086027456447482,0.004743794910609722,-1.9490197127073513e-36,-0.004174334462732077
-0.0043782517313957214,-0.006095712538808584,0.0026792255230247974,0.00451850239187479,-1.2725704790290992e-37,-0.004738967400044203
-0.003988636191934347,-0.005998410750180483,0.0022966070100665092,0.004599540960043669,-8.308975422140109e-39,-0.0048728580586612225
-0.0038678310811519623,-0.006127894390374422,0.0022705376613885164,0.0046661412343382835,-5.425169043587459e-40,-0.00499790720641613
-0.00425510760396719,-0.006412728689610958,0.002810854697600007,0.004586573224514723,-2.3121424661359482e-42,-0.004529847763478756
-0.00425510760396719,-0.006412728689610958,0.002810854697600007,0.004586573224514723,-2.3121424661359482e-42,-0.004529847763478756
-0.004100036341696978,-0.00647317711263895,0.002783707808703184,0.004689638968557119,-1.5134023414708024e-43,-0.004659329541027546
-0.00400117551907897,-0.006581242196261883,0.002481294795870781,0.0043095750734210014,-9.80908925027372e-45,-0.004774495027959347
-0.003984002396464348,-0.005968029610812664,0.002142027486115694,0.0040276371873915195,-0.0,-0.0043047163635492325
-0.003892881330102682,-0.006076730787754059,0.002042056294158101,0.00424563093110919,-0.0,-0.004328671842813492
-0.003791623283177614,-0.006542927119880915,0.002416590228676796,0.005041366908699274,-0.0,-0.004171633627265692
-0.003962825518101454,-0.0065469336695969105,0.0028372127562761307,0.0051254527643322945,-0.0,-0.004012744408100843
-0.0038338233716785908,-0.00648085493594408,0.0027114790864288807,0.00482218386605382,-0.0,-0.004406541120260954
-0.0037191733717918396,-0.005913283675909042,0.0023046722635626793,0.004221146460622549,-0.0,-0.004636315628886223
-0.003690039739012718,-0.00629839114844799,0.0020868531428277493,0.00415373221039772,-0.0,-0.004611858166754246
-0.0036941568832844496,-0.006396372802555561,0.0018164176726713777,0.004538707435131073,-0.0,-0.004607330542057753
-0.0038745561614632607,-0.006601017899811268,0.0018026207108050585,0.005026663653552532,-0.0,-0.004234891850501299
-0.003769315080717206,-0.006588902790099382,0.0020850724540650845,0.005712633021175861,-0.0,-0.0035536796785891056
-0.003558580530807376,-0.006000755354762077,0.002308648545295,0.004882864188402891,-0.0,-0.003780387109145522
-0.0036937096156179905,-0.0067973569966852665,0.002010459080338478,0.004598029423505068,-0.0,-0.004450677428394556
-0.00378154288046062,-0.006929658353328705,0.0018235589377582073,0.004585116636008024,-0.0,-0.004552929196506739
-0.0037555000744760036,-0.006053811404854059,0.0018162172054871917,0.004946820437908173,-0.0,-0.004341699182987213
-0.0033438110258430243,-0.005850875284522772,0.001864677295088768,0.004983389750123024,-0.0,-0.003832115326076746
-0.0035563972778618336,-0.006841652560979128,0.0018540582386776805,0.005215338431298733,-0.0,-0.0034750415943562984
-0.0037801312282681465,-0.007021038793027401,0.002171347150579095,0.005100318696349859,-0.0,-0.003244162304326892
-0.0033989567309617996,-0.0066480436362326145,0.001928576733916998,0.004846435971558094,-0.0,-0.0037473044358193874
-0.0035239544231444597,-0.00606921873986721,0.001848151907324791,0.004677365534007549,-0.0,-0.004154801368713379
-0.0035239544231444597,-0.00606921873986721,0.001848151907324791,0.004677365534007549,-0.0,-0.004154801368713379
-0.0037156236357986927,-0.006660022772848606,0.0017836334882304072,0.005100188311189413,-0.0,-0.004540673457086086
-0.003871943335980177,-0.006935956422239542,0.0017850002041086555,0.005028523504734039,-0.0,-0.004425601568073034
-0.003306591883301735,-0.007307531777769327,0.001797132077626884,0.004903447348624468,-0.0,-0.004116853233426809
-0.0031059898901730776,-0.00648502679541707,0.001910508843138814,0.005065080709755421,-0.0,-0.003851616755127907
-0.002996881492435932,-0.0066801197826862335,0.001723596127703786,0.005111903417855501,-0.0,-0.0034468043595552444
-0.003399670124053955,-0.006906758062541485,0.0017160528805106878,0.005284970160573721,-0.0,-0.0030970703810453415
-0.0037432885728776455,-0.006950257811695337,0.0017917052609845996,0.005516986828297377,-0.0,-0.002997424453496933
-0.003325432538986206,-0.007185927592217922,0.0018700859509408474,0.005173157900571823,-0.0,-0.0033340861555188894
-0.003063419135287404,-0.006537377368658781,0.0019454766297712922,0.00479967100545764,-0.0,-0.0037760050036013126
-0.003024304285645485,-0.006897317711263895,0.0017287405207753181,0.004764552228152752,-0.0,-0.00393269257619977
-0.0031510815024375916,-0.00729347625747323,0.0016713155200704932,0.005019030999392271,-0.0,-0.003917349968105555
-0.00350227952003479,-0.006996395532041788,0.0017008035210892558,0.005284433253109455,-0.0,-0.003851616755127907
-0.003323512151837349,-0.006705256178975105,0.0018039876595139503,0.005159346852451563,-0.0,-0.003798753023147583
-0.0030903948936611414,-0.0064918179996311665,0.001810743473470211,0.004954143892973661,-0.0,-0.0034127235412597656
-0.0031022075563669205,-0.0073998067528009415,0.0018816422671079636,0.004884968511760235,-0.0,-0.0031144770327955484
-0.003197811543941498,-0.0071854665875434875,0.0016310089267790318,0.004833804443478584,-0.0,-0.0035242584999650717
-0.0032500268425792456,-0.006669534370303154,0.0016821088502183557,0.005288323387503624,-0.0,-0.0037237072829157114
-0.003177158534526825,-0.0066846623085439205,0.0017824891256168485,0.005297839175909758,-0.0,-0.0035335104912519455
-0.0030574575066566467,-0.0070375422947108746,0.0018691107397899032,0.005415412597358227,-0.0,-0.003190634772181511
-0.002817041240632534,-0.00712808221578598,0.0018342577386647463,0.0051022176630795,-0.0,-0.003352115396410227
-0.0030416769441217184,-0.0069509693421423435,0.0016308554913848639,0.004857015796005726,-0.0,-0.0031358569394797087
-0.0030416769441217184,-0.0069509693421423435,0.0016308554913848639,0.004857015796005726,-0.0,-0.0031358569394797087
-0.0029699041042476892,-0.006941472180187702,0.0016007883241400123,0.0050055780448019505,-0.0,-0.0033304025419056416
-0.002941462676972151,-0.007425510790199041,0.00136086018756032,0.005051576066762209,-0.0,-0.0033645709045231342
-0.002702949335798621,-0.007012731861323118,0.0011449558660387993,0.005352827720344067,-0.0,-0.003109324024990201
-0.002650609938427806,-0.007144730072468519,0.0009877074044197798,0.005439824424684048,-0.0,-0.002869392978027463
-0.0026071667671203613,-0.007613820489495993,0.0007406370714306831,0.005225569941103458,-0.0,-0.003145368304103613
-0.00257359747774899,-0.006915149744600058,0.0007045285892672837,0.005270735360682011,-0.0,-0.002945543732494116
-0.002724584424868226,-0.0071806046180427074,0.0006565665826201439,0.005258528515696526,-0.0,-0.0030451067723333836
-0.0025369864888489246,-0.007006760686635971,0.0006492629763670266,0.0057189627550542355,-0.0,-0.003013154724612832
-0.0024253944866359234,-0.006748385261744261,0.0006160673219710588,0.005294377449899912,-0.0,-0.0030212504789233208
-0.00236118258908391,-0.006878373678773642,0.0005615447298623621,0.00504751643165946,-0.0,-0.003478103317320347
-0.002427267376333475,-0.006979174911975861,0.0005881516844965518,0.004798633512109518,-2.6057305149151944e-06,-0.003251776797696948
-0.002351392526179552,-0.0065787495113909245,0.0005446297582238913,0.0048140366561710835,-1.701355500927093e-07,-0.002858310006558895
-0.0024402460549026728,-0.007149789482355118,0.0005102107534185052,0.004743338096886873,-1.1108636677192862e-08,-0.0025890646502375603
-0.002232803963124752,-0.006571021396666765,0.0004762608732562512,0.00540740555152297,-7.253145861696453e-10,-0.002321461448445916
-0.002121113706380129,-0.006744874641299248,0.00043090101098641753,0.0056448993273079395,-4.735785721909913e-11,-0.0024286606349051
-0.002220217138528824,-0.006846462842077017,0.00039325430407188833,0.005509806331247091,-3.092129417098244e-12,-0.0026951716281473637
-0.0020826191175729036,-0.007540852762758732,0.00044536899076774716,0.005225200671702623,-1.3182232303616485e-14,-0.0026396289467811584
-0.0020182672888040543,-0.007124640978872776,0.0004358581791166216,0.005594160407781601,-8.607056472097608e-16,-0.00226385984569788
-0.0020156113896518946,-0.006822783034294844,0.00040791876381263137,0.006056810263544321,-5.619792951535855e-17,-0.0021100419107824564
-0.001971979858353734,-0.006504927761852741,0.00043705987627618015,0.005516507662832737,-3.669323152858171e-18,-0.0019744746387004852
-0.002013617428019643,-0.006608638446778059,0.0004154133202973753,0.005074474029242992,-2.395805859637669e-19,-0.001969135133549571
-0.0019712348002940416,-0.006441091187298298,0.0004475392634049058,0.005166270770132542,-1.564290142128267e-20,-0.0018899027490988374
-0.0016972733428701758,-0.007107050623744726,0.0004860814078710973,0.00535436300560832,-1.0213697431823039e-21,-0.0019299864070490003
-0.0016751637449488044,-0.006446173880249262,0.0004487964906729758,0.005589296109974384,-6.668814260394765e-23,-0.0022150014992803335
-0.0015533400001004338,-0.00641387514770031,0.00041439023334532976,0.00558516988530755,-4.354258183608504e-24,-0.0022444594651460648
-0.001593932625837624,-0.006488392129540443,0.00044806269579567015,0.005539470352232456,-2.8430194501948245e-25,-0.0021929151844233274
-0.001593932625837624,-0.006488392129540443,0.00044806269579567015,0.005539470352232456,-2.8430194501948245e-25,-0.0021929151844233274
-0.0016449657268822193,-0.006371090188622475,0.0004191026382613927,0.005211284849792719,-1.8562883175981934e-26,-0.002114778384566307
-0.001913288258947432,-0.006288270931690931,0.0004467812832444906,0.004951856564730406,-1.2120236325963503e-27,-0.0021743634715676308
-0.0018397027160972357,-0.006507915444672108,0.0004227009485475719,0.00516792107373476,-7.913648548899583e-29,-0.0021253107115626335
-0.0015886523760855198,-0.006714844610542059,0.0004025462258141488,0.005529825109988451,-5.167046978982942e-30,-0.002132882596924901
-0.0014293669955804944,-0.006409281399101019,0.00044704065658152103,0.005664426367729902,-3.3737125152498157e-31,-0.0020003928802907467
-0.0014446602435782552,-0.006246010772883892,0.00040766861638985574,0.005532518494874239,-2.202793247215646e-32,-0.0019837154541164637
-0.0013187500881031156,-0.004902459215372801,0.00042256020242348313,0.005539839155972004,-1.4382665620570094e-33,-0.0018823035061359406
-0.0013837952865287662,-0.004068960901349783,0.00041380501352250576,0.005584687925875187,-9.39085275113581e-35,-0.0018179184990003705
-0.0012950255768373609,-0.004633259493857622,0.0003846418403554708,0.005573946516960859,-6.131555460712119e-36,-0.0017260430613532662
-0.0011593097588047385,-0.005450651049613953,0.000359064870281145,0.005395973566919565,-4.0034675615181955e-37,-0.0018683004891499877
-0.001210703863762319,-0.0053936755284667015,0.0003366738383192569,0.005031974986195564,-2.6139782317158137e-38,-0.0017773681320250034
-0.0011542526772245765,-0.005257483571767807,0.00031691198819316924,0.004854306578636169,-1.7067408918921618e-39,-0.0018451446667313576
-0.0011257478035986423,-0.0049261776730418205,0.00034328748006373644,0.004780600778758526,-1.1143826037543108e-40,-0.0017455448396503925
-0.0012519712327048182,-0.005027333274483681,0.00033080807770602405,0.005188819020986557,-7.27554162677445e-42,-0.0015182595234364271
-0.0011895567877218127,-0.004918548744171858,0.00031437299912795424,0.005583655089139938,-4.75040179406113e-43,-0.0013432137202471495
-0.0010453617433086038,-0.005074594169855118,0.00029943135450594127,0.005474598612636328,-3.0828566215145976e-44,-0.0012744299601763487
-0.001023207209073007,-0.00510614225640893,0.0002858441148418933,0.005465938244014978,-1.401298464324817e-45,-0.0012112855911254883
-0.0009241236839443445,-0.004609478171914816,0.00026206232723779976,0.005800000391900539,-0.0,-0.0010299419518560171
-0.0008032600744627416,-0.004510579630732536,0.00025159577489830554,0.005724574439227581,-0.0,-0.0010076649487018585
-0.0008108133333735168,-0.0049894764088094234,0.00024193346325773746,0.005661207251250744,-0.0,-0.0010010461555793881
-0.0007222296553663909,-0.005040457937866449,0.00023298669839277864,0.005433297250419855,-0.0,-0.001062331604771316
-0.0007391393301077187,-0.004694388248026371,0.0002246767544420436,0.005594548769295216,-0.0,-0.0010868312092497945
-0.0006728749140165746,-0.004388418514281511,0.000247500604018569,0.005153522826731205,-0.0,-0.001079876208677888
-0.0005921675474382937,-0.00483299233019352,0.0002396721247350797,0.005553175695240498,-0.0,-0.0012820439878851175
-0.0005913071217946708,-0.004487789701670408,0.0002063744468614459,0.005781481973826885,-0.0,-0.00123688078019768
-0.0005620648735202849,-0.004011212382465601,0.0001966726267710328,0.005754014477133751,-0.0,-0.0011798000195994973
-0.0005647462094202638,-0.004386780317872763,0.00019067642278969288,0.0054945191368460655,-0.0,-0.001073916326276958
-0.0005647462094202638,-0.004386780317872763,0.00019067642278969288,0.0054945191368460655,-0.0,-0.001073916326276958
-0.0005427085561677814,-0.004479211289435625,0.00018507378990761936,0.005651262588799,-0.0,-0.000975422328338027
-0.0004999836091883481,-0.00471405778080225,0.00017979259428102523,0.005468043964356184,-0.0,-0.0008191309752874076
-0.00046321528498083353,-0.004903734195977449,0.00017480347014497966,0.005731821060180664,-0.0,-0.0008218053262680769
-0.0001775990822352469,-0.004783856216818094,0.0001700845023151487,0.0055175647139549255,-0.0,-0.0008076388039626181
-5.208663424127735e-06,-0.00446744542568922,0.0001656130189076066,0.005265288054943085,-8.16413012216799e-05,-0.000790508056525141
-6.988086909132107e-08,-0.00482837064191699,0.0001613712520338595,0.005038437433540821,-8.826742123346776e-05,-0.0007546936394646764
-9.375410447987065e-10,-0.004998380783945322,0.000157340953592211,0.004968718159943819,-8.709629764780402e-05,-0.0006971505936235189
-1.2578309054045445e-11,-0.004943824838846922,0.00015350739704445004,0.005663828458636999,-8.547704055672511e-05,-0.0006966374930925667
-1.6875407592587682e-13,-0.005084580276161432,0.00014985579764470458,0.005553628318011761,-8.388592686969787e-05,-0.0006410377682186663
-2.2640513053749645e-15,-0.004878635983914137,0.0001463740918552503,0.005292321089655161,-8.235099085140973e-05,-0.0006632871809415519
-3.0375137501576145e-17,-0.004684628453105688,0.00014305036165751517,0.005154052749276161,-8.087098103715107e-05,-0.000668706139549613
0.00019052134302910417,-0.004631585907191038,0.00013987437705509365,0.005632204469293356,-8.726437226869166e-05,-0.000630053284112364
0.00012120924657210708,-0.0049805063754320145,0.00013683624274563044,0.005915253888815641,-9.315130591858178e-05,-0.0006216551410034299
0.0002109446213580668,-0.005319275427609682,0.00013392743130680174,0.006304792128503323,-9.204639354720712e-05,-0.0005854733171872795
0.0001900711504276842,-0.005618374329060316,0.0001311397209065035,0.006238903850317001,-9.053458779817447e-05,-0.0005205710767768323
8.961331332102418e-05,-0.005123426206409931,0.00012846547178924084,0.005457803141325712,-8.904382411856204e-05,-0.0004666865279432386
7.85141164669767e-05,-0.004524273332208395,0.0001258982956642285,0.005509757902473211,-8.759944466874003e-05,-0.0004955900949425995
0.0001336096611339599,-0.005154515150934458,0.00012105989299016073,0.006171884946525097,-8.484661520924419e-05,-0.00042696710443124175
0.0001243872829945758,-0.005455047823488712,0.00011877762881340459,0.006052294746041298,-8.353422890650108e-05,-0.0003956998116336763
0.00011634574184427038,-0.005469511263072491,0.00011657962022582069,0.005854136310517788,-8.226164209190756e-05,-0.000368669192539528
0.0001450349809601903,-0.0050680567510426044,4.7872945287963375e-05,0.00601186603307724,-8.102727588266134e-05,-0.000394805014366284
0.0001542850659461692,-0.004772800486534834,3.834209928754717e-05,0.005423725116997957,-9.139662142843008e-05,-0.0003779058752115816
0.00014616733824368566,-0.00476749986410141,3.7430549127748236e-05,0.005394123028963804,-9.166421659756452e-05,-0.00035693251993507147
0.00018298854411114007,-0.005340733099728823,3.6666551750386134e-05,0.005940030794590712,-9.045239130500704e-05,-0.00033781342790462077
0.00017582692089490592,-0.005197654943913221,3.593452856875956e-05,0.005807536654174328,-8.917890954762697e-05,-0.00032061885576695204
0.00016766080807428807,-0.005225703120231628,3.523121267789975e-05,0.005906147416681051,-8.793455344857648e-05,-0.00030508695635944605
0.00026145228184759617,-0.005195604171603918,3.4554865123936906e-05,0.0057516214437782764,-8.672416879562661e-05,-0.0002909922623075545
0.00026145228184759617,-0.005195604171603918,3.4554865123936906e-05,0.0057516214437782764,-8.672416879562661e-05,-0.0002909922623075545
0.00025918110623024404,-0.004937563091516495,3.390397614566609e-05,0.006106541957706213,-8.55465405038558e-05,-0.0002781413495540619
0.0002922573476098478,-0.004794439300894737,3.327723970869556e-05,0.00636306032538414,-9.335597133031115e-05,-0.000266378658125177
0.0003095105057582259,-0.004717234987765551,3.267319334554486e-05,0.006101798266172409,-9.498006693320349e-05,-0.000255569932051003
0.00030936242546886206,-0.004725567065179348,3.209068381693214e-05,0.0060293120332062244,-9.392749052494764e-05,-0.00024560585734434426
0.0003227064444217831,-0.005145992152392864,3.152859790134244e-05,0.005880814976990223,-9.272998431697488e-05,-0.00023638778657186776
0.0003219467180315405,-0.005043303593993187,3.098588058492169e-05,0.006109706126153469,-9.155168663710356e-05,-0.00022783773601986468
0.0005563535960391164,-0.0051558371633291245,3.0461515052593313e-05,0.006601651199162006,-9.040227450896055e-05,-0.0002198852162109688
0.0006238976493477821,-0.00492995698004961,2.9954584533697926e-05,0.006519726011902094,-8.928120951168239e-05,-0.00021246827964205295
0.0006456145783886313,-0.004905909765511751,1.976678140636068e-05,0.005986272823065519,-8.818780042929575e-05,-0.00020553595095407218
0.0005948988837189972,-0.004929942544549704,1.4562410797225311e-05,0.005790405906736851,-0.00012132193660363555,-0.00019904137297999114
0.0005943215801380575,-0.00514117069542408,1.42660501296632e-05,0.006066709291189909,-0.00012888469791505486,-0.00019294532830826938
0.0005716130835935473,-0.004889351781457663,5.601509656116832e-07,0.0061599863693118095,-0.00012599708861671388,-0.00018721116066444665
0.0006670907605439425,-0.0047517018392682076,7.515140509894991e-09,0.006016226019710302,-0.0001226108433911577,-0.00018180807819589972
0.0007118329522199929,-0.005021275952458382,1.0082519541487756e-10,0.00608562957495451,-0.00011936167720705271,-0.0001767083740560338
0.0008055410580709577,-0.005080629140138626,1.3526986605491564e-12,0.006033087614923716,-0.00011627735511865467,-0.0001718866842566058
0.0007646383601240814,-0.005273078568279743,1.8148177256230476e-14,0.006129297893494368,-0.00011334853479638696,-0.00016732134099584073
0.0011743686627596617,-0.005241619888693094,2.434809177074491e-16,0.006356453988701105,-0.0001105634801206179,-8.383609383599833e-05
0.0010941993677988648,-0.0044857533648610115,4.3825709063678655e-20,0.005912730470299721,-0.00012101171887479722,-5.30281504325103e-05
0.0009839466074481606,-0.00490625761449337,5.879777912508432e-22,0.00577649287879467,-0.0001232117647305131,-5.140705980011262e-05
0.0010460098274052143,-0.005012206733226776,7.888472579273515e-24,0.006325015798211098,-0.00012077987048542127,-4.99727284477558e-05
0.0010229909094050527,-0.004918226972222328,1.0583393649704862e-25,0.006648455746471882,-0.00011815813195426017,-3.668426506919786e-05
0.0010158641962334514,-0.005110033787786961,1.4198971478068367e-27,0.006297018378973007,-0.00011562938016140833,-2.4479551939293742e-05
0.0012727684807032347,-0.005028441548347473,1.9049731182533184e-29,0.00611336762085557,-0.00011320537305437028,-2.311777825525496e-05
0.0013375513954088092,-0.004404742270708084,2.555764519535221e-31,0.006410967092961073,-0.00011088082828791812,-2.2492105927085504e-05
0.0013375513954088092,-0.004404742270708084,2.555764519535221e-31,0.006410967092961073,-0.00011088082828791812,-2.2492105927085504e-05
0.001568786334246397,-0.0050231353379786015,4.600285949491928e-35,0.005967354867607355,-0.00010650684271240607,-1.8850462879527186e-07
0.001568786334246397,-0.0050231353379786015,4.600285949491928e-35,0.005967354867607355,-0.00010650684271240607,-1.8850462879527186e-07
0.0014818625058978796,-0.005063588265329599,6.171870436377561e-37,0.006407813169062138,-0.00010444677900522947,-1.230800616980332e-08
0.0015484546311199665,-0.005034165922552347,-0.00028940418269485235,0.006613783538341522,-0.0001184057182399556,-8.036248888565467e-10
0.0014544096775352955,-0.004822445567697287,-0.0003436543920543045,0.006454295478761196,-0.00011724216892616823,-5.2470961603434674e-11
0.0013992234598845243,-0.004429160617291927,-0.00032022231607697904,0.006302747409790754,-0.00011516667291289195,-3.425978467933022e-12
0.0014755764277651906,-0.004567079246044159,-0.0002989574568346143,0.006284118164330721,-0.000113103655166924,-2.2369190104832432e-13
0.0014838996576145291,-0.004350337199866772,-0.0003170071286149323,0.006172082386910915,-0.00011110916238976642,-1.46054822831301e-14
0.001440629013814032,-0.004489813931286335,-0.00031640674569644034,0.005910099949687719,-0.0001091835365514271,-9.536336318530301e-16
0.001475028577260673,-0.004502273630350828,-0.0003317631490062922,0.006404071114957333,-0.00010732347436714917,-6.226546474455752e-17
0.0014044332783669233,-0.0045868027955293655,-0.0003304285346530378,0.006447619758546352,-0.00010552585445111617,0.0008198795840144157
0.001301150186918676,-0.004646379966288805,-0.0003141644410789013,0.006331889424473047,-0.00010378735896665603,0.0009412301005795598
0.001537399017252028,-0.004286274779587984,-0.0003272643079981208,0.006574096158146858,-0.00010210519394604489,0.0009429658530279994
0.00234985607676208,-0.004004608374089003,-0.000326287787174806,0.0066684093326330185,-0.00010754553659353405,0.001116691855713725
0.0029254809487611055,-0.004357111174613237,-0.0003711739555001259,0.006422716658562422,-0.0001125522903748788,0.0011507837334647775
0.0034853643737733364,-0.004945415537804365,-0.0003698004875332117,0.006308221723884344,-0.00011125007586088032,0.001186585403047502
0.003106701420620084,-0.004980167374014854,-0.00040949424146674573,0.006446813233196735,-0.00010958527855109423,0.0010956772603094578
0.002624318702146411,-0.004426209256052971,-0.00043742029811255634,0.006349925883114338,-0.00010794425179483369,0.0012993225827813148
0.0025297892279922962,-0.004279700107872486,-0.00041559251258149743,0.006986293941736221,-0.00012413276999723166,0.001717873732559383
0.0023749307729303837,-0.004046987276524305,-0.0004433644353412092,0.006840408314019442,-0.00012650442658923566,0.0023316172882914543
0.003575092414394021,-0.004675729665905237,-0.0007181989494711161,0.006744858808815479,-0.00012014730600640178,0.0030960713047534227
0.0033403653651475906,-0.004733331501483917,-0.0007402350893244147,0.006737446878105402,-0.00013436964945867658,0.002542289672419429
0.00353325717151165,-0.004595589358359575,-0.000672948663122952,0.006951939780265093,-0.0001364741037832573,0.002160642296075821
0.0037537040188908577,-0.004675691481679678,-0.0006913006654940546,0.006697127129882574,-0.0001334603875875473,0.0020058415830135345
0.003989800810813904,-0.004219557158648968,-0.0007584114209748805,0.00649622268974781,-0.0001302643504459411,0.0022387136705219746
0.003990477416664362,-0.0044136056676507,-0.0008263971540145576,0.006548017729073763,-0.00012719721416942775,0.00300091621465981
0.003823890583589673,-0.0047533828765153885,-0.0008370332070626318,0.00715535506606102,-0.00012427005276549608,0.003517925040796399
0.0041650449857115746,-0.004384648986160755,-0.0007505479734390974,0.00671842647716403,-0.00014036802167538553,0.003075473476201296
0.004147382453083992,-0.004411662928760052,-0.0007651465130038559,0.006280228029936552,-0.00013851396215613931,0.00277129840105772
0.004063380882143974,-0.004540546797215939,-0.0008026916184462607,0.006304530892521143,-0.00013561277592089027,0.0028271593619138002
0.004063380882143974,-0.004540546797215939,-0.0008026916184462607,0.006304530892521143,-0.00013561277592089027,0.0028271593619138002
0.004197102040052414,-0.004636296536773443,-0.0008541931165382266,0.006589679513126612,-0.00013276016397867352,0.003351074643433094
0.004587281495332718,-0.00433675292879343,-0.000871195225045085,0.006923739332705736,-0.0001300205767620355,0.0036736635956913233
0.004810785409063101,-0.004431537352502346,-0.0008782079094089568,0.0068952045403420925,-0.0001443773362552747,0.0036211300175637007
0.004768128972500563,-0.004241943359375,-0.0011691708350554109,0.006358275189995766,-0.0001426253147656098,0.003517047269269824
0.004415258299559355,-0.0042710681445896626,-0.001122817280702293,0.006507815793156624,-0.00013992581807542592,0.003219344886019826
0.00490062078461051,-0.004138280171900988,-0.0010877457680180669,0.007638103328645229,-0.0001372628175886348,0.0034729337785393
0.0053131477907299995,-0.004409200977534056,-0.001092013786546886,0.007037465926259756,-0.00013469535042531788,0.004104044288396835
0.005046789068728685,-0.004070454277098179,-0.0012194992741569877,0.006549352314323187,-0.00013222165580373257,0.004200438037514687
0.0053804246708750725,-0.0038451729342341423,-0.001207237597554922,0.006486758589744568,-0.00012983752822037786,0.004341335501521826
0.005200238432735205,-0.0037091863341629505,-0.0015971196116879582,0.0070006889291107655,-0.00018205575179308653,0.004468910396099091
0.005857895594090223,-0.004315813537687063,-0.0016580837545916438,0.007486087270081043,-0.00019195227650925517,0.004107759799808264
0.005519605707377195,-0.004124531522393227,-0.0018979834858328104,0.007370728068053722,-0.00018520592129789293,0.0038699377328157425
0.0058164880611002445,-0.004397405777126551,-0.0018281673546880484,0.006767941173166037,-0.0001779558224370703,0.0037965381052345037
0.005869774613529444,-0.0041807712987065315,-0.0018179777543991804,0.0064848642796278,-0.00017118989489972591,0.004413382150232792
0.006268459837883711,-0.003994638565927744,-0.0018252767622470856,0.0069921682588756084,-0.0001649152982281521,0.00471500726416707
0.0059820059686899185,-0.0037200443912297487,-0.0019847566727548838,0.006943865679204464,-0.00018230472051072866,0.00478733703494072
0.006546501070261002,-0.0038770847022533417,-0.0021810203325003386,0.006710829213261604,-0.00017815802129916847,0.004687455948442221
0.006709003821015358,-0.003948395140469074,-0.0021687441039830446,0.007350831758230925,-0.00017258575826417655,0.004477645270526409
0.006361475680023432,-0.0038203608710318804,-0.002321243518963456,0.007138210814446211,-0.00016724767920095474,0.004405023064464331
0.006477373652160168,-0.003776362631469965,-0.0021045298781245947,0.0073043424636125565,-0.00016222357226070017,0.005062091629952192
0.0069146533496677876,-0.00450459448620677,-0.0020706646610051394,0.007023380137979984,-0.00015749182784929872,0.0054388223215937614
0.0069570341147482395,-0.004302382934838533,-0.0023420676589012146,0.007532739546149969,-0.00017192229279316962,0.005224303342401981
0.007405985612422228,-0.004532438702881336,-0.002346288412809372,0.007054059766232967,-0.00017318151367362589,0.005449965596199036
0.006966027896851301,-0.004173019900918007,-0.0028273032512515783,0.006820068694651127,-0.00016892838175408542,0.004980287980288267
0.007342177908867598,-0.00411224877461791,-0.002915105549618602,0.006690865848213434,-0.00016454172146040946,0.004616101272404194
0.007342177908867598,-0.00411224877461791,-0.002915105549618602,0.006690865848213434,-0.00016454172146040946,0.004616101272404194
0.007558762561529875,-0.004415662027895451,-0.002551412209868431,0.007033822126686573,-0.00016734992095734924,0.0054329149425029755
0.007558762561529875,-0.004415662027895451,-0.002551412209868431,0.007033822126686573,-0.00016734992095734924,0.0054329149425029755
0.006986534222960472,-0.0043677352368831635,-0.0028311144560575485,0.007279765326529741,-0.00017364330415148288,0.005658233538269997
0.007060489617288113,-0.004075789358466864,-0.003072264837101102,0.006698719225823879,-0.000170212791999802,0.005945597775280476
0.007217711769044399,-0.0041455719619989395,-0.002924976171925664,0.006555852480232716,-0.0001663247385295108,0.0051668263040483
0.008076919242739677,-0.004020500462502241,-0.0028267637826502323,0.007088109850883484,-0.0001625723671168089,0.004745799582451582
0.007733294740319252,-0.003764023305848241,-0.0025133995804935694,0.007485550362616777,-0.0001589823077665642,0.0048242476768791676
0.0083920331671834,-0.0037087753880769014,-0.0029723106417804956,0.0070667206309735775,-0.00017676821153145283,0.005364828743040562
0.008043999783694744,-0.004302326124161482,-0.0029793228022754192,0.006796055007725954,-0.00017696018039714545,0.005961994174867868
0.007549750152975321,-0.004123748745769262,-0.0032994181383401155,0.007649980951100588,-0.00017071289767045528,0.0057823495008051395
0.008039112202823162,-0.004444045480340719,-0.003348359139636159,0.00784178078174591,-0.0001645022857701406,0.00554866436868906
0.00843073334544897,-0.0041268980130553246,-0.0033571820240467787,0.007515854202210903,-0.0001587017613928765,0.005453655030578375
0.008847747929394245,-0.00436484394595027,-0.0032120514661073685,0.007475691381841898,-0.00015329477901104838,0.005667792167514563
0.008064243011176586,-0.0036629457026720047,-0.0034659486263990402,0.008046806789934635,-0.00014824462414253503,0.006265072152018547
0.008786454796791077,-0.00413827458396554,-0.0037518467288464308,0.007648204918950796,-0.00016842031618580222,0.006255070213228464
0.009190799668431282,-0.004135449416935444,-0.004143881611526012,0.007300347555428743,-0.00016664784925524145,0.00649291044101119
0.009108840487897396,-0.004034227225929499,-0.004279326647520065,0.007468309719115496,-0.00016187559231184423,0.006274013314396143
0.009322656318545341,-0.003914652392268181,-0.004339633975178003,0.00816325657069683,-0.0001571780740050599,0.005829246714711189
0.009516357444226742,-0.004127345979213715,-0.004830934107303619,0.007839110679924488,-0.00015273317694664001,0.006482558790594339
0.009097002446651459,-0.003690490033477545,-0.004376418422907591,0.006745764520019293,-0.0001624079013708979,0.006445984821766615
0.009152628481388092,-0.003007578430697322,-0.004485855810344219,0.0073809246532619,-0.0001638437679503113,0.006111074239015579
0.00945458747446537,-0.002308512572199106,-0.00460840854793787,0.007119708228856325,-0.00016005063662305474,0.006138583179563284
0.009327312931418419,-0.0020888790022581816,-0.005345143377780914,0.006657373625785112,-0.0001561088429298252,0.0069365184754133224
0.009394734166562557,-0.002334646414965391,-0.0052002486772835255,0.0070147947408258915,-0.00015233553131110966,0.00657955976203084
0.009563865140080452,-0.0030227438546717167,-0.0046816072426736355,0.007590052671730518,-0.00016856622823979706,0.006426775828003883
0.009530891664326191,-0.0032187800388783216,-0.0047503202222287655,0.007560728117823601,-0.00016597362991888076,0.007098865229636431
0.009894837625324726,-0.0031794749666005373,-0.005434082355350256,0.0073774722404778,-0.00016231616609729826,0.007274895440787077
0.009791192598640919,-0.00312879984267056,-0.005185259040445089,0.0068227313458919525,-0.00015874298696871847,0.00586728984490037
0.00956044066697359,-0.0027328627184033394,-0.005494100507348776,0.007004313170909882,-0.000155318746692501,0.0058558364398777485
0.010462656617164612,-0.0026546407025307417,-0.005260589066892862,0.008052636869251728,-0.0001520390360383317,0.0062553235329687595
0.009840741753578186,-0.0027468183543533087,-0.005391811951994896,0.008389165624976158,-0.0001665054151089862,0.006346819922327995
0.009840741753578186,-0.0027468183543533087,-0.005391811951994896,0.008389165624976158,-0.0001665054151089862,0.006346819922327995
0.009436849504709244,-0.002839975990355015,-0.005706137511879206,0.007912764325737953,-0.00017675411072559655,0.006861954461783171
0.010395508259534836,-0.002848514122888446,-0.005579193588346243,0.007765556685626507,-0.0001711289951344952,0.0073591298423707485
0.010040314868092537,-0.002654053969308734,-0.005552651826292276,0.0076051559299230576,-0.00016492806025780737,0.006952773313969374
0.009792734868824482,-0.00271406676620245,-0.005917822476476431,0.007668208330869675,-0.0001826433726819232,0.006413609720766544
0.009967767633497715,-0.002821289701387286,-0.006017678417265415,0.007592309731990099,-0.00018386026204098016,0.006649374961853027
0.01017962396144867,-0.0024715554900467396,-0.005886704660952091,0.0077361902222037315,-0.00017827576084528118,0.007299487013369799
0.008018254302442074,-0.0026046421844512224,-0.00568424304947257,0.007574225775897503,-0.00017260837194044143,0.007373917382210493
0.007645357865840197,-0.0028900159522891045,-0.0054798610508441925,0.007431959267705679,-0.00016726355534046888,0.0071222796104848385
0.008457742631435394,-0.0029369161929935217,-0.005788680166006088,0.007101036608219147,-0.000162237643962726,0.00701815914362669
0.008767508901655674,-0.0027871078345924616,-0.006228562444448471,0.0073772333562374115,-0.0001703880843706429,0.007134199142456055
0.008588208816945553,-0.0027325497940182686,-0.006684287916868925,0.007794427219778299,-0.0001776752178557217,0.0074699679389595985
0.009093109518289566,-0.0026651916559785604,-0.006260099355131388,0.0071559022180736065,-0.00017356988973915577,0.007637891918420792
0.00922061875462532,-0.0027777364011853933,-0.006517202127724886,0.006958990357816219,-0.00016896604211069643,0.007676236797124147
0.008292238228023052,-0.002592631848528981,-0.0073600937612354755,0.007800119463354349,-0.0001645558513700962,0.007746696472167969
0.00863242894411087,-0.0026798583567142487,-0.007235217839479446,0.007588508538901806,-0.00016036711167544127,0.008074835874140263
0.00845298171043396,-0.002528404351323843,-0.007042741868644953,0.0071703046560287476,-0.00017152952204924077,0.008441096171736717
0.009719845838844776,-0.002729058498516679,-0.007589294575154781,0.00756408367305994,-0.00017008587019518018,0.00796528160572052
0.009698709473013878,-0.0026356999296694994,-0.007318156771361828,0.00785300973802805,-0.0001663270959397778,0.008150934241712093
0.009231620468199253,-0.003018573159351945,-0.0069780065678060055,0.007470397278666496,-0.0001625822769710794,0.008157561533153057
0.009035089984536171,-0.002828835742548108,-0.007190505042672157,0.00700135063380003,-0.0002044472930720076,0.00852277036756277
0.009773173369467258,-0.0030759116634726524,-0.007770026568323374,0.00785143207758665,-0.00020189693896099925,0.007891660556197166
0.009992988780140877,-0.0029873321764171124,-0.007918096147477627,0.008326096460223198,-0.00019364090985618532,0.008073962293565273
0.009371845051646233,-0.0029800431802868843,-0.0071116359904408455,0.007886212319135666,-0.00021786261640954763,0.008351705968379974
0.009819719940423965,-0.002741641830652952,-0.007098974660038948,0.0077845249325037,-0.00021366147848311812,0.008552172221243382
0.00943151954561472,-0.0027254275046288967,-0.007661505602300167,0.008306093513965607,-0.00020580565615091473,0.008502147160470486
0.009195570833981037,-0.0027344566769897938,-0.007630215957760811,0.0077137453481554985,-0.00022907182574272156,0.008145385421812534
0.009195570833981037,-0.0027344566769897938,-0.007630215957760811,0.0077137453481554985,-0.00022907182574272156,0.008145385421812534
0.010636229068040848,-0.0030801298562437296,-0.007513544987887144,0.007347943726927042,-0.00022297378745861351,0.008548502810299397
0.010008307173848152,-0.002858965191990137,-0.007542826700955629,0.007858918979763985,-0.0002154777612304315,0.00905412994325161
0.010853871703147888,-0.0030694613233208656,-0.008288406766951084,0.007766547612845898,-0.000208359255339019,0.008607414551079273
0.010499542579054832,-0.0030032608192414045,-0.008351506665349007,0.007933278568089008,-0.00022301838907878846,0.008411251939833164
0.010315156541764736,-0.002944550011307001,-0.007717951666563749,0.00818855781108141,-0.00022286162129603326,0.008891013450920582
0.010263457894325256,-0.0026653434615582228,-0.007667032070457935,0.008590521290898323,-0.00021659756021108478,0.008555990643799305
0.010359181091189384,-0.002658528508618474,-0.0086365332826972,0.008273563347756863,-0.000210716956644319,0.008433884009718895
0.010257984511554241,-0.002769686747342348,-0.00829955656081438,0.008333015255630016,-0.00030063846497796476,0.008874589577317238
0.011089767329394817,-0.002576677594333887,-0.007682641036808491,0.008110941387712955,-0.00028818982536904514,0.009075487032532692
0.010960063897073269,-0.002468752209097147,-0.008265772834420204,0.008571095764636993,-0.00029766198713332415,0.008780273608863354
0.010924272239208221,-0.0021628800313919783,-0.008318889886140823,0.008629956282675266,-0.0003052082029171288,0.009073309600353241
0.010902357287704945,-0.0022712205536663532,-0.008204294368624687,0.008101711980998516,-0.0003260887460783124,0.009017563425004482
0.01075348537415266,-0.0025490301195532084,-0.008220079354941845,0.008193222805857658,-0.00032077610376290977,0.009292146191000938
0.011236355639994144,-0.0024729177821427584,-0.00855968613177538,0.008539663627743721,-0.00030593405244871974,0.009281289763748646
0.011593958362936974,-0.0025556974578648806,-0.008569981902837753,0.007848910987377167,-0.00032258976716548204,0.00961983297020197
0.011312952265143394,-0.0023279176093637943,-0.00830316822975874,0.007592713460326195,-0.0003180204366799444,0.009604205377399921
0.011086193844676018,-0.002253190614283085,-0.008758594281971455,0.008513941429555416,-0.0003055029665119946,0.009172137826681137
0.011644035577774048,-0.002363257808610797,-0.009247297421097755,0.008427930995821953,-0.0004042060172650963,0.009159095585346222
0.011678652837872505,-0.0025413744151592255,-0.00851681549102068,0.008316883817315102,-0.0003784723812714219,0.009077062830328941
0.011238036677241325,-0.00269013992510736,-0.009311635047197342,0.008903233334422112,-0.00032440375071018934,0.009792870841920376
0.011308500543236732,-0.002647696528583765,-0.008748181164264679,0.00860033743083477,-0.0003025783516932279,0.009814408607780933
0.0112439701333642,-0.002403965452685952,-0.009726724587380886,0.00851728580892086,-0.0002835062041413039,0.00962184090167284
0.011205433867871761,-0.002134741749614477,-0.009742713533341885,0.008916167542338371,-0.00029266130877658725,0.009791780263185501
0.011501847766339779,-0.002105339430272579,-0.0071844132617115974,0.00849838275462389,-0.0003003334568347782,0.009952179156243801
0.011501847766339779,-0.002105339430272579,-0.0071844132617115974,0.00849838275462389,-0.0003003334568347782,0.009952179156243801
0.011043761856853962,-0.0023814383894205093,-0.005201691295951605,0.008152673952281475,-0.00028599012875929475,0.009809843264520168
0.011115815490484238,-0.0027599576860666275,-0.00515325041487813,0.008264347910881042,-0.00029379691113717854,0.009899426251649857
0.011564772576093674,-0.0027606540825217962,-0.007362214848399162,0.00821729376912117,-0.0003002867160830647,0.009938296861946583
0.011201002635061741,-0.002751540392637253,-0.007607311476022005,0.007825925014913082,-0.0002879012899938971,0.010680080391466618
0.011319766752421856,-0.0027211816050112247,-0.006481103599071503,0.007724551949650049,-0.0003120584588032216,0.011446303687989712
0.011020694859325886,-0.0023706224747002125,-0.006509802304208279,0.008425062522292137,-0.0003013891400769353,0.010489357635378838
0.011462181806564331,-0.002516480628401041,-0.006814692169427872,0.008840537630021572,-0.0002958526602014899,0.009812687523663044
0.011726913042366505,-0.002799626439809799,-0.0072335973381996155,0.00880970899015665,-0.00028449748060666025,0.010063592344522476
0.01225113496184349,-0.002632858930155635,-0.0064855292439460754,0.008844928815960884,-0.0003143895009998232,0.010076579637825489
0.011996479704976082,-0.002758841961622238,-0.006107475608587265,0.009794123470783234,-0.0003031078667845577,0.010696941055357456
0.011383786797523499,-0.002667271299287677,-0.006413335911929607,0.009140892885625362,-0.0003319861425552517,0.010772277601063251
0.011719508096575737,-0.002317096572369337,-0.00663605285808444,0.00958575215190649,-0.00031815271358937025,0.010580967180430889
0.012285112403333187,-0.0022295506205409765,-0.006671236362308264,0.009411861188709736,-0.0003405270108487457,0.010872810147702694
0.011968242935836315,-0.002375498181208968,-0.006626901216804981,0.009409921243786812,-0.0003300636599306017,0.010368382558226585
0.012101881206035614,-0.002269708551466465,-0.006873241625726223,0.008518965914845467,-0.0005212309770286083,0.010346938855946064
0.012436894699931145,-0.0022763542365282774,-0.007640663534402847,0.008785600773990154,-0.0005420263623818755,0.010525239631533623
0.012274792417883873,-0.0022109290584921837,-0.007165760267525911,0.009013673290610313,-0.0005332446307875216,0.010795222595334053
0.01209305226802826,-0.0022844725754112005,-0.007342650089412928,0.008765680715441704,-0.0005475376965478063,0.011093121021986008
0.012382641434669495,-0.0020034522749483585,-0.006687436252832413,0.00910903513431549,-0.0005208406946621835,0.01123826578259468
0.012097331695258617,-0.001838561031036079,-0.007641467731446028,0.008427592925727367,-0.00058979622554034,0.011125111021101475
0.012521296739578247,-0.002048575785011053,-0.007157912477850914,0.00827039498835802,-0.0005889567546546459,0.011139820329844952
0.01222861185669899,-0.002089493675157428,-0.007064975332468748,0.009219619445502758,-0.0006224940298125148,0.011212684214115143
0.012517746537923813,-0.0020960806868970394,-0.007574560586363077,0.009575597010552883,-0.0006328039453364909,0.011501338332891464
0.012834110297262669,-0.002301901811733842,-0.008239904418587685,0.00867108628153801,-0.0006569129764102399,0.010845120996236801
0.012866613455116749,-0.0019956370815634727,-0.00835306104272604,0.00925191305577755,-0.0007992521277628839,0.011230544187128544
0.01306702010333538,-0.001815483090467751,-0.0076561435125768185,0.008960096165537834,-0.000938916695304215,0.011062863282859325
0.012868108227849007,-0.0018257382325828075,-0.00820162519812584,0.008701718412339687,-0.0009899669094011188,0.011548100039362907
0.013034038245677948,-0.0018624034710228443,-0.008295996114611626,0.008917562663555145,-0.001377375447191298,0.011401919648051262
0.013034038245677948,-0.0018624034710228443,-0.008295996114611626,0.008917562663555145,-0.001377375447191298,0.011401919648051262
0.012622853741049767,-0.002121329540386796,-0.008238245733082294,0.009368879720568657,-0.001378002343699336,0.01110276859253645
0.013148371130228043,-0.002190894214436412,-0.008819560520350933,0.00854002870619297,-0.0012153364950791001,0.011057528667151928
0.013331908732652664,-0.002084554173052311,-0.008308010175824165,0.009470323100686073,-0.0012620410416275263,0.010403777472674847
0.013331908732652664,-0.002084554173052311,-0.008308010175824165,0.009470323100686073,-0.0012620410416275263,0.010403777472674847
0.013052503578364849,-0.0020082350820302963,-0.00833469070494175,0.008655039593577385,-0.0011282145278528333,0.010779782198369503
0.013240120373666286,-0.0021106828935444355,-0.008964648470282555,0.008483587764203548,-0.0011059511452913284,0.011052344925701618
0.013605507090687752,-0.0019531664438545704,-0.009107783436775208,0.009101752191781998,-0.0011663900222629309,0.01174138579517603
0.013573524542152882,-0.002132479101419449,-0.008694285526871681,0.009541616775095463,-0.001213480019941926,0.011797100305557251
0.013630861416459084,-0.001973608275875449,-0.008738189935684204,0.009496619924902916,-0.001276396564207971,0.011584779247641563
0.01358055043965578,-0.0019662557169795036,-0.009698423556983471,0.009781195782124996,-0.0013221511617302895,0.011466207914054394
0.01365987490862608,-0.0017902094405144453,-0.00831221230328083,0.009576764889061451,-0.0012585301883518696,0.011338644661009312
0.013748234137892723,-0.0017051391769200563,-0.008000385016202927,0.009317856281995773,-0.0011990650091320276,0.011143235489726067
0.01428217627108097,-0.0016758744604885578,-0.009052847512066364,0.010107354260981083,-0.0010360234882682562,0.011855857446789742
0.014202076941728592,-0.0015279216459020972,-0.008716573938727379,0.009863775223493576,-0.0009059572475962341,0.011961620301008224
0.014365384355187416,-0.001587719307281077,-0.00878701452165842,0.009356198832392693,-0.0008045460563153028,0.01178289856761694
0.014853482134640217,-0.0016790843801572919,-0.00925986934453249,0.010401831939816475,-0.0007235537050291896,0.012309753336012363
0.01482287049293518,-0.0017258486477658153,-0.009133792482316494,0.010108180344104767,-0.0006574035505764186,0.01178604643791914
0.014230861328542233,-0.0016134504694491625,-0.00857273954898119,0.009836174547672272,-0.0005203269538469613,0.01177498884499073
0.014153371565043926,-0.001611658837646246,-0.008682583458721638,0.010412958450615406,-0.0004450532142072916,0.011916637420654297
0.014838206581771374,-0.001432211371138692,-0.009300237521529198,0.00949303898960352,-0.00037018785951659083,0.01183027122169733
0.014459437690675259,-0.0014488938031718135,-0.009599710814654827,0.00980666745454073,-0.0003420200082473457,0.010999633930623531
0.014878768473863602,-0.001506245112977922,-0.00935503002256155,0.009763074107468128,-0.00031784441671334207,0.011716639623045921
0.014556917361915112,-0.0016322256997227669,-0.009436012245714664,0.0096014104783535,-0.00034816586412489414,0.012731813825666904
0.015475320629775524,-0.0015510087832808495,-0.009514891542494297,0.010485468432307243,-0.00033365117269568145,0.012793716043233871
0.01527178380638361,-0.0016326048644259572,-0.00988455954939127,0.009730473160743713,-0.00031465853680856526,0.012738414108753204
0.01474040187895298,-0.00168517732527107,-0.009750369004905224,0.009105362929403782,-0.0002973552909679711,0.012921469286084175
0.015575822442770004,-0.0015837153187021613,-0.009115109220147133,0.00959627516567707,-0.0002818328212015331,0.013018488883972168
0.015752021223306656,-0.0015726317651569843,-0.010008684359490871,0.00977837573736906,-0.0002678480523172766,0.01308781560510397
0.01585524156689644,-0.0014698293525725603,-0.010247275233268738,0.00977916270494461,-0.00028658678638748825,0.013357443735003471
0.01585524156689644,-0.0014698293525725603,-0.010247275233268738,0.00977916270494461,-0.00028658678638748825,0.013357443735003471
0.016019204631447792,-0.00138939474709332,-0.009396163746714592,0.01052252110093832,-0.00028355373069643974,0.013247355818748474
0.016162164509296417,-0.001433192053809762,-0.010420220904052258,0.01015746220946312,-0.00027195652364753187,0.013665419071912766
0.016752630472183228,-0.0013374433619901538,-0.009944680146872997,0.009893783368170261,-0.00026074014022015035,0.013057275675237179
0.016302229836583138,-0.0012604004004970193,-0.009589401073753834,0.010492930188775063,-0.00025037815794348717,0.013329686596989632
0.015241101384162903,-0.0011364440433681011,-0.01022019051015377,0.009737037122249603,-0.0002408069121884182,0.01368394773453474
0.01616581156849861,-0.0012133343843743205,-0.010115823708474636,0.009526248089969158,-0.00023194003733806312,0.014018837362527847
0.01630554348230362,-0.00116223213262856,-0.010131453163921833,0.0098831532523036,-0.00022370317310560495,0.013799999840557575
0.016311559826135635,-0.001167006092146039,-0.010635945945978165,0.009687205776572227,-0.00023886859707999974,0.014029201120138168
0.016774795949459076,-0.0012881910661235452,-0.00973612628877163,0.009720948524773121,-0.00023818259069230407,0.013820786029100418
0.0168217234313488,-0.0012263950193300843,-0.010237593203783035,0.01081297267228365,-0.00023101133410818875,0.014376632869243622
0.0170667115598917,-0.0012482935562729836,-0.010827050544321537,0.00921554397791624,-0.00022385855845641345,0.014200064353644848
0.01664264127612114,-0.0012411976931616664,-0.010471942834556103,0.009123078547418118,-0.00021710970031563193,0.014153494499623775
0.017287813127040863,-0.0011777357431128621,-0.010973850265145302,0.01026324462145567,-0.00021075428230687976,0.014185937121510506
0.016954844817519188,-0.0011220526648685336,-0.01042810920625925,0.009875013493001461,-0.0002047601738013327,0.014388330280780792
0.01691247709095478,-0.0010319973807781935,-0.010104736313223839,0.009764480404555798,-0.00019909802358597517,0.014122658409178257
0.01740337908267975,-0.00101282203104347,-0.01095892395824194,0.009973578155040741,-0.00019374002295080572,0.014207450672984123
0.017337225377559662,-0.000961681769695133,-0.010862232185900211,0.009815621189773083,-0.00018866285972762853,0.014578815549612045
0.017434367910027504,-0.0009812633506953716,-0.01111577171832323,0.009811071678996086,-0.00018384553550276905,0.014933214522898197
0.01738857477903366,-0.0009887490887194872,-0.011571669019758701,0.010156129486858845,-0.00017926801228895783,0.014899459667503834
0.017269961535930634,-0.0010084747336804867,-0.010439479723572731,0.010008410550653934,-0.0001572429173393175,0.015028946101665497
0.017658764496445656,-0.0009937438881024718,-0.010820107534527779,0.010957068763673306,-0.0001309884974034503,0.014917129650712013
0.01779552735388279,-0.0011941243428736925,-0.010314160957932472,0.010626113042235374,-0.0001272147783311084,0.015106946229934692
0.017980186268687248,-0.0010307824704796076,-0.01088664773851633,0.010110846720635891,-0.00012371261254884303,0.015445666387677193
0.018025511875748634,-0.0009922265307977796,-0.011175526306033134,0.009946076199412346,-0.0001204021173180081,0.016229158267378807
0.01831316202878952,-0.0008703900966793299,-0.010370058938860893,0.010401222854852676,-0.00011726430238923058,0.01563178561627865
0.01766662299633026,-0.0008724199142307043,-0.010745291598141193,0.010554107837378979,-0.00011428593279561028,0.01431726198643446
0.017711518332362175,-0.000766260433010757,-0.010421577841043472,0.010286078788340092,-0.0001224072912009433,0.014857416041195393
0.01829865202307701,-0.0007798014557920396,-0.010562419891357422,0.009725124575197697,-0.0001297731214435771,0.015126332640647888
0.017956430092453957,-0.0008722724160179496,-0.010739831253886223,0.010324303060770035,-0.00012738507939502597,0.01563205197453499
0.018175248056650162,-0.0008226679055951536,-0.010787355713546276,0.010666719637811184,-0.0001244923478225246,0.015191836282610893
0.018175248056650162,-0.0008226679055951536,-0.010787355713546276,0.010666719637811184,-0.0001244923478225246,0.015191836282610893
0.018062960356473923,-0.0011485691647976637,-0.011404633522033691,0.010178945027291775,-0.00012168965622549877,0.015157093293964863
0.01793002523481846,-0.001071350765414536,-0.01121249608695507,0.011491447687149048,-0.00011900789104402065,0.015201046131551266
0.018563060089945793,-0.0009566452354192734,-0.011063200421631336,0.010564735159277916,-0.00011644169717328623,0.015883879736065865
0.018415765836834908,-0.000934964045882225,-0.010687708854675293,0.010995961725711823,-0.00011398363130865619,0.01620686613023281
0.018452951684594154,-0.0008387592388316989,-0.01062964927405119,0.011795898899435997,-0.00012899147986900061,0.016303474083542824
0.01873210072517395,-0.0007431133999489248,-0.010075601749122143,0.011309386231005192,-0.0001275133981835097,0.016471007838845253
0.018697386607527733,-0.0006371497293002903,-0.011139371432363987,0.011458700522780418,-0.00013831078831572086,0.01644742861390114
0.018857711926102638,-0.0006558765308000147,-0.01122355181723833,0.01141897402703762,-0.00013984378892928362,0.01645536534488201
0.019271884113550186,-0.0005955494125373662,-0.01127326488494873,0.011283905245363712,-0.00013744976604357362,0.01647285185754299
0.01894962415099144,-0.0006150213885121047,-0.011020050384104252,0.011390915140509605,-0.00020255522395018488,0.01688101328909397
0.0188401248306036,-0.0005691933329217136,-0.010512161999940872,0.011107333935797215,-0.00023318179592024535,0.01646064594388008
0.019126255065202713,-0.0005956315435469151,-0.011448529548943043,0.011215542443096638,-0.00023321021581068635,0.016373861581087112
0.01935587264597416,-0.0005537611432373524,-0.01109436433762312,0.011646738275885582,-0.00024246727116405964,0.016605563461780548
0.01953199878334999,-0.000546966795809567,-0.010769831947982311,0.010865239426493645,-0.0002499265829101205,0.016309348866343498
0.020102066919207573,-0.0004883872461505234,-0.011336988769471645,0.01132646668702364,-0.0002669784298632294,0.01645989529788494
0.01953994669020176,-0.0005273576825857162,-0.010859091766178608,0.011388866230845451,-0.0002652640105225146,0.016733814030885696
0.019344698637723923,-0.00048149339272640646,-0.010954385623335838,0.011086760088801384,-0.0002570987562648952,0.0170223917812109
0.019129261374473572,-0.0004420763871166855,-0.012096626684069633,0.01161238458007574,-0.0005032697808928788,0.016841884702444077
0.01930847018957138,-0.00047387240920215845,-0.011399997398257256,0.011228892020881176,-0.0005375733599066734,0.01683815009891987
0.01984129473567009,-0.00045271756243892014,-0.01153833419084549,0.011527775786817074,-0.0005336178583092988,0.01652578078210354
0.01984356716275215,-0.00044373326818458736,-0.01099114865064621,0.011216855607926846,-0.0005004151025786996,0.01689586602151394
0.019067879766225815,-0.0004182090051472187,-0.011008665896952152,0.01196102611720562,-0.0004641263803932816,0.017012320458889008
0.020161766558885574,-0.00040798052214086056,-0.010714538395404816,0.011226112022995949,-0.00048564065946266055,0.017969990149140358
0.020464543253183365,-0.00037607739795930684,-0.011877832002937794,0.011323770508170128,-0.0004617650993168354,0.016979670152068138
0.020242145285010338,-0.0003470899537205696,-0.012190096080303192,0.01132140401750803,-0.00046645369729958475,0.016671031713485718
0.01982465758919716,-0.0003222304512746632,-0.010618967935442924,0.011255988851189613,-0.0004521288792602718,0.016731051728129387
0.020379457622766495,-0.0003006940532941371,-0.01170563604682684,0.011859612539410591,-0.000489400583319366,0.017349431291222572
0.019675089046359062,-0.00028185572591610253,-0.011260250583291054,0.011233754456043243,-0.00045341733493842185,0.01753648743033409
0.01958220638334751,-0.00026524069835431874,-0.011430648155510426,0.01190958358347416,-0.00045237349695526063,0.01815757341682911
0.0200810544192791,-0.00025047504459507763,-0.01166221871972084,0.011560508981347084,-0.00045085998135618865,0.01792004145681858
0.0200810544192791,-0.00025047504459507763,-0.01166221871972084,0.011560508981347084,-0.00045085998135618865,0.01792004145681858
0.020259229466319084,-0.0002372673334321007,-0.011415407061576843,0.011170238256454468,-0.0004226237069815397,0.0182009506970644
0.019439032301306725,-0.00022538297343999147,-0.012028521858155727,0.011288471519947052,-0.0004488190752454102,0.017594531178474426
0.02114047110080719,-0.0002146314800484106,-0.011021111160516739,0.011190650053322315,-0.00042571386438794434,0.017076071351766586
0.020835693925619125,-0.00020486062567215413,-0.011381576769053936,0.011492799036204815,-0.0004021523054689169,0.01774292252957821
0.020290646702051163,-0.00019594001059886068,-0.011275157332420349,0.011679751798510551,-0.0004347930080257356,0.01849132403731346
0.019904514774680138,-0.00018776385695673525,-0.010889100842177868,0.011777211911976337,-0.0004436614690348506,0.018856463953852654
0.020531488582491875,-0.00018024274322669953,-0.011631691828370094,0.011571899056434631,-0.000443280820036307,0.018849007785320282
0.02054082788527012,-0.0001733009412419051,-0.01155143789947033,0.01114815566688776,-0.0004118177748750895,0.018123989924788475
0.020452087745070457,-0.0001668743643676862,-0.011458604596555233,0.011355157941579819,-0.0003827603068202734,0.018546052277088165
0.020807186141610146,-0.00016090727876871824,-0.011374915018677711,0.011536364443600178,-0.00040889266529120505,0.018267342820763588
0.02092934586107731,-0.0001553519832668826,-0.011115326546132565,0.010885844007134438,-0.0003905628400389105,0.018185941502451897
0.021008094772696495,-0.00015016774705145508,-0.011683962307870388,0.011754215694963932,-0.0004069417482241988,0.018287358805537224
0.020929081365466118,-0.00014531824854202569,-0.011277816258370876,0.01166427880525589,-0.0003966708027292043,0.018539700657129288
0.021110674366354942,-0.0001407723466400057,-0.011011886410415173,0.011999222449958324,-0.00037901283940300345,0.018152887001633644
0.020913422107696533,-9.16415301617235e-05,-0.011576506309211254,0.01197860948741436,-0.00041416287422180176,0.017650296911597252
0.020884592086076736,-7.969290163600817e-05,-0.011994285508990288,0.012040466070175171,-0.0004397170268930495,0.018044263124465942
0.021305037662386894,7.127002027118579e-05,-0.011978382244706154,0.011960671283304691,-0.00042297845357097685,0.018528152257204056
0.021695243194699287,7.046418613754213e-05,-0.011760657653212547,0.011887078173458576,-0.00044991783215664327,0.01952049322426319
0.021334975957870483,4.5571327063953504e-05,-0.012000246904790401,0.012113351374864578,-0.00042719062184914947,0.019096728414297104
0.021178996190428734,3.284230115241371e-05,-0.01189284585416317,0.011959531344473362,-0.00040052816621027887,0.01934150978922844
0.021844936534762383,0.00010868874960578978,-0.012417747639119625,0.012135222554206848,-0.00040564523078501225,0.01840299740433693
0.021727154031395912,0.0001296819536946714,-0.01220504380762577,0.011667772196233273,-0.0004382536862976849,0.019173461943864822
0.021957505494356155,0.00011377329792594537,-0.012173841707408428,0.012127564288675785,-0.00044726539636030793,0.020089078694581985
0.021889889612793922,0.00010100234067067504,-0.012260512448847294,0.01223672740161419,-0.0004860858025494963,0.01963677816092968
0.02217896096408367,9.080601739697158e-05,-0.01236251275986433,0.012521898373961449,-0.0004506839904934168,0.019461043179035187
0.022232329472899437,8.24801463750191e-05,-0.012423121370375156,0.012623138725757599,-0.00048072333447635174,0.019755203276872635
0.022406943142414093,7.555336196674034e-05,-0.012141482904553413,0.01237571332603693,-0.0004978918586857617,0.019421888515353203
0.02246912010014057,6.970056710997596e-05,-0.01250228751450777,0.012790453620254993,-0.0004829782119486481,0.019424403086304665
0.022681113332509995,6.468941865023226e-05,-0.01229583378881216,0.012194621376693249,-0.0006196027970872819,0.019679876044392586
0.02264176309108734,0.00011819545034086332,-0.012586405500769615,0.012629803270101547,-0.0005563285667449236,0.019032392650842667
0.02264176309108734,0.00011819545034086332,-0.012586405500769615,0.012629803270101547,-0.0005563285667449236,0.019032392650842667
0.02276483178138733,0.00011308104876661673,-0.012433983385562897,0.012165447697043419,-0.000568152405321598,0.018719078972935677
0.022816861048340797,0.00010642541019478813,-0.01216774620115757,0.011908887885510921,-0.0005341407377272844,0.019115375354886055
0.023350059986114502,0.00010048373223980889,-0.012727675028145313,0.012195904739201069,-0.00048734276788309216,0.019482111558318138
0.023625066503882408,9.51702895690687e-05,-0.012564243748784065,0.012204513885080814,-0.0004470499115996063,0.01992718130350113
0.02380550466477871,9.039066208060831e-05,-0.014239851385354996,0.012461639009416103,-0.0004722234152723104,0.0200041551142931
0.023370785638689995,8.606814662925899e-05,-0.013859656639397144,0.01232951506972313,-0.00044680602150037885,0.01973186433315277
0.022900527343153954,0.00012153394345659763,-0.013852961361408234,0.01293260883539915,-0.00047319786972366273,0.019499419257044792
0.02341141737997532,0.00011781050125136971,-0.013253719545900822,0.013251732103526592,-0.00044743422768078744,0.019819077104330063
0.0242014080286026,0.00011290493421256542,-0.013996022753417492,0.01350919809192419,-0.0004154324997216463,0.02069105952978134
0.024037230759859085,0.00010837351874215528,-0.013709126971662045,0.01303136721253395,-0.0003771226911339909,0.020461346954107285
0.024343175813555717,0.00010419120371807367,-0.014224881306290627,0.013055884279310703,-0.00034772668732330203,0.020340805873274803
0.024377603083848953,0.00013329384091775864,-0.014099907130002975,0.013109339401125908,-0.00037019120645709336,0.020070578902959824
0.02435995824635029,0.00012896159023512155,-0.014166665263473988,0.012491926550865173,-0.0003602478245738894,0.01956937275826931
0.024483805522322655,0.00012450704525690526,-0.014191901311278343,0.013511338271200657,-0.0003801693383138627,0.02071983553469181
0.024640491232275963,0.00012034511746605858,-0.014694998040795326,0.012987500056624413,-0.000370827125152573,0.020489417016506195
0.02433147095143795,0.00011645201448118314,-0.014306546188890934,0.01320694014430046,-0.000387981825042516,0.020988939329981804
0.025340188294649124,0.0001625016302568838,-0.014082634821534157,0.013590293005108833,-0.00045562448212876916,0.020885758101940155
0.024586286395788193,0.00015890462964307517,-0.01427550334483385,0.01290835440158844,-0.0004861322231590748,0.021098122000694275
0.0245232954621315,0.00015351247566286474,-0.014299888163805008,0.012638399377465248,-0.00048346485709771514,0.02152031473815441
0.024776332080364227,0.00014844848192296922,-0.014485999941825867,0.013186070136725903,-0.000500732334330678,0.021122941747307777
0.025269154459238052,0.00014370754070114344,-0.014232741668820381,0.012445027008652687,-0.0004796704452019185,0.021431930363178253
0.025342749431729317,0.00016383510956075042,-0.014433584176003933,0.0133869219571352,-0.0005060999537818134,0.021160343661904335
0.025212528184056282,0.0001620518451090902,-0.013894605450332165,0.013870535418391228,-0.0006811320781707764,0.020570551976561546
0.025330979377031326,0.0001573713234392926,-0.013833782635629177,0.01401971373707056,-0.0007098604692146182,0.021416878327727318
0.02532615326344967,0.0001529153814772144,-0.014486128464341164,0.013406465761363506,-0.0006534034619107842,0.022656412795186043
0.02550218626856804,0.00017249071970582008,-0.014426454901695251,0.013771731406450272,-0.0006748074083589017,0.022791137918829918
0.02550218626856804,0.00017249071970582008,-0.014426454901695251,0.013771731406450272,-0.0006748074083589017,0.022791137918829918
0.025861961767077446,0.00016882544150575995,-0.014815454371273518,0.013732556253671646,-0.0006148925167508423,0.022279543802142143
0.02526405267417431,0.00016443202912341803,-0.01450684480369091,0.01422290038317442,-0.000634848780464381,0.021532077342271805
0.025684980675578117,0.00016024966316763312,-0.014694931916892529,0.013482563197612762,-0.0005878507508896291,0.021451374515891075
0.025803230702877045,0.0001782922336133197,-0.015060518868267536,0.013694992288947105,-0.0005831942544318736,0.022174086421728134
0.026233550161123276,0.0001742721942719072,-0.01473351288586855,0.0133015476167202,-0.0006133345304988325,0.022623199969530106
0.026194781064987183,0.00027120523736812174,-0.015092755667865276,0.013894297182559967,-0.0006306684808805585,0.022232482209801674
0.02625768817961216,0.00031536081223748624,-0.015067264437675476,0.013627903535962105,-0.0006341127445921302,0.021989010274410248
0.026418544352054596,0.0003037513233721256,-0.014911445789039135,0.01389872282743454,-0.0006181355565786362,0.02193884551525116
0.026392647996544838,0.00032988746534101665,-0.014699648134410381,0.01361442543566227,-0.0005715539446100593,0.02184758335351944
0.02617478184401989,0.0003185440436936915,-0.014885428361594677,0.013787852600216866,-0.0006493037799373269,0.02171042002737522
0.026420295238494873,0.0003032793465536088,-0.01489293109625578,0.013734523206949234,-0.0006854814710095525,0.022137625142931938
0.02663930505514145,0.0003301044343970716,-0.015972524881362915,0.01369402650743723,-0.0006970162503421307,0.021224230527877808
0.02619030699133873,0.0003165339585393667,-0.015001464635133743,0.013622484169900417,-0.0006492387037724257,0.02169206738471985
0.026509229093790054,0.0005189557559788227,-0.01542855054140091,0.013396570459008217,-0.0006681722588837147,0.02215234749019146
0.026716239750385284,0.0005578150157816708,-0.014455084688961506,0.013634606264531612,-0.0006161493947729468,0.022382929921150208
0.027562353760004044,0.0005331732099875808,-0.01472406554967165,0.01398397795855999,-0.0006455288967117667,0.022510485723614693
0.026714716106653214,0.0004993978072889149,-0.015524550341069698,0.01380187552422285,-0.0006746362196281552,0.02232806198298931
0.02704537659883499,0.000462815398350358,-0.014906441792845726,0.01405793335288763,-0.0006530674290843308,0.02267107553780079
0.028275057673454285,0.000490166712552309,-0.015868842601776123,0.013928518630564213,-0.0006733916816301644,0.022541603073477745
0.027459658682346344,0.0005289140390232205,-0.015288423746824265,0.014475571922957897,-0.0008400526130571961,0.022699842229485512
0.0279230959713459,0.0005704194772988558,-0.015500739216804504,0.014679806306958199,-0.0008454094058834016,0.022801531478762627
0.028310535475611687,0.0005446419236250222,-0.01568770222365856,0.014588120393455029,-0.0007606811122968793,0.02263619564473629
0.02854466252028942,0.0005764116067439318,-0.01598791591823101,0.013721275143325329,-0.0007717075059190392,0.022997302934527397
0.028384706005454063,0.0006014947430230677,-0.015881365165114403,0.013975230976939201,-0.0007928732084110379,0.02339497208595276
0.027391593903303146,0.0008283646893687546,-0.01585574634373188,0.013625869527459145,-0.0008587164920754731,0.023446835577487946
0.027448736131191254,0.000858158222399652,-0.01622561365365982,0.014076605439186096,-0.0008041586261242628,0.02361915446817875
0.028377534821629524,0.0008355895988643169,-0.015510891564190388,0.013662630692124367,-0.0008045125869102776,0.02344280667603016
0.028377534821629524,0.0008355895988643169,-0.015510891564190388,0.013662630692124367,-0.0008045125869102776,0.02344280667603016
0.02859904058277607,0.0007716297986917198,-0.01655031368136406,0.01405265275388956,-0.0007255938835442066,0.02330944314599037
0.02849205955862999,0.0007818905869498849,-0.015398877672851086,0.013528319075703621,-0.0006513619446195662,0.023647813126444817
0.028387973085045815,0.0008150370558723807,-0.017538029700517654,0.014018691144883633,-0.000668556138407439,0.023696456104516983
0.028606407344341278,0.0008378273923881352,-0.015187589451670647,0.013756340369582176,-0.0006163790239952505,0.023727988824248314
0.028922993689775467,0.000928565685171634,-0.015789931640028954,0.014309550635516644,-0.0005664323689416051,0.023753667250275612
0.028739381581544876,0.0011138716945424676,-0.01717291958630085,0.013933293521404266,-0.0005787225090898573,0.025178121402859688
0.028826048597693443,0.0013098689960315824,-0.016387231647968292,0.014151920564472675,-0.0005868905573152006,0.02374855801463127
0.029156750068068504,0.0012441312428563833,-0.016442354768514633,0.014438045211136341,-0.0005742539651691914,0.023613998666405678
0.02942664548754692,0.0012724456610158086,-0.01630944013595581,0.015372643247246742,-0.0005938480608165264,0.02408597059547901
0.029938438907265663,0.0013919421471655369,-0.017155416309833527,0.014559908770024776,-0.0006659950013272464,0.024606889113783836
0.029709769412875175,0.0013458848698064685,-0.016466394066810608,0.014726337976753712,-0.0007694363594055176,0.02551918290555477
0.029366284608840942,0.0013090841239318252,-0.016301900148391724,0.014340894296765327,-0.0007617989322170615,0.025747094303369522
0.029964489862322807,0.0014186908956617117,-0.01648166961967945,0.014931083656847477,-0.0007262701983563602,0.02514307014644146
0.029900962486863136,0.0013537014601752162,-0.016468508169054985,0.014234896749258041,-0.0007408746751025319,0.023863159120082855
0.030221065506339073,0.00159572740085423,-0.016536474227905273,0.013840426690876484,-0.0008349480340257287,0.02456754818558693
0.030221065506339073,0.00159572740085423,-0.016536474227905273,0.013840426690876484,-0.0008349480340257287,0.02456754818558693
0.030058346688747406,0.0015593766001984477,-0.017148779705166817,0.0143089909106493,-0.0007422516355291009,0.0251066405326128
0.03076237253844738,0.0014442226383835077,-0.017121845856308937,0.014857964590191841,-0.0006859779241494834,0.025134680792689323
0.030416101217269897,0.0015043321764096618,-0.01727345399558544,0.014522257260978222,-0.0006962233455851674,0.02524276077747345
0.030582305043935776,0.0015731374733150005,-0.01640898548066616,0.0150841623544693,-0.0006495067500509322,0.0254987683147192
0.030653519555926323,0.001892907777801156,-0.017260434105992317,0.014732140116393566,-0.0005986964097246528,0.024812249466776848
0.0303216390311718,0.0018867634935304523,-0.016800375655293465,0.015430658124387264,-0.000621416955254972,0.024753428995609283
0.029684729874134064,0.0022303529549390078,-0.01714649237692356,0.015596769750118256,-0.0006499808514490724,0.02491763047873974
0.031219488009810448,0.0020346709061414003,-0.017555389553308487,0.015876952558755875,-0.0006627013790421188,0.025726081803441048
0.03141680359840393,0.0021356528159230947,-0.017049426212906837,0.01524540688842535,-0.0007533678435720503,0.026141341775655746
0.03108743205666542,0.0020339032635092735,-0.017115149646997452,0.015478760004043579,-0.0008611840894445777,0.025776332244277
0.030629120767116547,0.0022206795401871204,-0.01683397777378559,0.01494465209543705,-0.0008724983781576157,0.025270260870456696
0.030629120767116547,0.0022206795401871204,-0.01683397777378559,0.01494465209543705,-0.0008724983781576157,0.025270260870456696
0.02981867641210556,0.0022890593390911818,-0.017203180119395256,0.01503557525575161,-0.0008480654214508832,0.02543877437710762
0.031047580763697624,0.0022659944370388985,-0.01732013002038002,0.015221008099615574,-0.0008036733488552272,0.02664535865187645
0.0317329503595829,0.002645990112796426,-0.01708308793604374,0.01542530208826065,-0.0008274810970760882,0.025629404932260513
0.03116886131465435,0.0025628285948187113,-0.017570532858371735,0.015959572046995163,-0.0008017217041924596,0.0258324071764946
0.03242887184023857,0.0024446225725114346,-0.017574172466993332,0.016716420650482178,-0.0007530130678787827,0.025831088423728943
0.03203614056110382,0.0023651383817195892,-0.017690544947981834,0.015790363773703575,-0.0007449674885720015,0.026200400665402412
0.031221166253089905,0.002438419032841921,-0.017390968278050423,0.014932575635612011,-0.0007602876867167652,0.026463154703378677
0.030847180634737015,0.002351523609831929,-0.017197398468852043,0.016025571152567863,-0.0007646253216080368,0.026345182210206985
0.03141669183969498,0.0028024064376950264,-0.017841022461652756,0.015640495344996452,-0.0008034136844798923,0.026482049375772476
0.03207824379205704,0.0034776595421135426,-0.0173907820135355,0.016497286036610603,-0.0008177910931408405,0.02660553529858589
0.032275065779685974,0.003363471245393157,-0.017606105655431747,0.015997326001524925,-0.0008277729502879083,0.026652134954929352
0.032179106026887894,0.0034954524599015713,-0.018313851207494736,0.015901809558272362,-0.0008945359149947762,0.026668647304177284
0.03289045765995979,0.0032662483863532543,-0.01848127506673336,0.016103211790323257,-0.0009334087371826172,0.026837773621082306
0.03242545947432518,0.003615620080381632,-0.018414637073874474,0.016067935153841972,-0.0008622502209618688,0.026719320565462112
0.03233690187335014,0.0032699627336114645,-0.01821928657591343,0.015921544283628464,-0.0008381420630030334,0.02727384679019451
0.03233185037970543,0.0034671977628022432,-0.017979782074689865,0.016290822997689247,-0.0007733821985311806,0.028044408187270164
0.032316435128450394,0.003414582461118698,-0.017845332622528076,0.016259636729955673,-0.0007208904135040939,0.02670798823237419
0.032316435128450394,0.003414582461118698,-0.017845332622528076,0.016259636729955673,-0.0007208904135040939,0.02670798823237419
0.032857250422239304,0.0038672981318086386,-0.018755782395601273,0.0162399560213089,-0.0006348274764604867,0.026927800849080086
0.03126269951462746,0.0038845452945679426,-0.018741432577371597,0.015959257259964943,-0.0005900371470488608,0.027655230835080147
0.033677998930215836,0.0035679659340530634,-0.01856115087866783,0.016198942437767982,-0.0006098015001043677,0.02732141502201557
0.03326532989740372,0.0035454677417874336,-0.018390893936157227,0.01616554893553257,-0.0005655011627823114,0.02723066322505474
0.03282886743545532,0.003655263688415289,-0.018028372898697853,0.016504984349012375,-0.0005835151532664895,0.02821398340165615
0.03269149735569954,0.003950359765440226,-0.019461793825030327,0.015866579487919807,-0.0005478436942212284,0.02765125408768654
0.03284430876374245,0.003961686510592699,-0.019209735095500946,0.016028089448809624,-0.0005334408488124609,0.026980170980095863
0.03500556945800781,0.004459755029529333,-0.01831958256661892,0.015739670023322105,-0.0005282475030981004,0.027140310034155846
0.034802086651325226,0.004192220978438854,-0.019449284300208092,0.015901733189821243,-0.0005194054101593792,0.026706106960773468
0.034802086651325226,0.004192220978438854,-0.019449284300208092,0.015901733189821243,-0.0005194054101593792,0.026706106960773468
0.03234536200761795,0.004308792762458324,-0.019068283960223198,0.016116829589009285,-0.0005447376752272248,0.027445940300822258
0.032398078590631485,0.004244174808263779,-0.018251432105898857,0.016176624223589897,-0.0005730211269110441,0.02799328789114952
0.03390991687774658,0.0044953590258955956,-0.0188081506639719,0.0164450965821743,-0.000657759141176939,0.028112245723605156
0.033911820501089096,0.0044470736756920815,-0.019360391423106194,0.016168400645256042,-0.0006725717103108764,0.02804165706038475
0.034791864454746246,0.004669631365686655,-0.019018571823835373,0.016859205439686775,-0.0006774991634301841,0.028073037043213844
0.03473493829369545,0.004717228002846241,-0.019590353593230247,0.016612431034445763,-0.0006757089286111295,0.02801843173801899
0.03416462987661362,0.004850709345191717,-0.01974024623632431,0.016826124861836433,-0.0006973119452595711,0.027959372848272324
0.033711936324834824,0.004690887872129679,-0.01894717663526535,0.016580455005168915,-0.0006830352358520031,0.028072718530893326
0.03459334746003151,0.004816348664462566,-0.0197809636592865,0.016609130427241325,-0.0007911893189884722,0.028216315433382988
0.035581864416599274,0.004852771293371916,-0.019962241873145103,0.01689908094704151,-0.0007514501339755952,0.028712503612041473
0.03519429266452789,0.0047575184144079685,-0.01887255720794201,0.016497604548931122,-0.0007164959097281098,0.028658611699938774
0.034522391855716705,0.0047319079749286175,-0.019455889239907265,0.016888849437236786,-0.0006858468404971063,0.028501689434051514
0.034818388521671295,0.0046969084069132805,-0.019803818315267563,0.016713092103600502,-0.0006976425647735596,0.028796078637242317
0.03529534116387367,0.004604687448590994,-0.01934872753918171,0.0167110413312912,-0.0007163057452999055,0.028623199090361595
0.03495025262236595,0.004616136197000742,-0.01984531618654728,0.016845757141709328,-0.0007047575199976563,0.029052812606096268
0.03632102906703949,0.004753773100674152,-0.020270030945539474,0.016939105466008186,-0.0006729060551151633,0.028981870040297508
0.03600335866212845,0.0054207355715334415,-0.0198154728859663,0.01694287359714508,-0.0006966242799535394,0.029440157115459442
0.036363668739795685,0.005303511396050453,-0.020462222397327423,0.017219165340065956,-0.0006543414201587439,0.029855959117412567
0.03627360984683037,0.005052407272160053,-0.020020632073283195,0.01713894121348858,-0.0006543080671690404,0.029464740306138992
0.036839812994003296,0.005470932926982641,-0.019678805023431778,0.016904599964618683,-0.0006170099950395525,0.029514865949749947
0.03635593503713608,0.005782389547675848,-0.020041989162564278,0.017112726345658302,-0.0006391676724888384,0.029933560639619827
0.03624025732278824,0.005527133587747812,-0.02026667259633541,0.017010219395160675,-0.0006666093249805272,0.030079539865255356
0.03640012443065643,0.00565878814086318,-0.019670573994517326,0.017528638243675232,-0.0006780026014894247,0.030038313940167427
0.0369173102080822,0.00549987331032753,-0.020236216485500336,0.018135638907551765,-0.0007369062514044344,0.03030560538172722
0.037308987230062485,0.00564587814733386,-0.0203064177185297,0.017630713060498238,-0.0007880412158556283,0.030400317162275314
0.03723454847931862,0.005569285713136196,-0.01980876922607422,0.0177611131221056,-0.000745840894524008,0.03053530864417553
0.03745464235544205,0.005768288392573595,-0.02001548931002617,0.017006417736411095,-0.0007607570732943714,0.030936434864997864
0.03745464235544205,0.005768288392573595,-0.02001548931002617,0.017006417736411095,-0.0007607570732943714,0.030936434864997864
0.0378081239759922,0.005983889568597078,-0.020312564447522163,0.017639929428696632,-0.0007690077763982117,0.029711652547121048
0.03775542229413986,0.005632759537547827,-0.02033727429807186,0.0168627817183733,-0.0007054319139569998,0.03049531765282154
0.03759213164448738,0.005522397346794605,-0.020097769796848297,0.01656637154519558,-0.0007293621310964227,0.031858209520578384
0.03911469131708145,0.005662263836711645,-0.020354343578219414,0.017535697668790817,-0.0007515900069847703,0.030841121450066566
0.039912011474370956,0.00597728556022048,-0.02052306942641735,0.018111269921064377,-0.0007273475057445467,0.029621081426739693
0.03573402389883995,0.005940678529441357,-0.020125800743699074,0.018214505165815353,-0.0006958101876080036,0.030593203380703926
0.03844035416841507,0.005715867038816214,-0.020396769046783447,0.018228238448500633,-0.0007128681754693389,0.030947081744670868
0.03927287459373474,0.005132194142788649,-0.021167054772377014,0.017685484141111374,-0.0007723196758888662,0.030678123235702515
0.03921433165669441,0.003972697537392378,-0.021366983652114868,0.018814554437994957,-0.0008033220656216145,0.032165881246328354
0.0405958816409111,0.0032102507539093494,-0.02086872234940529,0.018833383917808533,-0.0007932904409244657,0.03214193880558014
0.03958945721387863,0.003377745859324932,-0.02107906900346279,0.017919449135661125,-0.000728188781067729,0.030499279499053955
0.038073085248470306,0.003903017146512866,-0.021411385387182236,0.018262481316924095,-0.0006542341434396803,0.029886722564697266
0.03962821140885353,0.0049124606885015965,-0.02127169445157051,0.01749260537326336,-0.0006712573231197894,0.0312662310898304
0.04001077264547348,0.00478781433776021,-0.02132461778819561,0.017585627734661102,-0.0006481701275333762,0.03217145428061485
0.03994717076420784,0.004342131782323122,-0.021547628566622734,0.018014097586274147,-0.0005933562642894685,0.0323917418718338
0.039497531950473785,0.004122103564441204,-0.021567536517977715,0.017765263095498085,-0.00062334886752069,0.03201770409941673
0.039467208087444305,0.0044135539792478085,-0.020601434633135796,0.018326643854379654,-0.0006098565645515919,0.03193177282810211
0.04016268625855446,0.004068237263709307,-0.022164713591337204,0.01734369434416294,-0.0005448537413030863,0.03230981528759003
0.0400138720870018,0.004141554236412048,-0.022440357133746147,0.017466174438595772,-0.0005016042268835008,0.03216160461306572
0.03994891047477722,0.003988535143435001,-0.021269619464874268,0.017444079741835594,-0.000526288989931345,0.03226695954799652
0.040187571197748184,0.003739244770258665,-0.021724550053477287,0.017827000468969345,-0.0004941720981150866,0.0323060005903244
0.04052477702498436,0.0036126109771430492,-0.0225114356726408,0.01809684745967388,-0.0004838299355469644,0.032251693308353424
0.03891811892390251,0.0036626451183110476,-0.022320087999105453,0.018000604584813118,-0.00048382734530605376,0.032427702099084854
0.04027843475341797,0.0037205221597105265,-0.021676108241081238,0.018424583598971367,-0.0004795827262569219,0.032230887562036514
0.04234892874956131,0.0037152613513171673,-0.02141721174120903,0.018178284168243408,-0.0005470485775731504,0.03260336071252823
