davideferrari95/blind_handover_controller/data/Test 157 - [2024-02-08 -- 11-00-44]/joint_states_data.csv
shoulder_pan_joint,shoulder_lift_joint,elbow_joint,wrist_1_joint,wrist_2_joint,wrist_3_joint
-0.007181735243648291,-0.025522826239466667,-0.006946919020265341,0.031079815700650215,7.016817890404413e-32,-0.005050784442573786
-0.006470771040767431,-0.025237156078219414,-0.0071038189344108105,0.031500935554504395,4.581480783464219e-33,-0.0055401078425347805
-0.006575679872184992,-0.025164466351270676,-0.006547963246703148,0.03136586770415306,2.9913796568733257e-34,-0.005756438244134188
-0.006575679872184992,-0.025164466351270676,-0.006547963246703148,0.03136586770415306,2.9913796568733257e-34,-0.005756438244134188
-0.0069199735298752785,-0.025051159784197807,-0.006603827700018883,0.031685300171375275,1.9531571887951943e-35,-0.005862325895577669
-0.006669328548014164,-0.02494332380592823,-0.007255856413394213,0.03178722411394119,1.275272003102114e-36,-0.005412829574197531
-0.006142932455986738,-0.02562960982322693,-0.007123578805476427,0.031023826450109482,8.326615247468723e-38,-0.005546371918171644
-0.006295264232903719,-0.026059642434120178,-0.006931031588464975,0.030933771282434464,5.4366849143672804e-39,-0.00532993720844388
-0.006931450217962265,-0.026016900315880775,-0.006938466802239418,0.03206825628876686,3.5497692698276266e-40,-0.005397038999944925
-0.006308989133685827,-0.02581978030502796,-0.00733960373327136,0.03282458335161209,2.3177476599932474e-41,-0.005595081020146608
-0.006117461249232292,-0.024662239477038383,-0.0074743833392858505,0.031484972685575485,1.5134023414708024e-42,-0.006260395050048828
-0.005878044757992029,-0.024771282449364662,-0.007004498969763517,0.030156470835208893,9.949219096706201e-44,-0.0050332504324615
-0.005793385207653046,-0.025524334982037544,-0.0073843481950461864,0.030668577179312706,7.006492321624085e-45,-0.005156501661986113
-0.006305580493062735,-0.025192581117153168,-0.007827408611774445,0.031596630811691284,0.0,-0.005636459682136774
-0.0061894129030406475,-0.025673262774944305,-0.007745084352791309,0.030975738540291786,0.0,-0.005652235355228186
-0.00673728808760643,-0.02534305863082409,-0.006833527237176895,0.031659211963415146,0.0,-0.005853407550603151
-0.005410725716501474,-0.025565873831510544,-0.00750339962542057,0.03132495656609535,0.0,-0.0051730964332818985
-0.006380101665854454,-0.024944940581917763,-0.008265981450676918,0.029981056228280067,0.0,-0.005234078504145145
-0.006780765485018492,-0.024578792974352837,-0.007221712730824947,0.029879219830036163,0.0,-0.0056017376482486725
-0.006202340126037598,-0.025077421218156815,-0.006897370330989361,0.030745813623070717,0.0,-0.00540919229388237
-0.005869995802640915,-0.025612838566303253,-0.007269937079399824,0.030897125601768494,0.0,-0.005260542035102844
-0.00621455954387784,-0.025668861344456673,-0.00826958380639553,0.030813002958893776,0.0,-0.005306464619934559
-0.00624092947691679,-0.025659719482064247,-0.007887803949415684,0.03059305250644684,0.0,-0.005180214997380972
-0.006347012240439653,-0.025972938165068626,-0.007754783146083355,0.03095737285912037,0.0,-0.005424364935606718
-0.006310646887868643,-0.025459954515099525,-0.00804964266717434,0.030997488647699356,0.0,-0.0051657892763614655
-0.005893405061215162,-0.025300733745098114,-0.00786606129258871,0.03145311027765274,0.0,-0.005735314916819334
-0.005893405061215162,-0.025300733745098114,-0.00786606129258871,0.03145311027765274,0.0,-0.005735314916819334
-0.0063136569224298,-0.025303471833467484,-0.007569851353764534,0.031059274449944496,0.0,-0.005430696066468954
-0.006009827367961407,-0.025437558069825172,-0.00807142537087202,0.031078726053237915,0.0,-0.005199942272156477
-0.005885167513042688,-0.025536052882671356,-0.007951272651553154,0.03086373396217823,0.0,-0.005863572470843792
-0.005938622169196606,-0.025344975292682648,-0.007680166978389025,0.031126923859119415,0.0,-0.006127947475761175
-0.005768431816250086,-0.0254898052662611,-0.007458112668246031,0.03110009990632534,0.0,-0.005697137676179409
-0.006179677322506905,-0.025358449667692184,-0.007642673794180155,0.030801113694906235,0.0,-0.005436846520751715
-0.005992137361317873,-0.025625361129641533,-0.00799882784485817,0.03063446842133999,0.0,-0.005464681424200535
-0.005878572352230549,-0.025927329435944557,-0.007961942814290524,0.030594460666179657,0.0,-0.005546075291931629
-0.00615950021892786,-0.0252617746591568,-0.007623129524290562,0.030611813068389893,0.0,-0.005531997885555029
-0.005914481356739998,-0.024731028825044632,-0.007567326072603464,0.030767476186156273,0.0,-0.005409924313426018
-0.006255466025322676,-0.02527591958642006,-0.008163373917341232,0.030082475394010544,0.0,-0.005734552163630724
-0.006336945574730635,-0.025884151458740234,-0.007955415174365044,0.029979031533002853,0.0,-0.005756698083132505
-0.0060604591853916645,-0.025461191311478615,-0.00742170587182045,0.029800089076161385,0.0,-0.005830409470945597
-0.006369343027472496,-0.024844197556376457,-0.007643071003258228,0.029601925984025,0.0,-0.005348366219550371
-0.005615653470158577,-0.024980124086141586,-0.008760443888604641,0.02909177914261818,0.0,-0.005177073180675507
-0.005929474253207445,-0.02513272874057293,-0.008566088043153286,0.029249917715787888,0.0,-0.005174380727112293
-0.005531114526093006,-0.025618191808462143,-0.007900437340140343,0.02933231182396412,0.0,-0.005738303065299988
-0.005355299916118383,-0.024133631959557533,-0.008241157978773117,0.029317695647478104,0.0,-0.0054560196585953236
-0.006008314434438944,-0.025387145578861237,-0.008255931548774242,0.030649354681372643,0.0,-0.005411836318671703
-0.0056373500265181065,-0.024764802306890488,-0.008232617750763893,0.030230427160859108,0.0,-0.005672798492014408
-0.005939219146966934,-0.024637706577777863,-0.008157213218510151,0.030039019882678986,0.0,-0.005394462496042252
-0.005666533950716257,-0.023707285523414612,-0.007728849537670612,0.029102297499775887,0.0,-0.005728538613766432
-0.005666533950716257,-0.023707285523414612,-0.007728849537670612,0.029102297499775887,0.0,-0.005728538613766432
-0.00526766711845994,-0.024594685062766075,-0.009147956036031246,0.030774731189012527,0.0,-0.005394524894654751
-0.005721123423427343,-0.02431030012667179,-0.00826774351298809,0.030665840953588486,0.0,-0.005614032968878746
-0.0055309380404651165,-0.023833459243178368,-0.007782472297549248,0.031286273151636124,0.0,-0.005586434155702591
-0.005791051778942347,-0.0240776464343071,-0.007482102606445551,0.031464893370866776,0.0,-0.005530676804482937
-0.005154082085937262,-0.024244196712970734,-0.008902967907488346,0.030691977590322495,0.0,-0.005374548025429249
-0.005487367045134306,-0.0242370143532753,-0.006912128534168005,0.029909485951066017,0.0,-0.005774868186563253
-0.005487367045134306,-0.0242370143532753,-0.006912128534168005,0.029909485951066017,0.0,-0.005774868186563253
-0.0052846441976726055,-0.02395128458738327,-0.005611984524875879,0.029469462111592293,0.0,-0.005579337012022734
-0.005586520303040743,-0.023794298991560936,-0.005169416777789593,0.030540352687239647,0.0,-0.005879261530935764
-0.005770409479737282,-0.02393288165330887,-0.006199725903570652,0.030853206291794777,0.0,-0.005697638727724552
-0.00511855399236083,-0.02412685565650463,-0.006977999582886696,0.029787998646497726,0.0,-0.005759004503488541
-0.005292056128382683,-0.023939205333590508,-0.006641540210694075,0.029705887660384178,0.0,-0.0055467551574110985
-0.005185795482248068,-0.023878326639533043,-0.0057282764464616776,0.030032653361558914,0.0,-0.005678908433765173
-0.004925886169075966,-0.023626068606972694,-0.005736940074712038,0.03038574382662773,0.0,-0.005939710419625044
-0.005307318642735481,-0.023354068398475647,-0.005858388263732195,0.030179131776094437,0.0,-0.005611428990960121
-0.005125272553414106,-0.02348523959517479,-0.006360720843076706,0.03017229400575161,0.0,-0.005780264735221863
-0.004858729429543018,-0.023713501170277596,-0.006308199837803841,0.030158814042806625,0.0,-0.005711047910153866
-0.005141048226505518,-0.02343505434691906,-0.005637308582663536,0.030230337753891945,0.0,-0.006186671555042267
-0.005001169629395008,-0.022978704422712326,-0.00578899122774601,0.03014187514781952,0.0,-0.005843013990670443
-0.004592409357428551,-0.023089682683348656,-0.005678768735378981,0.02945839986205101,0.0,-0.005955295171588659
-0.005056773312389851,-0.023455753922462463,-0.005745868664234877,0.02929866686463356,0.0,-0.005594012327492237
-0.0055600558407604694,-0.023346951231360435,-0.005449369549751282,0.029117168858647346,0.0,-0.0057011679746210575
-0.005045412573963404,-0.022813158109784126,-0.005622044671326876,0.02899949811398983,0.0,-0.0060357823967933655
-0.004750304389744997,-0.02342034876346588,-0.005992492660880089,0.02813689038157463,0.0,-0.006297387648373842
-0.004762347787618637,-0.022976810112595558,-0.006270922254770994,0.02798844501376152,0.0,-0.005777105689048767
-0.004766584374010563,-0.022763289511203766,-0.00631208810955286,0.027426064014434814,0.0,-0.005404381547123194
-0.004982523620128632,-0.022488949820399284,-0.005450517404824495,0.027757152915000916,0.0,-0.005226592067629099
-0.004924769978970289,-0.022262591868638992,-0.005677978973835707,0.029361607506871223,0.0,-0.00574553944170475
-0.004770258907228708,-0.022378189489245415,-0.006570064928382635,0.02921966277062893,0.0,-0.006361036095768213
-0.005056846421211958,-0.022788560017943382,-0.00639592669904232,0.027998432517051697,0.0,-0.006213183980435133
-0.004477994050830603,-0.022849055007100105,-0.006174773443490267,0.027119485661387444,1.7754366126609966e-05,-0.0059380922466516495
-0.004614156670868397,-0.022649245336651802,-0.00558175565674901,0.028234893456101418,1.1592331929932698e-06,-0.005958431866019964
-0.0050866431556642056,-0.022470703348517418,-0.005976859945803881,0.02882857620716095,7.568964122128818e-08,-0.0059984829276800156
-0.0050866431556642056,-0.022470703348517418,-0.005976859945803881,0.02882857620716095,7.568964122128818e-08,-0.0059984829276800156
-0.00490623340010643,-0.022059334442019463,-0.006367664318531752,0.027878955006599426,4.94199259293282e-09,-0.005727756302803755
-0.004654275253415108,-0.02240031585097313,-0.006366904824972153,0.02836744114756584,3.226768019448656e-10,-0.005792262498289347
-0.004108482040464878,-0.022076165303587914,-0.006041732616722584,0.02959907427430153,2.106848896732405e-11,-0.005952348932623863
-0.0040955692529678345,-0.022014444693922997,-0.0052238525822758675,0.028478192165493965,1.375621730241583e-12,-0.0059276451356709
-0.004582944326102734,-0.021622611209750175,-0.0054917847737669945,0.02766377292573452,8.981826241961921e-14,-0.006043736357241869
-0.004765718709677458,-0.02167287841439247,-0.0057397764176130295,0.027644626796245575,5.864490208555562e-15,-0.0063165626488626
-0.004123701713979244,-0.02120448648929596,-0.00549663882702589,0.027827560901641846,1.6324021647821867e-18,-0.005755778402090073
-0.004123701713979244,-0.02120448648929596,-0.00549663882702589,0.027827560901641846,1.6324021647821867e-18,-0.005755778402090073
-0.004068679176270962,-0.02213265933096409,-0.005307302810251713,0.02740412950515747,1.0658419294376096e-19,-0.0062143318355083466
-0.00394113315269351,-0.021792199462652206,-0.006178624927997589,0.027022626250982285,6.959186815682262e-21,-0.006363661959767342
-0.003845356171950698,-0.021246280521154404,-0.00675275968387723,0.026882478967308998,4.543851435847512e-22,-0.0061147212982177734
-0.003943434450775385,-0.021125836297869682,-0.005758154671639204,0.027192313224077225,2.9668105701388747e-23,-0.005933818873018026
-0.0043673268519341946,-0.020640380680561066,-0.005227160174399614,0.027439771220088005,0.00021743305842392147,-0.005732485558837652
-0.004486551508307457,-0.020226188004016876,-0.005671374965459108,0.027466004714369774,0.0002635116979945451,-0.005895900074392557
-0.004253503400832415,-0.02038789913058281,-0.006131284404546022,0.026899300515651703,0.00029963901033625007,-0.006175607908517122
-0.004000078421086073,-0.02142721600830555,-0.006114643532782793,0.027047548443078995,0.0002870298339985311,-0.005680722650140524
-0.0038443906232714653,-0.021071450784802437,-0.0058319345116615295,0.02727319672703743,0.000312101561576128,-0.005864234641194344
-0.004187630955129862,-0.020569711923599243,-0.006162748672068119,0.02736794389784336,0.0002889906754717231,-0.005729492288082838
-0.004224272444844246,-0.021602710708975792,-0.006067365873605013,0.027433324605226517,0.0003105379000771791,-0.005768263712525368
-0.004102512262761593,-0.021802114322781563,-0.006634135264903307,0.027031416073441505,0.00030219569453038275,-0.006252479273825884
-0.004102512262761593,-0.021802114322781563,-0.006634135264903307,0.027031416073441505,0.00030219569453038275,-0.006252479273825884
-0.0041880677454173565,-0.021042799577116966,-0.005861417856067419,0.026642607524991035,0.00027908015181310475,-0.0063437060452997684
-0.0041880677454173565,-0.021042799577116966,-0.005861417856067419,0.026642607524991035,0.00027908015181310475,-0.0063437060452997684
-0.0038827841635793447,-0.02116265892982483,-0.006147733889520168,0.026338454335927963,0.0003758055972866714,-0.00600343057885766
-0.004083213396370411,-0.02088993415236473,-0.006114145275205374,0.026169687509536743,0.00036154576810076833,-0.00616002082824707
-0.004103431012481451,-0.02153375744819641,-0.0060642920434474945,0.026864344254136086,0.00035829999251291156,-0.006244357209652662
-0.004103431012481451,-0.02153375744819641,-0.0060642920434474945,0.026864344254136086,0.00035829999251291156,-0.006244357209652662
-0.004450552631169558,-0.02132432535290718,-0.00596435833722353,0.02685498632490635,0.00034941895864903927,-0.0061215669848024845
-0.0042625186033546925,-0.021227922290563583,-0.006412863731384277,0.026736443862318993,0.0003290540771558881,-0.005826606415212154
-0.004019015934318304,-0.020544137805700302,-0.006880044937133789,0.02662445232272148,0.0003549277316778898,-0.006016516592353582
-0.0038886500988155603,-0.021228259429335594,-0.006291813682764769,0.027088621631264687,0.00036562132299877703,-0.0058688088320195675
-0.0038111372850835323,-0.021212156862020493,-0.005977182649075985,0.027102133259177208,0.00036930895294062793,-0.0058723208494484425
-0.0037249422166496515,-0.021037986502051353,-0.006441287696361542,0.026523424312472343,0.0004071501025464386,-0.006034675054252148
-0.004002685192972422,-0.020904550328850746,-0.006731604691594839,0.02723434381186962,0.00042224000208079815,-0.006079266779124737
-0.004036459140479565,-0.021281525492668152,-0.007560370489954948,0.02714601345360279,0.0004563263792078942,-0.006195419933646917
-0.0038816528394818306,-0.021062292158603668,-0.006462177261710167,0.026116743683815002,0.0004640841216314584,-0.006177478935569525
-0.0036850329488515854,-0.020727459341287613,-0.00574921490624547,0.025265004485845566,0.0004622742999345064,-0.006264721043407917
-0.0036571125965565443,-0.020609190687537193,-0.006281066685914993,0.025832006707787514,0.00048603315372020006,-0.006462066434323788
-0.0042504435405135155,-0.020795930176973343,-0.006475277245044708,0.02661767788231373,0.00046479259617626667,-0.006450836081057787
-0.004081742372363806,-0.02088494785130024,-0.006666641216725111,0.026349572464823723,0.0006237016641534865,-0.0065338872373104095
-0.003511425107717514,-0.020641392096877098,-0.006373243872076273,0.02614843286573887,0.0006570103578269482,-0.0063505833968520164
-0.0034474963322281837,-0.021004224196076393,-0.005924287252128124,0.027110954746603966,0.0006839364650659263,-0.00620410218834877
-0.004123514983803034,-0.02103889174759388,-0.00658270251005888,0.02649105153977871,0.0006552415434271097,-0.006376128178089857
-0.0038706425111740828,-0.021079307422041893,-0.007136634085327387,0.02525237575173378,0.0007458786712959409,-0.006244359537959099
-0.0038706425111740828,-0.021079307422041893,-0.007136634085327387,0.02525237575173378,0.0007458786712959409,-0.006244359537959099
-0.0038097104988992214,-0.02137685753405094,-0.0062443348579108715,0.025175904855132103,0.000762493466027081,-0.006021291948854923
-0.0034239531960338354,-0.02109549567103386,-0.006308103445917368,0.025991227477788925,0.0007795363781042397,-0.006191622000187635
-0.0034286044538021088,-0.020361045375466347,-0.006804044358432293,0.02485496737062931,0.0008910238393582404,-0.006623582448810339
-0.0034286044538021088,-0.020361045375466347,-0.006804044358432293,0.02485496737062931,0.0008910238393582404,-0.006623582448810339
-0.003541014390066266,-0.020974669605493546,-0.0066100554540753365,0.024326149374246597,0.0009004213497973979,-0.006159727927297354
-0.0034830484073609114,-0.02112731896340847,-0.005795651581138372,0.02499508671462536,0.000900901504792273,-0.006016782019287348
-0.0035851949360221624,-0.02028978243470192,-0.005774877965450287,0.025259744375944138,0.0009007528424263,-0.006455583032220602
-0.0033551177475601435,-0.02127574011683464,-0.0069533600471913815,0.024373739957809448,0.0009527178481221199,-0.0069743795320391655
-0.0033551177475601435,-0.02127574011683464,-0.0069533600471913815,0.024373739957809448,0.0009527178481221199,-0.0069743795320391655
-0.0035115503706038,-0.021031981334090233,-0.006465476471930742,0.023793164640665054,0.000928256893530488,-0.006509442813694477
-0.0032879302743822336,-0.02077159844338894,-0.005600750911980867,0.02421233244240284,0.0008364220266230404,-0.006551831029355526
-0.00340483826585114,-0.021061887964606285,-0.0058690523728728294,0.02426503412425518,0.000837962084915489,-0.006790359504520893
-0.0030810944736003876,-0.020007628947496414,-0.007035005372017622,0.024394894018769264,0.0007614729693159461,-0.006483977194875479
-0.0032363745849579573,-0.020069018006324768,-0.0068595833145082,0.024465985596179962,0.0006971264374442399,-0.0061485967598855495
-0.0033362871035933495,-0.02094818279147148,-0.006012924015522003,0.024426301941275597,0.0006945773493498564,-0.006041030865162611
-0.0031926874071359634,-0.021132634952664375,-0.005982004106044769,0.02418874017894268,0.0006393113289959729,-0.006229557562619448
-0.0032571004703640938,-0.020536376163363457,-0.006222312338650227,0.023823631927371025,0.0006616970058530569,-0.006106057204306126
-0.0031446022912859917,-0.020359955728054047,-0.006740247830748558,0.023514261469244957,0.0006842012517154217,-0.0065093436278402805
-0.0035737312864512205,-0.021222377195954323,-0.006618699990212917,0.023489175364375114,0.0007420622860081494,-0.00682863499969244
-0.0032071645837277174,-0.02071433700621128,-0.006177922245115042,0.02380133792757988,0.0007756614941172302,-0.0069261835888028145
-0.003173486329615116,-0.020581195130944252,-0.005853936076164246,0.024282073602080345,0.0008468061569146812,-0.006676502525806427
-0.002963676117360592,-0.020787961781024933,-0.006174864247441292,0.023776669055223465,0.000991707551293075,-0.006648252718150616
-0.003005384001880884,-0.020880311727523804,-0.006639094557613134,0.0238600242882967,0.0011272479314357042,-0.006648437585681677
-0.0032741560135036707,-0.02056625485420227,-0.006451205350458622,0.0238159392029047,0.0011837183265015483,-0.0064535317942500114
-0.003206464694812894,-0.020741648972034454,-0.005051677115261555,0.023786313831806183,0.0012931360397487879,-0.006667387206107378
-0.0031285397708415985,-0.020352531224489212,-0.005330007988959551,0.023017175495624542,0.0011994983069598675,-0.006917034275829792
-0.0030057430267333984,-0.02053959108889103,-0.005873154383152723,0.022806821390986443,0.0011117826215922832,-0.0067514595575630665
-0.0034546961542218924,-0.020707998424768448,-0.006253073923289776,0.023174351081252098,0.0010182898258790374,-0.006576522719115019
-0.0032685345504432917,-0.020411578938364983,-0.0054929438047111034,0.023789796978235245,0.0008709648973308504,-0.006516365800052881
-0.0029887566342949867,-0.02026410587131977,-0.005596633069217205,0.023858217522501945,0.0008564721210859716,-0.00645549176260829
-0.0029887566342949867,-0.02026410587131977,-0.005596633069217205,0.023858217522501945,0.0008564721210859716,-0.00645549176260829
-0.0029863615054637194,-0.02011835388839245,-0.005250619258731604,0.022842412814497948,0.0008134761010296643,-0.006288064178079367
-0.0029252558015286922,-0.020634088665246964,-0.006016027648001909,0.02185857854783535,0.0007681401330046356,-0.006543886382132769
-0.0032889058347791433,-0.020307054743170738,-0.005539056845009327,0.022925391793251038,0.0007082403753884137,-0.007000261452049017
-0.0032889058347791433,-0.020307054743170738,-0.005539056845009327,0.022925391793251038,0.0007082403753884137,-0.007000261452049017
-0.0030594118870794773,-0.02052292414009571,-0.005679928231984377,0.02233365923166275,0.0006919323932379484,-0.006505616940557957
-0.0030594118870794773,-0.02052292414009571,-0.005679928231984377,0.02233365923166275,0.0006919323932379484,-0.006505616940557957
-0.0029922467656433582,-0.020117836073040962,-0.005799521692097187,0.021732812747359276,0.0007152987527661026,-0.0068483552895486355
-0.002866673981770873,-0.019843773916363716,-0.005849217064678669,0.022369498386979103,0.000740762916393578,-0.0068604308180511
-0.0028507697861641645,-0.020893169566988945,-0.005893376190215349,0.022566502913832664,0.0009004733292385936,-0.006717650219798088
-0.002798397559672594,-0.020199637860059738,-0.005418534856289625,0.021565431728959084,0.0009267537971027195,-0.0071059525944292545
-0.0027358797378838062,-0.020043808966875076,-0.006155184470117092,0.02069736272096634,0.0009151762933470309,-0.006728375796228647
-0.002809435361996293,-0.02019694447517395,-0.005653321277350187,0.020613569766283035,0.0008975387900136411,-0.006952842231839895
-0.00265769031830132,-0.01998548023402691,-0.005858385935425758,0.02068798616528511,0.0008297854801639915,-0.006992460694164038
-0.002938418183475733,-0.01979486085474491,-0.005240879952907562,0.02085268311202526,0.000877155689522624,-0.007028478197753429
-0.002961432095617056,-0.020194346085190773,-0.005849708337336779,0.021458927541971207,0.0008180160657502711,-0.007155981846153736
-0.002619002014398575,-0.020164253190159798,-0.005659136455506086,0.021690698340535164,0.0008245799690485001,-0.00707536656409502
-0.0026332370471209288,-0.019500697031617165,-0.005830063484609127,0.021790428087115288,0.0007860362529754639,-0.006769810803234577
-0.002681742189452052,-0.019743388518691063,-0.005317531060427427,0.021141331642866135,0.0007496291073039174,-0.006612888537347317
-0.00250244140625,-0.020177355036139488,-0.005776321981102228,0.02110462449491024,0.0006815721862949431,-0.006403530947864056
-0.0026792786084115505,-0.019513878971338272,-0.005865942686796188,0.021820684894919395,0.000651625799946487,-0.0065083252266049385
-0.0023797606118023396,-0.01975511573255062,-0.0053267148323357105,0.021699674427509308,0.0006527321529574692,-0.006397048942744732
-0.0025483197532594204,-0.019476909190416336,-0.0053221313282847404,0.021754778921604156,0.0006322909612208605,-0.006447352934628725
-0.002744761761277914,-0.019514301791787148,-0.005685735959559679,0.021844254806637764,0.0006376570090651512,-0.006593072786927223
-0.002744761761277914,-0.019514301791787148,-0.005685735959559679,0.021844254806637764,0.0006376570090651512,-0.006593072786927223
-0.0023838444612920284,-0.020016832277178764,-0.006057046353816986,0.02155052311718464,0.0006030554068274796,-0.006808015517890453
-0.002343501430004835,-0.019598089158535004,-0.005782217252999544,0.020856866613030434,0.0006084439228288829,-0.006485779769718647
-0.002429523039609194,-0.01896730065345764,-0.005544987041503191,0.020862843841314316,0.0005816099583171308,-0.006461174692958593
-0.0023230984807014465,-0.019284481182694435,-0.005128445103764534,0.02117004431784153,0.0006959497113712132,-0.00666741793975234
-0.0024532556999474764,-0.01917201653122902,-0.006185277830809355,0.02073238231241703,0.0007284737075679004,-0.006790240295231342
-0.002354764612391591,-0.0189091507345438,-0.006132485810667276,0.020038897171616554,0.0007344121113419533,-0.006588946562260389
-0.0024771317839622498,-0.019212733954191208,-0.005638775881379843,0.02027585543692112,0.0006940729217603803,-0.006670542061328888
-0.0026404468808323145,-0.018572689965367317,-0.005129281897097826,0.02072877064347267,0.0008639314328320324,-0.00687444070354104
-0.002349531976506114,-0.018480930477380753,-0.005102862603962421,0.020261792466044426,0.0008693287381902337,-0.0068637290969491005
-0.0022727036848664284,-0.01894007809460163,-0.00610099732875824,0.02017602138221264,0.00085866404697299,-0.006932529620826244
-0.0020506868604570627,-0.018606334924697876,-0.006063629407435656,0.020095108076930046,0.0008375977631658316,-0.0071467445231974125
-0.0021993040572851896,-0.018246300518512726,-0.005091967061161995,0.019677061587572098,0.0007991919410414994,-0.006945755798369646
-0.0025418736040592194,-0.019057223573327065,-0.005207192152738571,0.01981726661324501,0.0007551445160061121,-0.0067297061905264854
-0.002466260688379407,-0.018119191750884056,-0.0057351612485945225,0.02019653283059597,0.0007220868137665093,-0.006836114916950464
-0.0025735744275152683,-0.01835802011191845,-0.006242294330149889,0.02003411576151848,0.0006863715243525803,-0.00698048947378993
-0.002399590564891696,-0.018242288380861282,-0.005916947964578867,0.01962904818356037,0.0006997897289693356,-0.007063607219606638
-0.0022871652618050575,-0.01718410663306713,-0.005621157120913267,0.019810153171420097,0.0006406519678421319,-0.0072274766862392426
-0.002268096199259162,-0.017955398187041283,-0.005251827649772167,0.019980166107416153,0.0006537975859828293,-0.007031564600765705
-0.002157776150852442,-0.017883146181702614,-0.006116092670708895,0.019564053043723106,0.0006475754198618233,-0.007293484639376402
-0.0023130483459681273,-0.018367474898695946,-0.006009954027831554,0.019726868718862534,0.0006596959428861737,-0.007972734048962593
-0.002385225147008896,-0.01823490299284458,-0.006319507025182247,0.019493479281663895,0.000686870189383626,-0.007395888213068247
-0.002257261425256729,-0.017534421756863594,-0.005991748534142971,0.019169073551893234,0.000861177803017199,-0.006898023188114166
-0.001997715560719371,-0.01786102168262005,-0.006340633612126112,0.019019808620214462,0.0010110025759786367,-0.00789704266935587
-0.0020275376737117767,-0.01831590011715889,-0.0057292175479233265,0.019234778359532356,0.0010819307062774897,-0.007264201063662767
-0.00211629387922585,-0.017808394506573677,-0.006321921944618225,0.01985827088356018,0.001180756837129593,-0.0068574706092476845
-0.0023302235640585423,-0.01693730615079403,-0.005932108964771032,0.019971830770373344,0.0012396016390994191,-0.006869829725474119
-0.0023329469840973616,-0.017327137291431427,-0.005968188401311636,0.019328879192471504,0.0012048211647197604,-0.007336799520999193
-0.0023329469840973616,-0.017327137291431427,-0.005968188401311636,0.019328879192471504,0.0012048211647197604,-0.007336799520999193
-0.002179441275075078,-0.016766272485256195,-0.006207214668393135,0.018843935802578926,0.0011567067122086883,-0.007289649453014135
-0.0018991976976394653,-0.016693945974111557,-0.005531235598027706,0.01950475014746189,0.0010815890273079276,-0.0071236202493309975
-0.0016913017025217414,-0.017192954197525978,-0.00604262575507164,0.017536461353302002,0.0010316853877156973,-0.007286028005182743
-0.0019244104623794556,-0.016888657584786415,-0.006019975990056992,0.018250366672873497,0.0010087554110214114,-0.007343724370002747
-0.0019548635464161634,-0.017006952315568924,-0.005987963639199734,0.01820729672908783,0.0009931373642757535,-0.007374332752078772
-0.002123230369761586,-0.01636231504380703,-0.005678053945302963,0.017688529565930367,0.0009981222683563828,-0.007143868133425713
-0.002123230369761586,-0.01636231504380703,-0.005678053945302963,0.017688529565930367,0.0009981222683563828,-0.007143868133425713
-0.001999492524191737,-0.01667589694261551,-0.006119509693235159,0.01781482808291912,0.0009648310951888561,-0.007049704901874065
-0.001947054173797369,-0.01632007211446762,-0.006368091329932213,0.018929701298475266,0.0009547827648930252,-0.006910328753292561
-0.001805519568733871,-0.016803018748760223,-0.006010435521602631,0.01837565004825592,0.000951107416767627,-0.007072353269904852
-0.0018005314050242305,-0.01635519415140152,-0.006006085779517889,0.017666693776845932,0.000978108961135149,-0.007558891549706459
-0.0018904766766354442,-0.016328398138284683,-0.005930042359977961,0.017440957948565483,0.0009870599023997784,-0.007550351787358522
-0.0018866542959585786,-0.01605166122317314,-0.006402745842933655,0.01670357771217823,0.0009763984126038849,-0.007498755119740963
-0.001765620312653482,-0.01617332734167576,-0.006777061149477959,0.016715755686163902,0.0011340262135490775,-0.0070591396652162075
-0.0017160261049866676,-0.01626131311058998,-0.006218720693141222,0.017205361276865005,0.0011584650492295623,-0.007114000618457794
-0.0015826337039470673,-0.015991004183888435,-0.006039108149707317,0.016974572092294693,0.001160939340479672,-0.007885834202170372
-0.0014940692344680429,-0.01635456643998623,-0.006441561970859766,0.01791463792324066,0.0014092635829001665,-0.007930648513138294
-0.0014108911855146289,-0.015809593722224236,-0.006706803105771542,0.01721838302910328,0.0015005404129624367,-0.0070413644425570965
-0.0013367917854338884,-0.015888923779129982,-0.0064358823001384735,0.01717510260641575,0.0016121951630339026,-0.007208762690424919
-0.0013399383751675487,-0.016069546341896057,-0.006499868351966143,0.016946058720350266,0.0014704779023304582,-0.007900586351752281
-0.0012832971988245845,-0.016308743506669998,-0.006941848434507847,0.017597537487745285,0.0014987153699621558,-0.007941761054098606
-0.0013620986137539148,-0.01402967981994152,-0.0067681618966162205,0.017022548243403435,0.001374710351228714,-0.007938636466860771
-0.0012848477344959974,-0.016490444540977478,-0.006322948262095451,0.01722625456750393,0.0012869471684098244,-0.007628853898495436
-0.0012364692520350218,-0.01599171757698059,-0.005951601546257734,0.017224742099642754,0.0011345642851665616,-0.007565485313534737
-0.001292868168093264,-0.01585572585463524,-0.00579697173088789,0.01648477278649807,0.0010653409408405423,-0.007048099301755428
-0.0012151203118264675,-0.015286670066416264,-0.006405921652913094,0.01661144383251667,0.0011394715402275324,-0.007979190908372402
-0.0012151203118264675,-0.015286670066416264,-0.006405921652913094,0.01661144383251667,0.0011394715402275324,-0.007979190908372402
-0.001064001931808889,-0.015286345034837723,-0.006768963299691677,0.015967195853590965,0.001465087290853262,-0.007849864661693573
-0.0010394311975687742,-0.014593110419809818,-0.006558652501553297,0.016248591244220734,0.0014856017660349607,-0.007472654338926077
-0.0010235829977318645,-0.015455139800906181,-0.005667403340339661,0.015903117135167122,0.0015930631197988987,-0.007225127425044775
-0.001003179932013154,-0.01500958763062954,-0.005955277010798454,0.01604318805038929,0.0015587989473715425,-0.00762118911370635
-0.0010180359240621328,-0.015305252745747566,-0.007096749730408192,0.015782760456204414,0.0014320788905024529,-0.007798459380865097
-0.0011217992287129164,-0.014749327674508095,-0.007341634016484022,0.015408895909786224,0.0013331136433407664,-0.007489010691642761
-0.0011007423745468259,-0.014759267680346966,-0.0060049667954444885,0.015975413843989372,0.0011152563383802772,-0.007220998406410217
-0.0010541873052716255,-0.014552977867424488,-0.006344018969684839,0.015661265701055527,0.0010661294218152761,-0.007796874735504389
-0.0009169583208858967,-0.015443922020494938,-0.0062785097397863865,0.01567481830716133,0.0011084527941420674,-0.007643715478479862
-0.0009007536573335528,-0.0154130132868886,-0.006574034690856934,0.014979107305407524,0.001130665885284543,-0.00732496939599514
-0.0008115015807561576,-0.015189445577561855,-0.006506722886115313,0.015043661929666996,0.0012588131939992309,-0.007315155118703842
-0.0007143956026993692,-0.015539534389972687,-0.0061609321273863316,0.014464827254414558,0.001217285986058414,-0.007433297578245401
-0.0006108521483838558,-0.014925496652722359,-0.005993829574435949,0.0148010877892375,0.0012374133802950382,-0.008088977076113224
-0.0006436117109842598,-0.014961243607103825,-0.006475941278040409,0.01441529206931591,0.0012610361445695162,-0.008405515924096107
-0.0006606120150536299,-0.014627287164330482,-0.00672971922904253,0.014486441388726234,0.0012918253196403384,-0.007906387560069561
-0.0006638600607402623,-0.014805929735302925,-0.006391345057636499,0.01384719554334879,0.001187335466966033,-0.007618732284754515
-0.0006353965727612376,-0.014811697416007519,-0.00550270127132535,0.014316831715404987,0.0012453809613361955,-0.007885816507041454
-0.0007106558769010007,-0.015173258259892464,-0.006078614853322506,0.013755490072071552,0.0012805107980966568,-0.007738763932138681
-0.0007369567756541073,-0.014651047997176647,-0.0063048070296645164,0.013893007300794125,0.001379665220156312,-0.007803081069141626
-0.0006498762522824109,-0.01535365916788578,-0.006264415103942156,0.01313165295869112,0.0014436498750001192,-0.007525717839598656
-0.0006725740968249738,-0.014673643745481968,-0.0061836265958845615,0.013375206850469112,0.0013914296869188547,-0.007530916947871447
-0.0006109951063990593,-0.014808062463998795,-0.005358709022402763,0.013331165537238121,0.0014641633024439216,-0.008017389103770256
-0.0006088639493100345,-0.014258590526878834,-0.00596956443041563,0.013549271039664745,0.0014413577737286687,-0.007955548353493214
-0.0005844755214639008,-0.014812370762228966,-0.006342173088341951,0.013096978887915611,0.0013774592662230134,-0.008072569034993649
-0.0005030932370573282,-0.01466380711644888,-0.005605397745966911,0.012953754514455795,0.0014607300981879234,-0.007464561611413956
-0.0004531179438345134,-0.014324471354484558,-0.005531731992959976,0.012949112802743912,0.0013133042957633734,-0.007842104882001877
-0.0004114724288228899,-0.014180414378643036,-0.006163877435028553,0.013399610295891762,0.0013097451301291585,-0.008212503045797348
-0.0003769852628465742,-0.013702821917831898,-0.006530325394123793,0.012934925965964794,0.0013429642422124743,-0.008368459530174732
-0.000347836030414328,-0.01396227814257145,-0.006067280657589436,0.013572926633059978,0.0015548613155260682,-0.007907086052000523
-0.000347836030414328,-0.01396227814257145,-0.006067280657589436,0.013572926633059978,0.0015548613155260682,-0.007907086052000523
-0.0003228744026273489,-0.013569232076406479,-0.005486258305609226,0.013069763779640198,0.0016672626370564103,-0.008134519681334496
-0.000301254476653412,-0.013801848515868187,-0.005647154524922371,0.013449561782181263,0.0017624476458877325,-0.008314521983265877
-0.00033648201497271657,-0.013632863759994507,-0.006226721219718456,0.012907897122204304,0.0018098661676049232,-0.008917723782360554
-0.0003187810070812702,-0.013927972875535488,-0.006448813714087009,0.01332865096628666,0.0016449890099465847,-0.007782498374581337
-0.0003010360524058342,-0.013762452639639378,-0.006216054316610098,0.012613416649401188,0.001559697207994759,-0.007201528176665306
-0.0002851385506801307,-0.013644270598888397,-0.005417718086391687,0.012321817688643932,0.001541445148177445,-0.00797189213335514
-0.0002708366373553872,-0.013036420568823814,-0.005136525724083185,0.012643380090594292,0.0014721476472914219,-0.008174825459718704
-0.0002579009160399437,-0.013189109973609447,-0.005320833530277014,0.012003089301288128,0.0015429275808855891,-0.008194915018975735
-0.00024614465655758977,-0.013562291860580444,-0.006534538697451353,0.01239541731774807,0.0014939296524971724,-0.008247829973697662
-0.00023541253176517785,-0.01336077880114317,-0.006179566029459238,0.012184318155050278,0.0016054903389886022,-0.007888305000960827
-0.00022557831835001707,-0.013429530896246433,-0.005533293820917606,0.012720568105578423,0.0016141701489686966,-0.008102566003799438
-0.00021653300791513175,-0.013094455935060978,-0.005495128687471151,0.012453325092792511,0.0017463983967900276,-0.008227844722568989
-0.00020818438497371972,-0.013819940388202667,-0.005548163317143917,0.0123294061049819,0.0018057581037282944,-0.008242513984441757
-0.0002004558773478493,-0.013239944353699684,-0.006387089844793081,0.011806610971689224,0.0016736382385715842,-0.00818919762969017
-0.00019328133203089237,-0.013576875440776348,-0.006524072960019112,0.011419636197388172,0.0016728445189073682,-0.008054133504629135
-0.00018660214846022427,-0.013304410502314568,-0.00547650083899498,0.012398144230246544,0.0016044178046286106,-0.008139614015817642
-0.0001803691848181188,-0.01348528079688549,-0.005328082013875246,0.012196224182844162,0.0016141097294166684,-0.008259733207523823
-0.00014585265307687223,-0.012809451669454575,-0.005733533762395382,0.011936989612877369,0.0015949434600770473,-0.008151964284479618
-0.00011311174603179097,-0.013252663426101208,-0.006405803840607405,0.012218741700053215,0.0015851097414270043,-0.008190447464585304
-8.23539521661587e-05,-0.01266674604266882,-0.00618774862959981,0.011077235452830791,0.0016463989159092307,-0.008383683860301971
5.4958800319582224e-05,-0.013097387738525867,-0.006062494125217199,0.011899136006832123,0.0016921404749155045,-0.008452177979052067
6.989395478740335e-05,-0.013510465621948242,-0.005453442223370075,0.011651869863271713,0.0016015160363167524,-0.008122969418764114
6.750212196493521e-05,-0.013024304062128067,-0.005286823492497206,0.011806491762399673,0.0016107213450595737,-0.008301535621285439
6.506516365334392e-05,-0.013256368227303028,-0.005671036895364523,0.011776681058108807,0.0015649382257834077,-0.008685002103447914
6.279524677665904e-05,-0.0129782659932971,-0.006323966197669506,0.010373741388320923,0.0016249516047537327,-0.008495433256030083
8.80437801242806e-05,-0.012728526256978512,-0.005441273096948862,0.010670709423720837,0.001924945623613894,-0.008816036395728588
8.526874444214627e-05,-0.013106861151754856,-0.004933101590722799,0.01003379188477993,0.0020094974897801876,-0.008579378016293049
8.265804353868589e-05,-0.012986107729375362,-0.0058856988325715065,0.010845781303942204,0.0018726554699242115,-0.008086089044809341
8.020281529752538e-05,-0.013326680287718773,-0.006673495750874281,0.01120841782540083,0.0017307433299720287,-0.008100371807813644
8.020281529752538e-05,-0.013326680287718773,-0.006673495750874281,0.01120841782540083,0.0017307433299720287,-0.008100371807813644
7.788919901940972e-05,-0.012494836933910847,-0.005782609339803457,0.010723537765443325,0.0015538240550085902,-0.008252568542957306
7.57052912376821e-05,-0.012324920855462551,-0.005298391450196505,0.010650780983269215,0.0015684094978496432,-0.008679429069161415
7.36404035706073e-05,-0.012941895984113216,-0.005453453399240971,0.010378004051744938,0.0013902818318456411,-0.008447246626019478
7.168543379520997e-05,-0.012756166979670525,-0.006157150492072105,0.01057414710521698,0.0014190926449373364,-0.008651777170598507
9.21727842069231e-05,-0.01310298778116703,-0.006069785915315151,0.010414786636829376,0.0013981786323711276,-0.008931729942560196
0.00011077689123339951,-0.012776348739862442,-0.005719950422644615,0.009944161400198936,0.0017377441981807351,-0.008969138376414776
0.00021578307496383786,-0.012851680628955364,-0.005130430683493614,0.009993609972298145,0.0017164720920845866,-0.009232563897967339
0.000289121555397287,-0.012476841919124126,-0.005278468132019043,0.009914465248584747,0.0021266706753522158,-0.008800206705927849
0.00029075233032926917,-0.01293532457202673,-0.005627402104437351,0.009642071090638638,0.002007774543017149,-0.008449452929198742
0.0002761159266810864,-0.012830580584704876,-0.006014736369252205,0.01059674471616745,0.0017253506230190396,-0.008863178081810474
0.000262686749920249,-0.01252938061952591,-0.005457138177007437,0.009961958974599838,0.0015204986557364464,-0.008763447403907776
0.0002905441215261817,-0.012557676061987877,-0.00566739309579134,0.009080439805984497,0.001418841304257512,-0.008453716523945332
0.00030543352477252483,-0.012506426312029362,-0.0054609826765954494,0.009322560392320156,0.0012831962667405605,-0.00886523723602295
0.0003054568369407207,-0.012761576101183891,-0.005856368225067854,0.008546986617147923,0.0013666772283613682,-0.008525027893483639
0.0005364781827665865,-0.011164541356265545,-0.006049962714314461,0.008147946558892727,0.0019838421139866114,-0.008612229488790035
0.0005820871447212994,-0.01285716611891985,-0.006904820445924997,0.007998059503734112,0.0024598538875579834,-0.008855034597218037
0.0005289081018418074,-0.01260535977780819,-0.005099570378661156,0.007954114116728306,0.0026229796931147575,-0.008410765789449215
0.0005608616629615426,-0.012160920538008213,-0.004761713556945324,0.007378395181149244,0.002624562242999673,-0.00864148698747158
0.0005640668096020818,-0.012018478475511074,-0.005600216332823038,0.006541426293551922,0.002279461594298482,-0.008763270452618599
0.0005447114817798138,-0.012056492269039154,-0.00598911615088582,0.006985403597354889,0.001869145897217095,-0.0090049859136343
0.000638557190541178,-0.01256027165800333,-0.0057573094964027405,0.0075071766041219234,0.0016440529143437743,-0.009309432469308376
0.0006849842029623687,-0.011769384145736694,-0.004820825066417456,0.006722631864249706,0.0015012421645224094,-0.008705495856702328
0.0007314959657378495,-0.012280327267944813,-0.005644023884087801,0.006326190195977688,0.0012760180979967117,-0.008910104632377625
0.0009722458780743182,-0.01148513425141573,-0.0056779272854328156,0.006260434165596962,0.0015600797487422824,-0.008778462186455727
0.0009710592566989362,-0.011661234311759472,-0.00609084265306592,0.006185960024595261,0.0017694245325401425,-0.008574597537517548
0.0010490167187526822,-0.011347398161888123,-0.005486828275024891,0.006037076935172081,0.0020177378319203854,-0.008921087719500065
0.0009548302623443305,-0.011650077067315578,-0.005028921645134687,0.006889831740409136,0.002121902536600828,-0.009089652448892593
0.0010803955374285579,-0.012171422131359577,-0.005944395437836647,0.006756199058145285,0.0020335353910923004,-0.00884296651929617
0.0010803955374285579,-0.012171422131359577,-0.005944395437836647,0.006756199058145285,0.0020335353910923004,-0.00884296651929617
0.0010507816914469004,-0.011278418824076653,-0.0056238058023154736,0.007000957615673542,0.00197833520360291,-0.00823902152478695
0.0010591666214168072,-0.01130025926977396,-0.005846959073096514,0.006567100994288921,0.002077635610476136,-0.00876600667834282
0.001347317243926227,-0.010846957564353943,-0.005497291684150696,0.006320551037788391,0.002174441469833255,-0.009018543176352978
0.0014008100843057036,-0.010912838391959667,-0.005910502281039953,0.00631950655952096,0.0024218421895056963,-0.008765844628214836
0.0014819062780588865,-0.010800829157233238,-0.005628556478768587,0.0061483257450163364,0.002675156109035015,-0.00943703856319189
0.001656845910474658,-0.010463343001902103,-0.005902473349124193,0.0060491543263196945,0.0024377626832574606,-0.00958677101880312
0.0015166166704148054,-0.010765057057142258,-0.005346708465367556,0.005461093038320541,0.002216047141700983,-0.009306400083005428
0.0015277944039553404,-0.010738694109022617,-0.005337567068636417,0.00588580034673214,0.0019932843279093504,-0.008914072066545486
0.001437057857401669,-0.01119827851653099,-0.005468880757689476,0.0060644010081887245,0.0017315230797976255,-0.009450787678360939
0.001393046579323709,-0.01055071596056223,-0.005618921015411615,0.005860134959220886,0.0017859316430985928,-0.009425091557204723
0.001614775974303484,-0.009906190447509289,-0.00522517878562212,0.005489560775458813,0.002097675111144781,-0.009310182183980942
0.0023051791358739138,-0.009838110767304897,-0.005002615507692099,0.0048840963281691074,0.0024148051161319017,-0.009373769164085388
0.0023606836330145597,-0.010316671803593636,-0.00583731010556221,0.004927636589854956,0.0024351393803954124,-0.009043407626450062
0.0024155674036592245,-0.01002429611980915,-0.005735830403864384,0.005165822338312864,0.00244347145780921,-0.009117032401263714
0.002161620184779167,-0.010538273490965366,-0.005210269708186388,0.005355211906135082,0.002187710488215089,-0.009193243458867073
0.0020067847799509764,-0.010370391421020031,-0.004782378673553467,0.005738039966672659,0.0020333135034888983,-0.008795863948762417
0.001996175153180957,-0.009812056086957455,-0.005123434588313103,0.006176614668220282,0.0018799682147800922,-0.009277665987610817
0.0022936195600777864,-0.010256205685436726,-0.005476791877299547,0.005360472947359085,0.0019472799031063914,-0.008928921073675156
0.0031199741642922163,-0.009186379611492157,-0.005318874958902597,0.00421373313292861,0.002412258880212903,-0.008900328539311886
0.002883430104702711,-0.008943304419517517,-0.0049668001011013985,0.00441154045984149,0.0029134785290807486,-0.0088699571788311
0.0026510204188525677,-0.009137562476098537,-0.004781891126185656,0.004575164522975683,0.0027381216641515493,-0.009240624494850636
0.002756242174655199,-0.008782496675848961,-0.00518681388348341,0.00432219123467803,0.0025926553644239902,-0.009545846842229366
0.0030088676139712334,-0.00932689942419529,-0.0054624914191663265,0.004007330164313316,0.00268932874314487,-0.009116115048527718
0.0030088676139712334,-0.00932689942419529,-0.0054624914191663265,0.004007330164313316,0.00268932874314487,-0.009116115048527718
0.0038760327734053135,-0.008671595714986324,-0.005613439250737429,0.003894163528457284,0.0027916422113776207,-0.009297315031290054
0.004165663383901119,-0.008092036470770836,-0.0054243444465100765,0.0034057532902806997,0.002840826753526926,-0.009034658782184124
0.003533747512847185,-0.008547183126211166,-0.00551177142187953,0.0035218808334320784,0.0025882497429847717,-0.009216937236487865
0.0035713249817490578,-0.008623373694717884,-0.005248022731393576,0.0037889776285737753,0.002232334343716502,-0.009003991261124611
0.003804711392149329,-0.008190051652491093,-0.005491727497428656,0.003918882925063372,0.0021754393819719553,-0.00928135123103857
0.003906095400452614,-0.0076273963786661625,-0.005766644142568111,0.0037971101701259613,0.0020655514672398567,-0.009357597678899765
0.00429101986810565,-0.007872032932937145,-0.005598973948508501,0.0036324504762887955,0.0020174861419945955,-0.009688803926110268
0.004152143839746714,-0.008302539587020874,-0.005658716894686222,0.0036504033487290144,0.0023115784861147404,-0.009030462242662907
0.003953470382839441,-0.008184882812201977,-0.005151813384145498,0.0033549743238836527,0.0026416447944939137,-0.00941900908946991
0.004130521789193153,-0.007649521809071302,-0.005181943066418171,0.0034233047626912594,0.002467753831297159,-0.009129528887569904
0.0040049985982477665,-0.0080177690833807,-0.005108896642923355,0.0036441984120756388,0.0021513632964342833,-0.009434605948626995
0.004420918878167868,-0.007871896959841251,-0.006175310350954533,0.004216983914375305,0.0021238899789750576,-0.00922487210482359
0.004677485208958387,-0.007211816962808371,-0.00609238538891077,0.004150982014834881,0.0023739535827189684,-0.009585932828485966
0.004687328357249498,-0.0074180359952151775,-0.0056029874831438065,0.0035573055502027273,0.0024018653202801943,-0.009665040299296379
0.004599807318300009,-0.007620830554515123,-0.005096130073070526,0.0035678655840456486,0.002413208596408367,-0.009397312998771667
0.004821377340704203,-0.008261917158961296,-0.0054165939800441265,0.0037128247786313295,0.002472841879352927,-0.009123370051383972
0.00480374600738287,-0.007222301792353392,-0.006006569601595402,0.003469828050583601,0.002484237775206566,-0.009371514432132244
0.005151824094355106,-0.006799337919801474,-0.00602766266092658,0.0030919720884412527,0.00240815756842494,-0.010960271582007408
0.00550059974193573,-0.007342284079641104,-0.0054902550764381886,0.0027895993553102016,0.002420722506940365,-0.009832042269408703
0.005335928872227669,-0.007260627578943968,-0.0052889492362737656,0.0028052418492734432,0.002104788785800338,-0.009213444776833057
0.005769837647676468,-0.006772750522941351,-0.006345272529870272,0.002997063100337982,0.0022978372871875763,-0.009604155085980892
0.005220223218202591,-0.0070579336024820805,-0.0062516313046216965,0.0029014756437391043,0.002348811598494649,-0.01003224402666092
0.0052164169028401375,-0.0073091075755655766,-0.005817292258143425,0.002617152640596032,0.0026647441554814577,-0.009735815227031708
0.005493237171322107,-0.006792648229748011,-0.005493771750479937,0.002566915936768055,0.002695683157071471,-0.009571635164320469
0.005493237171322107,-0.006792648229748011,-0.005493771750479937,0.002566915936768055,0.002695683157071471,-0.009571635164320469
0.0060997046530246735,-0.006628083530813456,-0.005680609494447708,0.0020926818251609802,0.002704827580600977,-0.010135987773537636
0.005916572641581297,-0.006881900131702423,-0.006015998311340809,0.0019531187135726213,0.002793835010379553,-0.009960349649190903
0.005831546150147915,-0.006761842407286167,-0.006230232305824757,0.0017638244898989797,0.002752206986770034,-0.00987928919494152
0.00600505480542779,-0.006717417389154434,-0.006014605984091759,0.0018581764306873083,0.002812225604429841,-0.010048274882137775
0.0060914866626262665,-0.006554011255502701,-0.006051891017705202,0.0019718813709914684,0.0025882762856781483,-0.010350346565246582
0.0062838708981871605,-0.005838377866894007,-0.005552912596613169,0.002072608796879649,0.0025703245773911476,-0.010048800148069859
0.006820482201874256,-0.0060666208155453205,-0.005782023537904024,0.0018705418333411217,0.0023495331406593323,-0.010487524792551994
0.006968277972191572,-0.006862457375973463,-0.006273581646382809,0.0015468113124370575,0.0025038993917405605,-0.010365533642470837
0.007045474369078875,-0.006694464478641748,-0.005910140462219715,0.001288449508138001,0.0027005437295883894,-0.010345092043280602
0.0065219891257584095,-0.005561990197747946,-0.006079584825783968,0.0012050537625327706,0.002802520291879773,-0.010446333326399326
0.0071981437504291534,-0.006055551115423441,-0.005557360127568245,0.0010200970573350787,0.0029717450961470604,-0.010494121350347996
0.006846785079687834,-0.006025964859873056,-0.005937579087913036,0.0009690964361652732,0.003073482308536768,-0.010651982389390469
0.007158566266298294,-0.006333318538963795,-0.006484002340584993,0.000878288468811661,0.003139826003462076,-0.010130306705832481
0.007123090326786041,-0.005897466093301773,-0.006206828635185957,0.0007842638879083097,0.003016191767528653,-0.010181753896176815
0.007091159466654062,-0.005650267004966736,-0.00648095179349184,0.0005907888989895582,0.0026443058159202337,-0.010470481589436531
0.007357539609074593,-0.005489179398864508,-0.0060065677389502525,0.0005101250717416406,0.0025687306188046932,-0.010192804969847202
0.007383844815194607,-0.005733819212764502,-0.006053661461919546,0.0005359502392821014,0.0023347085807472467,-0.010580498725175858
0.007492281496524811,-0.005926826037466526,-0.006618071347475052,0.0004971672315150499,0.002305923029780388,-0.010088487528264523
0.007467090617865324,-0.005797505844384432,-0.006513341795653105,0.0005115604726597667,0.0024532033130526543,-0.010030237026512623
0.007358505390584469,-0.005389370955526829,-0.006114545278251171,0.0005026733851991594,0.0027097235433757305,-0.010460267774760723
0.008001306094229221,-0.005495176650583744,-0.006825022399425507,0.00048381646047346294,0.002861771499738097,-0.010012617334723473
0.008287726901471615,-0.005233697593212128,-0.006428231485188007,0.00045425310963764787,0.0028511597774922848,-0.009726262651383877
0.008188699372112751,-0.005735744722187519,-0.006247853860259056,0.00042734347516670823,0.002656848169863224,-0.01006399281322956
0.00843295268714428,-0.0053406208753585815,-0.005931256804615259,0.00040339407860301435,0.002736421534791589,-0.010183865204453468
0.008030099794268608,-0.005131893325597048,-0.006288757547736168,0.00038198489346541464,0.002860591048374772,-0.01036994718015194
0.008401521481573582,-0.005521886050701141,-0.006716538220643997,0.0003627341357059777,0.003106560790911317,-0.01063924003392458
0.008401521481573582,-0.005521886050701141,-0.006716538220643997,0.0003627341357059777,0.003106560790911317,-0.01063924003392458
0.008331887423992157,-0.005127123557031155,-0.00680236890912056,0.00034532975405454636,0.003064503660425544,-0.01013121660798788
0.008286532014608383,-0.0052017089910805225,-0.006203640252351761,0.0003295216883998364,0.0029995529912412167,-0.010027228854596615
0.00865298230201006,-0.0051047308370471,-0.00611584959551692,0.0003150963457301259,0.0027983346953988075,-0.010023778304457664
0.008791454136371613,-0.0049179368652403355,-0.006417449098080397,0.0003018821880687028,0.002869917545467615,-0.010346412658691406
0.008885269984602928,-0.004757544957101345,-0.00650432426482439,0.00025597948115319014,0.0029524066485464573,-0.010752994567155838
0.008592956699430943,-0.00467256736010313,-0.0059609971940517426,0.00024386768927797675,0.0031021328177303076,-0.010260334238409996
0.009771467186510563,-0.00467763002961874,-0.006129309069365263,0.00023463947582058609,0.0030509321950376034,-0.010361296124756336
0.00924011878669262,-0.00454010209068656,-0.006514900829643011,0.00022620383242610842,0.003033343004062772,-0.010321029461920261
0.008855580352246761,-0.004315695725381374,-0.006351901218295097,0.00011871572496602312,0.0031086637172847986,-0.010272630490362644
0.00942989718168974,-0.004873545374721289,-0.006359819322824478,8.22691508801654e-05,0.0030596081633120775,-0.010352691635489464
0.009634030051529408,-0.004486412741243839,-0.006191736552864313,7.672880019526929e-05,0.002669502981007099,-0.010477357544004917
0.009236467070877552,-0.004576284904032946,-0.0059282598085701466,7.346354686887935e-05,0.002695756731554866,-0.010633588768541813
0.009531534276902676,-0.004143421538174152,-0.006109217647463083,3.9983438909985125e-05,0.0026627008337527514,-0.010122410021722317
0.010231256484985352,-0.004093686584383249,-0.006525282748043537,1.7635104086366482e-05,0.0026945217978209257,-0.01041196845471859
0.009275959804654121,-0.004027569200843573,-0.006400963291525841,1.1514463267303654e-06,0.00265535619109869,-0.010398111306130886
0.009924614802002907,-0.003934201784431934,-0.005910796578973532,7.518121236671504e-08,0.0029092931654304266,-0.01055301632732153
0.01047747116535902,-0.0043054623529314995,-0.005768831819295883,4.908795592228898e-09,0.003296974813565612,-0.010547026991844177
0.009586414322257042,-0.004440624266862869,-0.006173156201839447,-0.0007769330404698849,0.0034074753057211637,-0.010770116932690144
0.010491151362657547,-0.0042025865986943245,-0.006243946496397257,-0.0013185059651732445,0.003174126846715808,-0.010501526296138763
0.009352633729577065,-0.004014698788523674,-0.006009199656546116,-0.0021405424922704697,0.0028084192890673876,-0.010690356604754925
0.007352606859058142,-0.004054444842040539,-0.006133221089839935,-0.0022404163610190153,0.002583924448117614,-0.010807713493704796
0.007256000302731991,-0.004122723825275898,-0.0055351280607283115,-0.0024728213902562857,0.002602488500997424,-0.010992014780640602
0.007761887274682522,-0.00440336624160409,-0.006616867613047361,-0.002476427238434553,0.0025871891994029284,-0.011236938647925854
0.007761887274682522,-0.00440336624160409,-0.006616867613047361,-0.002476427238434553,0.0025871891994029284,-0.011236938647925854
0.008525600656867027,-0.0035777457524091005,-0.00581470038741827,-0.003052245592698455,0.0033391155302524567,-0.011114759370684624
0.008525600656867027,-0.0035777457524091005,-0.00581470038741827,-0.003052245592698455,0.0033391155302524567,-0.011114759370684624
0.008368734270334244,-0.003971626050770283,-0.005902202799916267,-0.003585903672501445,0.0033814660273492336,-0.011220861226320267
0.007960258983075619,-0.004137708805501461,-0.005457030609250069,-0.00390669098123908,0.00320093403570354,-0.011333406902849674
0.007354056462645531,-0.004047974944114685,-0.006055215839296579,-0.004510469269007444,0.0028912913985550404,-0.011172710917890072
0.007650335319340229,-0.003958277404308319,-0.006120725069195032,-0.00510366028174758,0.0027122460305690765,-0.011037630960345268
0.008079764433205128,-0.0034488760866224766,-0.005967504810541868,-0.005361005663871765,0.002536897547543049,-0.010503888130187988
0.008153866976499557,-0.0035428835544735193,-0.005612503737211227,-0.005942210089415312,0.002379701239988208,-0.01188756339251995
0.008247974328696728,-0.003277439624071121,-0.005716026294976473,-0.006142830941826105,0.002609143266454339,-0.010847690515220165
0.008431396447122097,-0.0030368934385478497,-0.006240303162485361,-0.006484398618340492,0.0026099879760295153,-0.01061740517616272
0.008992240764200687,-0.003059194190427661,-0.006189440377056599,-0.007069991435855627,0.0025363806635141373,-0.011034533381462097
0.008234307169914246,-0.0032657934352755547,-0.005989986937493086,-0.006648501381278038,0.002742066280916333,-0.01098785549402237
0.008834436535835266,-0.003322384785860777,-0.005443769972771406,-0.006481509190052748,0.0027816970832645893,-0.011091063730418682
0.008924317546188831,-0.00336584635078907,-0.005827066954225302,-0.0066893924959003925,0.0032919752411544323,-0.011215383186936378
0.008529236540198326,-0.0031374050304293633,-0.006414471194148064,-0.007898460142314434,0.003762792330235243,-0.010890055447816849
0.009487396106123924,-0.0027918568812310696,-0.006108378525823355,-0.008290466852486134,0.0034683996345847845,-0.011036780662834644
0.009618391282856464,-0.0029961864929646254,-0.006064037326723337,-0.007350706961005926,0.003540207864716649,-0.010749179869890213
0.009504956193268299,-0.00308886612765491,-0.0056228358298540115,-0.007327456492930651,0.003644506214186549,-0.010882268659770489
0.009911175817251205,-0.003004013327881694,-0.0059624603018164635,-0.00800206046551466,0.0034050752874463797,-0.0113211153075099
0.009993291459977627,-0.0026898120995610952,-0.0056781773455441,-0.008957531303167343,0.00333029730245471,-0.010897045955061913
0.009421764872968197,-0.0028667845763266087,-0.005751845892518759,-0.008128929883241653,0.0034074748400598764,-0.010854976251721382
0.009684605523943901,-0.0031222004909068346,-0.005749400705099106,-0.007230930030345917,0.003330832114443183,-0.01155562698841095
0.009985591284930706,-0.0031764621380716562,-0.005836176220327616,-0.007886314764618874,0.003463695291429758,-0.011328784748911858
0.010195093229413033,-0.002511344151571393,-0.005696166772395372,-0.008822793141007423,0.0038323632907122374,-0.01121813990175724
0.01039926242083311,-0.00237550912424922,-0.005472230259329081,-0.009036228992044926,0.0034438669681549072,-0.011287851259112358
0.010203668847680092,-0.002268110401928425,-0.005298942793160677,-0.009659210219979286,0.0031286387238651514,-0.011493307538330555
0.01143159344792366,-0.002852576319128275,-0.005155229941010475,-0.009384146891534328,0.002869677497074008,-0.011673813685774803
0.009762736037373543,-0.003052332904189825,-0.005701540503650904,-0.010151700116693974,0.00303064426407218,-0.012013174593448639
0.009762736037373543,-0.003052332904189825,-0.005701540503650904,-0.010151700116693974,0.00303064426407218,-0.012013174593448639
0.009780297987163067,-0.0027042620349675417,-0.005621328018605709,-0.010157492943108082,0.003252610797062516,-0.0111152408644557
0.011064383201301098,-0.0024390413891524076,-0.005685280077159405,-0.010142463259398937,0.0035446882247924805,-0.01152535155415535
0.010965283960103989,-0.0016054405132308602,-0.0054638138972222805,-0.01126570999622345,0.004055710509419441,-0.011371461674571037
0.010965283960103989,-0.0016054405132308602,-0.0054638138972222805,-0.01126570999622345,0.004055710509419441,-0.011371461674571037
0.011516466736793518,-0.001500553684309125,-0.005485519301146269,-0.011691685765981674,0.0042488775216042995,-0.011566190049052238
0.010900510475039482,-0.001779346028342843,-0.006066340487450361,-0.0118186566978693,0.0038245536852627993,-0.012009073048830032
0.011796715669333935,-0.0016893002903088927,-0.00604448514059186,-0.01176888681948185,0.003533049952238798,-0.011506189592182636
0.01214633323252201,-0.0017476199427619576,-0.005819087382405996,-0.012305167503654957,0.0035582473501563072,-0.011878498829901218
0.011585060507059097,-0.0018352315528318286,-0.005536644719541073,-0.011573160998523235,0.003728773444890976,-0.01177862100303173
0.011616560630500317,-0.0016826092032715678,-0.005803514271974564,-0.011585232801735401,0.004141367506235838,-0.011748136952519417
0.011636125855147839,-0.0016117626801133156,-0.0056770360097289085,-0.012002471834421158,0.003680792171508074,-0.012123540975153446
0.01214685384184122,-0.0015990815591067076,-0.0058233654126524925,-0.011317138560116291,0.003487339010462165,-0.01198749803006649
0.012090523727238178,-0.001436410821042955,-0.0060220155864953995,-0.011982215568423271,0.00349487760104239,-0.012057415209710598
0.01164554338902235,-0.0013391037937253714,-0.005698303692042828,-0.01134288590401411,0.0036030965857207775,-0.011774882674217224
0.012087386101484299,-0.0012513883411884308,-0.005567961372435093,-0.011258644983172417,0.003684737253934145,-0.0116672832518816
0.01167779229581356,-0.0013190909521654248,-0.005495229735970497,-0.01124128233641386,0.003516150638461113,-0.011636015959084034
0.011690576560795307,-0.0012788248714059591,-0.005562311504036188,-0.010844036005437374,0.003370358608663082,-0.01178085245192051
0.012027020566165447,-0.0013228114694356918,-0.005849422886967659,-0.010845121927559376,0.0033307019621133804,-0.011685222387313843
0.011724883690476418,-0.001189597649499774,-0.005918118171393871,-0.01028074137866497,0.0036693953443318605,-0.011290233582258224
0.012100719846785069,-0.0012589986436069012,-0.005587908439338207,-0.010570758953690529,0.0035118029918521643,-0.0119584696367383
0.011682814918458462,-0.0011518511455506086,-0.005738792009651661,-0.011135712265968323,0.0035514154005795717,-0.011479356326162815
0.011860826052725315,-0.0010169760789722204,-0.005382608622312546,-0.011237269267439842,0.003597226459532976,-0.0114866578951478
0.01182488538324833,-0.0008787057013250887,-0.00571522256359458,-0.01089034415781498,0.0037242413964122534,-0.011527507565915585
0.01205388642847538,-0.0007435585139319301,-0.00572420097887516,-0.010723387822508812,0.003912243992090225,-0.012249439023435116
0.011660611256957054,-0.0006353331264108419,-0.0056505450047552586,-0.012401342391967773,0.004256309475749731,-0.012005181983113289
0.0120935570448637,-0.0006288301083259284,-0.005769129376858473,-0.012092470191419125,0.004590769298374653,-0.011845103465020657
0.011632776819169521,-0.0005938506801612675,-0.006254328414797783,-0.011254633776843548,0.004499024711549282,-0.011886319145560265
0.011891675181686878,-0.0005934801883995533,-0.005702983122318983,-0.01192717719823122,0.004103955812752247,-0.012041118927299976
0.011926880106329918,-0.0005678562447428703,-0.0057343957014381886,-0.011782611720263958,0.0038205834571272135,-0.012358547188341618
0.011621841229498386,-0.0005212334799580276,-0.00564028974622488,-0.011933491565287113,0.0037134727463126183,-0.012897869572043419
0.011621841229498386,-0.0005212334799580276,-0.00564028974622488,-0.011933491565287113,0.0037134727463126183,-0.012897869572043419
0.01199457235634327,-0.000481398164993152,-0.005653476808220148,-0.01221174281090498,0.003968487959355116,-0.011961841024458408
0.011604606173932552,-0.0004472149012144655,-0.00574482511729002,-0.012749902904033661,0.004102029837667942,-0.011691681109368801
0.01232033409178257,-0.0004175676731392741,-0.006031670141965151,-0.012836569920182228,0.004368661902844906,-0.011942771263420582
0.011945530772209167,-0.00039160679443739355,-0.00542671512812376,-0.012899963185191154,0.00459264637902379,-0.012175532057881355
0.011845557950437069,-0.00036868645111098886,-0.005314527545124292,-0.013772841542959213,0.00425543962046504,-0.012248529121279716
0.012053661979734898,-0.00021463520533870906,-0.005457016639411449,-0.013726940378546715,0.0039372812025249004,-0.012492823414504528
0.011992113664746284,-0.0001340538146905601,-0.005563186947256327,-0.014680623076856136,0.0037981094792485237,-0.012382715940475464
0.012209247797727585,-0.00012394814984872937,-0.005865046288818121,-0.01482174638658762,0.003760785795748234,-0.012947691604495049
0.012174222618341446,-0.00011595083924476057,-0.0057660299353301525,-0.014920225366950035,0.004233424086123705,-0.012610008008778095
0.012018363922834396,-0.00010893238504650071,-0.005357634741812944,-0.014236782677471638,0.004244368057698011,-0.012398825027048588
0.012115135788917542,-0.00010271507198922336,-0.005731566343456507,-0.014870339073240757,0.004085542634129524,-0.012577618472278118
0.011851474642753601,-9.716956992633641e-05,-0.0064506689086556435,-0.015326667577028275,0.004306327551603317,-0.012739772908389568
0.012151999399065971,-9.219211642630398e-05,-0.006251460872590542,-0.015568520873785019,0.004531727638095617,-0.012627341784536839
0.01173331681638956,-8.769982377998531e-05,-0.005580336786806583,-0.015482919290661812,0.004134097136557102,-0.012454899959266186
0.012183181010186672,-8.36251419968903e-05,-0.005363380070775747,-0.015244756825268269,0.003916134126484394,-0.012450331822037697
0.012349233031272888,-7.991209713509306e-05,-0.005663564894348383,-0.015090243890881538,0.004224291071295738,-0.01257182564586401
0.01205745805054903,-7.651498890481889e-05,-0.005746905691921711,-0.015005149878561497,0.004369898699223995,-0.012665335088968277
0.012320206500589848,-4.931636431138031e-05,-0.006314107682555914,-0.01515116821974516,0.004501589573919773,-0.013009118847548962
0.011963102966547012,-3.542902777553536e-05,-0.006263605318963528,-0.015542851760983467,0.004222360905259848,-0.012481804937124252
0.012131287716329098,-3.2697578717488796e-05,-0.005753353703767061,-0.015644831582903862,0.0040862467139959335,-0.012536076828837395
0.012299294583499432,-3.155127342324704e-05,-0.00570084061473608,-0.016360634937882423,0.003850239561870694,-0.012870599515736103
0.012369482778012753,-3.5915838907385478e-06,-0.00642112223431468,-0.016130533069372177,0.004213401116430759,-0.013143405318260193
0.012527285143733025,-4.818568299924664e-08,-0.005675278138369322,-0.01587342657148838,0.004094823729246855,-0.013003058731555939
0.012579224072396755,-6.464724866539484e-10,-0.005369323771446943,-0.015983477234840393,0.00443021347746253,-0.012592232786118984
0.012118286453187466,-8.673253955315818e-12,-0.005212976131588221,-0.01653992012143135,0.004716487601399422,-0.01264201570302248
0.012441872619092464,-1.1636277065605466e-13,-0.005896957125514746,-0.017193986102938652,0.004759547766298056,-0.012916013598442078
0.012181875295937061,-1.5611550960187314e-15,-0.006084925960749388,-0.017012400552630424,0.004982334561645985,-0.012911828234791756
0.012181875295937061,-1.5611550960187314e-15,-0.006084925960749388,-0.017012400552630424,0.004982334561645985,-0.012911828234791756
0.01251026801764965,-2.0944888089222504e-17,-0.005864134058356285,-0.017171332612633705,0.00473404536023736,-0.012871019542217255
0.012601484544575214,-2.81002430619184e-19,-0.005502300802618265,-0.017164120450615883,0.004454269073903561,-0.01262092124670744
0.01259407214820385,-5.057944199170993e-23,-0.005754972342401743,-0.017563026398420334,0.004801036324352026,-0.01300857774913311
0.01259407214820385,-5.057944199170993e-23,-0.005754972342401743,-0.017563026398420334,0.004801036324352026,-0.01300857774913311
0.012156880460679531,-6.785877649133967e-25,-0.00584190059453249,-0.017521601170301437,0.005251919850707054,-0.013408541679382324
0.012606687843799591,-9.104120447639256e-27,-0.005989470053464174,-0.018187567591667175,0.005264426115900278,-0.013227799907326698
0.012795086950063705,-1.2214339188976208e-28,-0.0053649721667170525,-0.01840389333665371,0.004805236589163542,-0.013065868057310581
0.012571611441671848,0.0003981144109275192,-0.00577525096014142,-0.01821868307888508,0.0042505725286901,-0.01303971279412508
0.01277295220643282,0.0005557868862524629,-0.005395838525146246,-0.01876319944858551,0.003976579289883375,-0.013095300644636154
0.012804019264876842,0.0005146883195266128,-0.005438453517854214,-0.01873723417520523,0.004447282291948795,-0.013345999643206596
0.013096023350954056,0.0005472161574289203,-0.005665878299623728,-0.019114475697278976,0.0047481427900493145,-0.013450022786855698
0.01234712265431881,0.0005677980952896178,-0.005440605338662863,-0.01923235133290291,0.004998586606234312,-0.013821196742355824
0.012995278462767601,0.0005336443427950144,-0.005298298317939043,-0.01924707740545273,0.005276459734886885,-0.013695553876459599
0.01282353326678276,0.0007091649458743632,-0.005134635604918003,-0.01938020810484886,0.004811747930943966,-0.014507398009300232
0.012825032696127892,0.0006210057181306183,-0.005287590436637402,-0.020306261256337166,0.004669975955039263,-0.013312038034200668
0.013165084645152092,0.0007240515551529825,-0.005612522829324007,-0.020767120644450188,0.0048543172888457775,-0.012952889315783978
0.013055148534476757,0.0007716362597420812,-0.005996692925691605,-0.02068607322871685,0.00492961285635829,-0.013277196325361729
0.013103626668453217,0.0015499084256589413,-0.005451112519949675,-0.020879071205854416,0.005240832921117544,-0.013747485354542732
0.012874355539679527,0.005687987431883812,-0.005157016217708588,-0.021545417606830597,0.0054373303428292274,-0.01362233329564333
0.013431647792458534,0.005054876208305359,-0.005126121453940868,-0.02157832868397236,0.004821451380848885,-0.013831407763063908
0.013134436681866646,0.0035089277662336826,-0.005761409644037485,-0.021514736115932465,0.00435666274279356,-0.013968543149530888
0.01361857820302248,0.00271842023357749,-0.00590008357539773,-0.02210092730820179,0.004074002616107464,-0.014161511324346066
0.013899811543524265,0.0039019102696329355,-0.005288887303322554,-0.022018224000930786,0.004737281706184149,-0.014185667037963867
0.013478684239089489,0.0041878134943544865,-0.005548289977014065,-0.02223360724747181,0.004934708587825298,-0.013925304636359215
0.013739330694079399,0.0044880942441523075,-0.005217594560235739,-0.02263720892369747,0.004836737643927336,-0.013940180651843548
0.013599070720374584,0.0040831295773386955,-0.006081541068851948,-0.023749597370624542,0.0046981931664049625,-0.014146712608635426
0.013928491622209549,0.0042569818906486034,-0.005910548847168684,-0.02305753156542778,0.004593404941260815,-0.014474181458353996
0.013754228129982948,0.004292088560760021,-0.00565563328564167,-0.02237578108906746,0.004822299815714359,-0.014647143892943859
0.014562588185071945,0.005183693021535873,-0.005215297918766737,-0.021395143121480942,0.00561237707734108,-0.014308610931038857
0.014562588185071945,0.005183693021535873,-0.005215297918766737,-0.021395143121480942,0.00561237707734108,-0.014308610931038857
0.013351273722946644,0.005486269015818834,-0.005815607495605946,-0.02196117490530014,0.005826713051646948,-0.014156934805214405
0.013944992795586586,0.005051608197391033,-0.005528571084141731,-0.02311597391963005,0.006041765213012695,-0.01416409108787775
0.014410747215151787,0.005440883804112673,-0.005988295655697584,-0.023577997460961342,0.005376294255256653,-0.014242561534047127
0.014428447932004929,0.005359059665352106,-0.0053755440749228,-0.02279369905591011,0.004735096357762814,-0.014278911985456944
0.014074916951358318,0.005719759035855532,-0.005219322629272938,-0.023006949573755264,0.004968188237398863,-0.014304722659289837
0.014147496782243252,0.005833365023136139,-0.005521171726286411,-0.023410480469465256,0.005449281074106693,-0.014459505677223206
0.014458529651165009,0.006169970612972975,-0.006120384205132723,-0.024553535506129265,0.005426327232271433,-0.014918239787220955
0.01472257636487484,0.005722114350646734,-0.00614710059016943,-0.02453925833106041,0.00554086035117507,-0.015457975678145885
0.01460000779479742,0.005979266483336687,-0.006231082137674093,-0.023559678345918655,0.0050997002981603146,-0.014831047505140305
0.014137320220470428,0.0060444604605436325,-0.005472430493682623,-0.023701652884483337,0.004760731011629105,-0.014075408689677715
0.014200170524418354,0.006090822629630566,-0.006024273112416267,-0.025139562785625458,0.004778908099979162,-0.014534362591803074
0.01447832677513361,0.006318564526736736,-0.005704954266548157,-0.0256212055683136,0.004858190193772316,-0.014444678090512753
0.015687309205532074,0.006776853464543819,-0.006003241520375013,-0.025586796924471855,0.005126413889229298,-0.013920938596129417
0.01627233251929283,0.006837700493633747,-0.006058461498469114,-0.02583145536482334,0.005570076406002045,-0.014270609244704247
0.015701260417699814,0.007384806405752897,-0.005565277300775051,-0.025961993262171745,0.005924679338932037,-0.014432352036237717
0.01560209970921278,0.007608115207403898,-0.005811790004372597,-0.026262106373906136,0.00540483882650733,-0.015091204084455967
0.015479546040296555,0.00699621019884944,-0.0062845791690051556,-0.026621904224157333,0.004838282708078623,-0.015260337851941586
0.01637900434434414,0.0068732439540326595,-0.006476802285760641,-0.026718754321336746,0.004742383491247892,-0.015115794725716114
0.01610785536468029,0.007403369527310133,-0.005810167640447617,-0.026835262775421143,0.004793467931449413,-0.01453830674290657
0.016272205859422684,0.008167696185410023,-0.005637018010020256,-0.02681531384587288,0.005463309586048126,-0.01601453498005867
0.015990540385246277,0.007785517256706953,-0.006226622965186834,-0.026977015659213066,0.006188864354044199,-0.014651389792561531
0.0166255384683609,0.00848569069057703,-0.007058165967464447,-0.02719726599752903,0.00572535116225481,-0.015236351639032364
0.016587572172284126,0.008279253728687763,-0.005904309917241335,-0.027295315638184547,0.005985722877085209,-0.015235676430165768
0.01668245904147625,0.007623776327818632,-0.00590816605836153,-0.02717277966439724,0.005595104303210974,-0.014761047437787056
0.016442634165287018,0.008111824281513691,-0.005957161076366901,-0.027055269107222557,0.005693410988897085,-0.014689488336443901
0.016959743574261665,0.008557986468076706,-0.006332638207823038,-0.028029484674334526,0.005375627428293228,-0.01457858644425869
0.016877472400665283,0.008712408132851124,-0.006193367764353752,-0.02823445573449135,0.005321851931512356,-0.015031872317194939
0.016877472400665283,0.008712408132851124,-0.006193367764353752,-0.02823445573449135,0.005321851931512356,-0.015031872317194939
0.016582811251282692,0.008866549469530582,-0.005922231357544661,-0.02827894501388073,0.005501873791217804,-0.015069331042468548
0.016562724485993385,0.009225064888596535,-0.006141421385109425,-0.027754684910178185,0.005033649504184723,-0.015220753848552704
0.016669418662786484,0.009043769910931587,-0.006327716633677483,-0.02842099592089653,0.004845325369387865,-0.015353124588727951
0.01731283776462078,0.008988839574158192,-0.006261942908167839,-0.028928862884640694,0.005139503162354231,-0.015316377393901348
0.017247186973690987,0.009291371330618858,-0.006423512473702431,-0.02889910712838173,0.005028753075748682,-0.015085154213011265
0.01744244433939457,0.009102044627070427,-0.006154479458928108,-0.028232447803020477,0.0049097598530352116,-0.015053020790219307
0.01755668595433235,0.009131084196269512,-0.005840243771672249,-0.028697611764073372,0.005033852066844702,-0.014974551275372505
0.01681077666580677,0.010971668176352978,-0.006171626504510641,-0.028730513527989388,0.004890925716608763,-0.015055974945425987
0.0169865470379591,0.010017702355980873,-0.00615935493260622,-0.02908814698457718,0.0056972079910337925,-0.01509470771998167
0.017132898792624474,0.009174993261694908,-0.006471411790698767,-0.029588166624307632,0.005541656166315079,-0.015196498483419418
0.017671432346105576,0.011054337956011295,-0.006337437778711319,-0.029829345643520355,0.005993260070681572,-0.015397364273667336
0.01772715337574482,0.010375608690083027,-0.005876023788005114,-0.028463849797844887,0.005922768265008926,-0.015157007612287998
0.017351288348436356,0.009574363008141518,-0.005978120490908623,-0.028029371052980423,0.005683254450559616,-0.015336784534156322
0.017538173124194145,0.010697509162127972,-0.006952053401619196,-0.029288195073604584,0.005766964051872492,-0.015430407598614693
0.017499584704637527,0.010644312016665936,-0.006807798054069281,-0.02956472523510456,0.006290963385254145,-0.015762845054268837
0.017592988908290863,0.010064734145998955,-0.0058633312582969666,-0.029309554025530815,0.006321060936897993,-0.015389050357043743
0.018273409456014633,0.010310850106179714,-0.0059566255658864975,-0.030219102278351784,0.006118500605225563,-0.015631144866347313
0.018332263454794884,0.01050762739032507,-0.0067637646570801735,-0.030592450872063637,0.006007160060107708,-0.015581280924379826
0.01800290308892727,0.01072428934276104,-0.007430665194988251,-0.029777148738503456,0.0054361033253371716,-0.015754422172904015
0.01791299134492874,0.011063792742788792,-0.006312279030680656,-0.029022131115198135,0.005239421036094427,-0.015310622751712799
0.01771710440516472,0.01075306348502636,-0.006018713116645813,-0.03012407012283802,0.0055622076615691185,-0.015370364300906658
0.017816178500652313,0.011721841059625149,-0.006911656819283962,-0.03119267150759697,0.005540749989449978,-0.015987467020750046
0.018296752125024796,0.01159230712801218,-0.006602751091122627,-0.031568724662065506,0.005287439562380314,-0.01719330996274948
0.018758626654744148,0.01149845216423273,-0.006112527567893267,-0.03116408921778202,0.0053851366974413395,-0.01586163230240345
0.01839507184922695,0.011047085747122765,-0.0061325086280703545,-0.03159821033477783,0.005595434922724962,-0.015180755406618118
0.018060259521007538,0.011427311226725578,-0.006058368366211653,-0.03188111260533333,0.0057789660058915615,-0.015414726920425892
0.018499605357646942,0.012182474136352539,-0.006984361447393894,-0.03218015283346176,0.005944408010691404,-0.015966417267918587
0.01878584921360016,0.011926171369850636,-0.006386615801602602,-0.03253941982984543,0.005516722798347473,-0.016023630276322365
0.01876121573150158,0.012179773300886154,-0.005839207209646702,-0.032478176057338715,0.005425882991403341,-0.01623654179275036
0.01876121573150158,0.012179773300886154,-0.005839207209646702,-0.032478176057338715,0.005425882991403341,-0.01623654179275036
0.018965497612953186,0.012271227315068245,-0.006781339179724455,-0.032903239130973816,0.00552391167730093,-0.016198519617319107
0.018965497612953186,0.012271227315068245,-0.006781339179724455,-0.032903239130973816,0.00552391167730093,-0.016198519617319107
0.019158752635121346,0.011643207632005215,-0.006898584309965372,-0.0332149900496006,0.005394607316702604,-0.016162242740392685
0.019248394295573235,0.011735886335372925,-0.006542184390127659,-0.03254072740674019,0.005707133561372757,-0.015783337876200676
0.01925269514322281,0.012039505876600742,-0.006051506847143173,-0.032233841717243195,0.005888322833925486,-0.015685535967350006
0.019722603261470795,0.011602750979363918,-0.006317255552858114,-0.03259136527776718,0.0060222395695745945,-0.015271112322807312
0.019594857469201088,0.012167602777481079,-0.0074689448811113834,-0.03281902149319649,0.006287452764809132,-0.016040679067373276
0.019353246316313744,0.011724976822733879,-0.007115189917385578,-0.03284705430269241,0.005875489674508572,-0.015839923173189163
0.02004878781735897,0.012251256965100765,-0.006296178326010704,-0.03365915268659592,0.005794726312160492,-0.016147101297974586
0.020502658560872078,0.01203673705458641,-0.0061741904355585575,-0.03328952193260193,0.005479862913489342,-0.01598139852285385
0.02014777995646,0.011828135699033737,-0.006553588435053825,-0.033436257392168045,0.005723861046135426,-0.015698309987783432
0.01993589662015438,0.01246831938624382,-0.007150751072913408,-0.03510464355349541,0.005840858444571495,-0.01569274440407753
0.0205246489495039,0.012128314934670925,-0.006385029759258032,-0.03505200147628784,0.0059760394506156445,-0.015868891030550003
0.02036219835281372,0.012203487567603588,-0.006199547089636326,-0.033170755952596664,0.005547732580453157,-0.016437046229839325
0.020139042288064957,0.011977086775004864,-0.006259238347411156,-0.03378450870513916,0.005867905914783478,-0.01678445190191269
0.020595677196979523,0.011988308280706406,-0.0071809906512498856,-0.03530162572860718,0.005973983556032181,-0.016607096418738365
0.02035083808004856,0.012291640043258667,-0.006536141969263554,-0.03517507389187813,0.005974574945867062,-0.015735968947410583
0.020226016640663147,0.012182063423097134,-0.006408617831766605,-0.03643183782696724,0.006105645094066858,-0.0160713791847229
0.020671050995588303,0.012876913882791996,-0.0063213175162673,-0.03698468953371048,0.00598446698859334,-0.01571471616625786
0.020703712478280067,0.012890070676803589,-0.006742762867361307,-0.03595350310206413,0.006858048960566521,-0.016527459025382996
0.020399367436766624,0.01231066882610321,-0.006638858467340469,-0.03625619038939476,0.006814835127443075,-0.016570420935750008
0.020765257999300957,0.012149950489401817,-0.006671174895018339,-0.03643959015607834,0.006275556515902281,-0.016775548458099365
0.021121812984347343,0.012705989181995392,-0.005975477863103151,-0.036593858152627945,0.006214081775397062,-0.01632264256477356
0.020974822342395782,0.012376234866678715,-0.006654674652963877,-0.03702455759048462,0.006277799606323242,-0.016494939103722572
0.020991843193769455,0.013063443824648857,-0.006853571627289057,-0.03677055239677429,0.006026069633662701,-0.01569344848394394
0.021602770313620567,0.012590602040290833,-0.006642536725848913,-0.03712710365653038,0.006236906163394451,-0.016200311481952667
0.021825242787599564,0.012968596071004868,-0.006086800247430801,-0.036918867379426956,0.006305189337581396,-0.01658095419406891
0.021825242787599564,0.012968596071004868,-0.006086800247430801,-0.036918867379426956,0.006305189337581396,-0.01658095419406891
0.021214276552200317,0.012758755125105381,-0.0061088670045137405,-0.036803681403398514,0.005604487843811512,-0.016830939799547195
0.02120952308177948,0.012842434458434582,-0.0067777493968605995,-0.036837827414274216,0.005509563721716404,-0.016990570351481438
0.02183513157069683,0.013249670155346394,-0.0068876170553267,-0.036969225853681564,0.005883398465812206,-0.017006199806928635
0.02294466458261013,0.012882895767688751,-0.006290519144386053,-0.036884523928165436,0.006481708958745003,-0.017021818086504936
0.022208034992218018,0.013463457114994526,-0.006069139111787081,-0.03711208328604698,0.00595403416082263,-0.016772150993347168
0.021547291427850723,0.012724674306809902,-0.00651552015915513,-0.03786425665020943,0.005935648921877146,-0.017000533640384674
0.02192545495927334,0.014258108101785183,-0.006766272708773613,-0.03800568729639053,0.00625237263739109,-0.017304906621575356
0.02225896716117859,0.013639204204082489,-0.0065024252980947495,-0.03761845827102661,0.006382922176271677,-0.01757023110985756
0.02230166457593441,0.013901976868510246,-0.006244110409170389,-0.038165848702192307,0.006379859056323767,-0.01770920492708683
0.02235058695077896,0.013453477993607521,-0.006461328826844692,-0.03770074248313904,0.00643986975774169,-0.01741935685276985
0.022083846852183342,0.014119108207523823,-0.00721566379070282,-0.037621721625328064,0.0064872088842093945,-0.01726333051919937
0.0226655974984169,0.013645172119140625,-0.006918309722095728,-0.03791985288262367,0.006369032431393862,-0.017523670569062233
0.02285795658826828,0.01433259155601263,-0.0064057172276079655,-0.03816922381520271,0.006318507716059685,-0.01754399761557579
0.022929033264517784,0.014013920910656452,-0.006188674364238977,-0.03868158906698227,0.006510366220027208,-0.01761653833091259
0.023524755612015724,0.014131531119346619,-0.006151932291686535,-0.03958490490913391,0.006540302187204361,-0.01729794219136238
0.022655410692095757,0.014132735319435596,-0.007102477829903364,-0.03867843374609947,0.0063424743711948395,-0.01726851984858513
0.021893685683608055,0.01487996056675911,-0.006458657328039408,-0.03913819044828415,0.006665321998298168,-0.017414996400475502
0.022378673776984215,0.014440569095313549,-0.006281403824687004,-0.04034750163555145,0.006826283410191536,-0.017080502584576607
0.02242615446448326,0.015237328596413136,-0.0059465584345161915,-0.04061565920710564,0.006599012762308121,-0.017731985077261925
0.023117445409297943,0.01491421740502119,-0.0064161685295403,-0.04173922911286354,0.0062695895321667194,-0.01779640093445778
0.0228269100189209,0.01440456137061119,-0.0066601126454770565,-0.039388325065374374,0.006815013475716114,-0.017879387363791466
0.02287248894572258,0.015190301463007927,-0.006025466602295637,-0.04124429076910019,0.006925320718437433,-0.017761319875717163
0.02247912995517254,0.014460398815572262,-0.006287303287535906,-0.040883660316467285,0.006525550968945026,-0.01861095242202282
0.02299433946609497,0.015476712025702,-0.006709366571158171,-0.04122420400381088,0.006442802958190441,-0.01752634532749653
0.023283248767256737,0.015211401507258415,-0.0068087708204984665,-0.04155454412102699,0.006612163968384266,-0.017069194465875626
0.023283248767256737,0.015211401507258415,-0.0068087708204984665,-0.04155454412102699,0.006612163968384266,-0.017069194465875626
0.023481206968426704,0.015533477067947388,-0.006845012307167053,-0.04173761233687401,0.0067297713831067085,-0.018016008660197258
0.023393068462610245,0.0151102589443326,-0.006373164709657431,-0.04213477671146393,0.006803418509662151,-0.018328065052628517
0.023578278720378876,0.01598281040787697,-0.006708304863423109,-0.04181576147675514,0.006835986860096455,-0.018248718231916428
0.023495640605688095,0.016033237800002098,-0.007198450155556202,-0.0427667610347271,0.007213170174509287,-0.018270475789904594
0.02350001223385334,0.015631860122084618,-0.00698975520208478,-0.042536716908216476,0.007418541237711906,-0.018204599618911743
0.024059372022747993,0.015647510066628456,-0.006779005751013756,-0.043327491730451584,0.0075281173922121525,-0.01828705705702305
0.024204416200518608,0.01575414091348648,-0.006482272874563932,-0.043446898460388184,0.006739881820976734,-0.018478140234947205
0.023636940866708755,0.016216684132814407,-0.0069709583185613155,-0.044137563556432724,0.00683628860861063,-0.018310964107513428
0.023703796789050102,0.016067903488874435,-0.006695469841361046,-0.043554600328207016,0.006879907567054033,-0.01834503933787346
0.024112077429890633,0.01662597991526127,-0.006552239414304495,-0.044227104634046555,0.007326745893806219,-0.018350951373577118
0.024318374693393707,0.016030387952923775,-0.006632412783801556,-0.04557226970791817,0.0073470016941428185,-0.01832449994981289
0.024385938420891762,0.01656574197113514,-0.0075838021002709866,-0.04527483507990837,0.007496180944144726,-0.01863371953368187
0.02424703910946846,0.01661870628595352,-0.0066896965727210045,-0.04433764889836311,0.006784271914511919,-0.018752282485365868
0.02433387190103531,0.016762321814894676,-0.006415094248950481,-0.04488024488091469,0.006814088672399521,-0.0188913457095623
0.02437502332031727,0.016778144985437393,-0.006405623629689217,-0.04625901207327843,0.007095931097865105,-0.018994305282831192
0.024397144094109535,0.016287535429000854,-0.00724449846893549,-0.04726475849747658,0.007224776782095432,-0.018561361357569695
0.02456771768629551,0.016656052321195602,-0.00684624258428812,-0.045376021414995193,0.00723503390327096,-0.018509598448872566
0.024695366621017456,0.016329174861311913,-0.006432760041207075,-0.04485778138041496,0.0070373499765992165,-0.01851840503513813
0.024587085470557213,0.016858765855431557,-0.006575264967978001,-0.04603615403175354,0.006710547022521496,-0.018297389149665833
0.024879377335309982,0.017159968614578247,-0.006173308473080397,-0.046349119395017624,0.0070533715188503265,-0.018092142418026924
0.025490187108516693,0.016812501475214958,-0.006664578337222338,-0.04616646096110344,0.007502161432057619,-0.01816231943666935
0.025099454447627068,0.0171760693192482,-0.006842224858701229,-0.045674920082092285,0.007604129146784544,-0.018914304673671722
0.024541951715946198,0.0175163671374321,-0.006540355272591114,-0.04572763666510582,0.00684895645827055,-0.019704032689332962
0.024931857362389565,0.01755388267338276,-0.006509249564260244,-0.04597244784235954,0.006719629280269146,-0.019276434555649757
0.025049252435564995,0.01750541850924492,-0.006995052564889193,-0.04587503522634506,0.006967959459871054,-0.018387962132692337
0.02538900263607502,0.018222929909825325,-0.006510916166007519,-0.04645298793911934,0.007236588280647993,-0.018573887646198273
0.02482323907315731,0.017185214906930923,-0.006600039545446634,-0.046600889414548874,0.006963748950511217,-0.018141940236091614
0.02546342834830284,0.017791295424103737,-0.006769462488591671,-0.047251347452402115,0.007362725678831339,-0.0191290732473135
0.025803547352552414,0.0184040330350399,-0.006644099019467831,-0.047965262085199356,0.0070228311233222485,-0.018973950296640396
0.025803547352552414,0.0184040330350399,-0.006644099019467831,-0.047965262085199356,0.0070228311233222485,-0.018973950296640396
0.02493063360452652,0.01764509081840515,-0.006845409516245127,-0.04786727949976921,0.007325342390686274,-0.019431104883551598
0.0255309846252203,0.018960164859890938,-0.006424360908567905,-0.048826511949300766,0.006833307910710573,-0.01955466903746128
0.02502542920410633,0.018747897818684578,-0.006430575158447027,-0.049390971660614014,0.006621545646339655,-0.018946262076497078
0.02507835067808628,0.01812554895877838,-0.006126064341515303,-0.04931645467877388,0.00698319124057889,-0.019203178584575653
0.025660276412963867,0.01840783655643463,-0.006813603453338146,-0.050611067563295364,0.00736679183319211,-0.02008996345102787
0.025637468323111534,0.018485309556126595,-0.006869895849376917,-0.051880378276109695,0.007552879396826029,-0.020363306626677513
0.026092911139130592,0.018614718690514565,-0.006370465736836195,-0.04915910214185715,0.007862379774451256,-0.01956561766564846
0.025169074535369873,0.019083231687545776,-0.005969213787466288,-0.04928019642829895,0.007723980583250523,-0.019305672496557236
0.02484763413667679,0.0192211102694273,-0.006477153394371271,-0.050205156207084656,0.008136490359902382,-0.018882054835557938
0.02553575299680233,0.018890101462602615,-0.0069580539129674435,-0.05264798551797867,0.009206697344779968,-0.019210021942853928
0.025696778669953346,0.019214922562241554,-0.006579842418432236,-0.051231902092695236,0.008171262219548225,-0.019656343385577202
0.025960048660635948,0.019262082874774933,-0.00623128330335021,-0.05015839263796806,0.006971411872655153,-0.019925827160477638
0.026043441146612167,0.02041587419807911,-0.00626133568584919,-0.05201369896531105,0.00734370294958353,-0.02008579671382904
0.02610808238387108,0.020266598090529442,-0.006885281763970852,-0.052504800260066986,0.007548968773335218,-0.020015541464090347
0.026248624548316002,0.01974613033235073,-0.006618144456297159,-0.05300336331129074,0.00813458114862442,-0.02014089561998844
0.0261369701474905,0.019704047590494156,-0.0060436115600168705,-0.05272413417696953,0.008209834806621075,-0.019804053008556366
0.02597743272781372,0.020052770152688026,-0.0062550995498895645,-0.05292680114507675,0.007785093504935503,-0.019384164363145828
0.025804927572607994,0.020757336169481277,-0.006923421286046505,-0.05271023139357567,0.007627899292856455,-0.01948600634932518
0.025576677173376083,0.020156579092144966,-0.006935956887900829,-0.05310850962996483,0.007668832782655954,-0.01976826600730419
0.026161935180425644,0.020766180008649826,-0.006175469607114792,-0.052227359265089035,0.007414563093334436,-0.018973562866449356
0.02650025114417076,0.02032225765287876,-0.005837494041770697,-0.05345431715250015,0.007375785149633884,-0.019384613260626793
0.02668466605246067,0.02045648917555809,-0.006268152967095375,-0.05509993061423302,0.00756647577509284,-0.019989749416708946
0.02618335746228695,0.020812779664993286,-0.0065038991160690784,-0.05214723199605942,0.008076181635260582,-0.020328139886260033
0.026282133534550667,0.021264908835291862,-0.006464103702455759,-0.05179392173886299,0.007895097136497498,-0.02010033093392849
0.026271704584360123,0.02052364870905876,-0.006255531217902899,-0.05163854733109474,0.007470346987247467,-0.020002305507659912
0.026346363127231598,0.021107949316501617,-0.006380172446370125,-0.053931981325149536,0.007491681724786758,-0.02034103497862816
0.026346363127231598,0.021107949316501617,-0.006380172446370125,-0.053931981325149536,0.007491681724786758,-0.02034103497862816
0.026592351496219635,0.021354587748646736,-0.006445039063692093,-0.05192146822810173,0.007988748140633106,-0.020018083974719048
0.026446357369422913,0.021470075473189354,-0.006333240307867527,-0.051726002246141434,0.007926903665065765,-0.020294001325964928
0.026199232786893845,0.021394269540905952,-0.006252670660614967,-0.052938833832740784,0.007554056588560343,-0.020366890355944633
0.026312729343771935,0.021567290648818016,-0.0065521132200956345,-0.053138356655836105,0.007367261685431004,-0.020803095772862434
0.026717504486441612,0.02184922620654106,-0.006191958673298359,-0.0533282645046711,0.007554407697170973,-0.02071639895439148
0.027205977588891983,0.022189123556017876,-0.006597037892788649,-0.05378709360957146,0.008034761995077133,-0.02026001363992691
0.027650361880660057,0.022012323141098022,-0.006562609691172838,-0.05451273173093796,0.00802342128008604,-0.020022831857204437
0.02717476151883602,0.022309856489300728,-0.006162687204778194,-0.05515322461724281,0.008162804879248142,-0.020031645894050598
0.027469852939248085,0.022468719631433487,-0.0058243777602910995,-0.05489853024482727,0.008286657743155956,-0.02059551328420639
0.028152162209153175,0.022308798506855965,-0.006333109922707081,-0.05511428415775299,0.007913520559668541,-0.021076248958706856
0.02778688073158264,0.021536676213145256,-0.006840099580585957,-0.05546429008245468,0.00797821395099163,-0.021046459674835205
0.027973510324954987,0.022542258724570274,-0.005692904349416494,-0.05626089125871658,0.008105001412332058,-0.020528750494122505
0.028450649231672287,0.022884756326675415,-0.005312171299010515,-0.05527443438768387,0.007856898009777069,-0.02058900147676468
0.02839795872569084,0.02243676967918873,-0.005747856106609106,-0.055829208344221115,0.007441975176334381,-0.02127777226269245
0.028500981628894806,0.022721361368894577,-0.006552837789058685,-0.056461259722709656,0.00731670344248414,-0.021616511046886444
0.028041239827871323,0.02325017936527729,-0.006668470334261656,-0.056959208101034164,0.00804021954536438,-0.020593129098415375
0.027752578258514404,0.023447364568710327,-0.0065641519613564014,-0.05659452825784683,0.008507044054567814,-0.021341996267437935
0.029077336192131042,0.023169033229351044,-0.0062428186647593975,-0.058912891894578934,0.008135313168168068,-0.019918173551559448
0.028926247730851173,0.024003803730010986,-0.006682657171040773,-0.05764925479888916,0.00781308114528656,-0.01986772194504738
0.028845444321632385,0.023022186011075974,-0.007170298136770725,-0.057113129645586014,0.0080634830519557,-0.020869778469204903
0.029187457635998726,0.022801002487540245,-0.00648730481043458,-0.05833440646529198,0.0081903375685215,-0.021585745736956596
0.029298678040504456,0.023059023544192314,-0.006034368183463812,-0.061068546026945114,0.008414139039814472,-0.021609362214803696
0.029167864471673965,0.023994119837880135,-0.0071500493213534355,-0.058354452252388,0.008330765180289745,-0.02137891761958599
0.029320962727069855,0.023686638101935387,-0.007087965961545706,-0.058993149548769,0.008138319477438927,-0.021803652867674828
0.02974723093211651,0.02379002422094345,-0.006089033558964729,-0.05910872295498848,0.008235199376940727,-0.02172904461622238
0.03013286180794239,0.024096036329865456,-0.006076682824641466,-0.05849495157599449,0.008099756203591824,-0.02185589075088501
0.02964133955538273,0.023812688887119293,-0.006674341857433319,-0.05738005414605141,0.008376839570701122,-0.021463889628648758
0.02945495769381523,0.024105185642838478,-0.007213322911411524,-0.058766402304172516,0.008087233640253544,-0.021709611639380455
0.02998242899775505,0.024521898478269577,-0.007265763822942972,-0.05921389162540436,0.008571184240281582,-0.021902641281485558
0.02998242899775505,0.024521898478269577,-0.007265763822942972,-0.05921389162540436,0.008571184240281582,-0.021902641281485558
0.029594242572784424,0.02468215860426426,-0.006183251738548279,-0.05762159824371338,0.008276178501546383,-0.021710116416215897
0.029820876196026802,0.024596884846687317,-0.006321456283330917,-0.05860316753387451,0.00800271239131689,-0.021784523501992226
0.030128873884677887,0.024404672905802727,-0.006797225214540958,-0.0587756484746933,0.008037524297833443,-0.02183302491903305
0.03013509325683117,0.024568744003772736,-0.007181152701377869,-0.057365138083696365,0.008270702324807644,-0.02190227247774601
0.030422450974583626,0.024853473529219627,-0.0069995904341340065,-0.05853928253054619,0.008426735177636147,-0.022189456969499588
0.030569355934858322,0.025344686582684517,-0.006936203688383102,-0.060936033725738525,0.008257979527115822,-0.021966854110360146
0.030438607558608055,0.02533666603267193,-0.006492971908301115,-0.05885535851120949,0.008430065587162971,-0.022004321217536926
0.030329270288348198,0.02547188475728035,-0.0071398355066776276,-0.059745095670223236,0.008807973004877567,-0.022346515208482742
0.030956225469708443,0.025667084380984306,-0.006632012780755758,-0.06047128140926361,0.008553000167012215,-0.021968364715576172
0.031289007514715195,0.025748668238520622,-0.006711574271321297,-0.06041111424565315,0.00876788143068552,-0.02176571823656559
0.031170815229415894,0.025449464097619057,-0.006784702185541391,-0.060516249388456345,0.00856797769665718,-0.023256689310073853
0.02883344329893589,0.025758637115359306,-0.007554789073765278,-0.06093813478946686,0.008299737237393856,-0.02175961807370186
0.03189544007182121,0.02576185017824173,-0.006727081723511219,-0.06124066933989525,0.00865049846470356,-0.021617695689201355
0.03236735612154007,0.02642175182700157,-0.006379332859069109,-0.06142248958349228,0.009108618833124638,-0.02190462127327919
0.032025475054979324,0.026313886046409607,-0.0068184309639036655,-0.061908163130283356,0.009008310735225677,-0.022158164530992508
0.03228551894426346,0.02609979920089245,-0.006729515269398689,-0.06210591644048691,0.008724535815417767,-0.02218836545944214
0.0323447622358799,0.02581242099404335,-0.007425813935697079,-0.06245425343513489,0.00857041496783495,-0.022123387083411217
0.03135181963443756,0.026341991499066353,-0.007535656448453665,-0.06332898885011673,0.008945425972342491,-0.022193722426891327
0.030607031658291817,0.026444576680660248,-0.006755780428647995,-0.06330808997154236,0.00859649945050478,-0.02217118814587593
0.031946223229169846,0.026493484154343605,-0.006420515477657318,-0.0644315630197525,0.008776058442890644,-0.0225790087133646
0.03217654675245285,0.026000911369919777,-0.007092416752129793,-0.06255924701690674,0.008565298281610012,-0.022330770269036293
0.03209033980965614,0.026678824797272682,-0.007193639874458313,-0.06499612331390381,0.008638321422040462,-0.022346708923578262
0.032359231263399124,0.02669840306043625,-0.00685456208884716,-0.06384984403848648,0.008556095883250237,-0.02219749614596367
0.0324108824133873,0.02656995691359043,-0.007346406579017639,-0.06304045766592026,0.008701681159436703,-0.022225841879844666
0.0322803370654583,0.026431281119585037,-0.007566681131720543,-0.0650053471326828,0.009076859802007675,-0.022392209619283676
0.032502420246601105,0.02638251893222332,-0.007509185932576656,-0.06489619612693787,0.008981586433947086,-0.02265867404639721
0.032502420246601105,0.02638251893222332,-0.007509185932576656,-0.06489619612693787,0.008981586433947086,-0.02265867404639721
0.032428864389657974,0.026855265721678734,-0.00755901075899601,-0.06264707446098328,0.00879522506147623,-0.02299290895462036
0.03283035010099411,0.02723960392177105,-0.007952901534736156,-0.06318696588277817,0.009335160255432129,-0.022891229018568993
0.033134836703538895,0.02751951664686203,-0.007864842191338539,-0.06412146985530853,0.00858745165169239,-0.02290131337940693
0.03284108638763428,0.027241626754403114,-0.007555621676146984,-0.06431438773870468,0.008631965145468712,-0.022609570994973183
0.033167049288749695,0.027215322479605675,-0.007344956509768963,-0.06435366719961166,0.009046416729688644,-0.022931290790438652
0.03273465856909752,0.028440484777092934,-0.0076437280513346195,-0.06387631595134735,0.009240568615496159,-0.022981563583016396
0.033097051084041595,0.028408300131559372,-0.007686392869800329,-0.06336013227701187,0.009124165400862694,-0.023075634613633156
0.033070966601371765,0.02778143435716629,-0.007553482428193092,-0.0662822425365448,0.009398039430379868,-0.022882800549268723
