davideferrari95/blind_handover_controller/data/Test 10 - [2024-02-07 -- 13-11-40]/joint_states_data.csv
shoulder_pan_joint,shoulder_lift_joint,elbow_joint,wrist_1_joint,wrist_2_joint,wrist_3_joint
-0.006345315370708704,1.728481293193495e-20,0.006961096543818712,-0.0025216098874807358,-0.0011387212434783578,-0.007987343706190586
-0.006345315370708704,1.728481293193495e-20,0.006961096543818712,-0.0025216098874807358,-0.0011387212434783578,-0.007987343706190586
-0.006153448950499296,2.3189781785854407e-22,0.007432423997670412,-0.0027980355080217123,-0.001019183313474059,-0.00769948260858655
-0.006153448950499296,2.3189781785854407e-22,0.007432423997670412,-0.0027980355080217123,-0.001019183313474059,-0.00769948260858655
-0.006395063363015652,3.1112054846106107e-24,0.007643655873835087,-0.0028260177932679653,-0.0008616215200163424,-0.007496080361306667
-0.006329608615487814,4.174079369975727e-26,0.006983054801821709,-0.0026626819744706154,-0.0007933270535431802,-0.007154941558837891
-0.006538513116538525,5.6000602030687925e-28,0.006367129739373922,-0.002522337483242154,-0.0007438607281073928,-0.007187898736447096
-0.005820188671350479,7.513194900851283e-30,0.006677683442831039,-0.002533022314310074,-0.0007095382898114622,-0.007995226420462132
-0.006405876949429512,1.0079909902580797e-31,0.006838260218501091,-0.002566406037658453,-0.0006798582035116851,-0.00728805223479867
-0.005994011182337999,1.3523484860939584e-33,0.006979385856539011,-0.00308712525293231,-0.0006163529469631612,-0.007190863601863384
-0.005906133446842432,1.814348123338316e-35,0.0064021567814052105,-0.003195282304659486,-0.0005615467671304941,-0.006887835916131735
-0.006170701235532761,2.4341794194203307e-37,0.007126444485038519,-0.003300219774246216,-0.0005695820436812937,-0.007912389934062958
-0.005497707519680262,3.2657625048690586e-39,0.006703420076519251,-0.003266911953687668,-0.0005433227634057403,-0.00777498260140419
-0.005933351814746857,4.3814399084044055e-41,0.004967491142451763,-0.0030277722980827093,-0.0005061959964223206,-0.007563295774161816
-0.00596593227237463,5.8714405655209835e-43,0.0030501519795507193,-0.0028033903799951077,-0.0004729927459266037,-0.0068227737210690975
-0.006080148741602898,8.407790785948902e-45,0.0027962897438555956,-0.0024767599534243345,-0.0004438252653926611,-0.007142311427742243
-0.005625617224723101,0.0,0.004277289379388094,-0.001863701269030571,-0.000418043986428529,-0.007996260188519955
-0.005694190971553326,0.0,0.00478324294090271,-0.0015827615279704332,-0.00039509395719505847,-0.007389691658318043
-0.005555387586355209,0.0,0.0042035505175590515,-0.001620536670088768,-0.000374534196453169,-0.006719222292304039
-0.005947874393314123,0.0,0.003596383146941662,-0.0017293250421062112,-0.00035600902629084885,-0.006966513581573963
-0.006195682100951672,0.0,0.003346142591908574,-0.0028487183153629303,-0.0002820240333676338,-0.0074929469265043736
-0.00596120348200202,0.0,0.0035320257302373648,-0.003764763241633773,-0.00024879080592654645,-0.007635555695742369
-0.0055971210822463036,0.0,0.00401601055637002,-0.0036037075333297253,-0.00023465720005333424,-0.0072985063306987286
-0.0055973161943256855,0.0,0.003910776227712631,-0.002932528266683221,-0.00022295139206107706,-0.007210340816527605
-0.006228665355592966,0.0,0.0035721471067517996,-0.002672943752259016,-0.00021241855574771762,-0.007904277183115482
-0.005893563386052847,0.0,0.0035964285489171743,-0.003125135786831379,-0.00019409027299843729,-0.007664574775844812
-0.005893563386052847,0.0,0.0035964285489171743,-0.003125135786831379,-0.00019409027299843729,-0.007664574775844812
-0.005445570684969425,0.0,0.004134235437959433,-0.0031782141886651516,-0.00018606320372782648,-0.007527112495154142
-0.005842180922627449,0.0,0.004610774107277393,-0.0031036834698170424,-0.0001786741049727425,-0.00757018756121397
-0.005732655990868807,0.0,0.004255914594978094,-0.003301517106592655,-0.00017184934404212981,-0.00747144827619195
-0.005734106060117483,0.0,0.00396933127194643,-0.003596470458433032,-0.00016552706074435264,-0.0070067825727164745
-0.006153999362140894,-2.8853521143901162e-05,0.004406326450407505,-0.0034399982541799545,-0.00015965344209689647,-0.006675866432487965
-0.005500019062310457,-2.3935639546834864e-05,0.00409750547260046,-0.0033316779881715775,-0.00015418260591104627,-0.007060697767883539
-0.006010851822793484,-2.3261318347067572e-05,0.003959323279559612,-0.0033058554399758577,-0.00014907438890077174,-0.007295518647879362
-0.006175079382956028,-2.267456875415519e-05,0.004417219199240208,-0.003454799996688962,-0.00014429361908696592,-0.00797275546938181
-0.006396025884896517,-2.2117321350378916e-05,0.004611276090145111,-0.003612502943724394,-0.00013981021766085178,-0.0072060078382492065
-0.006269050296396017,-2.1586807633866556e-05,0.0046858638525009155,-0.0037029902450740337,-0.00013559705985244364,-0.007145267445594072
-0.005602619610726833,-2.108118678734172e-05,0.004265467636287212,-0.003325429279357195,-0.00013163014955352992,-0.007178385742008686
-0.00633447989821434,-2.0598716218955815e-05,0.004470710176974535,-0.0034906635992228985,-0.00012788907042704523,-0.00742690172046423
-0.0059251440688967705,-2.0137818864895962e-05,0.004101143218576908,-0.003728508250787854,-0.00012435451208148152,-0.007339521311223507
-0.00598519342020154,-1.9697099560289644e-05,0.004237622953951359,-0.003857549512758851,-0.00012101022730348632,-0.007987667806446552
-0.005685523618012667,-1.9275257727713324e-05,0.004301265347748995,-0.004282725043594837,-0.00011784123489633203,-0.007765652146190405
-0.005835163872689009,-1.8871129213948734e-05,0.00442435871809721,-0.00426248274743557,-0.00011483389971544966,-0.007491056341677904
-0.005328701809048653,-1.8483558960724622e-05,0.0045589786022901535,-0.0036453220527619123,-0.00011197614367119968,-0.006957859266549349
-0.0051180110312998295,-1.8111608369508758e-05,0.00463351933285594,-0.003527287859469652,-0.00010925732203759253,-0.007230914663523436
-0.006308489479124546,-1.775433702277951e-05,0.004403520375490189,-0.004052444361150265,-0.00011715192522387952,-0.00732430350035429
-0.006153312511742115,-1.7410866348654963e-05,0.004042304586619139,-0.004204502794891596,-0.00012432853691279888,-0.007343766279518604
-0.005667041055858135,-1.7080439647543244e-05,0.004316119477152824,-0.004058925434947014,-0.0001221607526531443,-0.006973974872380495
-0.005319113843142986,-1.6762338418629952e-05,0.004418503493070602,-0.004158286843448877,-0.00011949949112022296,-0.007274804171174765
-0.005602168384939432,-1.6455855075037107e-05,0.004255814012140036,-0.00402781181037426,-0.00011691483086906374,-0.007259739562869072
-0.005783135537058115,-1.6160387531272136e-05,0.004400013480335474,-0.003901761258020997,-0.00011443728726590052,-0.007472375873476267
-0.006042128894478083,-3.1533880246570334e-05,0.004562934394925833,-0.004142181482166052,-0.00011206241470063105,-0.007180447690188885
-0.006042128894478083,-3.1533880246570334e-05,0.004562934394925833,-0.004142181482166052,-0.00011206241470063105,-0.007180447690188885
-0.005630943924188614,-3.066872523049824e-05,0.0044342768378555775,-0.004032754804939032,-0.00010759651195257902,-0.007403725292533636
-0.005946433637291193,-3.015501715708524e-05,0.004210899583995342,-0.003993168007582426,-0.00010549439321039245,-0.00791456364095211
-0.005998383741825819,-2.965814019262325e-05,0.004857860039919615,-0.003968400415033102,-0.0001034730375977233,-0.007560605648905039
-0.006029992830008268,-2.9177428586990573e-05,0.004944175947457552,-0.003882634686306119,-0.00011732264829333872,-0.007739054039120674
-0.005782668013125658,-2.871203832910396e-05,0.004782188683748245,-0.003871072083711624,-0.000116189185064286,-0.007482197601348162
-0.005613323301076889,-4.074211756233126e-05,0.004573683720082045,-0.004181382711976767,-0.0001141512839240022,-0.007542561739683151
-0.0053312513045966625,-4.171450200374238e-05,0.00463669141754508,-0.0042708870023489,-0.00011212404206162319,-0.007403547875583172
-0.006361376028507948,-4.110098961973563e-05,0.004641680512577295,-0.004051269497722387,-0.00011016369535354897,-0.007299094460904598
-0.0062399148009717464,-4.048500341014005e-05,0.004886334296315908,-0.00392166618257761,-0.00010827034566318616,-0.007125589530915022
-0.0058965785428881645,-5.1631075621116906e-05,0.004803303629159927,-0.003940163180232048,-0.00010644115536706522,-0.00725506991147995
-0.005215125624090433,-5.2387586038094014e-05,0.004714949522167444,-0.0039121671579778194,-0.00010467264655744657,-0.007334269117563963
-0.0057795243337750435,-5.1656155847013e-05,0.0048217480070889,-0.0042509157210588455,-0.00010296195250703022,-0.007383659482002258
-0.005877510644495487,-5.092568608233705e-05,0.00478010717779398,-0.004264634568244219,-0.00010130629380000755,-0.007200054824352264
-0.005797657184302807,-5.0215396186104044e-05,0.004599354229867458,-0.004006056115031242,-9.970297833206132e-05,-0.0073874774388968945
-0.005191848613321781,-4.9524634960107505e-05,0.0045499494299292564,-0.003807650413364172,-0.00010505526734050363,-0.007952192798256874
-0.005338350310921669,-0.00011174411338288337,0.004726308863610029,-0.003737522754818201,-0.00010998566722264513,-0.008270611055195332
-0.005334293469786644,-0.00011690989776980132,0.0048575978726148605,-0.003774241078644991,-0.00010875125008169562,-0.007875964976847172
-0.0055859703570604324,-0.0001140554086305201,0.005085006821900606,-0.004081793129444122,-0.00010716052202042192,-0.007535113021731377
-0.005671029444783926,-0.00011123724834760651,0.005306130740791559,-0.004141596145927906,-0.00010559077054494992,-0.007793287746608257
-0.006054999772459269,-0.00010855402797460556,0.004630121868103743,-0.004362358245998621,-0.00010406473302282393,-0.007717171683907509
-0.005410071462392807,-0.00010599719826132059,0.004547130782157183,-0.00423394376412034,-8.666107896715403e-05,-0.00715571828186512
-0.005410679616034031,-0.00012398503895383328,0.004984431900084019,-0.003960167057812214,-8.290670666610822e-05,-0.00705151678994298
-0.005210843402892351,-0.00012147024244768545,0.0050076693296432495,-0.003800357924774289,-8.12684593256563e-05,-0.007397163193672895
-0.0059397537261247635,-0.00011880166857736185,0.004892734810709953,-0.004261003341525793,-8.767542749410495e-05,-0.0076339952647686005
-0.004983873572200537,-0.00012627075193449855,0.00443459814414382,-0.004396546166390181,-9.246457921108231e-05,-0.007714502979069948
-0.005097211804240942,-0.00012993376003578305,0.004492513835430145,-0.004252680577337742,-0.00010411311086500064,-0.008027876727283001
-0.005097211804240942,-0.00012993376003578305,0.004492513835430145,-0.004252680577337742,-0.00010411311086500064,-0.008027876727283001
-0.005050648469477892,-0.00012739036174025387,0.004599394742399454,-0.0042172507382929325,-0.0001042113799485378,-0.007894917391240597
-0.005716331303119659,-0.00012486660853028297,0.005098197143524885,-0.003963238559663296,-0.0001135178972617723,-0.007929216139018536
-0.005412633065134287,-0.00012243993114680052,0.004962739534676075,-0.00375016569159925,-0.00011517631355673075,-0.007628350052982569
-0.005130129400640726,-0.0001370292593492195,0.0048047397285699844,-0.0036608886439353228,-0.00011363327939761803,-0.007947753183543682
-0.0056397514417767525,-0.0001346928911516443,0.00491276616230607,-0.004137652926146984,-0.00036823219852522016,-0.007769105490297079
-0.005203512031584978,-0.00013222232519183308,0.004892551805824041,-0.004194772336632013,-0.00035634066443890333,-0.00758705148473382
-0.00543719669803977,-0.00012983815395273268,0.004844791255891323,-0.003954749088734388,-0.00038842944195494056,-0.00795265007764101
-0.005242586135864258,-0.00022690719924867153,0.004749142099171877,-0.003767407266423106,-0.00036969795473851264,-0.007889990694820881
-0.005062599200755358,-0.00021992837719153613,0.004984455648809671,-0.003701483365148306,-0.0003889840445481241,-0.007189106196165085
-0.005144170485436916,-0.0002097324759233743,0.005080077331513166,-0.004211857449263334,-0.0003788828325923532,-0.007122488226741552
-0.004992397502064705,-0.00020039342052768916,0.00507646519690752,-0.00409545935690403,-0.00040247777360491455,-0.007816971279680729
-0.005178937688469887,-0.0001918492343975231,0.004798057023435831,-0.003949050325900316,-0.00038841692730784416,-0.007987217046320438
-0.005618544295430183,-0.00018400400585960597,0.004913829732686281,-0.004329868126660585,-0.000500108115375042,-0.008686746470630169
-0.0052502090111374855,-0.00019997594063170254,0.004926889669150114,-0.004381135106086731,-0.0005383554380387068,-0.007874119095504284
-0.005330496933311224,-0.00020394865714479238,0.005136196035891771,-0.0042985714972019196,-0.0004998814547434449,-0.006985338404774666
-0.005285785533487797,-0.00019667547894641757,0.005073390435427427,-0.004102098289877176,-0.0005240054451860487,-0.007193840574473143
-0.005024115089327097,-0.00018976601131726056,0.00512220524251461,-0.003849790198728442,-0.0004920571227557957,-0.007981132715940475
-0.00507396413013339,-0.00018332347099203616,0.0049439845606684685,-0.003749468130990863,-0.0005132939550094306,-0.008047964423894882
-0.004903662484139204,-0.0001967126881936565,0.004876615013927221,-0.003789001377299428,-0.0004883168148808181,-0.007814140990376472
-0.0055281249806284904,-0.00020014308393001556,0.005151108838617802,-0.00427728658542037,-0.0005609272629953921,-0.00799186434596777
-0.005236987955868244,-0.00019410626555327326,0.004888825584203005,-0.0042219627648591995,-0.0006004957831464708,-0.008149607107043266
-0.004786545876413584,-0.00018830617773346603,0.004928134847432375,-0.003954953048378229,-0.0006247928249649704,-0.007790651172399521
-0.004786545876413584,-0.00018830617773346603,0.004928134847432375,-0.003954953048378229,-0.0006247928249649704,-0.007790651172399521
-0.004732154309749603,-0.0002027177979471162,0.004733231849968433,-0.0042777699418365955,-0.0006008042255416512,-0.008325435221195221
-0.004770153202116489,-0.00019749272905755788,0.004807411227375269,-0.004195668268948793,-0.0006514147971756756,-0.007869739085435867
-0.00502218771725893,-0.0002240433095721528,0.004805641248822212,-0.003934990148991346,-0.0006494946428574622,-0.00808039028197527
-0.0053663854487240314,-0.000228869219426997,0.005271370057016611,-0.003854448441416025,-0.0006710259476676583,-0.007845654152333736
-0.004961707629263401,-0.00021799963724333793,0.005091031081974506,-0.0039705438539385796,-0.0006089278613217175,-0.008115937002003193
-0.004895938094705343,-0.00023519228852819651,0.0048155104741454124,-0.003995484206825495,-0.0006264986586757004,-0.007792993448674679
-0.004762986674904823,-0.00023830142163205892,0.004433875437825918,-0.004332964774221182,-0.0005795250181108713,-0.007633514236658812
-0.004915102384984493,-0.00022840304882265627,0.004369298927485943,-0.004224134609103203,-0.0005869587766937912,-0.008007627911865711
-0.004820896778255701,-0.0002191361563745886,0.004892000928521156,-0.003959052264690399,-0.0005586681072600186,-0.008030016906559467
-0.004645087756216526,-0.00024519822909496725,0.004928400740027428,-0.003807574277743697,-0.0005194637924432755,-0.00826792698353529
-0.004605314694344997,-0.00023645978944841772,0.004339603707194328,-0.003807778935879469,-0.00048815959598869085,-0.008320052176713943
-0.0047326041385531425,-0.00022791158698964864,0.004334917291998863,-0.0038995149079710245,-0.0004491860745474696,-0.008344096131622791
-0.004540698137134314,-0.0002509402111172676,0.004429161082953215,-0.00417971471324563,-0.0004089588765054941,-0.008160106837749481
-0.004292522557079792,-0.00024289032444357872,0.00456952815875411,-0.00410844199359417,-0.00044453225564211607,-0.008678101003170013
-0.004472007974982262,-0.00023496890207752585,0.004757619928568602,-0.0037573520094156265,-0.00041490120929665864,-0.008157874457538128
-0.004595650359988213,-0.0003272555477451533,0.005099771544337273,-0.0034578831400722265,-0.0003855536342598498,-0.007961692288517952
-0.0043572657741606236,-0.00031722511630505323,0.004938134923577309,-0.003576599759981036,-0.0004116839845664799,-0.008382966741919518
-0.004537348635494709,-0.000296494661597535,0.0047601815313100815,-0.0038476609624922276,-0.00039306323742493987,-0.008463379926979542
-0.004576599691063166,-0.0002781665534712374,0.0043282886035740376,-0.004220897797495127,-0.00040939325117506087,-0.008433428592979908
-0.0045659542083740234,-0.0003122047346550971,0.0043225521221756935,-0.004211293999105692,-0.0003989287361036986,-0.008033659309148788
-0.004714548122137785,-0.0002970401255879551,0.005116144195199013,-0.004309340380132198,-0.00037873684777878225,-0.008089291863143444
-0.004754915833473206,-0.0002815763291437179,0.005082635674625635,-0.004331912845373154,-0.0003952838305849582,-0.00873666349798441
-0.0047814142890274525,-0.0003115958534181118,0.004506088327616453,-0.0042986138723790646,-0.00037527468521147966,-0.008703946135938168
-0.004607971291989088,-0.0002974718518089503,0.004394392482936382,-0.004059646278619766,-0.00034715209039859474,-0.008008393459022045
-0.004644880071282387,-0.0003106747171841562,0.004606182686984539,-0.003926564939320087,-0.0003822535218205303,-0.008041822351515293
-0.004267193377017975,-0.0002977882686536759,0.004891767632216215,-0.004193618893623352,-0.0003382790891919285,-0.00800726655870676
-0.0042588538490235806,-0.00028596349875442684,0.004679358564317226,-0.004219849593937397,-0.00031834421679377556,-0.008271479047834873
-0.004549084231257439,-0.000312609423417598,0.0048588840290904045,-0.004323982167989016,-0.00032503032707609236,-0.008276641368865967
-0.004721480887383223,-0.0003098415327258408,0.004912493284791708,-0.004509801976382732,-0.00033053947845473886,-0.00820647832006216
-0.004379111807793379,-0.00029011513106524944,0.004832010250538588,-0.004294808954000473,-0.00031546023092232645,-0.007887477055191994
-0.004553846083581448,-0.0003248020075261593,0.004624177236109972,-0.0042880866676568985,-0.0003005052567459643,-0.008074616082012653
-0.004553846083581448,-0.0003248020075261593,0.004624177236109972,-0.0042880866676568985,-0.0003005052567459643,-0.008074616082012653
-0.0043052686378359795,-0.00030834419885650277,0.004265069495886564,-0.004255332518368959,-0.0003068479709327221,-0.008473453111946583
-0.004006023518741131,-0.00033454346703365445,0.004379678517580032,-0.004157600924372673,-0.0003121565387118608,-0.008546223863959312
-0.004094384144991636,-0.00032281127641908824,0.004598106257617474,-0.004033805336803198,-0.0003003499878104776,-0.009040310978889465
-0.004195295739918947,-0.00033590124803595245,0.004634413402527571,-0.004162637051194906,-0.0002883962297346443,-0.008695111609995365
-0.004441122990101576,-0.0003345019358675927,0.004622847307473421,-0.0042610471136868,-0.0002881694526877254,-0.008797602728009224
-0.004200226627290249,-0.000423880061134696,0.0045499070547521114,-0.004130230285227299,-0.00027484414749778807,-0.008759560063481331
-0.003979030065238476,-0.00043445228948257864,0.004502905532717705,-0.0036043138243258,-0.00025928227114491165,-0.009059146046638489
-0.0038579341489821672,-0.00046657220809720457,0.004478259477764368,-0.003501103725284338,-0.0002813209139276296,-0.008576706983149052
-0.003745581954717636,-0.0004374686104711145,0.004488611128181219,-0.003910347819328308,-0.000278156396234408,-0.00820985622704029
-0.0042773764580488205,-0.00044883880764245987,0.005046383012086153,-0.004232913255691528,-0.0002652319963090122,-0.00838394369930029
-0.004144068341702223,-0.0004389995301607996,0.004846261348575354,-0.004432875197380781,-0.0002734418085310608,-0.0088221225887537
-0.003961785230785608,-0.000410665845265612,0.004764546640217304,-0.00428649690002203,-0.0002803969255182892,-0.008573354221880436
-0.0038039106875658035,-0.0004398222081363201,0.004423902835696936,-0.004354676231741905,-0.0002696439332794398,-0.008767843246459961
-0.0040329513140022755,-0.0004151896864641458,0.004033336415886879,-0.004096445627510548,-0.0002859645464923233,-0.0090770423412323
-0.00421187886968255,-0.0003925585770048201,0.004215209279209375,-0.004202763084322214,-0.00028332063811831176,-0.008477723225951195
-0.004028161987662315,-0.0004142875550314784,0.00459388829767704,-0.00422446196898818,-0.0002731338609009981,-0.008376510813832283
-0.0038061595987528563,-0.00039906453457660973,0.004545735195279121,-0.004048947710543871,-0.0003346971934661269,-0.009080431424081326
-0.003869235748425126,-0.00041467719711363316,0.00464421883225441,-0.004335281439125538,-0.0003338232636451721,-0.009173586964607239
-0.003904661862179637,-0.0004066531255375594,0.004439427051693201,-0.004200795665383339,-0.00031221992685459554,-0.009318036958575249
-0.0039005225989967585,-0.0004196790396235883,0.004442347213625908,-0.0043614711612463,-0.00029204884776845574,-0.009361574426293373
-0.003991058096289635,-0.00041232508374378085,0.004547563381493092,-0.00438319705426693,-0.0002742463839240372,-0.009345224127173424
-0.003824174404144287,-0.0003872467787005007,0.004256606567651033,-0.0041810632683336735,-0.00025848616496659815,-0.00886592548340559
-0.003535596653819084,-0.0003940308524761349,0.0042246426455676556,-0.0034976366441696882,-0.00023184179735835642,-0.008946609683334827
-0.0034505429212003946,-0.00037459860322996974,0.004476100672036409,-0.004039512947201729,-0.00022047865786589682,-0.009062117896974087
-0.003476979210972786,-0.00043786357855424285,0.004448855295777321,-0.004100925754755735,-0.00024121487513184547,-0.00901597086340189
-0.003476979210972786,-0.00043786357855424285,0.004448855295777321,-0.004100925754755735,-0.00024121487513184547,-0.00901597086340189
-0.0036371496971696615,-0.0004002527566626668,0.004114835523068905,-0.003949624951928854,-0.00024023873265832663,-0.009814457967877388
-0.0037889117375016212,-0.00044000521302223206,0.0038029958959668875,-0.0038902340456843376,-0.00023061450337991118,-0.009747629053890705
-0.003359017660841346,-0.0004675266973208636,0.0043258084915578365,-0.00413478771224618,-0.00022120773792266846,-0.009225714020431042
-0.0034748439211398363,-0.00044220758718438447,0.004582572262734175,-0.003756027901545167,-0.00021250353893265128,-0.010005849413573742
-0.0031379442662000656,-0.000471487786853686,0.004290420096367598,-0.003599918680265546,-0.0002296566526638344,-0.009268552996218204
-0.003191559109836817,-0.0006208326085470617,0.003891457337886095,-0.003639576258137822,-0.00022924947552382946,-0.008636241778731346
-0.003283881116658449,-0.0005665721255354583,0.00433654198423028,-0.0037378252018243074,-0.00022170087322592735,-0.009445740841329098
-0.00314809987321496,-0.0006026282790116966,0.004256054759025574,-0.0037498592864722013,-0.00021419637778308243,-0.0097800949588418
-0.0030655390582978725,-0.0005433146725408733,0.003969620913267136,-0.0036975457333028316,-0.00022905966034159064,-0.009580541402101517
-0.0033594234846532345,-0.0005724320653825998,0.0038028708659112453,-0.0041577466763556,-0.00022870833345223218,-0.010017679072916508
-0.003175754100084305,-0.0005276172887533903,0.0038711517117917538,-0.003676037769764662,-0.0002221054455731064,-0.009901382029056549
-0.0031135680619627237,-0.0005554115632548928,0.0041341111063957214,-0.0035326897632330656,-0.00021316434140317142,-0.009402881376445293
-0.0029100864194333553,-0.0005211822572164237,0.004105492029339075,-0.0032833642326295376,-0.00020213941752444953,-0.009394556283950806
-0.0031442949548363686,-0.000533772399649024,0.0039238096214830875,-0.003410070203244686,-0.0002122655714629218,-0.009779473766684532
-0.003133163321763277,-0.0005722229252569377,0.004263286478817463,-0.004137497860938311,-0.00022117048501968384,-0.010218080133199692
-0.0029955164063721895,-0.0006012849626131356,0.00359177403151989,-0.004051995929330587,-0.0002135723625542596,-0.010208365507423878
-0.0029179262928664684,-0.0006211979198269546,0.0034944654908031225,-0.00354336341843009,-0.0002374466130277142,-0.010590896010398865
-0.0028141920920461416,-0.0005802175728604198,0.004179719369858503,-0.0033562546595931053,-0.00023083225823938847,-0.009573112241923809
-0.002919925842434168,-0.0007391580147668719,0.004093718249350786,-0.003456258215010166,-0.0002524800365790725,-0.00948689691722393
-0.0027684492524713278,-0.0007597003132104874,0.0038664471358060837,-0.003617481328547001,-0.0003935734857805073,-0.009820864535868168
-0.0030076666735112667,-0.0006702114478684962,0.0038054685574024916,-0.003657951718196273,-0.0005598600255325437,-0.009540253318846226
-0.0030040573328733444,-0.0006913283723406494,0.00344194401986897,-0.003479183418676257,-0.0005355682224035263,-0.009640432894229889
-0.0028838119469583035,-0.0006263381219469011,0.004081439226865768,-0.003567098407074809,-0.000564746733289212,-0.009620683267712593
-0.002759236143901944,-0.0005969675839878619,0.003410241100937128,-0.00379428593441844,-0.0005472461925819516,-0.0101022245362401
-0.002437134739011526,-0.0005696606822311878,0.0032803183421492577,-0.003850579960271716,-0.0006082599284127355,-0.010861304588615894
-0.002437134739011526,-0.0005696606822311878,0.0032803183421492577,-0.003850579960271716,-0.0006082599284127355,-0.010861304588615894
-0.0023191787768155336,-0.0006039930740371346,0.0034365220926702023,-0.003686866257339716,-0.0006181743810884655,-0.010182458907365799
-0.002400772413238883,-0.0006339267711155117,0.0038487727288156748,-0.00346363359130919,-0.0006505248020403087,-0.010196923278272152
-0.0025871172547340393,-0.0006583881913684309,0.0036138391587883234,-0.0031822719611227512,-0.0006775055662728846,-0.010677125304937363
-0.0024038974661380053,-0.0009102810290642083,0.0023849918507039547,-0.0030506483744829893,-0.0006819707341492176,-0.010661691427230835
-0.002522431081160903,-0.000942290760576725,0.001852887449786067,-0.003069870639592409,-0.000644977786578238,-0.010668199509382248
-0.002271785866469145,-0.0009363641729578376,0.0018135122954845428,-0.003174157114699483,-0.0007303860038518906,-0.010281682945787907
-0.002285969676449895,-0.0008196160197257996,0.0016808464424684644,-0.003074150299653411,-0.0007573412149213254,-0.010395366698503494
-0.002048241440206766,-0.0008243976044468582,0.0016488786786794662,-0.002857362851500511,-0.0007676167879253626,-0.010981075465679169
-0.001988466829061508,-0.0007431943668052554,0.002526402473449707,-0.0026281517930328846,-0.000744023360311985,-0.010479631833732128
-0.0021951752714812756,-0.0006947228102944791,0.0023649733047932386,-0.002569573000073433,-0.0007139273802749813,-0.009954581968486309
-0.0021043261513113976,-0.0006817489047534764,0.0020177296828478575,-0.0029590369667857885,-0.0007295635878108442,-0.009932338260114193
-0.0022003939375281334,-0.0006380258128046989,0.0017484211130067706,-0.0031486868392676115,-0.0006543545168824494,-0.01028500683605671
-0.002093502087518573,-0.000571015290915966,0.0017404422396793962,-0.003377725835889578,-0.0006789157050661743,-0.009944811463356018
-0.0020019463263452053,-0.000440792617155239,0.002196658868342638,-0.0031314429361373186,-0.0006092606345191598,-0.010200830176472664
-0.0019492761930450797,-0.00039289204869419336,0.002124289982020855,-0.002996595809236169,-0.0006324880523607135,-0.009781284257769585
-0.0017824242822825909,-0.00042473882785998285,0.0021201842464506626,-0.0028862287290394306,-0.0005797791527584195,-0.010172159411013126
-0.0016154204495251179,-0.0004011248820461333,0.0020279958844184875,-0.00297610298730433,-0.0005966337630525231,-0.010234952904284
-0.0015290876617655158,-0.000373482151189819,0.0019181746756657958,-0.00328297121450305,-0.0005591854569502175,-0.009913576766848564
-0.0016488354885950685,-0.00034931738628074527,0.0019547692500054836,-0.003592396154999733,-0.0005338151240721345,-0.009948075748980045
-0.0015912497183308005,-0.00032809062395244837,0.002048662630841136,-0.0037878297735005617,-0.00048342515947297215,-0.01053260825574398
-0.0019305788446217775,-0.0003092955448664725,0.0019892731215804815,-0.003393392078578472,-0.0005179453874006867,-0.010597514919936657
-0.0017615373944863677,-0.0002925376466009766,0.0022375709377229214,-0.003382282331585884,-0.0004774326807819307,-0.010868759825825691
-0.001743486849591136,-0.00027750214212574065,0.0020081254187971354,-0.003347722114995122,-0.0005068965838290751,-0.01109737902879715
-0.0017087055603042245,-0.0002639378944877535,0.0018897015834227204,-0.0034781903959810734,-0.0005229380913078785,-0.011297221295535564
-0.0015835296362638474,-0.0002516374515835196,0.001844333834014833,-0.003353901905938983,-0.0005030820029787719,-0.011027633212506771
-0.0016351561062037945,-0.00024043256416916847,0.0017712658736854792,-0.003187868045642972,-0.0005897694500163198,-0.010787362232804298
-0.001520056976005435,-0.0002301830390933901,0.0017279171152040362,-0.003198473947122693,-0.0006214131717570126,-0.010869201272726059
-0.0015597895253449678,-0.0002120996214216575,0.001915939967148006,-0.003086319426074624,-0.0006409935303963721,-0.01038694940507412
-0.0014807977713644505,-0.00020408308773767203,0.002250331686809659,-0.003373577957972884,-0.0006242709932848811,-0.010686066932976246
-0.0014807977713644505,-0.00020408308773767203,0.002250331686809659,-0.003373577957972884,-0.0006242709932848811,-0.010686066932976246
-0.0015043020248413086,-0.00022809782240074128,0.002025784458965063,-0.0032748975791037083,-0.0007432044949382544,-0.010940291918814182
-0.0014266625512391329,-0.00022134649043437093,0.0020481771789491177,-0.003235005773603916,-0.0007249743794091046,-0.01095075998455286
-0.0013106350088492036,-0.00021384969295468181,0.0018193908035755157,-0.003261056262999773,-0.0006896081031300128,-0.011252141557633877
-0.001232438487932086,-0.00020682885951828212,0.0017498236848041415,-0.0035365354269742966,-0.0006894720136187971,-0.01132576260715723
-0.001170343137346208,-0.00020025455160066485,0.001763717271387577,-0.003445060458034277,-0.0006422389997169375,-0.011289376765489578
-0.0011276863515377045,-0.00019408526713959873,0.0019021403277292848,-0.003356082597747445,-0.0005841384408995509,-0.011434536427259445
-0.0011254543205723166,-0.0002148102648789063,0.0018286214908584952,-0.0032406544778496027,-0.0005715671577490866,-0.01118383090943098
-0.0011242092587053776,-0.00020893284818157554,0.0016282836440950632,-0.0029975809156894684,-0.0005605848273262382,-0.011243057437241077
-0.0011014826595783234,-0.00020304543431848288,0.0016631984617561102,-0.002891788026317954,-0.0005221358151175082,-0.011670008301734924
-0.0011510836193338037,-0.00014887821453157812,0.0015674210153520107,-0.0032277207355946302,-0.0004869223921559751,-0.011723206378519535
-0.001118886168114841,-0.0001422485802322626,0.0017202032031491399,-0.003210288705304265,-0.00043075010762549937,-0.011741510592401028
-0.0010328938951715827,-0.00016219320241361856,0.0015934959519654512,-0.003218361409381032,-0.0003910469822585583,-0.01218694169074297
-0.0009270923910662532,-0.00016047565441112965,0.001644721138291061,-0.0028782340232282877,-0.0004124903935007751,-0.011114703491330147
-0.0009223513188771904,-0.0001558847725391388,0.001682678353972733,-0.002757631940767169,-0.00039843234117142856,-0.010697752237319946
-0.0008188168285414577,-0.00015151166007854044,0.00157635728828609,-0.0027265092357993126,-0.0004176431684754789,-0.011690528132021427
-0.000830521690659225,-0.00014737650053575635,0.0016205046558752656,-0.002904292428866029,-0.0004050585557706654,-0.012493204325437546
-0.0008266428485512733,-0.00014346101670525968,0.0015298762591555715,-0.002873595105484128,-0.00042157983989454806,-0.012897835113108158
-0.0008109984337352216,-0.00013974838657304645,0.0015221473295241594,-0.0028045198414474726,-0.0004101794329471886,-0.012188133783638477
-0.0007584188133478165,-0.00013622301048599184,0.0015833503566682339,-0.0027328357100486755,-0.0004989149747416377,-0.011558011174201965
-0.0007492820150218904,-0.00013287107867654413,0.0015781279653310776,-0.0029428659472614527,-0.0005447919829748571,-0.011778687126934528
-0.0006691578309983015,-0.00014389237912837416,0.0016408730298280716,-0.002898644655942917,-0.000578447652515024,-0.012109307572245598
-0.000658380042295903,-0.00014764613297302276,0.0015129196690395474,-0.0028229032177478075,-0.0006060676532797515,-0.012102643959224224
-0.0006186021491885185,-0.00014435872435569763,0.0015621765051037073,-0.0027674580924212933,-0.0007497873157262802,-0.012475306168198586
-0.0005554232047870755,-0.00015438604168593884,0.0015622456558048725,-0.0028294820804148912,-0.0009237346239387989,-0.011946509592235088
-0.0005372629384510219,-0.00015436988906003535,0.001579241012223065,-0.0024250124115496874,-0.000926725275348872,-0.012099700048565865
-0.0004951503942720592,-0.00015113083645701408,0.0014601682778447866,-0.0023735123686492443,-0.0009943940676748753,-0.01241987757384777
-0.0004590615862980485,-0.00014816784823779017,0.0015807615127414465,-0.0024513634853065014,-0.000990292988717556,-0.01278857421129942
-0.0004278749693185091,-0.00022798024292569607,0.0014446403365582228,-0.0024806743022054434,-0.0009399879490956664,-0.012633909471333027
-0.0004278749693185091,-0.00022798024292569607,0.0014446403365582228,-0.0024806743022054434,-0.0009399879490956664,-0.012633909471333027
-0.00045104968012310565,-0.00021810378530062735,0.001379017485305667,-0.00248680985532701,-0.0008727613021619618,-0.0126416627317667
-0.0004304218746256083,-0.00020803610095754266,0.0013653358910232782,-0.0024891786742955446,-0.000864342029672116,-0.012261941097676754
-0.00040621988591738045,-0.00023698994482401758,0.0012863482115790248,-0.0024256890174001455,-0.0008046895381994545,-0.012523521669209003
-0.0003845239116344601,-0.00022849123342894018,0.001250412897206843,-0.0024069722276180983,-0.0007091726874932647,-0.012620532885193825
-0.0003650262951850891,-0.00025145389372482896,0.0013200241373851895,-0.0024817497469484806,-0.0007277494878508151,-0.012766183353960514
-0.0003474135883152485,-0.00024573708651587367,0.001399209606461227,-0.0024378024972975254,-0.0007478283368982375,-0.01277257688343525
-0.0003314198984298855,-0.00026636934489943087,0.0014266889775171876,-0.00250387960113585,-0.0007576330681331456,-0.013035384938120842
-0.0003168349212501198,-0.000260521424934268,0.001324083423241973,-0.0023980396799743176,-0.0007032493595033884,-0.013093573041260242
-0.00030347995925694704,-0.00042733518057502806,0.0012453232193365693,-0.0025054768193513155,-0.0008073924109339714,-0.012883486226201057
-0.00029120498220436275,-0.0004111026064492762,0.0012568730162456632,-0.002302136505022645,-0.0008255753782577813,-0.013187621720135212
-0.000279884145129472,-0.00045124845928512514,0.0013416226720437407,-0.0022554579190909863,-0.0007815872086212039,-0.013236737810075283
-0.00026941188843920827,-0.00041736633284017444,0.0013230202021077275,-0.002245935844257474,-0.0007911462453193963,-0.013223512098193169
-0.00025969394482672215,-0.00042961275903508067,0.0016535957111045718,-0.0021171208936721087,-0.0008008235017769039,-0.01285457145422697
-0.0002506535383872688,-0.0004214347281958908,0.0016413696575909853,-0.0024278934579342604,-0.0008591291261836886,-0.013112245127558708
-0.00024222051433753222,-0.0004322013119235635,0.0014287281082943082,-0.002473746193572879,-0.0008356666075997055,-0.013290079310536385
-0.0002150939399143681,-0.00042480172123759985,0.0013057092437520623,-0.002321438631042838,-0.000787787779700011,-0.013444140553474426
-0.00019871680706273764,-0.00048499798867851496,0.0012653438607230783,-0.002291623968631029,-0.0007965636323206127,-0.013837925158441067
-0.00019251523190177977,-0.00047580827958881855,0.0012162697967141867,-0.0020050189923495054,-0.0008487821905873716,-0.013854406774044037
-0.00018680527864489704,-0.000513307168148458,0.0012357605155557394,-0.0018607837846502662,-0.0008698505698703229,-0.013927933759987354
-0.0001814255811041221,-0.00047174037899821997,0.0012148789828643203,-0.0018549046944826841,-0.0008748132386244833,-0.014069474302232265
-0.0001763471809681505,-0.000503145216498524,0.0011757820611819625,-0.0021021603606641293,-0.000870347663294524,-0.013642298988997936
-0.00017154547094833106,-0.00046848453348502517,0.001196389552205801,-0.002362856874242425,-0.0009151169215328991,-0.013441751711070538
-0.00016268561012111604,-0.0005651102983392775,0.0012149654794484377,-0.002563074929639697,-0.0006834177183918655,-0.013595996424555779
-8.881068060873076e-05,-0.0006181542412377894,0.0010804665507748723,-0.0022627718281000853,-0.0007029692060314119,-0.014119171537458897
-8.881068060873076e-05,-0.0006181542412377894,0.0010804665507748723,-0.0022627718281000853,-0.0007029692060314119,-0.014119171537458897
-6.048357192867115e-08,-0.0006154173752292991,0.0009619391639716923,-0.0016784191830083728,-0.000608217203989625,-0.014056802727282047
-6.048357192867115e-08,-0.0006154173752292991,0.0009619391639716923,-0.0016784191830083728,-0.000608217203989625,-0.014056802727282047
0.0015348616288974881,-0.0006322183762677014,0.000952409696765244,-0.0015273760072886944,-0.000591667543631047,-0.013932940550148487
0.002112504793331027,-0.0005892645567655563,0.0009454174432903528,-0.0014878720976412296,-0.0005807916750200093,-0.014163398183882236
0.0013133795000612736,-0.0007251977804116905,0.0009261639788746834,-0.0014711117837578058,-0.0005691091646440327,-0.014257348142564297
0.0006726948777213693,-0.0006318287341855466,0.0009201331413350999,-0.0018559617456048727,-0.0004884212394244969,-0.014160627499222755
0.0004897830076515675,-0.0006600723136216402,0.0009170977282337844,-0.0017583321314305067,-0.000517945911269635,-0.01427110843360424
0.0005455287173390388,-0.0005918880342505872,0.0009148693061433733,-0.001698944834060967,-0.0005457421648316085,-0.01458530593663454
0.0002936329401563853,-0.0006210246938280761,0.000899221864528954,-0.001608347869478166,-0.0005741517525166273,-0.01431948971003294
0.0004929296555928886,-0.0006374514778144658,0.0007843474159017205,-0.0014677310828119516,-0.0008339770720340312,-0.014573859982192516
0.0014137831749394536,-0.0005993324448354542,0.0007851976552046835,-0.0013646873412653804,-0.000922437640838325,-0.014380193315446377
0.0013947696425020695,-0.0006584495422430336,0.0006979209720157087,-0.0012685518013313413,-0.0008087356109172106,-0.014603739604353905
0.0011116735404357314,-0.0006865505129098892,0.0007196248625405133,-0.0012024587485939264,-0.000813183025456965,-0.014709963463246822
0.0007749501382932067,-0.0007086010882630944,0.0007355373818427324,-0.001107750809751451,-0.0007264530286192894,-0.014997388236224651
0.0007707924232818186,-0.0006819954141974449,0.0006705459672957659,-0.0010916254250332713,-0.0007379729067906737,-0.015228193253278732
0.0007608826272189617,-0.0010029374388977885,0.000614553748164326,-0.0010598195949569345,-0.000690984190441668,-0.014520427212119102
0.0007762957829982042,-0.000893810938578099,0.0006451314548030496,-0.0010536571498960257,-0.0006739540840499103,-0.014680157415568829
0.000612420029938221,-0.0008933099452406168,0.0006724516279064119,-0.0012633602600544691,-0.0006463764002546668,-0.01548807229846716
0.0007244825246743858,-0.0008819297072477639,0.0006875988910906017,-0.0012447029585018754,-0.0006699947407469153,-0.015102348290383816
0.0007614490459673107,-0.0007964218966662884,0.0006363837164826691,-0.0013811765238642693,-0.0006920646410435438,-0.015293036587536335
0.0015530361561104655,-0.0007343059405684471,0.0007827708614058793,-0.0014117119135335088,-0.0008257642039097846,-0.01507482398301363
0.001431369106285274,-0.0007539414218626916,0.0006747244042344391,-0.0013262290740385652,-0.0008489997708238661,-0.015593644231557846
0.0013324724277481437,-0.000771883234847337,0.0006895858095958829,-0.00125215167645365,-0.0008568440098315477,-0.0157918781042099
0.0011194434482604265,-0.0007886892417445779,0.0006226544501259923,-0.001084118615835905,-0.000862151209730655,-0.015935465693473816
0.0011919633252546191,-0.0010706294560804963,0.0005583999445661902,-0.0009700573282316327,-0.0008674886776134372,-0.016248296946287155
0.0015166358789429069,-0.0008081633714027703,0.0004626713052857667,-0.0008850336889736354,-0.0008158834534697235,-0.01587170921266079
0.0015388875035569072,-0.000805497751571238,0.0004261476860847324,-0.000875166617333889,-0.0008204523473978043,-0.015397429466247559
0.0015388875035569072,-0.000805497751571238,0.0004261476860847324,-0.000875166617333889,-0.0008204523473978043,-0.015397429466247559
0.0015207759570330381,-0.0007253103540278971,0.0003949688107240945,-0.0008230792009271681,-0.0008221294265240431,-0.015582684427499771
0.0016006373334676027,-0.0007321169250644743,0.00036804293631576,-0.0008145959000103176,-0.0007536018965765834,-0.015795331448316574
0.0014995738165453076,-0.0006784804863855243,0.00034455431159585714,-0.0007357079302892089,-0.0007209430914372206,-0.016228538006544113
0.0015219151973724365,-0.0006507816724479198,0.00032388538238592446,-0.0007493845769204199,-0.0007420211913995445,-0.015898430719971657
0.0014336463063955307,-0.0006783795543015003,0.0003055552369914949,-0.0007460879278369248,-0.0007610244210809469,-0.016109075397253036
0.0013759168796241283,-0.0007218561950139701,0.00028918913449160755,-0.0006959786405786872,-0.0007761004380881786,-0.016433507204055786
0.001625518430955708,-0.00095616519683972,0.0002744876255746931,-0.0006885367911309004,-0.0009744658600538969,-0.016401855275034904
0.001938148052431643,-0.0010746023617684841,0.0002612096432130784,-0.000674267066642642,-0.0009880268480628729,-0.01686340570449829
0.002374223666265607,-0.001051426399499178,0.00024915626272559166,-0.0006468069623224437,-0.0009770183824002743,-0.016721662133932114
0.0032424454111605883,-0.00102599011734128,0.00023816640896257013,-0.0006703990511596203,-0.0009235316538251936,-0.017541617155075073
0.0031649658922106028,-0.0009843229781836271,0.00022810509835835546,-0.0006534697604365647,-0.001079103327356279,-0.017202097922563553
0.002726501552388072,-0.0009509402443654835,0.00021885958267375827,-0.0006342903361655772,-0.0010585965355858207,-0.016971725970506668
0.0025900881737470627,-0.0008511821506544948,0.0002103341103065759,-0.0006337433005683124,-0.001002165605314076,-0.017151549458503723
0.0027112686075270176,-0.0008564855670556426,0.00020244847110006958,-0.0006007931078784168,-0.0009322657715529203,-0.017111901193857193
0.002903135959059,-0.0008616287377662957,0.0001951326266862452,-0.0006105899810791016,-0.0009019383578561246,-0.017351863905787468
0.003456594655290246,-0.0009575155563652515,0.0001883267395896837,-0.0005700307083316147,-0.0008997276308946311,-0.01706184819340706
0.003277713665738702,-0.00098552240524441,0.0001819800236262381,-0.000580012216232717,-0.0008994733216241002,-0.01735442876815796
0.003108897479251027,-0.0009892890229821205,0.00017604700406081975,-0.000548974727280438,-0.0008994152303785086,-0.017895907163619995
0.003167867660522461,-0.0014255543937906623,0.00017048900190275162,-0.0005061154952272773,-0.0008649088558740914,-0.017524659633636475
0.003468335373327136,-0.0014644268667325377,0.00016527077241335064,-0.0005307388491928577,-0.0007780765299685299,-0.01715093106031418
0.0036910641938447952,-0.0014250798849388957,0.00016036283341236413,-0.0004980683443136513,-0.0007897664327174425,-0.017174147069454193
0.004207946360111237,-0.0013478059554472566,0.00015573776909150183,-0.0004808702797163278,-0.0007955915061756968,-0.01744191162288189
0.004148868378251791,-0.0012573952553793788,0.00015137187438085675,-0.00044814575812779367,-0.0007679771515540779,-0.01818663813173771
0.003994264639914036,-0.001196976751089096,0.00014724451466463506,-0.000408422842156142,-0.0007345733465626836,-0.017813604325056076
0.003928385209292173,-0.0010600390378385782,0.00014333613216876984,-0.00041068607242777944,-0.0007221740088425577,-0.01779506728053093
0.004350889008492231,-0.0010317935375496745,0.00013962971570435911,-0.0004122871032450348,-0.0007491039577871561,-0.018101448193192482
0.004775333683937788,-0.001468944363296032,0.00013276383106131107,-0.0003595265734475106,-0.0007623039418831468,-0.01819581165909767
0.00483317207545042,-0.0014273939887061715,0.00012957809667568654,-0.00033708009868860245,-0.0007171230390667915,-0.017703013494610786
0.005215570330619812,-0.0013295237440615892,0.00010792304965434596,-0.0003172659198753536,-0.000893133576028049,-0.018142590299248695
0.004964400548487902,-0.001201304723508656,8.328911644639447e-05,-0.0003239904181100428,-0.0009216453181579709,-0.018938716500997543
0.005576647352427244,-0.0011449630837887526,6.072621181374416e-05,-0.00032953714253380895,-0.0009206249960698187,-0.01924450509250164
0.005576647352427244,-0.0011449630837887526,6.072621181374416e-05,-0.00032953714253380895,-0.0009206249960698187,-0.01924450509250164
0.005324645433574915,-0.001101454021409154,5.911887274123728e-05,-0.000314551405608654,-0.0010823683114722371,-0.018489906564354897
0.005488055758178234,-0.0010710065253078938,5.784846507594921e-05,-0.00029968059970997274,-0.0011627885978668928,-0.017735475674271584
0.0062051694840192795,-0.0011650039814412594,5.6634980865055695e-05,-0.000286074704490602,-0.0011642101453617215,-0.018324125558137894
0.0064222551882267,-0.0011681398609653115,5.5518539738841355e-05,-0.00027364667039364576,-0.001126650720834732,-0.01885276660323143
0.006033658515661955,-0.0015167163219302893,-3.893643952324055e-05,-0.0002622524625621736,-0.00107772892806679,-0.018698737025260925
0.006048034876585007,-0.0016761120641604066,-3.9336398913292214e-05,-0.0002517701650504023,-0.0009691433515399694,-0.0187529269605875
0.0066004553809762,-0.0015615992015227675,-3.851157453027554e-05,-0.00024209311231970787,-0.0009531466057524085,-0.019597046077251434
0.00680199358612299,-0.0015687709674239159,-3.770509283640422e-05,-0.00023313294514082372,-0.0009455900872126222,-0.02038351073861122
0.006506460718810558,-0.001475110067985952,-3.6931476643076167e-05,-0.00022481242194771767,-0.0008732118876650929,-0.018824253231287003
0.006452696863561869,-0.001387828029692173,-5.403570321504958e-05,-0.00021706550614908338,-0.0008749882690608501,-0.01906949281692505
0.00708457687869668,-0.0014677047729492188,-5.3210289479466155e-05,-0.00020983476133551449,-0.000878358434420079,-0.0199943408370018
0.007254880387336016,-0.0015395922819152474,-5.2185052481945604e-05,-0.00020307040540501475,-0.000888628710526973,-0.02028791420161724
0.007192960008978844,-0.0015008619520813227,-6.757828668924049e-05,-0.00013833852426614612,-0.0010975123150274158,-0.019931022077798843
0.007200478110462427,-0.0015774717321619391,-6.698147626593709e-05,-7.829617243260145e-05,-0.001132739009335637,-0.019861236214637756
0.007521264720708132,-0.0014576029498130083,-7.658656977582723e-05,-7.163705595303327e-05,-0.0010650738840922713,-0.019016379490494728
0.007579863537102938,-0.0014391059521585703,-8.065819565672427e-05,-6.867179035907611e-05,-0.0009816334350034595,-0.01915343478322029
0.007354861591011286,-0.0013710245257243514,-7.937389455037192e-05,-6.613308505620807e-05,-0.0008992655784823,-0.01993102766573429
0.007486762013286352,-0.001336263376288116,-0.0003194650053046644,-6.378813850460574e-05,-0.0007837131270207465,-0.02025669440627098
0.007827362045645714,-0.0015941981691867113,-0.0003591584390960634,-6.16046745562926e-05,-0.0007330477237701416,-0.0203047264367342
0.00806301087141037,-0.0015585829969495535,-0.0003389632038306445,-5.956576933385804e-05,-0.0006946281064301729,-0.02062472701072693
0.008357486687600613,-0.0017423845129087567,-0.0003657858178485185,-5.765760943177156e-05,-0.0006680630031041801,-0.020957645028829575
0.00850660540163517,-0.0014594384701922536,-0.00037968007382005453,-5.418580258265138e-05,-0.0006274688639678061,-0.020544415339827538
0.008914326317608356,-0.001303936936892569,-0.0006110312533564866,-5.260216858005151e-05,-0.0006109881214797497,-0.020674142986536026
0.008517196401953697,-0.001352572115138173,-0.000566741160582751,-2.7271531507722102e-05,-0.0005579060525633395,-0.020838001742959023
0.00889650359749794,-0.0014137764228507876,-0.0005920789553783834,-2.4960763767012395e-05,-0.0005445664864964783,-0.021046293899416924
0.00889650359749794,-0.0014137764228507876,-0.0005920789553783834,-2.4960763767012395e-05,-0.0005445664864964783,-0.021046293899416924
0.00948333740234375,-0.001513622933998704,-0.0005434044869616628,-2.418829535599798e-05,-0.0005766242393292487,-0.02134767919778824
0.009319289587438107,-0.001695107901468873,-0.0005726531380787492,-2.354874050070066e-05,-0.000566419679671526,-0.021505435928702354
0.009402217343449593,-0.0017612293595448136,-0.000594093871768564,-2.294781370437704e-05,-0.0005918867536820471,-0.0212115291506052
0.009079162031412125,-0.0016221198020502925,-0.0006505866185761988,-5.789911028841743e-06,-0.000803193193860352,-0.021559955552220345
0.008946727029979229,-0.0015806389274075627,-0.0006894551333971322,-3.7803980035278073e-07,-0.0008285837830044329,-0.02144927717745304
0.00928435381501913,-0.0014744913205504417,-0.0007147967698983848,-2.4683297183969444e-08,-0.0007267086766660213,-0.021588187664747238
0.009715914726257324,-0.0014131007483229041,-0.0007346434285864234,-1.6116429302215352e-09,-0.0006408964400179684,-0.021246355026960373
0.009667621925473213,-0.0016089121345430613,-0.0007017210591584444,-1.0522875626417516e-10,-0.0006548924720846117,-0.02119538187980652
0.009655104018747807,-0.0015124789206311107,-0.0009707750286906958,-6.870686745236165e-12,-0.0006032469100318849,-0.021416975185275078
0.009453194215893745,-0.0017262713517993689,-0.0008692199480719864,-4.4860672793710366e-13,-0.0005511411582119763,-0.021338528022170067
0.010013059712946415,-0.0016956297913566232,-0.0009529537637718022,-2.9290816056263755e-14,-0.0005068067694082856,-0.021394914016127586
0.009725128300487995,-0.0015603171195834875,-0.0008918312378227711,-1.9124807514964105e-15,-0.0005268855020403862,-0.021236075088381767
0.009623399935662746,-0.0015969275264069438,-0.0010469903936609626,0.0010352438548579812,-0.0004982846439816058,-0.021413888782262802
0.010449135676026344,-0.0015353168128058314,-0.0010369338560849428,0.0011581701692193747,-0.0004664983425755054,-0.0215678121894598
0.009831552393734455,-0.0016533636953681707,-0.0012828122125938535,0.0011262338375672698,-0.0004381298494990915,-0.02152598276734352
0.010123377665877342,-0.0016700259875506163,-0.0013122698292136192,0.0011153995292261243,-0.00041362689808011055,-0.021860390901565552
0.010082955472171307,-0.0014978545950725675,-0.0013921397039666772,0.0011342091020196676,-0.0003312025801278651,-0.021946126595139503
0.010663437657058239,-0.0015109875239431858,-0.0013843884225934744,0.0011176358675584197,-0.00030529990908689797,-0.02180434949696064
0.010075300000607967,-0.0014316355809569359,-0.0012909136712551117,0.0012479082215577364,-0.00028568162815645337,-0.021701185032725334
0.010095616802573204,-0.0015056022675707936,-0.0013724665623158216,0.0015727509744465351,-0.0002686061488930136,-0.021957939490675926
0.010983843356370926,-0.0015221955254673958,-0.0014660073211416602,0.002054659416899085,-0.00025346907204948366,-0.02198880724608898
0.011312799528241158,-0.0017990183550864458,-0.0016003074124455452,0.0022029776591807604,-0.00023994794173631817,-0.022084247320890427
0.010314223356544971,-0.0018329552840441465,-0.0020085438154637814,0.0023830668069422245,-0.00022779733990319073,-0.022159595042467117
0.012057948857545853,-0.0017120136180892587,-0.002195905428379774,0.002173473360016942,-0.00020684923219960183,-0.022586530074477196
0.011727076023817062,-0.0015970825916156173,-0.002130551729351282,0.00239046779461205,-0.00019775739929173142,-0.022492343559861183
0.011727076023817062,-0.0015970825916156173,-0.002130551729351282,0.00239046779461205,-0.00019775739929173142,-0.022492343559861183
0.011677921749651432,-0.0015872044023126364,-0.0023016594350337982,0.002924444619566202,-0.00018943066243082285,-0.02265295572578907
0.011339127086102962,-0.0016378214349970222,-0.002606905996799469,0.003025409998372197,-0.00018177650053985417,-0.022664228454232216
0.011998385190963745,-0.0018609827384352684,-0.0028923244681209326,0.003377879038453102,-0.00017471806495450437,-0.022618761286139488
0.011564214713871479,-0.0018635040614753962,-0.002756719011813402,0.0035562249831855297,-0.00016818642325233668,-0.0229073204100132
0.011824364773929119,-0.002182804513722658,-0.0030616510193794966,0.0035613777581602335,-0.00016212643822655082,-0.023205775767564774
0.012008732184767723,-0.0016994662582874298,-0.0030218372121453285,0.0033558786381036043,-0.0001564876438351348,-0.022917835041880608
0.01170986145734787,-0.0013385742204263806,-0.0030193887650966644,0.0034581399522721767,-0.00015122834884095937,-0.02286982722580433
0.01234877947717905,-0.0011035818606615067,-0.0027975640259683132,0.0036580408923327923,-0.0001463106891606003,-0.023019125685095787
0.012274163775146008,-0.0010670328047126532,-0.0030679861083626747,0.003493064781650901,-0.00014170266513247043,-0.023362575098872185
0.012762404978275299,-0.0008228953811340034,-0.003460587002336979,0.0035294643603265285,-0.0001373768027406186,-0.023795457556843758
0.010373248718678951,-0.0007686471217311919,-0.00382912065833807,0.0040574646554887295,-0.00013330660294741392,-0.023785464465618134
0.011081413365900517,-0.0008675703429616988,-0.0035017416812479496,0.00418607983738184,-0.00012947081995662302,-0.023871060460805893
0.011361947283148766,-0.0011824032990261912,-0.0035643931478261948,0.004041130188852549,-0.00012584985233843327,-0.023737983778119087
0.01071042101830244,-0.0012815255904570222,-0.003359840251505375,0.0038346971850842237,-0.00012242574302945286,-0.023479772731661797
0.011140041053295135,-0.001209803274832666,-0.003371457103639841,0.0035595279186964035,-0.0001191830015159212,-0.023388594388961792
0.010899560526013374,-0.001114267623052001,-0.003081325441598892,0.003462249180302024,-0.0001161079853773117,-0.024818943813443184
0.010933232493698597,-0.0010027156677097082,-0.003243671730160713,0.003628276754170656,-0.00011318717588437721,-0.024295084178447723
0.01131453923881054,-0.0008614617981947958,-0.0036022202111780643,0.003837811993435025,-0.00011040997196687385,-0.02382349781692028
0.011046210303902626,-0.0008106924942694604,-0.004327274393290281,0.003924449440091848,-0.00010776575800264254,-0.02387375943362713
0.012072877027094364,-0.0007421893533319235,-0.0047112200409173965,0.0038818353787064552,-0.00010524522076593712,-0.023820294067263603
0.01163124106824398,-0.0008307229145430028,-0.004417453892529011,0.004106844775378704,-0.00010284008749295026,-0.02427595481276512
0.010529906488955021,-0.0007846562075428665,-0.004072424024343491,0.004232197999954224,-0.00010054210724774748,-0.0251429732888937
0.011722602881491184,-0.0010049509583041072,-0.003974254243075848,0.004348619841039181,-0.0001154308338300325,-0.025522548705339432
0.011501430533826351,-0.0009909321088343859,-0.00440995953977108,0.004109976347535849,-0.00011532113421708345,-0.02495785988867283
0.011608433909714222,-0.0010252677602693439,-0.0046911113895475864,0.003858448937535286,-0.00012444467574823648,-0.026292918249964714
0.011421216651797295,-0.0010670305928215384,-0.005301875527948141,0.004461120348423719,-0.0001263028389075771,-0.025687219575047493
0.011568640358746052,-0.001040064264088869,-0.005066456738859415,0.004800029564648867,-0.0001406498340656981,-0.024930311366915703
0.0112462742254138,-0.0010097066406160593,-0.0049246810376644135,0.004771635867655277,-0.00012186280218884349,-0.0246601365506649
0.011192808859050274,-0.0009901558514684439,-0.004960480146110058,0.004362382460385561,-0.00013309848145581782,-0.025321396067738533
0.011192808859050274,-0.0009901558514684439,-0.004960480146110058,0.004362382460385561,-0.00013309848145581782,-0.025321396067738533
0.011621814221143723,-0.0010102727683261037,-0.004962146282196045,0.0042534926906228065,-0.0001513548195362091,-0.02615763433277607
0.011369903571903706,-0.0010894554434344172,-0.00573591748252511,0.004320778883993626,-0.00017062427650671452,-0.026409856975078583
0.011224739253520966,-0.0012022187002003193,-0.0056203920394182205,0.004415079951286316,-0.0008763174409978092,-0.02571604773402214
0.011659873649477959,-0.0012293141335248947,-0.0058048744685947895,0.004502724856138229,-0.0009677979396656156,-0.025324000045657158
0.011608228087425232,-0.0011688914382830262,-0.005422912072390318,0.0041970144957304,-0.0009533476550132036,-0.025606367737054825
0.012020716443657875,-0.0011264497879892588,-0.005808722693473101,0.004367675166577101,-0.0009001316502690315,-0.025711745023727417
0.012075834907591343,-0.0011759509798139334,-0.0057616448029875755,0.00450408598408103,-0.0008461989345960319,-0.02589622512459755
0.01243611704558134,-0.0011671571992337704,-0.00631417753174901,0.004743427503854036,-0.0007905595703050494,-0.02605828270316124
0.011736512184143066,-0.0011369065614417195,-0.006245873868465424,0.004949560388922691,-0.0006876599509268999,-0.0263091791421175
0.011430456303060055,-0.0013260476989671588,-0.005915421061217785,0.004972371738404036,-0.00069964345311746,-0.02617133967578411
0.011832731775939465,-0.0012902794405817986,-0.00615951232612133,0.004994822200387716,-0.0007220779662020504,-0.02648419514298439
0.01170120108872652,-0.0012362349079921842,-0.0071733309887349606,0.004829349461942911,-0.0008813387830741704,-0.027117030695080757
0.011895028874278069,-0.0011490995530039072,-0.007032210938632488,0.004462245851755142,-0.0012346756411716342,-0.02669648639857769
0.012354956939816475,-0.0010482195066288114,-0.006358080543577671,0.0044949655421078205,-0.002348219742998481,-0.02618798241019249
0.012086383067071438,-0.0010223493445664644,-0.006302314344793558,0.004662233404815197,-0.0022537868935614824,-0.025768395513296127
0.012557832524180412,-0.0010346351191401482,-0.006916339043527842,0.005161485634744167,-0.0021051629446446896,-0.026156311854720116
0.012142167426645756,-0.0009815423982217908,-0.007541886065155268,0.00493366364389658,-0.0019802101887762547,-0.02713567018508911
0.012448329478502274,-0.0009930646046996117,-0.007209947798401117,0.004542738664895296,-0.0015855723759159446,-0.026775136590003967
0.012579883448779583,-0.0010736880358308554,-0.007006648927927017,0.0046288128942251205,-0.0013704055454581976,-0.02670704573392868
0.012630346231162548,-0.0012160026235505939,-0.0075483983382582664,0.004503823816776276,-0.0014156250981613994,-0.027924899011850357
0.012854156084358692,-0.0012538153678178787,-0.007204731926321983,0.004478395916521549,-0.001576859736815095,-0.027784505859017372
0.012571842409670353,-0.0011879270896315575,-0.0080014169216156,0.004225865937769413,-0.0016492755385115743,-0.02666616439819336
0.012661997228860855,-0.0011418623616918921,-0.007107785902917385,0.00442869495600462,-0.0018142744665965438,-0.026235094293951988
0.013383401557803154,-0.0011411610757932067,-0.0082258814945817,0.004765581339597702,-0.0016408126102760434,-0.02777642011642456
0.012826604768633842,-0.0011415298795327544,-0.007915805093944073,0.0047452691942453384,-0.0016250412445515394,-0.02806132473051548
0.012897571548819542,-0.0012643341906368732,-0.007656879723072052,0.005012311041355133,-0.001725487527437508,-0.02788902260363102
0.012897571548819542,-0.0012643341906368732,-0.007656879723072052,0.005012311041355133,-0.001725487527437508,-0.02788902260363102
0.012851892039179802,-0.0013471398269757628,-0.007406011689454317,0.005065176170319319,-0.001873071538284421,-0.027587173506617546
0.013157223351299763,-0.0013052086578682065,-0.008646287955343723,0.005385627970099449,-0.002114729955792427,-0.027639023959636688
0.01364367175847292,-0.0012460926081985235,-0.008607505820691586,0.005118696950376034,-0.002179110888391733,-0.027546774595975876
0.01334418635815382,-0.0013151097809895873,-0.00827667023986578,0.00508152274414897,-0.002208610298112035,-0.0280530396848917
0.013406378217041492,-0.0012795603834092617,-0.00851521734148264,0.005066641606390476,-0.002139016054570675,-0.028267372399568558
0.013241836801171303,-0.0014229180524125695,-0.008766901679337025,0.005016769282519817,-0.0022914938163012266,-0.02789144776761532
0.01365918293595314,-0.0013779026921838522,-0.008262322284281254,0.005528383422642946,-0.002057598903775215,-0.02802843600511551
0.013215726241469383,-0.0015860071871429682,-0.008310286328196526,0.005285824183374643,-0.0019100334029644728,-0.028610380366444588
0.01389595028012991,-0.0016863916534930468,-0.009191635996103287,0.005421982146799564,-0.001844152924604714,-0.028387755155563354
0.013630715198814869,-0.0015685001853853464,-0.00898346584290266,0.004961221478879452,-0.0020244268234819174,-0.028041716665029526
0.014316800981760025,-0.0015979503514245152,-0.00874405074864626,0.004812333267182112,-0.0019237158121541142,-0.028226422145962715
0.013747562654316425,-0.0014888927107676864,-0.009523242712020874,0.004918990656733513,-0.002302790293470025,-0.02804476022720337
0.014098459854722023,-0.0013916706666350365,-0.009550322778522968,0.005408682394772768,-0.002317944308742881,-0.028186924755573273
0.014126905240118504,-0.0014359581982716918,-0.009062946774065495,0.005537274293601513,-0.002305773086845875,-0.028539085760712624
0.01473275851458311,-0.0014628198696300387,-0.009288698434829712,0.0055000619031488895,-0.0021539158187806606,-0.02876601740717888
0.014095866121351719,-0.0014477806398645043,-0.0099726477637887,0.005299731157720089,-0.0020579344127327204,-0.02844868041574955
0.01404894795268774,-0.0015920746373012662,-0.009152618236839771,0.005338607355952263,-0.001889814855530858,-0.028462475165724754
0.013997241854667664,-0.00173944013658911,-0.009505826979875565,0.005165402311831713,-0.001930393511429429,-0.02881275862455368
0.014802481979131699,-0.0018558800220489502,-0.010822359472513199,0.005950423888862133,-0.002172323642298579,-0.02933644689619541
0.014656800776720047,-0.0016873610438778996,-0.009327415376901627,0.0055808741599321365,-0.0022974065504968166,-0.029659856110811234
0.015111763030290604,-0.0016696706879884005,-0.009602501057088375,0.005645679775625467,-0.002262857975438237,-0.02947717159986496
0.014738085679709911,-0.0016812015092000365,-0.009625250473618507,0.00544746732339263,-0.0022460571490228176,-0.029554877430200577
0.01500129234045744,-0.0019479040056467056,-0.009357470087707043,0.005722330417484045,-0.0022141016088426113,-0.030055541545152664
0.01481932308524847,-0.0018103581387549639,-0.010067501105368137,0.005468626972287893,-0.0023513620253652334,-0.030525365844368935
0.015841588377952576,-0.0021091962698847055,-0.009869350120425224,0.005848392378538847,-0.0023916997015476227,-0.03043452277779579
0.01583111472427845,-0.0021050828509032726,-0.010463529266417027,0.006088415626436472,-0.002252791775390506,-0.029953140765428543
0.01583111472427845,-0.0021050828509032726,-0.010463529266417027,0.006088415626436472,-0.002252791775390506,-0.029953140765428543
0.015518074855208397,-0.002316940575838089,-0.009989271871745586,0.006096983794122934,-0.0021712505258619785,-0.03022621013224125
0.015884654596447945,-0.0022426315117627382,-0.010777425952255726,0.006151407025754452,-0.0023319495376199484,-0.030077820643782616
0.015759145841002464,-0.0022677599918097258,-0.010476249270141125,0.0064047412015497684,-0.002457898575812578,-0.03006625920534134
0.01597331091761589,-0.0021498894784599543,-0.01041655708104372,0.005922526586800814,-0.0023900934029370546,-0.030569223687052727
0.01554672047495842,-0.002023097826167941,-0.010003248229622841,0.005735783372074366,-0.0024873330257833004,-0.03031092882156372
0.015346107073128223,-0.001964936498552561,-0.010185047052800655,0.006017877254635096,-0.002324022352695465,-0.029828421771526337
0.016031742095947266,-0.0021898318082094193,-0.007809492759406567,0.006144109182059765,-0.0023908871226012707,-0.03070591390132904
0.0164170078933239,-0.0025274839717894793,-0.006792618427425623,0.006496824789792299,-0.0024041077122092247,-0.03185329958796501
0.016732310876250267,-0.002478586044162512,-0.00753360241651535,0.006850863341242075,-0.002377371769398451,-0.03131842240691185
0.016111303120851517,-0.0025951508432626724,-0.008770078420639038,0.00662976736202836,-0.002707141451537609,-0.030023973435163498
0.016365213319659233,-0.002650223206728697,-0.008761665783822536,0.006129481829702854,-0.002876411657780409,-0.030032185837626457
0.016483517363667488,-0.0024963957257568836,-0.00800943374633789,0.006637281738221645,-0.0027917996048927307,-0.03168370574712753
0.01645054668188095,-0.0025921748019754887,-0.007867335341870785,0.0073395343497395515,-0.0026056081987917423,-0.03198947757482529
0.016993481665849686,-0.0027599972672760487,-0.008189448155462742,0.0071200295351445675,-0.002539708511903882,-0.032473787665367126
0.016620462760329247,-0.0026969225145876408,-0.008242141455411911,0.007209561765193939,-0.0026735749561339617,-0.033161457628011703
0.016796506941318512,-0.0028649272862821817,-0.00819558184593916,0.007110984064638615,-0.0026419281493872404,-0.031661540269851685
0.016849525272846222,-0.0025473025161772966,-0.008657501079142094,0.0079241544008255,-0.0027084359899163246,-0.03070950321853161
0.01708092913031578,-0.0025451849214732647,-0.007970551028847694,0.007284371182322502,-0.0025717236567288637,-0.03169883415102959
0.016876965761184692,-0.0026073537301272154,-0.00791171658784151,0.007225957233458757,-0.0023540949914604425,-0.03232781961560249
0.01665758341550827,-0.0027386511210352182,-0.008425705134868622,0.00795359443873167,-0.002239756053313613,-0.03213703632354736
0.017404209822416306,-0.0028220308013260365,-0.008434316143393517,0.007762701250612736,-0.002162339398637414,-0.0321354866027832
0.017218952998518944,-0.002670341869816184,-0.008217289112508297,0.007457958068698645,-0.0023741554468870163,-0.03211480751633644
0.017383918166160583,-0.002859987784177065,-0.00827835313975811,0.0074446238577365875,-0.0024790845345705748,-0.03236036002635956
0.017513476312160492,-0.0026640405412763357,-0.009665009565651417,0.007791619282215834,-0.0023204984609037638,-0.03287418931722641
0.017428427934646606,-0.002548650838434696,-0.008649284020066261,0.007755955681204796,-0.0022263044957071543,-0.0329611711204052
0.017952457070350647,-0.0029141567647457123,-0.00904759205877781,0.007444785442203283,-0.002206457080319524,-0.03292979672551155
0.017917411401867867,-0.0028053056448698044,-0.0092365313321352,0.007588113192468882,-0.002031484851613641,-0.03262210637331009
0.018499039113521576,-0.002578901592642069,-0.009055880829691887,0.007847803644835949,-0.0020232738461345434,-0.033900804817676544
0.018499039113521576,-0.002578901592642069,-0.009055880829691887,0.007847803644835949,-0.0020232738461345434,-0.033900804817676544
0.018230877816677094,-0.0025575533509254456,-0.008889039978384972,0.007481349166482687,-0.0019089351408183575,-0.03353141248226166
0.01825639232993126,-0.002727736020460725,-0.009555150754749775,0.0073107327334582806,-0.0019443340133875608,-0.03379381448030472
0.018181920051574707,-0.0031369044445455074,-0.00915166549384594,0.0077176825143396854,-0.0019870600663125515,-0.03235502913594246
0.018393125385046005,-0.0030794949270784855,-0.009319434873759747,0.008186155930161476,-0.002199977869167924,-0.033503007143735886
0.018551364541053772,-0.003204223932698369,-0.009642244316637516,0.0075543541461229324,-0.0023015406914055347,-0.03348436579108238
0.018595600500702858,-0.003188130911439657,-0.009220159612596035,0.006947972811758518,-0.00221425318159163,-0.03413502126932144
0.018372103571891785,-0.003035194706171751,-0.009470689110457897,0.007846958935260773,-0.0022582304663956165,-0.03509706258773804
0.01888830028474331,-0.0030649113468825817,-0.010346529074013233,0.008287645876407623,-0.002223968505859375,-0.034340064972639084
0.018578406423330307,-0.002868075156584382,-0.009374023415148258,0.007696792483329773,-0.0023780500050634146,-0.032718926668167114
0.018657933920621872,-0.002899736864492297,-0.009022252634167671,0.007974833250045776,-0.002353956922888756,-0.03349410369992256
0.019368521869182587,-0.0031517641618847847,-0.010052323341369629,0.007970944046974182,-0.0022335282992571592,-0.03465565666556358
0.01852932944893837,-0.0030840521212667227,-0.010295610874891281,0.0077977292239665985,-0.002304614055901766,-0.034470971673727036
0.018832433968782425,-0.0030018098186701536,-0.00998010579496622,0.007517795544117689,-0.0022364265751093626,-0.03457063436508179
0.019387943670153618,-0.002862365450710058,-0.010771706700325012,0.007917704991996288,-0.0021866492461413145,-0.03432274982333183
0.019870765507221222,-0.002953250426799059,-0.00992243830114603,0.008214709348976612,-0.0022638067603111267,-0.03388410806655884
0.019311457872390747,-0.003194633638486266,-0.009926632978022099,0.008141441270709038,-0.0022427851799875498,-0.03361129388213158
0.01986483484506607,-0.0031609516590833664,-0.01043625082820654,0.007939495146274567,-0.002445568796247244,-0.034137289971113205
0.019195789471268654,-0.003080572234466672,-0.009841513819992542,0.008022873662412167,-0.002329655457288027,-0.03496174141764641
0.017737656831741333,-0.002893454395234585,-0.011263998225331306,0.00828839186578989,-0.0023709875531494617,-0.035033561289310455
0.020079098641872406,-0.002898692386224866,-0.010522790253162384,0.007936942391097546,-0.0022317178081721067,-0.03445502370595932
0.020489169284701347,-0.0029094580095261335,-0.009930606000125408,0.008134864270687103,-0.0021973566617816687,-0.034895770251750946
0.01997874118387699,-0.0033065127208828926,-0.010761156678199768,0.008400523103773594,-0.0023728518281131983,-0.03452872857451439
0.019854102283716202,-0.003233117051422596,-0.010572191327810287,0.0086880037561059,-0.002603621454909444,-0.0350857712328434
0.019882449880242348,-0.003083955030888319,-0.010940196923911572,0.008893119171261787,-0.002740450669080019,-0.03554738685488701
0.019882449880242348,-0.003083955030888319,-0.010940196923911572,0.008893119171261787,-0.002740450669080019,-0.03554738685488701
0.02060755342245102,-0.003153009805828333,-0.010295446962118149,0.008825879544019699,-0.002532883081585169,-0.03578795865178108
0.02060755342245102,-0.003153009805828333,-0.010295446962118149,0.008825879544019699,-0.002532883081585169,-0.03578795865178108
0.019779250025749207,-0.0033797775395214558,-0.010458925738930702,0.009229875169694424,-0.0021626658271998167,-0.036266643553972244
0.019779250025749207,-0.0033797775395214558,-0.010458925738930702,0.009229875169694424,-0.0021626658271998167,-0.036266643553972244
0.020238080993294716,-0.0031027356162667274,-0.01063494198024273,0.008807831443846226,-0.002137587172910571,-0.036554764956235886
0.020415479317307472,-0.0033238069154322147,-0.011075195856392384,0.008864169009029865,-0.0022956919856369495,-0.03620544821023941
0.020793367177248,-0.003311844076961279,-0.010599362663924694,0.009257843717932701,-0.002279364038258791,-0.03673957660794258
0.020924294367432594,-0.0031752255745232105,-0.010996184311807156,0.009206181392073631,-0.0023606708273291588,-0.036621734499931335
0.02072114683687687,-0.0029738256707787514,-0.01082866732031107,0.00861939787864685,-0.0023374834563583136,-0.0366426520049572
0.020801987498998642,-0.003230557544156909,-0.01074850931763649,0.008878355845808983,-0.002590329386293888,-0.03688984736800194
0.02071445621550083,-0.0032610190100967884,-0.011768410913646221,0.00912279449403286,-0.0030789398588240147,-0.03603961691260338
0.020893877372145653,-0.0033122054301202297,-0.011878721415996552,0.009307919070124626,-0.0031320564448833466,-0.03701041638851166
0.021114783361554146,-0.003308036830276251,-0.011685328558087349,0.009220411069691181,-0.003006045240908861,-0.03783506155014038
0.021031104028224945,-0.003026732709258795,-0.011225363239645958,0.010500114411115646,-0.0028442463371902704,-0.03852172568440437
0.021283434703946114,-0.0028733357321470976,-0.0111159672960639,0.009645453654229641,-0.0027737929485738277,-0.03820149600505829
0.0214860700070858,-0.002513885498046875,-0.011761488392949104,0.009401552379131317,-0.0026078468654304743,-0.03622922673821449
0.02160794474184513,-0.0017735273577272892,-0.011422418057918549,0.009156606160104275,-0.0024941416922956705,-0.037140849977731705
0.021436011418700218,-0.0017365498933941126,-0.010945068672299385,0.008909989148378372,-0.0026690266095101833,-0.03719748929142952
0.021280251443386078,-0.0016824161866679788,-0.01084128674119711,0.009283958002924919,-0.0028206780552864075,-0.03814694657921791
0.022065894678235054,-0.0019033754942938685,-0.010617326013743877,0.009335150010883808,-0.002954239258542657,-0.03882058709859848
0.022048842161893845,-0.002317361067980528,-0.010987435467541218,0.009031422436237335,-0.003298495663329959,-0.03735668212175369
0.021599439904093742,-0.002579350024461746,-0.011089800857007504,0.009161621332168579,-0.0030631055124104023,-0.03630082309246063
0.021404309198260307,-0.002667041029781103,-0.010415235534310341,0.009678459726274014,-0.0030538374558091164,-0.0378924123942852
0.022007141262292862,-0.002301681088283658,-0.011082679033279419,0.009257522411644459,-0.002988774562254548,-0.038686010986566544
0.02193640172481537,-0.00203510420396924,-0.011038664728403091,0.010037531144917011,-0.002763584954664111,-0.03846702352166176
0.021699631586670876,-0.0019795126281678677,-0.011239771731197834,0.009896369650959969,-0.002637624042108655,-0.03813772648572922
0.021699631586670876,-0.0019795126281678677,-0.011239771731197834,0.009896369650959969,-0.002637624042108655,-0.03813772648572922
0.022035731002688408,-0.002050513867288828,-0.010643708519637585,0.010329999960958958,-0.0024050106294453144,-0.03839674964547157
0.02238324284553528,-0.0023501121904700994,-0.011910516768693924,0.009669790975749493,-0.002620793879032135,-0.03848749026656151
0.02238324284553528,-0.0023501121904700994,-0.011910516768693924,0.009669790975749493,-0.002620793879032135,-0.03848749026656151
0.0224002618342638,-0.0025328355841338634,-0.011374836787581444,0.009749135933816433,-0.0024957763962447643,-0.0386071652173996
0.022710444405674934,-0.0023680427111685276,-0.011600305326282978,0.010881954804062843,-0.0026599853299558163,-0.03744516149163246
0.022519242018461227,-0.002138149458914995,-0.01125194039195776,0.009462608955800533,-0.0028806424234062433,-0.0402202308177948
0.022519242018461227,-0.002138149458914995,-0.01125194039195776,0.009462608955800533,-0.0028806424234062433,-0.0402202308177948
0.02264763042330742,-0.002294820500537753,-0.011481226421892643,0.01047007367014885,-0.0028069845866411924,-0.03872087597846985
0.02255435101687908,-0.002371107926592231,-0.011313575319945812,0.00987628847360611,-0.0028662539552897215,-0.03695712611079216
0.022930976003408432,-0.0025361620355397463,-0.012017757631838322,0.00946903694421053,-0.00276094488799572,-0.038758520036935806
0.023292552679777145,-0.002674664370715618,-0.011154607869684696,0.010237587615847588,-0.0026963483542203903,-0.0392589196562767
0.023336879909038544,-0.0023300480097532272,-0.011363688856363297,0.010081182233989239,-0.00253306794911623,-0.04059896245598793
0.022824816405773163,-0.0023063106928020716,-0.011344910599291325,0.009862530045211315,-0.0026390228886157274,-0.040280163288116455
0.023488184437155724,-0.0021100796293467283,-0.010851485654711723,0.01024036854505539,-0.002620129846036434,-0.03831109032034874
0.023812798783183098,-0.0022598877549171448,-0.01139155589044094,0.010052032768726349,-0.002512831473723054,-0.038998253643512726
0.023487573489546776,-0.002577985869720578,-0.011114485561847687,0.010481514967978,-0.0025959366466850042,-0.03976696357131004
0.023834669962525368,-0.0027575665153563023,-0.011719852685928345,0.010214758105576038,-0.0029520748648792505,-0.040273088961839676
0.02358318120241165,-0.002588404808193445,-0.01180411595851183,0.009786982089281082,-0.0031007134821265936,-0.04031037166714668
0.022655369713902473,-0.002589202718809247,-0.011089731007814407,0.009865019470453262,-0.0034868670627474785,-0.039217282086610794
0.023415900766849518,-0.002317703329026699,-0.011670645326375961,0.01064055785536766,-0.0031175401527434587,-0.0408315472304821
0.024229438975453377,-0.0024197876919060946,-0.012252015992999077,0.010875952430069447,-0.002719084732234478,-0.04123008996248245
0.023889906704425812,-0.0026992009952664375,-0.012709379196166992,0.011238733306527138,-0.0023810153361409903,-0.040693994611501694
0.023847315460443497,-0.002837744075804949,-0.011969574727118015,0.010450571775436401,-0.002366062253713608,-0.041010782122612
0.023948851972818375,-0.002721338765695691,-0.01114882342517376,0.009935714304447174,-0.002590412041172385,-0.041409481316804886
0.024586720392107964,-0.0026206530164927244,-0.011958282440900803,0.01057588029652834,-0.0031670397147536278,-0.041482605040073395
0.02395051158964634,-0.0024894659873098135,-0.012040252797305584,0.010490245185792446,-0.003216978395357728,-0.041330404579639435
0.023914197459816933,-0.002497596899047494,-0.01158649381250143,0.010121145285665989,-0.0030732101295143366,-0.04180235043168068
0.023852244019508362,-0.003195531666278839,-0.011185655370354652,0.009895679540932178,-0.003056828398257494,-0.04122144728899002
0.02371542528271675,-0.0031905618961900473,-0.011484113521873951,0.009746522642672062,-0.0031366809271275997,-0.04150822013616562
0.02429508976638317,-0.0029974747449159622,-0.011426144279539585,0.010043375194072723,-0.003063742769882083,-0.04153742641210556
0.02408643811941147,-0.002700118813663721,-0.011764618568122387,0.010293235071003437,-0.002816950436681509,-0.04171963408589363
0.024523159489035606,-0.0029788094107061625,-0.012234459631145,0.009934141300618649,-0.002803427167236805,-0.04166702181100845
0.02452738769352436,-0.0030609150417149067,-0.011856704950332642,0.010152728296816349,-0.0028475674334913492,-0.041534386575222015
0.024659741669893265,-0.0030962207820266485,-0.01235899981111288,0.010412263683974743,-0.0028488736134022474,-0.04207121953368187
0.024659741669893265,-0.0030962207820266485,-0.01235899981111288,0.010412263683974743,-0.0028488736134022474,-0.04207121953368187
0.024572886526584625,-0.0029919028747826815,-0.01235128939151764,0.010264299809932709,-0.0030158525332808495,-0.04142293334007263
0.024572886526584625,-0.0029919028747826815,-0.01235128939151764,0.010264299809932709,-0.0030158525332808495,-0.04142293334007263
0.024599315598607063,-0.0033069199416786432,-0.011783766560256481,0.010314076207578182,-0.003130174707621336,-0.042809437960386276
0.024296294897794724,-0.0031941577326506376,-0.012005914933979511,0.010175643488764763,-0.003406510455533862,-0.04350141063332558
0.024446355178952217,-0.00307310838252306,-0.01272745430469513,0.010508298873901367,-0.003693267935886979,-0.041820406913757324
0.025106005370616913,-0.002846306189894676,-0.012230859138071537,0.009836699813604355,-0.003409553784877062,-0.041930604726076126
0.024554040282964706,-0.0030542428139597178,-0.012912810780107975,0.010100924409925938,-0.003025285666808486,-0.041836902499198914
0.024555768817663193,-0.0033235582523047924,-0.012035646475851536,0.010475654155015945,-0.0026744238566607237,-0.04396989941596985
0.024951651692390442,-0.0036248397082090378,-0.012456214986741543,0.01080495398491621,-0.0025602730456739664,-0.04475387558341026
0.024486739188432693,-0.003316429676488042,-0.012364943511784077,0.011491077952086926,-0.002649343805387616,-0.04199324548244476
0.02506515383720398,-0.0030207508243620396,-0.012434077449142933,0.011517644859850407,-0.002593833254650235,-0.041809722781181335
0.025493571534752846,-0.0029820832423865795,-0.012636936269700527,0.011105849407613277,-0.002709856489673257,-0.04270624369382858
0.02540607564151287,-0.0031147233676165342,-0.012400715611875057,0.011707997880876064,-0.00261214398778975,-0.043212223798036575
0.025348352268338203,-0.0034681062679737806,-0.013148227706551552,0.011629024520516396,-0.002603743225336075,-0.04345247149467468
0.025227785110473633,-0.003616773057729006,-0.012438354082405567,0.012047970667481422,-0.002904119435697794,-0.043020498007535934
0.025355366989970207,-0.003543516853824258,-0.01264965906739235,0.011919060721993446,-0.003211044939234853,-0.043360672891139984
0.025243347510695457,-0.0033644966315478086,-0.012442855164408684,0.011775635182857513,-0.0035652967635542154,-0.04316139593720436
0.026360902935266495,-0.0034693179186433554,-0.012876845896244049,0.0116944694891572,-0.003341698320582509,-0.04331061989068985
0.025414016097784042,-0.003292841138318181,-0.013009817339479923,0.011401450261473656,-0.003065256867557764,-0.043148159980773926
0.026242204010486603,-0.003465997753664851,-0.012576514855027199,0.011838105507194996,-0.002770689781755209,-0.04368067905306816
0.025770608335733414,-0.003542745253071189,-0.012403758242726326,0.012128829956054688,-0.0030157575383782387,-0.04555391147732735
0.025770608335733414,-0.003542745253071189,-0.012403758242726326,0.012128829956054688,-0.0030157575383782387,-0.04555391147732735
0.025995131582021713,-0.0033328095450997353,-0.013068423606455326,0.012157903984189034,-0.0029916148632764816,-0.04503487050533295
0.0263112410902977,-0.0032934434711933136,-0.012652144767343998,0.01233111321926117,-0.0027886386960744858,-0.04299838840961456
0.02599896304309368,-0.003395507810637355,-0.013360545039176941,0.012459106743335724,-0.0026584032457321882,-0.043192654848098755
0.026376998052001,-0.0035885118413716555,-0.013064422644674778,0.012098710052669048,-0.0026738536544144154,-0.044715531170368195
0.026827441528439522,-0.0034669898450374603,-0.013402771204710007,0.012010069563984871,-0.00298499409109354,-0.04496343061327934
0.026827441528439522,-0.0034669898450374603,-0.013402771204710007,0.012010069563984871,-0.00298499409109354,-0.04496343061327934
0.026421085000038147,-0.0035171466879546642,-0.012543624266982079,0.01193576492369175,-0.0033482930157333612,-0.04349571466445923
0.025911329314112663,-0.003422535490244627,-0.012900657020509243,0.012370515614748001,-0.003434819635003805,-0.04477723687887192
0.026638569310307503,-0.003533913753926754,-0.012587985023856163,0.011920101940631866,-0.00324937398545444,-0.045505378395318985
0.027130112051963806,-0.0036853610072284937,-0.013419467955827713,0.012753595598042011,-0.0029809894040226936,-0.04540778696537018
0.027223417535424232,-0.0037078738678246737,-0.013174321502447128,0.011509789153933525,-0.002737757284194231,-0.04494113847613335
0.027448130771517754,-0.003786215092986822,-0.013709116727113724,0.011614381335675716,-0.002570299431681633,-0.04544500634074211
0.02767346426844597,-0.0037912579718977213,-0.013211943209171295,0.011859964579343796,-0.002872968092560768,-0.045592013746500015
0.0273981261998415,-0.003459823550656438,-0.014034612104296684,0.01152140274643898,-0.0029812816064804792,-0.044894587248563766
0.027773171663284302,-0.003385614138096571,-0.01392475888133049,0.011971124447882175,-0.003133977996185422,-0.045082855969667435
0.027799969539046288,-0.003227593842893839,-0.01459476724267006,0.012228845618665218,-0.003159885061904788,-0.04550222307443619
0.027869824320077896,-0.0031654606573283672,-0.013906952925026417,0.012919289059937,-0.0031391524244099855,-0.045660603791475296
0.028501316905021667,-0.0031320671550929546,-0.01424387563019991,0.012935704551637173,-0.003016573842614889,-0.045099854469299316
0.028133656829595566,-0.003058291506022215,-0.014340464025735855,0.012817255221307278,-0.0029572260100394487,-0.04611751809716225
0.028493456542491913,-0.002910243347287178,-0.01463191956281662,0.01267741434276104,-0.002876684768125415,-0.04582899808883667
0.02877943590283394,-0.0028206021524965763,-0.014205734245479107,0.012288359925150871,-0.0029623075388371944,-0.045798808336257935
0.02869127131998539,-0.00307825836353004,-0.014997757039964199,0.012596633285284042,-0.002824488328769803,-0.04633038118481636
0.028675345703959465,-0.0033786112908273935,-0.014581307768821716,0.011923057027161121,-0.002909561153501272,-0.046539146453142166
0.02878265082836151,-0.0034137486945837736,-0.015095768496394157,0.012314877472817898,-0.0028608099091798067,-0.046011000871658325
0.02876899763941765,-0.0030489012133330107,-0.01442958414554596,0.012044163420796394,-0.002953985473141074,-0.04534274712204933
0.02876899763941765,-0.0030489012133330107,-0.01442958414554596,0.012044163420796394,-0.002953985473141074,-0.04534274712204933
0.02910512126982212,-0.003112474922090769,-0.014878112822771072,0.012143668718636036,-0.0032622618600726128,-0.047183919697999954
0.02910512126982212,-0.003112474922090769,-0.014878112822771072,0.012143668718636036,-0.0032622618600726128,-0.047183919697999954
0.029009848833084106,-0.0032930888701230288,-0.014770719222724438,0.012967599555850029,-0.0030607650987803936,-0.045324891805648804
0.029581060633063316,-0.0033636426087468863,-0.01520606316626072,0.01276633981615305,-0.0028226268477737904,-0.04563363641500473
0.029258968308568,-0.0031797236297279596,-0.014773177914321423,0.013324128463864326,-0.002977642696350813,-0.04494214802980423
0.029940444976091385,-0.003220775630325079,-0.015189231373369694,0.013553191907703876,-0.0030600938480347395,-0.04775512218475342
0.0300711989402771,-0.003398527391254902,-0.014508305117487907,0.014095471240580082,-0.0033625103533267975,-0.047763776034116745
0.030232252553105354,-0.0035785087384283543,-0.015002070926129818,0.014263099990785122,-0.00321322213858366,-0.0456245020031929
0.03006291203200817,-0.003202910767868161,-0.014685402624309063,0.014095532707870007,-0.0030827608425170183,-0.045882467180490494
0.030357245355844498,-0.0031889567617326975,-0.016043245792388916,0.013719609007239342,-0.0030930612701922655,-0.046411387622356415
0.03043433651328087,-0.0032735236454755068,-0.015476985834538937,0.013505375012755394,-0.0032003552187234163,-0.04689440876245499
0.03049137257039547,-0.003279599128291011,-0.015286613255739212,0.0136667899787426,-0.003148475894704461,-0.04722835123538971
0.031483352184295654,-0.0033425563015043736,-0.015158838592469692,0.013545199297368526,-0.0030993595719337463,-0.04721273109316826
0.031254611909389496,-0.0031761308200657368,-0.015838179737329483,0.013849307782948017,-0.0033203151542693377,-0.0471704863011837
0.029010191559791565,-0.0034205818083137274,-0.015293248929083347,0.013249918818473816,-0.003127276198938489,-0.04814939200878143
0.03059794194996357,-0.003682217327877879,-0.015373239293694496,0.01304495707154274,-0.0030716457404196262,-0.04753842577338219
0.03153013437986374,-0.00326175382360816,-0.015886997804045677,0.013658854179084301,-0.0029249894432723522,-0.047859273850917816
0.030974606052041054,-0.003334124805405736,-0.015527932904660702,0.0141742629930377,-0.002838860033079982,-0.04792092740535736
0.03155902400612831,-0.003554942552000284,-0.016025003045797348,0.013689069077372551,-0.002790977479889989,-0.04872388020157814
0.03255684673786163,-0.003594042733311653,-0.015327217988669872,0.014233744703233242,-0.003008819418027997,-0.05016743019223213
0.032004714012145996,-0.0034566938411444426,-0.015949159860610962,0.013722958043217659,-0.003424885915592313,-0.04820668697357178
0.030379045754671097,-0.0035789229441434145,-0.015203449875116348,0.013823890127241611,-0.0035729981027543545,-0.047048673033714294
0.03143775090575218,-0.003859271528199315,-0.016033262014389038,0.013581297360360622,-0.0034936857409775257,-0.047779716551303864
0.03233820199966431,-0.00348970596678555,-0.01555982418358326,0.013852988369762897,-0.003224039450287819,-0.04982919991016388
0.031891267746686935,-0.0036130635999143124,-0.015738340094685555,0.013729263097047806,-0.003016255097463727,-0.049850981682538986
0.032183658331632614,-0.003256143070757389,-0.015421593561768532,0.014165199361741543,-0.0028215048369020224,-0.04760786518454552
0.03167274594306946,-0.0036823241971433163,-0.01616867072880268,0.014207035303115845,-0.0033777852077037096,-0.049249112606048584
0.03210783377289772,-0.0038947355933487415,-0.015848351642489433,0.014294050633907318,-0.003594564273953438,-0.04815659672021866
0.03210783377289772,-0.0038947355933487415,-0.015848351642489433,0.014294050633907318,-0.003594564273953438,-0.04815659672021866
0.03204728662967682,-0.00350674195215106,-0.015866272151470184,0.01449440699070692,-0.003775371704250574,-0.04964042082428932
0.03198551386594772,-0.0033683073706924915,-0.015200103633105755,0.01432866882532835,-0.0034269720781594515,-0.04966381937265396
0.032081980258226395,-0.003385999472811818,-0.016226008534431458,0.014441599138081074,-0.003503646934404969,-0.04909578710794449
0.032092612236738205,-0.0034313027281314135,-0.015883976593613625,0.014171678572893143,-0.003283569123595953,-0.04901649057865143
0.031524669378995895,-0.0035348976962268353,-0.01622685417532921,0.014501970261335373,-0.003459420520812273,-0.04929465427994728
0.03178802505135536,-0.0036666959058493376,-0.015586867928504944,0.0142772626131773,-0.003664177842438221,-0.04906296357512474
0.03198011964559555,-0.004002253524959087,-0.016044840216636658,0.015044907107949257,-0.0034631367307156324,-0.04941704124212265
0.03222484514117241,-0.0038953518960624933,-0.016061821952462196,0.015439570881426334,-0.0032875859178602695,-0.049793753772974014
0.031587012112140656,-0.003540288656949997,-0.015995889902114868,0.015925507992506027,-0.003148229792714119,-0.05068328604102135
0.03301861882209778,-0.003541334066540003,-0.016020046547055244,0.014821263030171394,-0.0032064756378531456,-0.04896824434399605
0.033953674137592316,-0.003829416586086154,-0.015923738479614258,0.015070036984980106,-0.0033221577759832144,-0.05078430473804474
0.03307851403951645,-0.003945986274629831,-0.016442324966192245,0.014481808990240097,-0.0036171209067106247,-0.05054677650332451
0.031274423003196716,-0.003639474045485258,-0.01531063113361597,0.014804809354245663,-0.0033494357485324144,-0.04984411969780922
0.03241932764649391,-0.003446109127253294,-0.015904974192380905,0.014518707059323788,-0.003100885543972254,-0.04971497505903244
0.03368407487869263,-0.0036453574430197477,-0.01583230309188366,0.015110966749489307,-0.0029421949293464422,-0.051639094948768616
0.03342495858669281,-0.0042794374749064445,-0.01626388356089592,0.015126354992389679,-0.0029805945232510567,-0.05001034587621689
0.03422977775335312,-0.004100871738046408,-0.016158469021320343,0.015530286356806755,-0.0027983144391328096,-0.0496281273663044
0.03395487368106842,-0.003851034212857485,-0.016128316521644592,0.015296803787350655,-0.002753539476543665,-0.05043713375926018
0.03332754597067833,-0.00384544744156301,-0.016064174473285675,0.015447570942342281,-0.0029093932826071978,-0.05298234149813652
0.03296804428100586,-0.003894716501235962,-0.0155024453997612,0.015444304794073105,-0.0032486922573298216,-0.050394803285598755
0.0333121232688427,-0.003620594972744584,-0.016230927780270576,0.0152018116787076,-0.003443224588409066,-0.05035165324807167
0.03390411660075188,-0.003472676733508706,-0.015707459300756454,0.015082994475960732,-0.0036499507259577513,-0.05215636268258095
0.03442344814538956,-0.004053900018334389,-0.01649266853928566,0.015789978206157684,-0.0033683835063129663,-0.05212870240211487
0.03442344814538956,-0.004053900018334389,-0.01649266853928566,0.015789978206157684,-0.0033683835063129663,-0.05212870240211487
0.03371661901473999,-0.004036150872707367,-0.016252202913165092,0.01500648818910122,-0.0030011124908924103,-0.05244532600045204
0.03376252204179764,-0.00376729853451252,-0.016385555267333984,0.016157003119587898,-0.0032321137841790915,-0.05261876434087753
0.03443637862801552,-0.0038078066427260637,-0.016265857964754105,0.015453275293111801,-0.00344406021758914,-0.053196586668491364
0.03480483964085579,-0.00389463291503489,-0.016496190801262856,0.015237036161124706,-0.0035060173831880093,-0.0534416101872921
0.034522831439971924,-0.003763349261134863,-0.016091331839561462,0.014215360395610332,-0.0034335132222622633,-0.05291343107819557
0.03396656736731529,-0.0035017328336834908,-0.016867496073246002,0.01544881146401167,-0.003184726694598794,-0.05329638719558716
0.034895457327365875,-0.0037921813782304525,-0.016494305804371834,0.015618938952684402,-0.00348061416298151,-0.053485557436943054
0.033654190599918365,-0.004067546222358942,-0.01645808108150959,0.01629755273461342,-0.004199944902211428,-0.054091766476631165
0.03547965735197067,-0.003949434030801058,-0.016522426158189774,0.015806641429662704,-0.0038437542971223593,-0.05419992655515671
0.03525971993803978,-0.0037558532785624266,-0.016666369512677193,0.01586277224123478,-0.0035244603641331196,-0.05128318816423416
0.034959904849529266,-0.0036755185574293137,-0.017178744077682495,0.015886474400758743,-0.0031680394895374775,-0.05222136899828911
0.03503938391804695,-0.00420775543898344,-0.017076371237635612,0.01590675115585327,-0.0029610702767968178,-0.05389058589935303
0.0356152318418026,-0.0036077145487070084,-0.017629269510507584,0.01590006984770298,-0.0032245342154055834,-0.05551360920071602
0.03526124730706215,-0.003485203953459859,-0.01688997633755207,0.015509331598877907,-0.003580490592867136,-0.05252140015363693
0.035296399146318436,-0.004180373158305883,-0.01710759475827217,0.01607004553079605,-0.0036716547328978777,-0.05163434147834778
0.03554628789424896,-0.004200031980872154,-0.0175789762288332,0.015657497569918633,-0.0036246280651539564,-0.053775012493133545
0.03603944182395935,-0.003935718443244696,-0.01669713482260704,0.015720561146736145,-0.0036563663743436337,-0.054225411266088486
0.03599202632904053,-0.0038178362883627415,-0.017330754548311234,0.01553866546601057,-0.003447424154728651,-0.053288668394088745
0.03612060472369194,-0.004315762780606747,-0.017248976975679398,0.016069496050477028,-0.0035079815424978733,-0.053157299757003784
0.03569702059030533,-0.004080207087099552,-0.017498690634965897,0.015587094239890575,-0.003722716122865677,-0.05376264452934265
0.03589906916022301,-0.0038285909686237574,-0.017692068591713905,0.016003509983420372,-0.0035579258110374212,-0.0533733069896698
0.036496032029390335,-0.00385621702298522,-0.01669943705201149,0.01605311781167984,-0.003550157183781266,-0.053913116455078125
0.03741266205906868,-0.0038940056692808867,-0.01785251870751381,0.016004331409931183,-0.0036530259530991316,-0.0535922572016716
0.037074536085128784,-0.004379854537546635,-0.017414070665836334,0.01609944738447666,-0.003711966099217534,-0.0522334985435009
0.035667333751916885,-0.004225180950015783,-0.01764361746609211,0.015370250679552555,-0.003846964566037059,-0.05439283326268196
0.0369035080075264,-0.003790436079725623,-0.016892671585083008,0.016052860766649246,-0.003979932051151991,-0.05448576807975769
0.037750884890556335,-0.003813172224909067,-0.01762157678604126,0.016517486423254013,-0.003580728778615594,-0.053734827786684036
0.03791669011116028,-0.0038196491077542305,-0.017334772273898125,0.016275664791464806,-0.003083913354203105,-0.054970014840364456
0.03791669011116028,-0.0038196491077542305,-0.017334772273898125,0.016275664791464806,-0.003083913354203105,-0.054970014840364456
0.0368347205221653,-0.004143700934946537,-0.01756993494927883,0.01640041172504425,-0.0028894999995827675,-0.0562172532081604
0.036303117871284485,-0.004206859041005373,-0.01775670237839222,0.01678156480193138,-0.0033549610525369644,-0.05357198417186737
0.037780843675136566,-0.004318652208894491,-0.017419543117284775,0.016956301406025887,-0.0033025352749973536,-0.05415607616305351
0.03815702721476555,-0.004556055646389723,-0.0181520264595747,0.01756366342306137,-0.003454453544691205,-0.055361341685056686
0.03767620399594307,-0.004200259689241648,-0.018195701763033867,0.01768031157553196,-0.0031947463285177946,-0.056715287268161774
0.03879327327013016,-0.0044200364500284195,-0.017827535048127174,0.01784520410001278,-0.0031019230373203754,-0.05519477277994156
0.03798056021332741,-0.004150188993662596,-0.01814798079431057,0.01809793710708618,-0.003232728224247694,-0.05607551336288452
0.038107119500637054,-0.004306388087570667,-0.01803918182849884,0.017088402062654495,-0.0032760538160800934,-0.056511566042900085
0.0390767827630043,-0.0047051263973116875,-0.017792966216802597,0.017451211810112,-0.0034437209833413363,-0.057011183351278305
0.038223996758461,-0.0047319792211055756,-0.01802118867635727,0.017603732645511627,-0.003651571925729513,-0.056481849402189255
0.03850072622299194,-0.004677791614085436,-0.017746200785040855,0.017466558143496513,-0.00378076802007854,-0.05610485002398491
0.03942708671092987,-0.004156766925007105,-0.01821061596274376,0.017626002430915833,-0.0033961357548832893,-0.056839972734451294
0.03881913796067238,-0.004114925861358643,-0.01840406470000744,0.017306547611951828,-0.0031631591264158487,-0.05653764680027962
0.03811236098408699,-0.00407012365758419,-0.01782532036304474,0.017746688798069954,-0.003119379049167037,-0.056148651987314224
0.04006463289260864,-0.0044610872864723206,-0.018332814797759056,0.017876075580716133,-0.003203605767339468,-0.057932257652282715
0.040148746222257614,-0.004631789401173592,-0.01824467070400715,0.01762799732387066,-0.0037712513003498316,-0.05747784674167633
0.038010671734809875,-0.004856559447944164,-0.018245823681354523,0.018202176317572594,-0.004052069969475269,-0.05677695944905281
0.039450936019420624,-0.004594896454364061,-0.018725968897342682,0.01811833307147026,-0.003916643094271421,-0.05820882320404053
0.03910163789987564,-0.004270458593964577,-0.018034597858786583,0.018006891012191772,-0.003706721356138587,-0.0564395971596241
0.040452998131513596,-0.003919742535799742,-0.018299417570233345,0.01781267672777176,-0.003634857013821602,-0.05651237815618515
0.04051335155963898,-0.004280592314898968,-0.01872616447508335,0.017355743795633316,-0.0035783248022198677,-0.05726118013262749
0.038995228707790375,-0.00419778935611248,-0.018792005255818367,0.017761683091521263,-0.0035156761296093464,-0.05896363407373428
0.038713984191417694,-0.004499352071434259,-0.0190146304666996,0.01770632527768612,-0.0036377673968672752,-0.05540365353226662
0.04005737230181694,-0.004188713151961565,-0.01918611489236355,0.01771342009305954,-0.003789926413446665,-0.057316314429044724
0.03970104455947876,-0.004167930223047733,-0.0193655863404274,0.017342617735266685,-0.003924727439880371,-0.05793604999780655
0.039707694202661514,-0.0039481520652771,-0.01957908272743225,0.01794009655714035,-0.0034534719306975603,-0.057787150144577026
0.040316298604011536,-0.0038015961181372404,-0.018740488216280937,0.018391072750091553,-0.0035477979108691216,-0.05788474529981613
0.040030017495155334,-0.004071204923093319,-0.019373256713151932,0.018451698124408722,-0.003718285821378231,-0.05789203569293022
0.04008319973945618,-0.004093790892511606,-0.019808070734143257,0.01874496228992939,-0.004221940413117409,-0.05850705876946449
0.04033713787794113,-0.004307870287448168,-0.019440073519945145,0.018296541646122932,-0.004146059509366751,-0.05899307504296303
0.04033713787794113,-0.004307870287448168,-0.019440073519945145,0.018296541646122932,-0.004146059509366751,-0.05899307504296303
0.04023636877536774,-0.004096420016139746,-0.01950627565383911,0.0182009469717741,-0.00396913755685091,-0.059128131717443466
0.04089226573705673,-0.003933250438421965,-0.019946401938796043,0.01763201504945755,-0.003941664472222328,-0.05922926589846611
0.0403984971344471,-0.004343883600085974,-0.019358014687895775,0.017003873363137245,-0.00385835743509233,-0.058573704212903976
0.040943969041109085,-0.004121454432606697,-0.01988951675593853,0.017204221338033676,-0.003725362941622734,-0.05928332731127739
0.04024403542280197,-0.003977261483669281,-0.019733255729079247,0.017215365543961525,-0.003915225621312857,-0.06082592532038689
0.039897702634334564,-0.004360986407846212,-0.01970359869301319,0.017210107296705246,-0.003950928803533316,-0.059900183230638504
0.04183753952383995,-0.004271881189197302,-0.019910264760255814,0.017721042037010193,-0.0038161356933414936,-0.05815117061138153
0.0413973294198513,-0.004450313746929169,-0.020602408796548843,0.017888247966766357,-0.0035907733254134655,-0.059334177523851395
0.0414833165705204,-0.0049461014568805695,-0.020436057820916176,0.01866815984249115,-0.0034778944682329893,-0.06229357048869133
0.041334137320518494,-0.004510323982685804,-0.019945291802287102,0.01915927417576313,-0.0036879470571875572,-0.05889109894633293
0.04135555401444435,-0.004510980565100908,-0.02000356651842594,0.018685108050704002,-0.0039473893120884895,-0.059617020189762115
0.041570767760276794,-0.003933571744710207,-0.020377645269036293,0.018699629232287407,-0.00406273826956749,-0.06008647754788399
0.041060108691453934,-0.004381089936941862,-0.02010670304298401,0.01898224465548992,-0.004076709970831871,-0.05975119769573212
0.04185295104980469,-0.004521278664469719,-0.020834866911172867,0.017976822331547737,-0.003879038617014885,-0.05996910110116005
0.04145847633481026,-0.0049271853640675545,-0.020828742533922195,0.01811816729605198,-0.0037582903169095516,-0.06115158647298813
