davideferrari95/blind_handover_controller/data/Test 254 - [2024-02-08 -- 12-44-47]/joint_states_data.csv
shoulder_pan_joint,shoulder_lift_joint,elbow_joint,wrist_1_joint,wrist_2_joint,wrist_3_joint
0.0007011155830696225,0.010793664492666721,-0.0106129739433527,0.0012999725295230746,0.0,0.0011249597882851958
0.0007196459919214249,0.010929363779723644,-0.010209938511252403,0.0012658319901674986,0.0,0.0010776248527690768
0.0006493614055216312,0.010439140722155571,-0.010609963908791542,0.0012467303313314915,0.0,0.0010470985434949398
0.0006493614055216312,0.010439140722155571,-0.010609963908791542,0.0012467303313314915,0.0,0.0010470985434949398
0.0006625863024964929,0.010653391480445862,-0.010181339457631111,0.0014232954708859324,0.0,0.0010255886008962989
0.0006208196864463389,0.010509613901376724,-0.010136040858924389,0.001577877439558506,0.0,0.001111459219828248
0.0006760750547982752,0.010472322814166546,-0.010902144946157932,0.0015128455124795437,0.0,0.0010895986342802644
0.0007027357933111489,0.01029251515865326,-0.011207232251763344,0.0015800099354237318,0.0,0.001096329651772976
0.000723551376722753,0.010188359767198563,-0.010397764854133129,0.0015003671869635582,0.0,0.0011645096819847822
0.0006846250034868717,0.010758964344859123,-0.01010046899318695,0.0014109030598774552,0.0,0.0011532873613759875
0.0008809420978650451,0.010409322567284107,-0.010031976737082005,0.0014488166198134422,0.0,0.0011104465229436755
0.0009898538701236248,0.009788699448108673,-0.010485520586371422,0.0015223241643980145,0.0,0.001087782671675086
0.0009898538701236248,0.009788699448108673,-0.010485520586371422,0.0015223241643980145,0.0,0.001087782671675086
0.0008958028047345579,0.010794606991112232,-0.01038721390068531,0.0015136963920667768,0.0,0.001135970582254231
0.0008951376657932997,0.010387609712779522,-0.009809857234358788,0.001534495037049055,0.0,0.0011050241300836205
0.0009122173069044948,0.009934668429195881,-0.010768789798021317,0.0014596262481063604,0.0,0.001109063159674406
0.0009199348278343678,0.010083404369652271,-0.01070950273424387,0.0012979545863345265,0.0,0.0010874741710722446
0.0009170925477519631,0.009835218079388142,-0.010039545595645905,0.001320892944931984,0.0,0.001094541628845036
0.0009148725657723844,0.010579332709312439,-0.010679137893021107,0.001249767723493278,0.0,0.0010634143836796284
0.0009141572518274188,0.010052640922367573,-0.01016118936240673,0.0012185253435745835,0.0,0.0010391210671514273
0.0009426446631550789,0.009746257215738297,-0.010554606094956398,0.0012087981449440122,0.0,0.001029206090606749
0.0009476843406446278,0.010739382356405258,-0.011043371632695198,0.001245881081558764,0.0,0.001022448530420661
0.0009415218373760581,0.010036886669695377,-0.010271488688886166,0.001235406962223351,0.0,0.0009843769948929548
0.001182041596621275,0.01004257332533598,-0.01170076709240675,0.0011793689336627722,0.0,0.0009461345034651458
0.001137453829869628,0.00977817177772522,-0.010430999100208282,0.0011345400707796216,0.0,0.0009705587872304022
0.0010003329953178763,0.009507548995316029,-0.010842068120837212,0.0011623121099546552,0.0,0.000980433658696711
0.0009529251256026328,0.009816709905862808,-0.010682259686291218,0.0011248252121731639,0.0,0.00119321933016181
0.0009430395439267159,0.009507369250059128,-0.010622544214129448,0.0010891389101743698,0.0,0.001306617632508278
0.0009364811703562737,0.009487074799835682,-0.01114302221685648,0.0011086727026849985,0.0,0.0012498386204242706
0.0009391316561959684,0.010118110105395317,-0.01035369373857975,0.0011281829793006182,0.0,0.0011924715945497155
0.001072913408279419,0.010398415848612785,-0.01047358289361,0.0011127274483442307,0.0,0.001202769111841917
0.0010580603266134858,0.009108184836804867,-0.010891023091971874,0.001091201207600534,0.0,0.0011482156114652753
0.001024822355248034,0.009579688310623169,-0.010333609767258167,0.0011953380890190601,0.0,0.0011445572599768639
0.0009108597878366709,0.009212659671902657,-0.010747990570962429,0.0012031925143674016,0.0,0.0011360861826688051
0.0009052400710061193,0.009292548522353172,-0.010532534681260586,0.00117671606130898,0.0,0.0012143972562626004
0.0009052400710061193,0.009292548522353172,-0.010532534681260586,0.00117671606130898,0.0,0.0012143972562626004
0.0008997345576062799,0.009490303695201874,-0.010492798872292042,0.0012972824042662978,0.0,0.0012072689132764935
0.0008892194018699229,0.009366177022457123,-0.010961191728711128,0.0013127265265211463,0.0,0.0011876072967424989
0.0008646795758977532,0.008862784132361412,-0.010814666748046875,0.0014267436927184463,0.0,0.0011905661085620522
0.0008085834560915828,0.009100032038986683,-0.010926048271358013,0.0015599008183926344,0.0,0.0011626750929281116
0.0008621388697065413,0.009492111392319202,-0.011340636759996414,0.0014844628749415278,0.0,0.0011224729241803288
0.0008981897844932973,0.008823536336421967,-0.010251699946820736,0.0014983019791543484,0.0,0.0010551637969911098
0.0008988656918518245,0.008924820460379124,-0.009876517578959465,0.0014502244303002954,0.0,0.0010333039099350572
0.0010882153874263167,0.009181678295135498,-0.010611314326524734,0.0013722506118938327,0.0,0.0010919672204181552
0.0010864082723855972,0.008659356273710728,-0.01010594516992569,0.0013882736675441265,0.0,0.0011452861363068223
0.0010553610045462847,0.009431968443095684,-0.01077062264084816,0.0013483199290931225,0.0,0.0011748430551961064
0.001029192702844739,0.009785665199160576,-0.009571529924869537,0.0012922517489641905,0.0,0.0011290968395769596
0.0009640446514822543,0.009125768207013607,-0.01108510047197342,0.00137255247682333,0.0,0.0011118905385956168
0.0009640089119784534,0.00853874534368515,-0.011392568238079548,0.0013169808080419898,0.0,0.001230526831932366
0.0009567798115313053,0.009120685048401356,-0.009811093099415302,0.0013031155103817582,0.0,0.0013713944936171174
0.001182063831947744,0.009020487777888775,-0.010644013062119484,0.001226857304573059,0.0,0.0014234291156753898
0.0011778551852330565,0.00866329949349165,-0.010377121157944202,0.0011701666517183185,0.0,0.0013223526766523719
0.0011340645141899586,0.00899114366620779,-0.010402806103229523,0.0010663106804713607,0.0,0.0012479000724852085
0.001178157632239163,0.00885640550404787,-0.010854513384401798,0.0009365368750877678,0.0,0.0010930459247902036
0.0011446557473391294,0.009056520648300648,-0.010184148326516151,0.000924713967833668,0.0,0.0010476675815880299
0.0012033707462251186,0.009278773330152035,-0.011046984232962132,0.0009113606065511703,0.0,0.0010224813595414162
0.001095730229280889,0.00913249421864748,-0.010400017723441124,0.0009092178661376238,0.0,0.0010136746568605304
0.0011829581344500184,0.009170928038656712,-0.00990256667137146,0.0008772315341047943,0.0,0.001022410113364458
0.0011329378467053175,0.009005971252918243,-0.010127698071300983,0.0009015754912979901,0.0,0.0010933579178526998
0.0011081916745752096,0.009644057601690292,-0.01032224390655756,0.0009028183412738144,0.0,0.0011235469719395041
0.0012345327995717525,0.00901082530617714,-0.009816627949476242,0.0009026094921864569,0.0,0.0013340888544917107
0.0012345327995717525,0.00901082530617714,-0.009816627949476242,0.0009026094921864569,0.0,0.0013340888544917107
0.0012169192777946591,0.009850014001131058,-0.010519368574023247,0.0010111236479133368,0.0,0.001326084486208856
0.0011774887097999454,0.009092278778553009,-0.010094252415001392,0.0011310279369354248,0.0,0.0012546108337119222
0.0013547030976042151,0.008903518319129944,-0.009637594223022461,0.001139522180892527,0.0,0.0011571008944883943
0.0013281331630423665,0.009210783988237381,-0.010439989157021046,0.0012485758634284139,0.0,0.0011162724113091826
0.0014746419619768858,0.009655744768679142,-0.010102183558046818,0.0013416368747130036,0.0,0.0010785249760374427
0.001574463676661253,0.009446835145354271,-0.010226537473499775,0.0013345424085855484,0.0,0.0010693523800000548
0.00144236721098423,0.009216131642460823,-0.010411130264401436,0.0012849008198827505,0.0,0.0010646483860909939
0.001331313862465322,0.009349336847662926,-0.009780582040548325,0.001335418433882296,0.0,0.0011287200031802058
0.0012652724981307983,0.008930771611630917,-0.00972740724682808,0.0013047775719314814,0.0,0.0011345234233886003
0.0011956625385209918,0.008858784101903439,-0.010411925613880157,0.0012045232579112053,0.0,0.0011831760639324784
0.0011701795738190413,0.00922808051109314,-0.01000024750828743,0.0011757431784644723,0.0,0.0012700518127530813
0.0012355518992990255,0.008978497236967087,-0.010198159143328667,0.0011275255819782615,0.0,0.0012536199064925313
0.0013485506642609835,0.009600123390555382,-0.010583695955574512,0.0012084906920790672,0.0,0.001333029242232442
0.0014783142833039165,0.009286775253713131,-0.010154622606933117,0.0012751584872603416,0.0,0.0013036893215030432
0.0014131744392216206,0.008905524387955666,-0.010049519129097462,0.001309913001023233,0.0,0.0012552450643852353
0.0013928994303569198,0.009533560834825039,-0.009892554953694344,0.0013101383810862899,0.0,0.0013594452757388353
0.001438718638382852,0.009874576702713966,-0.010580314323306084,0.0012330489698797464,0.0,0.0013084668898954988
0.0013765644980594516,0.008923450484871864,-0.00990733876824379,0.001176785328425467,0.0,0.0014734551077708602
0.0012183116050437093,0.01003627572208643,-0.009416716173291206,0.0010672006756067276,0.0,0.0014031133614480495
0.001167281181551516,0.00912774819880724,-0.0100848488509655,0.001045765238814056,0.0,0.0013129165163263679
0.0012277874629944563,0.008939757943153381,-0.009612925350666046,0.0010221938136965036,0.0,0.0013085439568385482
0.001504291663877666,0.009181295521557331,-0.009338239207863808,0.001013526227325201,-2.2868953237775713e-06,0.0012846521567553282
0.0014658862492069602,0.009904665872454643,-0.009766524657607079,0.001213973038829863,-1.4931792691186274e-07,0.0012471906375139952
0.00162404659204185,0.008885900489985943,-0.010152097791433334,0.0011811142321676016,-9.749394180857962e-09,0.0014217126881703734
0.0017039338126778603,0.009004220366477966,-0.009301504120230675,0.0011586393229663372,-6.365657445606132e-10,0.0015070211375132203
0.001597737893462181,0.00948354136198759,-0.009132812730967999,0.001355592510662973,-4.156319385884011e-11,0.001642865827307105
0.001649203128181398,0.009670527651906013,-0.009523971006274223,0.001302358228713274,-2.713779504934233e-12,0.0017289123497903347
0.0016326088225468993,0.008880200795829296,-0.010102043859660625,0.0012500275624915957,-1.771904156603124e-13,0.0016310822684317827
0.0017497852677479386,0.009725004434585571,-0.009805339388549328,0.0012912515085190535,-1.1569267272708642e-14,0.001653684419579804
0.0017497852677479386,0.009725004434585571,-0.009805339388549328,0.0012912515085190535,-1.1569267272708642e-14,0.001653684419579804
0.0020083000417798758,0.008539092727005482,-0.008998990058898926,0.0012256493791937828,-4.9321600244262386e-17,0.0016191619215533137
0.0020083000417798758,0.008539092727005482,-0.008998990058898926,0.0012256493791937828,-4.9321600244262386e-17,0.0016191619215533137
0.001984025351703167,0.009367426857352257,-0.009334495291113853,0.0012715469347313046,-3.220347921133017e-18,0.0016698132967576385
0.002007575472816825,0.009271490387618542,-0.010260473005473614,0.0013721644645556808,-2.1026571864519386e-19,0.0017151953652501106
0.0017828382551670074,0.00928490236401558,-0.009523686021566391,0.0014280935283750296,-1.372884910468758e-20,0.0016251923516392708
0.001759235397912562,0.009727291762828827,-0.009416230022907257,0.0015720470109954476,-8.963957984916476e-22,0.0015037431148812175
0.0018067217897623777,0.009356903843581676,-0.009926093742251396,0.0015200515044853091,-5.852824113098841e-23,0.001429044408723712
0.0021080574952065945,0.008937619626522064,-0.009411914274096489,0.0015185795491561294,-3.8214757277185266e-24,0.0013712936779484153
0.0020510656759142876,0.009188717231154442,-0.009799621067941189,0.0014477528166025877,-2.4951505264388573e-25,0.0013335008407011628
0.0020926576107740402,0.009368784725666046,-0.009858849458396435,0.0013461046619340777,-1.6291549251648514e-26,0.001386177958920598
0.0019651709590107203,0.009054328314960003,-0.009090373292565346,0.0011462706606835127,-6.945342732228936e-29,0.0014601654838770628
0.0019937031902372837,0.00953551847487688,-0.010426534339785576,0.0012291831662878394,-4.534812326489222e-30,0.0016629834426566958
0.0020216633565723896,0.009412549436092377,-0.009597700089216232,0.0012585651129484177,-2.960908521698669e-31,0.0019626549910753965
0.0019686997402459383,0.009100239723920822,-0.009037325158715248,0.0013308775378391147,-1.9332616495901083e-32,0.0018789342138916254
0.002200083341449499,0.009309590794146061,-0.010514453984797001,0.00130223308224231,-1.262281649756474e-33,0.0017921030521392822
0.0021989899687469006,0.00879623182117939,-0.009703367948532104,0.0012818642426282167,-8.241797265685557e-35,0.001837279531173408
0.0021558727603405714,0.009524601511657238,-0.009336104616522789,0.0013910699635744095,-5.3813046573845956e-36,0.0018223593942821026
0.001959217246621847,0.009885546751320362,-0.010164795443415642,0.0013337734853848815,-3.513607697968892e-37,0.0018236011965200305
0.001941366121172905,0.009220357052981853,-0.009512812830507755,0.0014196441043168306,-2.2941347999604492e-38,0.0017298994353041053
0.002200636314228177,0.00894781295210123,-0.009663069620728493,0.001406901516020298,-1.4979067830522986e-39,0.0018349685706198215
0.002235623775050044,0.009250707924365997,-0.010434436611831188,0.0013187387958168983,-9.780222501908628e-41,0.0017638157587498426
0.0024805357679724693,0.009184368886053562,-0.009731861762702465,0.0013051904970780015,-6.385717101928191e-42,0.002025726716965437
0.002252143109217286,0.009048990905284882,-0.009926097467541695,0.0013052657013759017,-4.175869423687955e-43,0.0018819249235093594
0.002255182946100831,0.009382103569805622,-0.009861613623797894,0.0014196770498529077,-2.6624670822171524e-44,0.0018023287411779165
0.002255182946100831,0.009382103569805622,-0.009861613623797894,0.0014196770498529077,-2.6624670822171524e-44,0.0018023287411779165
0.002039059530943632,0.009338075295090675,-0.009374854154884815,0.001546510960906744,-1.401298464324817e-45,0.001708058756776154
0.0021900972351431847,0.008860556408762932,-0.009132486768066883,0.0015132271219044924,-0.0,0.0014899523230269551
0.002539422595873475,0.009106053970754147,-0.01007726788520813,0.0016481917118653655,-0.0,0.0015205832896754146
0.0027975148987025023,0.00931018590927124,-0.010023621842265129,0.001648945384658873,-0.0,0.0016190719325095415
0.0026797722093760967,0.008992847055196762,-0.009490877389907837,0.0015739966183900833,-0.0,0.0019068245310336351
0.0027341602835804224,0.008681230247020721,-0.00959101878106594,0.0016237683594226837,-0.0,0.002374286763370037
0.002601968590170145,0.009126153774559498,-0.009468263015151024,0.001509321155026555,-0.0,0.0025492848362773657
0.002430209657177329,0.008751830086112022,-0.010772613808512688,0.0014563538134098053,-0.0,0.0027317351195961237
0.0024501881562173367,0.009460368193686008,-0.010340629145503044,0.0013949309941381216,-0.0,0.0023269180674105883
0.0026077646762132645,0.009306761436164379,-0.009814795106649399,0.0013281682040542364,-0.0,0.001672975835390389
0.002565359463915229,0.008773683570325375,-0.009972632862627506,0.001387687399983406,-0.0,0.001536075142212212
0.002857212908565998,0.008460924960672855,-0.010582203976809978,0.0013274081284180284,-0.0,0.0014936566585674882
0.002951381029561162,0.008833815343677998,-0.009679097682237625,0.001424570451490581,-0.0,0.0017097246600314975
0.0027987950015813112,0.008631291799247265,-0.010336467996239662,0.0014276343863457441,-0.0,0.0025001540780067444
0.002859982196241617,0.009567239321768284,-0.010455720126628876,0.0013949701096862555,-0.0,0.0025087117683142424
0.002877989551052451,0.009098906069993973,-0.01019595842808485,0.001480687060393393,-0.0,0.002280428307130933
0.002802643459290266,0.008787502534687519,-0.010534149594604969,0.0014473090413957834,-0.0,0.002094203606247902
0.002605440793558955,0.008738057687878609,-0.00942889042198658,0.001776739489287138,-0.0,0.0019825445488095284
0.0028855057898908854,0.009363751858472824,-0.010376271791756153,0.0018704732647165656,-0.0,0.0021356474608182907
0.0029878076165914536,0.008558351546525955,-0.011039083823561668,0.0019211075268685818,-0.0,0.0023328796960413456
0.002640040824189782,0.008346396498382092,-0.009939586743712425,0.0017433668253943324,-0.0,0.0023550435435026884
0.0026247939094901085,0.00966703612357378,-0.009996450506150723,0.001597920898348093,-0.0,0.002496239496394992
0.0027221941854804754,0.008548643440008163,-0.010139026679098606,0.0016278595430776477,-0.0,0.0024328764993697405
0.002971239387989044,0.008357888087630272,-0.009872137568891048,0.0015704676043242216,-0.0,0.002338638063520193
0.002768042264506221,0.008635573089122772,-0.01080925390124321,0.0016948695993050933,-0.0,0.0024364772252738476
0.003027945989742875,0.008600461296737194,-0.010038414970040321,0.0017436329508200288,-0.0,0.002568642608821392
0.0030999500304460526,0.008191145025193691,-0.009966941550374031,0.0018556920113041997,-0.0,0.002523573348298669
0.0030999500304460526,0.008191145025193691,-0.009966941550374031,0.0018556920113041997,-0.0,0.002523573348298669
0.0028166435658931732,0.00885296706110239,-0.010759049095213413,0.0018275814363732934,-0.0,0.0023635304532945156
0.0028166435658931732,0.00885296706110239,-0.010759049095213413,0.0018275814363732934,-0.0,0.0023635304532945156
0.0028985387180000544,0.00826970674097538,-0.009881727397441864,0.0016956811305135489,-0.0,0.002465644385665655
0.002933321287855506,0.008152944035828114,-0.0101619902998209,0.0016520667122676969,-0.0,0.0026440448127686977
0.0029070365708321333,0.008297924883663654,-0.009902490302920341,0.0015738297952339053,-0.0,0.0025006686337292194
0.002920696046203375,0.008558454923331738,-0.010766166262328625,0.0015584912616759539,-0.0,0.002379069570451975
0.003004146972671151,0.007900651544332504,-0.010247799567878246,0.0015932819806039333,-0.0,0.0021122817415744066
0.0031534661538898945,0.00787702389061451,-0.009524783119559288,0.0015528001822531223,-0.0,0.002140891505405307
0.003430373966693878,0.008467458188533783,-0.010203550569713116,0.001850481377914548,-0.0,0.0022250174079090357
0.003348377998918295,0.007902066223323345,-0.01016242802143097,0.0017502830596640706,-0.0,0.002265296643599868
0.003125871531665325,0.00751641858369112,-0.009777242317795753,0.0018007749458774924,-0.0,0.0028342928271740675
0.003103728871792555,0.008047866635024548,-0.01050508487969637,0.0018632294377312064,-0.0,0.0028368288185447454
0.0031199119985103607,0.007915692403912544,-0.009805051609873772,0.0018634063890203834,-0.0,0.002621311694383621
0.003029201179742813,0.007901563309133053,-0.01011356245726347,0.0019062497885897756,-0.0,0.0025698281824588776
0.0033815226051956415,0.007742594461888075,-0.010133896954357624,0.001834042021073401,-0.0,0.0025307631585747004
0.003434059675782919,0.008232120424509048,-0.009807489812374115,0.0016394272679463029,-0.0,0.0026236583944410086
0.0034377637784928083,0.008391229435801506,-0.009869862347841263,0.0016513384180143476,-0.0,0.0027156283613294363
0.0036385629791766405,0.007868423126637936,-0.01017211563885212,0.0016712606884539127,-0.0,0.0027186067309230566
0.003251502523198724,0.00761061254888773,-0.009942854754626751,0.0017089341999962926,-0.0,0.002450319705531001
0.0032212138175964355,0.007846461609005928,-0.01019226759672165,0.0016348141944035888,-3.597084651119076e-05,0.0024636932648718357
0.0032896760385483503,0.007364050019532442,-0.010731586255133152,0.0016525523969903588,-5.350296851247549e-05,0.002698554890230298
0.0031390876974910498,0.007349151652306318,-0.009916907176375389,0.001686403644271195,-5.403306568041444e-05,0.003345249919220805
0.0033853088971227407,0.008137565106153488,-0.010420925915241241,0.0017688256921246648,-5.3467625548364595e-05,0.0032659373246133327
0.003402050817385316,0.008102300576865673,-0.010509380139410496,0.0017949637258425355,-5.2844756282866e-05,0.0030342480167746544
0.00345681793987751,0.008188590407371521,-0.009729715064167976,0.0018053792882710695,-5.223170592216775e-05,0.0029752266127616167
0.00345681793987751,0.008188590407371521,-0.009729715064167976,0.0018053792882710695,-5.223170592216775e-05,0.0029752266127616167
0.003596015740185976,0.007985922507941723,-0.011012672446668148,0.0018345890566706657,-5.163242531125434e-05,0.002689243061468005
0.0037119556218385696,0.008012890815734863,-0.009482395835220814,0.0019758623093366623,-5.0474180170567706e-05,0.002809411147609353
0.0037119556218385696,0.008012890815734863,-0.009482395835220814,0.0019758623093366623,-5.0474180170567706e-05,0.002809411147609353
0.0037867287173867226,0.008018209598958492,-0.010103362612426281,0.0020609961356967688,-4.991432069800794e-05,0.003051940817385912
0.0034079859033226967,0.008281419053673744,-0.01086781919002533,0.0020160379353910685,-6.429512723116204e-06,0.003014507470652461
0.003295792732387781,0.00814382079988718,-0.009541105479001999,0.0018876944668591022,-4.1980123910434486e-07,0.002972773974761367
0.0033234222792088985,0.0076698134653270245,-0.010188604705035686,0.0018732621101662517,-2.7410020919660383e-08,0.00324447313323617
0.0033867356833070517,0.007914004847407341,-0.009990585036575794,0.001903447089716792,-1.7896784054727277e-09,0.0031640632078051567
0.003583615878596902,0.008584332652390003,-0.009580730460584164,0.0020016669295728207,-1.168532215434226e-10,0.003094155341386795
0.00391240231692791,0.008649442344903946,-0.010652818717062473,0.0023325320798903704,-7.629680741361167e-12,0.0030356852803379297
0.0038534223567694426,0.00798038300126791,-0.009928368031978607,0.002164520788937807,-4.981635763623427e-13,0.0031583707313984632
0.003517816076055169,0.007725278381258249,-0.009929673746228218,0.002044505439698696,-3.252652257235665e-14,0.0031197494827210903
0.0036143450997769833,0.00849689356982708,-0.011126312427222729,0.0019047767855226994,-2.1237494032664726e-15,0.0031383500900119543
0.0038107302971184254,0.007828217931091785,-0.010202075354754925,0.001915088389068842,-1.3866565944752317e-16,0.0031177266500890255
0.0038250130601227283,0.008389830589294434,-0.010228585451841354,0.0023361502680927515,-5.911534652538179e-19,0.0031150460708886385
0.003874313086271286,0.008078997023403645,-0.010349581018090248,0.0025081709027290344,-3.8598095613405444e-20,0.0033548097126185894
0.003919609822332859,0.007832580246031284,-0.009922918863594532,0.002285376423969865,-2.5201798156564757e-21,0.003209016053006053
0.004090704023838043,0.007979844696819782,-0.010259339585900307,0.0021876045502722263,-1.6454972053217576e-22,0.0034244691487401724
0.003958103246986866,0.008432500064373016,-0.010141286067664623,0.002002519555389881,-1.0743920286511063e-23,0.0033481891732662916
0.0038629143964499235,0.00821209978312254,-0.010296627879142761,0.0019750669598579407,-7.0150121598167255e-25,0.003264901926741004
0.0038803708739578724,0.007913126610219479,-0.010598704218864441,0.0020039768423885107,-4.5803017523753316e-26,0.0031984345987439156
0.004300142638385296,0.008147438056766987,-0.009833727031946182,0.0022152946330606937,-2.9906098251057546e-27,0.0034124688245356083
0.004196826368570328,0.008566650561988354,-0.01028531976044178,0.0023995402734726667,-1.9526545094074177e-28,0.003286006161943078
0.00444857869297266,0.00774516724050045,-0.010365189984440804,0.002317766658961773,-1.2749439564724758e-29,0.0035137857776135206
0.004281207453459501,0.008165680803358555,-0.00994938425719738,0.0023683796171098948,-8.324472013144735e-31,0.003758472390472889
0.004459955729544163,0.00789937749505043,-0.011435655876994133,0.002209596335887909,-5.435285456415442e-32,0.003870843444019556
0.004274190403521061,0.008077805861830711,-0.010830274783074856,0.0022883133497089148,-3.548853077304995e-33,0.0038973696064203978
0.004399905446916819,0.00775991240516305,-0.009982730261981487,0.0023547490127384663,-2.3171475508990956e-34,0.003864096477627754
0.004599894396960735,0.007410263177007437,-0.010232496075332165,0.0025805761106312275,-1.5129318280459555e-35,0.0037891960237175226
0.004206696525216103,0.008399080485105515,-0.010057464241981506,0.002809556433930993,-9.878363168532818e-37,0.0037037606816738844
0.004484953824430704,0.00846044160425663,-0.010391898453235626,0.00268835062161088,-6.449865182508667e-38,0.0036275810562074184
0.004701974801719189,0.007692266255617142,-0.011123322881758213,0.002365279942750931,-4.211301255358408e-39,0.0036576513666659594
0.004701974801719189,0.007692266255617142,-0.011123322881758213,0.002365279942750931,-4.211301255358408e-39,0.0036576513666659594
0.0046326094307005405,0.007608985528349876,-0.010162534192204475,0.002156758913770318,-2.749683898636729e-40,0.0037904889322817326
0.0046978844329714775,0.0078122615814208984,-0.009827825240790844,0.0019831019453704357,-1.7953435924929556e-41,0.003460887586697936
0.004584426525980234,0.007776904851198196,-0.01001555472612381,0.0020008778665214777,-1.1728868146398719e-42,0.003497696714475751
0.004269687458872795,0.0074491654522717,-0.009866193868219852,0.002337157493457198,-7.707141553786494e-44,0.0036485011223703623
0.004502090625464916,0.007451821118593216,-0.010459419339895248,0.0024643728975206614,-5.605193857299268e-45,0.00406587403267622
0.004654123447835445,0.008365778252482414,-0.010809755884110928,0.002550368197262287,-0.0,0.0037434862460941076
0.005026273429393768,0.00720238545909524,-0.010409257374703884,0.00208755349740386,-0.0,0.003641343442723155
0.00460545951500535,0.007294369395822287,-0.010523959062993526,0.0020948403980582952,-0.0,0.003830809611827135
0.00453983573243022,0.008210229687392712,-0.010370754636824131,0.0021919794380664825,-0.0,0.003826419822871685
0.0050002820789813995,0.007755318656563759,-0.01130043063312769,0.002422780031338334,-0.0,0.004096913617104292
0.004976238124072552,0.007021624129265547,-0.010358566418290138,0.002362815197557211,-0.0,0.004265560302883387
0.005033717956393957,0.007157989777624607,-0.009863660670816898,0.0022854122798889875,-0.0,0.004078450612723827
0.00474853441119194,0.00809081643819809,-0.010807341895997524,0.0022198036313056946,-0.0,0.00426811259239912
0.005149185657501221,0.007656862027943134,-0.010423561558127403,0.0021148575469851494,-0.0,0.004201287869364023
0.00485841603949666,0.0075232237577438354,-0.010102116502821445,0.002245265757665038,-0.0,0.00409350823611021
0.004967025481164455,0.007590697146952152,-0.010778767988085747,0.002600977895781398,-0.0,0.00405300036072731
0.005439136177301407,0.008030444383621216,-0.010971044190227985,0.0025868869852274656,-0.0,0.004282703623175621
0.005095086991786957,0.007646014913916588,-0.011707394383847713,0.002768878825008869,-0.0,0.004470100626349449
0.00497827772051096,0.007349924184381962,-0.01164084393531084,0.0028227928560227156,-0.0,0.0042145876213908195
0.004920788109302521,0.00782675202935934,-0.010302661918103695,0.00281441118568182,-0.0,0.0039424230344593525
0.004890225362032652,0.0077390121296048164,-0.011122738011181355,0.002771435072645545,-0.0,0.0038353833369910717
0.005091313272714615,0.007314520422369242,-0.01095315720885992,0.002767109079286456,-0.0,0.0038635320961475372
0.005429450888186693,0.007305970415472984,-0.010261946357786655,0.002738652750849724,-0.0,0.0039628641679883
0.0051641566678881645,0.008170682936906815,-0.011295677162706852,0.0028316746465861797,-0.0,0.003955604508519173
0.005778919905424118,0.007584735751152039,-0.01128216553479433,0.0028931894339621067,-0.0,0.004243687726557255
0.005778919905424118,0.007584735751152039,-0.01128216553479433,0.0028931894339621067,-0.0,0.004243687726557255
0.005458381958305836,0.008018932305276394,-0.010951170697808266,0.002947014756500721,-0.0,0.004369990434497595
0.00537527073174715,0.007757306564599276,-0.010974830947816372,0.002903826767578721,-0.0,0.004604716319590807
0.0055816564708948135,0.00766704510897398,-0.010346663184463978,0.003114687977358699,-0.0,0.004156345501542091
0.0061645107343792915,0.007831273600459099,-0.010979234240949154,0.003072629449889064,-0.0,0.004096967168152332
0.00535891717299819,0.007500326260924339,-0.011003912426531315,0.0029237521812319756,-0.0,0.004007966257631779
0.005461827386170626,0.007277378812432289,-0.010883846320211887,0.002984388032928109,-0.0,0.003940861206501722
0.005320247262716293,0.0077301678247749805,-0.011733648367226124,0.0029233002569526434,-0.0,0.004338149446994066
0.00572597561404109,0.0075884112156927586,-0.011579269543290138,0.0029267361387610435,-5.224602500675246e-05,0.004740050993859768
0.005736947059631348,0.007802740205079317,-0.011527304537594318,0.0028403501491993666,-6.082032632548362e-05,0.004937801044434309
0.005113851744681597,0.008214814588427544,-0.010430261492729187,0.0026466648560017347,-5.9840804169652984e-05,0.004954392556101084
0.005400883033871651,0.007607221603393555,-0.011331804096698761,0.00238231779076159,-5.905804573558271e-05,0.004823523107916117
0.005747556686401367,0.0074317362159490585,-0.01112921629101038,0.0022856800351291895,-5.82931716053281e-05,0.004346050322055817
0.00563702080398798,0.008017253130674362,-0.011101829819381237,0.00243774033151567,-5.7547702454030514e-05,0.004353419411927462
0.005680189933627844,0.007693802006542683,-0.011328783817589283,0.0024865376763045788,-5.682105984305963e-05,0.00463737640529871
0.005479930434376001,0.007337057963013649,-0.010644267313182354,0.0029524564743041992,-5.6112541642505676e-05,0.005031633656471968
0.0057684010826051235,0.00760991033166647,-0.01129913330078125,0.0027873304206877947,-5.542148574022576e-05,0.004925335291773081
0.0056534516625106335,0.00762505829334259,-0.011468934826552868,0.0027256342582404613,-5.4747208196204156e-05,0.0049347286112606525
0.005756402853876352,0.007311596535146236,-0.010404452681541443,0.0027390781324356794,-5.942200368735939e-05,0.004824074916541576
0.006223833654075861,0.00728917121887207,-0.011546850204467773,0.002789366291835904,-6.377797399181873e-05,0.004751946777105331
0.005933756940066814,0.007222961168736219,-0.011052785441279411,0.0028314690571278334,-6.335995567496866e-05,0.005187565926462412
0.0061302389949560165,0.007974687963724136,-0.01104622334241867,0.0029060496017336845,-6.264645344344899e-05,0.00548095116391778
0.005595847964286804,0.007808463182300329,-0.011206516996026039,0.002977389609441161,-6.192942237248644e-05,0.005023546051234007
0.005595847964286804,0.007808463182300329,-0.011206516996026039,0.002977389609441161,-6.192942237248644e-05,0.005023546051234007
0.006016520783305168,0.007474382873624563,-0.01082733552902937,0.0031013565603643656,-6.122734339442104e-05,0.004952156916260719
0.006600192282348871,0.007388146594166756,-0.010030405595898628,0.003044542158022523,-6.054092227714136e-05,0.005156377796083689
0.00624113529920578,0.00828277226537466,-0.011152672581374645,0.0034240311942994595,-7.711882062721997e-06,0.005332405678927898
0.00624113529920578,0.00828277226537466,-0.011152672581374645,0.0034240311942994595,-7.711882062721997e-06,0.005332405678927898
0.0061519695445895195,0.007873328402638435,-0.01073475368320942,0.0032898217905312777,-5.035307708567416e-07,0.004913972225040197
0.006057065911591053,0.007611539214849472,-0.010571947321295738,0.0034840733278542757,-3.2876961597594345e-08,0.0048262737691402435
0.0063515594229102135,0.008168541826307774,-0.011449788697063923,0.0035477555356919765,-2.1466306510120603e-09,0.005558829288929701
0.006179297808557749,0.007870789617300034,-0.011363432742655277,0.0033483027946203947,-1.4015963389901742e-10,0.005541452206671238
0.006079898215830326,0.00755341025069356,-0.010979569517076015,0.0029545845463871956,-9.151423542574921e-12,0.005517592653632164
0.006047685630619526,0.007493484299629927,-0.011274113319814205,0.0027710695285350084,-5.975225739543455e-13,0.005315134301781654
0.006336558144539595,0.007575174327939749,-0.010348757728934288,0.002933059586212039,-2.5473321572217454e-15,0.005160338710993528
0.006242500152438879,0.00723319873213768,-0.011004758067429066,0.0034799363929778337,-1.6632258219457656e-16,0.005207494832575321
0.006690395995974541,0.007278643548488617,-0.011308422312140465,0.0038912200834602118,-1.0859676240668764e-17,0.006021727342158556
0.006267856806516647,0.0075143384747207165,-0.010735778138041496,0.003530604997649789,-7.090592210804553e-19,0.005271109752357006
0.006636196281760931,0.007202810607850552,-0.011620580218732357,0.0035351042170077562,-4.6296500784548816e-20,0.005230842623859644
0.006743953563272953,0.007143568247556686,-0.0114286532625556,0.0032530007883906364,-3.022830776327563e-21,0.00506456196308136
0.006867252755910158,0.007188152987509966,-0.011688352562487125,0.0034557213075459003,-1.9736923719750106e-22,0.005333956331014633
0.0069182696752250195,0.007746296469122171,-0.010867438279092312,0.003762329462915659,-1.288680177097605e-23,0.005961802788078785
0.007008093409240246,0.007084883749485016,-0.009801030158996582,0.003444676985964179,-8.414161006258066e-25,0.006322639994323254
0.006852247286587954,0.007049995940178633,-0.010884092189371586,0.0033677087631076574,-5.493845513303226e-26,0.006345788482576609
0.006792288739234209,0.0073055606335401535,-0.01081122737377882,0.0032903640531003475,-3.587088432623959e-27,0.006096305325627327
0.006672536488622427,0.00757788959890604,-0.01093838457018137,0.0034974205773323774,-2.3421125720133803e-28,0.005510718561708927
0.0074546742253005505,0.007532209623605013,-0.011512634344398975,0.003779810853302479,-1.5292320101937678e-29,0.005377187393605709
0.007657360751181841,0.0074128019623458385,-0.010948935523629189,0.003882375778630376,-9.98479289639305e-31,0.005461198277771473
0.00707264943048358,0.007044719532132149,-0.011339431628584862,0.0035905013792216778,-6.519356321849702e-32,0.006304267793893814
0.00707264943048358,0.007044719532132149,-0.011339431628584862,0.0035905013792216778,-6.519356321849702e-32,0.006304267793893814
0.006856710650026798,0.007894203066825867,-0.011790214106440544,0.0035398094914853573,-4.256673694574774e-33,0.0060189529322087765
0.006426177453249693,0.007724768947809935,-0.010546569712460041,0.003631103551015258,-2.779303716006936e-34,0.005740578752011061
0.007021449506282806,0.00733592826873064,-0.011721386574208736,0.0033494920935481787,-1.8146869102233615e-35,0.00529527198523283
0.007198678329586983,0.007047180086374283,-0.010410110466182232,0.0031860312446951866,-1.1848610333317923e-36,0.005641264375299215
0.007031571585685015,0.007547279354184866,-0.010764560662209988,0.0032481562811881304,-7.974926847964525e-05,0.0056772492825984955
0.007040793541818857,0.007203289307653904,-0.011145184747874737,0.004109625238925219,-9.392240463057533e-05,0.006043406203389168
0.006985331419855356,0.007270164787769318,-0.010846121236681938,0.004036305472254753,-9.301540558226407e-05,0.005996976979076862
0.0075839366763830185,0.00743262842297554,-0.01144823245704174,0.0035211225040256977,-9.119783499045298e-05,0.005667655263096094
0.006929995026439428,0.008043540641665459,-0.011876445263624191,0.003382318187505007,-8.939058898249641e-05,0.005927972495555878
0.006800572853535414,0.008257076144218445,-0.011575311422348022,0.0035557937808334827,-8.764966332819313e-05,0.0065264287404716015
0.006884702946990728,0.007191339507699013,-0.011352354660630226,0.0037482057232409716,-8.597510895924643e-05,0.00663041602820158
0.007614703383296728,0.008067703805863857,-0.010998602025210857,0.003716607578098774,-8.436326606897637e-05,0.006290826480835676
0.006960101425647736,0.007600702811032534,-0.011165030300617218,0.003727104514837265,-8.131438517011702e-05,0.006017645355314016
0.007326123304665089,0.007636439520865679,-0.010757270269095898,0.003834310220554471,-9.375403897138312e-05,0.00674467021599412
0.00783204473555088,0.007812383119016886,-0.011230739764869213,0.0037810271605849266,-9.403715375810862e-05,0.007090733852237463
0.007597164250910282,0.007955732755362988,-0.01118374802172184,0.0037174257449805737,-9.255057375412434e-05,0.006879610475152731
0.007355214562267065,0.007040099706500769,-0.011004037223756313,0.0037557019386440516,-9.099917951971292e-05,0.006049200892448425
0.007245053071528673,0.0074234046041965485,-0.011403096839785576,0.0041769519448280334,-8.949152106652036e-05,0.006315835751593113
0.008220337331295013,0.007602891884744167,-0.010594245977699757,0.004069507587701082,-8.803269156487659e-05,0.00679406663402915
0.007714997511357069,0.008154962211847305,-0.011102684773504734,0.003985745366662741,-8.662055915920064e-05,0.006605278234928846
0.00738086923956871,0.007247668690979481,-0.011411122977733612,0.004249871242791414,-8.525299926986918e-05,0.006229667458683252
0.00814251322299242,0.007181189022958279,-0.011314471252262592,0.0042861453257501125,-8.392799645662308e-05,0.006382042076438665
0.007909533567726612,0.008154735900461674,-0.011892586946487427,0.004442312754690647,-8.264349889941514e-05,0.006613247096538544
0.007909107953310013,0.0079557616263628,-0.011158277280628681,0.004233509302139282,-9.319168020738289e-05,0.006434398237615824
0.007581044919788837,0.007522032596170902,-0.011320623569190502,0.0043434943072497845,-9.34381750994362e-05,0.006473609711974859
0.007859653793275356,0.007540252059698105,-0.011328824795782566,0.004293676465749741,-9.217736806022003e-05,0.00650933850556612
0.00787386018782854,0.007660951931029558,-0.010555778630077839,0.004341323859989643,-9.085497731575742e-05,0.0066781844943761826
0.00787386018782854,0.007660951931029558,-0.010555778630077839,0.004341323859989643,-9.085497731575742e-05,0.0066781844943761826
0.00796972680836916,0.00794181227684021,-0.01132934633642435,0.0045192549005150795,-8.956377860158682e-05,0.006683537270873785
0.00815484020859003,0.0073379939422011375,-0.011508866213262081,0.004602705128490925,-8.830841397866607e-05,0.007027221377938986
0.007728165946900845,0.0073479339480400085,-0.011991942301392555,0.004300707019865513,-9.321779361926019e-05,0.0067934636026620865
0.008002233691513538,0.007613746449351311,-0.011209242045879364,0.004155483562499285,-9.68242748058401e-05,0.006785808131098747
0.008002233691513538,0.007613746449351311,-0.011209242045879364,0.004155483562499285,-9.68242748058401e-05,0.006785808131098747
0.007541802246123552,0.007257149554789066,-0.012260048650205135,0.004163646604865789,-9.556389704812318e-05,0.0070777335204184055
0.008179934695363045,0.007230197545140982,-0.01152059342712164,0.0043705967254936695,-9.431371290702373e-05,0.006706550717353821
0.008549803867936134,0.0074293967336416245,-0.01134247612208128,0.004278145264834166,-9.309434244642034e-05,0.006572555284947157
0.007733951788395643,0.007500787731260061,-0.011533493176102638,0.004523834213614464,-9.190612036036327e-05,0.0069402786903083324
0.008099809288978577,0.007259770296514034,-0.011094041168689728,0.004664918407797813,-9.074772242456675e-05,0.00721712177619338
0.008338977582752705,0.008087506517767906,-0.011640776880085468,0.00459093926474452,-0.00012511745444498956,0.007037994917482138
0.008073823526501656,0.007430072873830795,-0.011780812405049801,0.004276488907635212,-0.00012347901065368205,0.007166950963437557
0.008318654261529446,0.00744986068457365,-0.011916805990040302,0.004462282173335552,-0.00012020176654914394,0.007988110184669495
0.008311279118061066,0.007439158856868744,-0.011241688393056393,0.004712277557700872,-0.00011707572411978617,0.007110696751624346
0.008144068531692028,0.00816836766898632,-0.011725010350346565,0.004394632764160633,-0.00011410702427383512,0.007307927589863539
0.008316980674862862,0.007636310067027807,-0.010965359397232533,0.004334065597504377,-0.00011128502228530124,0.0069487025029957294
0.008585145696997643,0.007343329954892397,-0.011143066920340061,0.004110577050596476,-0.00010859924805117771,0.00785575807094574
0.0086192162707448,0.007459428161382675,-0.012215663678944111,0.003918709233403206,-0.00012582982890307903,0.007928815670311451
0.00861955527216196,0.007642167620360851,-0.011712966486811638,0.004170325584709644,-0.00012422582949511707,0.007290663197636604
0.008744800463318825,0.007409000303596258,-0.012600744143128395,0.0044197035022079945,-0.00012151461851317436,0.006967688910663128
0.009186509065330029,0.00728535046800971,-0.011885153129696846,0.004830955993384123,-0.00011884562991326675,0.007372621446847916
0.008645336143672466,0.0073705450631678104,-0.011896406300365925,0.004905911162495613,-0.00011628662468865514,0.0074553107842803
0.00855041854083538,0.007964929565787315,-0.011878016404807568,0.004816942382603884,-0.00011383511446183547,0.0073791868053376675
0.008617084473371506,0.007471044547855854,-0.012186597101390362,0.004286812152713537,-0.00011148495832458138,0.007255758158862591
0.008617084473371506,0.007471044547855854,-0.012186597101390362,0.004286812152713537,-0.00011148495832458138,0.007255758158862591
0.008419502526521683,0.0071394182741642,-0.011372319422662258,0.004366637673228979,-0.00012482888996601105,0.007336980197578669
0.008419502526521683,0.0071394182741642,-0.011372319422662258,0.004366637673228979,-0.00012482888996601105,0.007336980197578669
0.009601600468158722,0.00762584526091814,-0.011814454570412636,0.004561414010822773,-0.00012247452104929835,0.007490568328648806
0.008580983616411686,0.007704726420342922,-0.012047410011291504,0.004758440889418125,-0.00012014350795652717,0.007985292933881283
0.008405043743550777,0.007222297135740519,-0.011957768350839615,0.00502419238910079,-0.00013361696619540453,0.008279550820589066
0.009293605573475361,0.006909738760441542,-0.012453291565179825,0.004512430634349585,-0.00013218939420767128,0.007753464858978987
0.008898927830159664,0.007781927939504385,-0.011836650781333447,0.004532530903816223,-0.00012987189984414726,0.007751604076474905
0.008521242067217827,0.007699205074459314,-0.01205200981348753,0.00470230495557189,-0.0001275750546483323,0.007690067403018475
0.008757912553846836,0.007569814566522837,-0.011936109513044357,0.004976616241037846,-0.00017291177937295288,0.008056784979999065
0.009079499170184135,0.0073678940534591675,-0.011708396486938,0.00510011101141572,-0.00018137478036805987,0.008806634694337845
0.009174059145152569,0.007546328008174896,-0.012386052869260311,0.005130051169544458,-0.00017531651246827096,0.007484832778573036
0.00871913880109787,0.007088932208716869,-0.012426731176674366,0.004824957810342312,-0.00016880503972060978,0.007626732811331749
0.009401402436196804,0.007148581091314554,-0.012399550527334213,0.004671100527048111,-0.00016270473133772612,0.008519849739968777
0.00923099834471941,0.007353844121098518,-0.012205319479107857,0.004542430862784386,-0.00018630702106747776,0.00809660367667675
0.00853370688855648,0.007927664555609226,-0.012411083094775677,0.0047789039090275764,-0.0001819388271542266,0.007890772074460983
0.009325811639428139,0.0073742009699344635,-0.012097018770873547,0.005160740111023188,-0.00017612888768780977,0.008123764768242836
0.009252590127289295,0.007271118462085724,-0.012383133172988892,0.004524103365838528,-0.0001653497020015493,0.008477439172565937
0.00938884261995554,0.008164581842720509,-0.012049979530274868,0.004561443813145161,-0.00016043685900513083,0.008854366838932037
0.009325524792075157,0.007726573850959539,-0.012785166501998901,0.0047241938300430775,-0.00018002900469582528,0.008507884107530117
0.009018192067742348,0.007623523939400911,-0.01184125803411007,0.004798703361302614,-0.00017656301497481763,0.008483847603201866
0.009431105107069016,0.007833766750991344,-0.012192986905574799,0.005212022922933102,-0.00017184972239192575,0.0086513077840209
0.009557328186929226,0.007954518310725689,-0.0123036690056324,0.0056137992069125175,-0.00016729268827475607,0.009356113150715828
0.009897186420857906,0.0070700799115002155,-0.011748043820261955,0.005331065505743027,-0.00016296544345095754,0.008693003095686436
0.009277336299419403,0.008001883514225483,-0.011836317367851734,0.005121120251715183,-0.0001588559680385515,0.00859671551734209
0.009617998264729977,0.007991558872163296,-0.01127475406974554,0.004898919258266687,-0.0001549488224554807,0.008751108311116695
0.009491116739809513,0.007604292128235102,-0.012543299235403538,0.004779614973813295,-0.00017138771363534033,0.008634747005999088
0.009577848948538303,0.007583384867757559,-0.011841541156172752,0.0052483342587947845,-0.00016868715465534478,0.008558016270399094
0.0094282953068614,0.006989642977714539,-0.01168140210211277,0.005397195927798748,-0.00016490927373524755,0.008792656473815441
0.0094282953068614,0.006989642977714539,-0.01168140210211277,0.005397195927798748,-0.00016490927373524755,0.008792656473815441
0.009462258778512478,0.007187787443399429,-0.01272957120090723,0.005565074272453785,-0.00016122203669510782,0.008200492709875107
0.009706193581223488,0.008031212724745274,-0.011707107536494732,0.005292286165058613,-0.0001576913200551644,0.008263078518211842
0.010686597786843777,0.007004316430538893,-0.012296699918806553,0.005280967336148024,-0.00015431155043188483,0.008694741874933243
0.009860542602837086,0.006742026656866074,-0.012386968359351158,0.0054464698769152164,-0.00015107353101484478,0.009326889179646969
0.009469719603657722,0.006987575441598892,-0.011917943134903908,0.005434983875602484,-0.0001694105303613469,0.00963713601231575
0.01052603404968977,0.0077177840285003185,-0.01183233316987753,0.005374274682253599,-0.00017019250662997365,0.00918201170861721
0.009292766451835632,0.007041798904538155,-0.011893677525222301,0.0050196158699691296,-0.0001644423173274845,0.009073256514966488
0.009602638892829418,0.007019590120762587,-0.012119614519178867,0.0051009440794587135,-0.00015867398178670555,0.008940048515796661
0.010698211379349232,0.007297093980014324,-0.011759776622056961,0.005487779621034861,-0.00015327079745475203,0.009080987423658371
0.009951268322765827,0.007512686308473349,-0.012565075419843197,0.005351142026484013,-0.00017393975576851517,0.008801322430372238
0.010322649031877518,0.006901937071233988,-0.011909515596926212,0.005792615935206413,-0.00016685515583958477,0.009009665809571743
0.009535846300423145,0.006122043821960688,-0.012352114543318748,0.005884089041501284,-0.00017510489851702005,0.008493427187204361
0.009286276064813137,0.006397096440196037,-0.011692545376718044,0.005322284065186977,-0.00018245383398607373,0.008892282843589783
0.00919264741241932,0.006136625073850155,-0.012115038000047207,0.0055341883562505245,-0.0001781066384864971,0.00900260265916586
0.009735265746712685,0.006542580667883158,-0.012420552782714367,0.0062913852743804455,-0.00019159996008966118,0.009771743789315224
0.009704242460429668,0.006286488845944405,-0.012033422477543354,0.005998788867145777,-0.00019229760800953954,0.009964699856936932
0.010682711377739906,0.006213929504156113,-0.012027104385197163,0.006405466236174107,-0.00018766515131574124,0.009652725420892239
0.00968188140541315,0.006839769892394543,-0.011532517150044441,0.005812410265207291,-0.0002462488191667944,0.009099307470023632
0.009348592720925808,0.006294680759310722,-0.012402608059346676,0.005889382213354111,-0.0002902475534938276,0.009343083947896957
0.009698057547211647,0.005998334847390652,-0.011706395074725151,0.0062812697142362595,-0.00027634005527943373,0.009151389822363853
0.009902434423565865,0.006210797931998968,-0.012146491557359695,0.006086923182010651,-0.0003090958925895393,0.009343716315925121
0.009749903343617916,0.006669886410236359,-0.012445639818906784,0.006108398549258709,-0.00029536362853832543,0.009856021963059902
0.01057292241603136,0.007231595925986767,-0.012002022936940193,0.005658282898366451,-0.00032066923449747264,0.00942322053015232
0.0095286313444376,0.00632803700864315,-0.012314760126173496,0.0056784129701554775,-0.00031041569309309125,0.009375901892781258
0.0095286313444376,0.00632803700864315,-0.012314760126173496,0.0056784129701554775,-0.00031041569309309125,0.009375901892781258
0.009808968752622604,0.006004111375659704,-0.01189415529370308,0.006299310363829136,-0.000327422225382179,0.0094777075573802
0.010344581678509712,0.006593506317585707,-0.012242701835930347,0.006005090195685625,-0.00032259291037917137,0.009649123065173626
0.009867682121694088,0.00695964228361845,-0.012093246914446354,0.005878944415599108,-0.00046936256694607437,0.009571981616318226
0.009801727719604969,0.006336231715977192,-0.012098057195544243,0.005676957778632641,-0.0005236337892711163,0.00962467398494482
0.011402222327888012,0.006238583475351334,-0.011951097287237644,0.005897385533899069,-0.0004882839857600629,0.009848764166235924
0.012323194183409214,0.006014971528202295,-0.011575997807085514,0.006045679096132517,-0.0005179119179956615,0.00956254918128252
0.012406260706484318,0.006356200203299522,-0.012494356371462345,0.0059299045242369175,-0.0005162190645933151,0.009720832109451294
0.012764496728777885,0.006708061322569847,-0.01218508742749691,0.006091309245675802,-0.0005104492884129286,0.010171578265726566
0.012136190198361874,0.006274274550378323,-0.012436901219189167,0.0057982346042990685,-0.0005656253779307008,0.009928887709975243
0.012226101011037827,0.005985856056213379,-0.012180810794234276,0.006239603273570538,-0.0005758698098361492,0.01131482608616352
0.011588389053940773,0.006140889599919319,-0.012053030543029308,0.006585441529750824,-0.0006108178640715778,0.010237578302621841
0.01229657419025898,0.006762354634702206,-0.01243007555603981,0.006313122343271971,-0.0006221988587640226,0.00934672262519598
0.01256689801812172,0.00703149288892746,-0.012564565055072308,0.006373180542141199,-0.0005369751597754657,0.009954570792615414
0.012159864418208599,0.006322355009615421,-0.012356364168226719,0.006318898871541023,-0.0004948473651893437,0.01002421323210001
0.012927252799272537,0.006574933882802725,-0.012247888371348381,0.0069151343777775764,-0.000458787486422807,0.010475815273821354
0.011654105968773365,0.007061547599732876,-0.012576124630868435,0.006780657917261124,-0.0004725544131360948,0.010718515142798424
0.012516670860350132,0.00676362682133913,-0.01213702093809843,0.0066534546203911304,-0.00045657926239073277,0.010275309905409813
0.013102205470204353,0.0063680727034807205,-0.012942453846335411,0.00707261823117733,-0.00043020263547077775,0.010812122374773026
0.012686128728091717,0.006435832008719444,-0.012323634698987007,0.0069784726947546005,-0.00040599386557005346,0.010757781565189362
0.012857578694820404,0.006786026991903782,-0.013033686205744743,0.00664122449234128,-0.000384318147553131,0.010784978047013283
0.012464813888072968,0.007015421986579895,-0.012032847851514816,0.006205985322594643,-0.0003524968633428216,0.01085011288523674
0.012647590599954128,0.006988760083913803,-0.012499412521719933,0.006434710696339607,-0.00031757133547216654,0.010706726461648941
0.012589041143655777,0.0069022406823933125,-0.012742232531309128,0.006765238009393215,-0.00029600950074382126,0.010292157530784607
0.012556163594126701,0.006659863982349634,-0.01215224526822567,0.006589583121240139,-0.0002776897163130343,0.010110612958669662
0.012819853611290455,0.006876110564917326,-0.013638585805892944,0.006457444280385971,-0.00026153982616961,0.010339626111090183
0.012819853611290455,0.006876110564917326,-0.013638585805892944,0.006457444280385971,-0.00026153982616961,0.010339626111090183
0.012514841742813587,0.006584088318049908,-0.012846254743635654,0.006605953443795443,-0.00024716812185943127,0.01017317920923233
0.012732869014143944,0.006758138537406921,-0.012429227121174335,0.006675992161035538,-0.0002342943917028606,0.010476827621459961
0.012691115029156208,0.0066767847165465355,-0.012446342967450619,0.007357602007687092,-0.00022269575856626034,0.010095062665641308
0.013032611459493637,0.007289584260433912,-0.01375509612262249,0.0070653874427080154,-0.0002517218526918441,0.010419567115604877
0.012918771244585514,0.006839663255959749,-0.01290062628686428,0.00636669434607029,-0.00024297084019053727,0.010628003627061844
0.012939606793224812,0.006553296931087971,-0.013079904019832611,0.006379180122166872,-0.00023266850621439517,0.010418400168418884
0.012969817034900188,0.006599269341677427,-0.012901278212666512,0.0068083470687270164,-0.0002230660611530766,0.010661288164556026
0.01274950336664915,0.007056335918605328,-0.012995878234505653,0.006579178385436535,-0.00021421613928396255,0.010962207801640034
0.013168992474675179,0.007008760701864958,-0.013195083476603031,0.006484303157776594,-0.00020604119345080107,0.010495645925402641
0.013167664408683777,0.006716352887451649,-0.013238000683486462,0.006736852694302797,-0.00019143041572533548,0.011462260968983173
0.012584716081619263,0.006421928759664297,-0.01285844948142767,0.006566552445292473,-0.00020767719252035022,0.01148086879402399
0.012971978634595871,0.006988368462771177,-0.013430883176624775,0.007002583704888821,-0.00020802441576961428,0.010629639029502869
0.01275933813303709,0.006514644715934992,-0.012772694230079651,0.006775202229619026,-0.00020183040760457516,0.010578375309705734
0.012882815673947334,0.006471558008342981,-0.013033699244260788,0.006757800467312336,-0.0001955943735083565,0.011141043156385422
0.012975766323506832,0.00623310124501586,-0.012665942311286926,0.007334810681641102,-0.0002030022587860003,0.010977452620863914
0.012864382937550545,0.006787720136344433,-0.013218957930803299,0.007629523053765297,-0.0002095672971336171,0.01084105297923088
0.013087439350783825,0.007061593700200319,-0.012926756404340267,0.007075565867125988,-0.00020443176617845893,0.011500933207571507
0.012720972299575806,0.006850783713161945,-0.012617062777280807,0.00649474048987031,-0.00019883895583916456,0.011401924304664135
0.013103596866130829,0.006352438125759363,-0.013540687970817089,0.006911321543157101,-0.00019349821377545595,0.011426673270761967
0.012844742275774479,0.006324324291199446,-0.013015464879572392,0.007279636804014444,-0.00018843405996449292,0.011158114299178123
0.013352385722100735,0.006950020790100098,-0.013086351566016674,0.006973232142627239,-0.0001836279989220202,0.01136166974902153
0.012807092629373074,0.00684922793880105,-0.012762214057147503,0.0070914169773459435,-0.00017906106950249523,0.011981036514043808
0.013259238563477993,0.006329964846372604,-0.013544073328375816,0.006945460103452206,-0.0001637921086512506,0.011993029154837132
0.013259238563477993,0.006329964846372604,-0.013544073328375816,0.006945460103452206,-0.0001637921086512506,0.011993029154837132
0.01328949723392725,0.006472563371062279,-0.012652627192437649,0.007274076342582703,-0.00015487955533899367,0.011806431226432323
0.01347823441028595,0.006918034981936216,-0.013194804079830647,0.0074302442371845245,-0.00014951864432077855,0.011567795649170876
0.013794122263789177,0.00657666614279151,-0.012942971661686897,0.007422311697155237,-0.00014469647430814803,0.011544549837708473
0.013884077779948711,0.006157094147056341,-0.013064190745353699,0.007549238856881857,-0.00014018738875165582,0.011927600018680096
0.01384359784424305,0.006052315700799227,-0.012953165918588638,0.0077284411527216434,-0.00015608716057613492,0.011974587105214596
0.013208507560193539,0.00619299802929163,-0.01301474031060934,0.007860258221626282,-0.00015789663302712142,0.011706484481692314
0.013714617118239403,0.006175098475068808,-0.013123830780386925,0.007560524623841047,-0.00015381522825919092,0.01245346199721098
0.013498174026608467,0.00645338324829936,-0.012917585670948029,0.00789716187864542,-0.00016805173072498292,0.011392834596335888
0.014204809442162514,0.00596681097522378,-0.013438066467642784,0.008297961205244064,-0.00016938772751018405,0.01206107810139656
0.01348201371729374,0.0058373198844492435,-0.012639649212360382,0.00778301851823926,-0.00016532506560906768,0.012347465381026268
0.013610415160655975,0.006250237580388784,-0.012897366657853127,0.008005421608686447,-0.00017804560775402933,0.012120969593524933
0.014173070900142193,0.005938895978033543,-0.013507626950740814,0.007746003568172455,-0.0001751814124872908,0.012270445935428143
0.013477764092385769,0.006269859615713358,-0.01323453988879919,0.007596801500767469,-0.0003010706859640777,0.012623049318790436
0.013973832130432129,0.006393152754753828,-0.013274659402668476,0.007130419369786978,-0.0002906263107433915,0.012559238821268082
0.013661392964422703,0.0057112788781523705,-0.013167150318622589,0.0074509927071630955,-0.0003208526177331805,0.013064415194094181
0.01402461901307106,0.005944911856204271,-0.013135901652276516,0.007709119468927383,-0.0003089930978603661,0.013100836426019669
0.01420298870652914,0.005907795391976833,-0.013531039468944073,0.0077775344252586365,-0.00033808164880611,0.012981792911887169
0.014144179411232471,0.006049744784832001,-0.013248798437416553,0.007598034106194973,-0.000323695334373042,0.012794425711035728
0.013937906362116337,0.006327891256660223,-0.013620225712656975,0.008102905936539173,-0.00032954197376966476,0.012666657567024231
0.014355170540511608,0.006057637743651867,-0.013167649507522583,0.00831445399671793,-0.0003341922420077026,0.012759476900100708
0.014181365258991718,0.006590739358216524,-0.013520299457013607,0.00792462844401598,-0.0003206123656127602,0.01248080749064684
0.014735736884176731,0.006479833275079727,-0.013224834576249123,0.007988962344825268,-0.00037892028922215104,0.012334545142948627
0.014406952075660229,0.005891646258533001,-0.013699672184884548,0.007921467535197735,-0.00041222048457711935,0.012609862722456455
0.014258370734751225,0.005768744274973869,-0.013273742981255054,0.008086594752967358,-0.00038169597974047065,0.013122324831783772
0.014021150767803192,0.006313970312476158,-0.01365395076572895,0.007643713615834713,-0.0003520993050187826,0.012900443747639656
0.01524436753243208,0.006670075934380293,-0.01316771749407053,0.007831118069589138,-0.0003745372232515365,0.013587376102805138
0.015251822769641876,0.006317789666354656,-0.014085019938647747,0.007856832817196846,-0.00036419887328520417,0.013282029889523983
0.01569397933781147,0.006327169481664896,-0.013547033071517944,0.007970927283167839,-0.0003420923894736916,0.013652649708092213
0.015119919553399086,0.006025587674230337,-0.013816475868225098,0.0075851487927138805,-0.0003217626072000712,0.013208526186645031
0.015375465154647827,0.006339783314615488,-0.013695747591555119,0.00808700080960989,-0.00030366427381522954,0.013125021010637283
0.015375465154647827,0.006339783314615488,-0.013695747591555119,0.00808700080960989,-0.00030366427381522954,0.013125021010637283
0.016027500852942467,0.006062996108084917,-0.013742419891059399,0.00818360410630703,-0.000318026402965188,0.01300123892724514
0.016027500852942467,0.006062996108084917,-0.013742419891059399,0.00818360410630703,-0.000318026402965188,0.01300123892724514
0.01572062075138092,0.0062391795217990875,-0.013719202019274235,0.007860193960368633,-0.0003030934603884816,0.013431656174361706
0.01589427888393402,0.006337404251098633,-0.014059685170650482,0.007826642133295536,-0.0002891998447012156,0.013619275763630867
0.015910321846604347,0.006212188396602869,-0.013774500228464603,0.008908916264772415,-0.00031330855563282967,0.013878430239856243
0.016039984300732613,0.006399933248758316,-0.013995151966810226,0.008837323635816574,-0.0003025411278940737,0.013356594368815422
0.016250774264335632,0.006352836731821299,-0.013408491387963295,0.00939835887402296,-0.00029048966825939715,0.013284081593155861
0.015776805579662323,0.006250061094760895,-0.01382578443735838,0.008598092012107372,-0.00026219477877020836,0.01349735539406538
0.015379202552139759,0.006933249998837709,-0.014500179328024387,0.008201616816222668,-0.0002939088735729456,0.013417420908808708
0.016254348680377007,0.0063858008943498135,-0.01407595444470644,0.008145022206008434,-0.0002815886400640011,0.013623355887830257
0.016755005344748497,0.006195581052452326,-0.014492042362689972,0.008075029589235783,-0.0003093865525443107,0.013547991402447224
0.016381390392780304,0.006633586250245571,-0.01364463847130537,0.007679424714297056,-0.0002974972303491086,0.013586645945906639
0.016125958412885666,0.006381151732057333,-0.014687824063003063,0.007574595510959625,-0.0003220810613129288,0.013597940094769001
0.01602144166827202,0.006517936009913683,-0.013953881338238716,0.007489032112061977,-0.0004396594886202365,0.015045869164168835
0.016497137024998665,0.0066214753314852715,-0.01427451428025961,0.007342664524912834,-0.0005105534801259637,0.013244724832475185
0.01609489880502224,0.006654593627899885,-0.013638717122375965,0.007254468742758036,-0.0005337430629879236,0.013094578869640827
0.0163428857922554,0.006179580464959145,-0.014293658547103405,0.007063594646751881,-0.0005052298656664789,0.013402629643678665
0.01599363051354885,0.006547554861754179,-0.01394183561205864,0.007885688915848732,-0.0005298172472976148,0.013617066666483879
0.01599363051354885,0.006547554861754179,-0.01394183561205864,0.007885688915848732,-0.0005298172472976148,0.013617066666483879
0.01661868579685688,0.0064346762374043465,-0.013846542686223984,0.008288382552564144,-0.0005181964952498674,0.013435570523142815
0.01661868579685688,0.0064346762374043465,-0.013846542686223984,0.008288382552564144,-0.0005181964952498674,0.013435570523142815
0.016835352405905724,0.006468160543590784,-0.013593762181699276,0.008459811098873615,-0.0004598189261741936,0.013986557722091675
0.016835352405905724,0.006468160543590784,-0.013593762181699276,0.008459811098873615,-0.0004598189261741936,0.013986557722091675
0.016365807503461838,0.006685362197458744,-0.014921117573976517,0.008340438827872276,-0.0004873336001764983,0.014321187511086464
0.016948463395237923,0.006347494665533304,-0.014514732174575329,0.008357970975339413,-0.0004484119126573205,0.013832736760377884
0.016887454316020012,0.006271911785006523,-0.015595693141222,0.008943423628807068,-0.0004083117237314582,0.013836320489645004
0.017097285017371178,0.006303544621914625,-0.014702166430652142,0.009237284772098064,-0.00044388501555658877,0.01372190285474062
0.017299240455031395,0.007125611416995525,-0.015429399907588959,0.00900048203766346,-0.0004143437836319208,0.014108442701399326
0.016809331253170967,0.006631490774452686,-0.015006097964942455,0.009641102515161037,-0.00041621565469540656,0.01425860170274973
0.017401080578565598,0.006372612901031971,-0.015214615501463413,0.009102084673941135,-0.0004171946784481406,0.014355089515447617
0.01733054593205452,0.006395792588591576,-0.0145874610170722,0.009425586089491844,-0.0003930258098989725,0.014160486869513988
0.017272483557462692,0.006308536510914564,-0.015099076554179192,0.009249642491340637,-0.0004089991853106767,0.014505418948829174
0.01711966283619404,0.00655050203204155,-0.015144122764468193,0.008833976462483406,-0.00040062604239210486,0.01462563406676054
0.017610078677535057,0.00627116858959198,-0.01563143916428089,0.00939097162336111,-0.00038777122972533107,0.0142256123945117
0.017708899453282356,0.0058703492395579815,-0.01526687853038311,0.009873067028820515,-0.00039299603668041527,0.014639616012573242
0.017605219036340714,0.0056144376285374165,-0.01564357988536358,0.00955518614500761,-0.00039591160020790994,0.014669731259346008
0.017380274832248688,0.005377807654440403,-0.014942646026611328,0.009798534214496613,-0.00037079272442497313,0.014613406732678413
0.017329316586256027,0.005883646663278341,-0.01560074370354414,0.00977163016796112,-0.00034708264865912497,0.01456252858042717
0.017890876159071922,0.005657176487147808,-0.015055789612233639,0.009158660657703876,-0.00037311683990992606,0.014678898267447948
0.01770509034395218,0.005633123219013214,-0.015657352283596992,0.009189425967633724,-0.0003583139041438699,0.01453656330704689
0.017564035952091217,0.0053897397592663765,-0.015107773244380951,0.009561615064740181,-0.0003394226951058954,0.014735346660017967
0.017896579578518867,0.006380064878612757,-0.01564236357808113,0.009376206435263157,-0.0003220912185497582,0.014744287356734276
0.01742965541779995,0.005997900851070881,-0.014807150699198246,0.008803073316812515,-0.0003471921954769641,0.014960508793592453
0.018048208206892014,0.005684636067599058,-0.0149895204231143,0.009023801423609257,-0.0003337531234137714,0.014887847937643528
0.017473937943577766,0.005349652376025915,-0.01418018713593483,0.0090769799426198,-0.00035340155591256917,0.015290516428649426
0.017637545242905617,0.005877565126866102,-0.015365662053227425,0.009122299961745739,-0.0003391921054571867,0.015351193957030773
0.018188446760177612,0.006529135163873434,-0.015292075462639332,0.009350605309009552,-0.0003707806463353336,0.01530330441892147
0.018188446760177612,0.006529135163873434,-0.015292075462639332,0.009350605309009552,-0.0003707806463353336,0.01530330441892147
0.018791142851114273,0.005978179629892111,-0.015354673378169537,0.009206381626427174,-0.0003539702156558633,0.015178726054728031
0.018228374421596527,0.005820436868816614,-0.014856909401714802,0.00910563487559557,-0.00037347309989854693,0.015110177919268608
0.018374819308519363,0.005146044306457043,-0.015477458946406841,0.010151895694434643,-0.0003646391851361841,0.015246817842125893
0.01830984279513359,0.005352423992007971,-0.015355629846453667,0.010099758394062519,-0.0003818650438915938,0.015437426045536995
0.017979281023144722,0.005575901363044977,-0.015198065899312496,0.009595001116394997,-0.00037350726779550314,0.01596665568649769
0.01795048825442791,0.005759943276643753,-0.015613415278494358,0.009935676120221615,-0.0004898267798125744,0.014665802009403706
0.019119109958410263,0.005667609628289938,-0.015318507328629494,0.010309344157576561,-0.00048195887939073145,0.014737367630004883
0.01898896135389805,0.005417190957814455,-0.015364632941782475,0.009812407195568085,-0.0004379367164801806,0.015180136077105999
0.01871197484433651,0.005451159086078405,-0.01514483243227005,0.010088881477713585,-0.00039922859286889434,0.01548866368830204
0.018012166023254395,0.0053770411759614944,-0.015377955511212349,0.009775912389159203,-0.0004299210850149393,0.015212141908705235
0.019342321902513504,0.005926776677370071,-0.014849879778921604,0.010607552714645863,-0.0004061746003571898,0.01574782468378544
0.0187518410384655,0.00544004887342453,-0.014826275408267975,0.009924575686454773,-0.0003535255091264844,0.015975728631019592
0.018998542800545692,0.005418309010565281,-0.015259395353496075,0.009809242561459541,-0.0003796033270191401,0.016024578362703323
0.018994268029928207,0.005668418016284704,-0.01486184075474739,0.010610559955239296,-0.0003641862131189555,0.016238674521446228
0.018465766683220863,0.006150288041681051,-0.01568242907524109,0.009944863617420197,-0.00034468164085410535,0.015971405431628227
0.01889682374894619,0.006056348793208599,-0.015276364982128143,0.009555153548717499,-0.00032682192977517843,0.015773054212331772
0.018738796934485435,0.005968809127807617,-0.015274199657142162,0.010001611895859241,-0.00031070035765878856,0.016165191307663918
0.01911062002182007,0.00541505916044116,-0.015009556896984577,0.010263664647936821,-0.00029609393095597625,0.01619296707212925
0.019703734666109085,0.005301709286868572,-0.015194258652627468,0.009919329546391964,-0.0003177977632731199,0.01661810465157032
0.019312459975481033,0.00549798458814621,-0.015507941134274006,0.010297605767846107,-0.0003089581150561571,0.016832435503602028
0.019203752279281616,0.0062023033387959,-0.015556398779153824,0.009704921394586563,-0.00029654460377059877,0.016492854803800583
0.01944446749985218,0.005784156266599894,-0.01570700667798519,0.00976620428264141,-0.00028483153437264264,0.016581157222390175
0.019338378682732582,0.005706169176846743,-0.015095042996108532,0.01072834711521864,-0.0002739916671998799,0.016796546056866646
0.019242005422711372,0.005274772644042969,-0.01580646261572838,0.010079949162900448,-0.00023604065063409507,0.016946347430348396
0.019800441339612007,0.0056532640010118484,-0.015249072574079037,0.010501354932785034,-0.00022095812892075628,0.01655689626932144
0.019733024761080742,0.006568677257746458,-0.015841016545891762,0.010207012295722961,-0.00021039605780970305,0.016539495438337326
0.019733024761080742,0.006568677257746458,-0.015841016545891762,0.010207012295722961,-0.00021039605780970305,0.016539495438337326
0.019549258053302765,0.005658334586769342,-0.015018085017800331,0.01042931154370308,-0.0002384301769779995,0.016496913507580757
0.019880354404449463,0.005366939585655928,-0.015483034774661064,0.010901160538196564,-0.00023068393056746572,0.016383452340960503
0.01987791247665882,0.005603962577879429,-0.015014096163213253,0.0107839060947299,-0.00023943591804709285,0.01594734936952591
0.019693447276949883,0.00524964090436697,-0.015753833577036858,0.010005822405219078,-0.00024688936537131667,0.01630491018295288
0.019796425476670265,0.005779691971838474,-0.015554182231426239,0.010601583868265152,-0.0002386367996223271,0.016722915694117546
0.020386571064591408,0.005812234710901976,-0.016030102968215942,0.010553494095802307,-0.00022999550856184214,0.01670757122337818
0.020405318588018417,0.005716163199394941,-0.01578182354569435,0.010517098940908909,-0.0002493918873369694,0.01745421625673771
0.0204201377928257,0.0052342782728374004,-0.015464178286492825,0.010829697363078594,-0.0002446943544782698,0.017124811187386513
0.020584052428603172,0.005754299461841583,-0.01577179506421089,0.010449285618960857,-0.00023688955116085708,0.01722634956240654
0.020102189853787422,0.005492799449712038,-0.015352923423051834,0.010465133003890514,-0.0002300748456036672,0.01740473136305809
0.020137295126914978,0.006203241180628538,-0.016046985983848572,0.010700575076043606,-0.0003222587693016976,0.017142796888947487
0.020554324612021446,0.005704711191356182,-0.015669405460357666,0.010565648786723614,-0.00030735909240320325,0.01708361692726612
0.02030886709690094,0.005189311224967241,-0.015335958451032639,0.010476718656718731,-0.00032398547045886517,0.01754109002649784
0.02098020538687706,0.005142549984157085,-0.0160084068775177,0.00994281005114317,-0.00034411149681545794,0.01681452989578247
0.02114507555961609,0.005636067595332861,-0.016269773244857788,0.010556036606431007,-0.00036108316271565855,0.016898049041628838
0.020401397719979286,0.006127316039055586,-0.015935136005282402,0.009986430406570435,-0.00036534349783323705,0.017147386446595192
0.020345354452729225,0.005648226942867041,-0.0163581483066082,0.009789947420358658,-0.0005334853776730597,0.016894837841391563
0.021165847778320312,0.005387555807828903,-0.01610659807920456,0.010380520485341549,-0.0005753578734584153,0.017128298059105873
0.0214815903455019,0.00490939524024725,-0.016503648832440376,0.010239891707897186,-0.0005419390508905053,0.01762554422020912
0.020902568474411964,0.005417198874056339,-0.015806006267666817,0.009823118336498737,-0.0004939158679917455,0.017292605713009834
0.02080623432993889,0.005341121926903725,-0.016300562769174576,0.010558933019638062,-0.0005078889080323279,0.017408987507224083
0.021360421553254128,0.005399575922638178,-0.01615544781088829,0.01058911345899105,-0.00048583847819827497,0.017326563596725464
0.021639680489897728,0.005483874585479498,-0.017007123678922653,0.01022375002503395,-0.0004520759976003319,0.017819397151470184
0.02139304392039776,0.005108436103910208,-0.016558343544602394,0.010742761194705963,-0.000473924505058676,0.01809549890458584
0.021265313029289246,0.005404433235526085,-0.01591663435101509,0.010218020528554916,-0.0004513171734288335,0.01757904887199402
0.02042604424059391,0.005518738646060228,-0.016586776822805405,0.010243176482617855,-0.0004251242207828909,0.017365679144859314
0.02104019932448864,0.005681069567799568,-0.016305143013596535,0.010495365597307682,-0.00041369436075910926,0.017350276932120323
0.02104019932448864,0.005681069567799568,-0.016305143013596535,0.010495365597307682,-0.00041369436075910926,0.017350276932120323
0.021679699420928955,0.005162201821804047,-0.017071593552827835,0.010447449050843716,-0.0003906724159605801,0.01769232004880905
0.021767163649201393,0.005346482153981924,-0.016627423465251923,0.010236659087240696,-0.0003951003891415894,0.017912350594997406
0.022027185186743736,0.005559152457863092,-0.016718169674277306,0.010669155977666378,-0.00039783798274584115,0.01791655458509922
0.02198462188243866,0.005455452483147383,-0.01692538894712925,0.010382684879004955,-0.0004181359545327723,0.017996277660131454
0.021777382120490074,0.005813106428831816,-0.01640106737613678,0.011410829611122608,-0.0004055714816786349,0.018013421446084976
0.020977118983864784,0.0053224931471049786,-0.016739049926400185,0.011120609939098358,-0.0004084680404048413,0.018053486943244934
0.021291518583893776,0.005237162113189697,-0.01587814837694168,0.0102694695815444,-0.0004097530909348279,0.018214259296655655
0.021879078820347786,0.005252885166555643,-0.016778986901044846,0.010964504443109035,-0.0004635991354007274,0.01798040233552456
0.02210490219295025,0.005607125349342823,-0.016660556197166443,0.011437609791755676,-0.0004852629208471626,0.018172210082411766
0.022167285904288292,0.005819796118885279,-0.01689928211271763,0.011802107095718384,-0.00048268475802615285,0.01777009852230549
0.02245732769370079,0.005324177443981171,-0.01616716757416725,0.01150963082909584,-0.0005123813170939684,0.018019191920757294
0.02244107984006405,0.005322315264493227,-0.016514161601662636,0.011934351176023483,-0.0005369808059185743,0.0183429978787899
0.021824738010764122,0.005583226215094328,-0.016416773200035095,0.011629593558609486,-0.000611765484791249,0.01873994618654251
0.022429490461945534,0.005227173678576946,-0.017159827053546906,0.011945866048336029,-0.0006283178809098899,0.018411004915833473
0.022126760333776474,0.005675634369254112,-0.016507532447576523,0.011620866134762764,-0.000660356308799237,0.018173499032855034
0.02185674011707306,0.005325851961970329,-0.016584495082497597,0.011881597340106964,-0.0006799507536925375,0.018581626936793327
0.021717388182878494,0.005306019447743893,-0.016944723203778267,0.012179520912468433,-0.0006244943360798061,0.0189803633838892
0.02253517135977745,0.005240499973297119,-0.016478488221764565,0.01183579582720995,-0.0005688276141881943,0.0192432664334774
0.022499363869428635,0.005681185517460108,-0.0169226061552763,0.011865886859595776,-0.0005217237630859017,0.018399059772491455
0.022453544661402702,0.005431413650512695,-0.01630217768251896,0.011852698400616646,-0.0005411849706433713,0.01833317056298256
0.022299733012914658,0.005773726850748062,-0.016704309731721878,0.011934108100831509,-0.0005108584300614893,0.017871588468551636
0.022369876503944397,0.005324677564203739,-0.016725970432162285,0.012001399882137775,-0.00048551210784353316,0.01869957707822323
0.022828873246908188,0.004951409064233303,-0.016772758215665817,0.011708693578839302,-0.0004490858409553766,0.018609022721648216
0.022828873246908188,0.004951409064233303,-0.016772758215665817,0.011708693578839302,-0.0004490858409553766,0.018609022721648216
0.022668328136205673,0.005139807239174843,-0.01716497167944908,0.01237515453249216,-0.00048495017108507454,0.01868237368762493
0.022748008370399475,0.005113561637699604,-0.01621946692466736,0.011901806108653545,-0.0004858218599110842,0.019490649923682213
0.0226203054189682,0.005757751874625683,-0.016673525795340538,0.011618007905781269,-0.0004819690657313913,0.019723346456885338
0.022893810644745827,0.005137831903994083,-0.016499139368534088,0.011913510970771313,-0.0004969671135768294,0.019239049404859543
0.022502079606056213,0.00444926368072629,-0.016864275559782982,0.011795097030699253,-0.00047875268501229584,0.019108345732092857
0.02284347452223301,0.004528213758021593,-0.01702740788459778,0.01201657485216856,-0.0005383733077906072,0.019107701256871223
0.022829320281744003,0.005073443055152893,-0.016050800681114197,0.011542334221303463,-0.0005567918997257948,0.018793001770973206
0.022220920771360397,0.00502350740134716,-0.0167036484926939,0.012049851939082146,-0.000586446316447109,0.019270703196525574
0.023277871310710907,0.00523325614631176,-0.016357358545064926,0.012745946645736694,-0.0005397846689447761,0.019594350829720497
0.023488325998187065,0.005222914274781942,-0.01699133776128292,0.011980708688497543,-0.000491395709104836,0.01929546892642975
0.023612745106220245,0.004501038696616888,-0.016878345981240273,0.011933008208870888,-0.0004846471128985286,0.01972247287631035
0.023722870275378227,0.005037996917963028,-0.017006512731313705,0.012456570751965046,-0.0005058281240053475,0.01974024809896946
0.02390405535697937,0.004955166485160589,-0.01669892482459545,0.012735008262097836,-0.0004797062138095498,0.01960136368870735
0.023944221436977386,0.004917914513498545,-0.016973689198493958,0.012451148591935635,-0.0004805151547770947,0.01999867707490921
0.023654885590076447,0.005407534074038267,-0.016760878264904022,0.012631525285542011,-0.00044485542457550764,0.019963614642620087
0.023897532373666763,0.0050428383983671665,-0.01711554452776909,0.01251706201583147,-0.00047537352656945586,0.020042823627591133
0.02370729111135006,0.004527089651674032,-0.01823127083480358,0.013258297927677631,-0.00044566267752088606,0.020012782886624336
0.024483608081936836,0.00454047741368413,-0.017172921448946,0.012278549373149872,-0.00044553386396728456,0.020410897210240364
0.024656325578689575,0.005018227268010378,-0.017589276656508446,0.012518264353275299,-0.00044454223825596273,0.0202836561948061
0.025060124695301056,0.0049735177308321,-0.0170539952814579,0.012113234028220177,-0.00041709287324920297,0.02024167776107788
0.02425558492541313,0.004765195306390524,-0.01721113920211792,0.012249132618308067,-0.00043962904601357877,0.020358968526124954
0.024071797728538513,0.00439813919365406,-0.017437726259231567,0.012192157097160816,-0.0004205523000564426,0.020077351480722427
0.02463330142199993,0.004447632934898138,-0.017605220898985863,0.01182757318019867,-0.0003981428744737059,0.02036340907216072
0.024750761687755585,0.0047660996206104755,-0.01803858019411564,0.01227340754121542,-0.00042651520925574005,0.020617499947547913
0.024240264669060707,0.004776762332767248,-0.01790091209113598,0.012473411858081818,-0.0003935309359803796,0.020810183137655258
0.025091780349612236,0.004650208167731762,-0.017293518409132957,0.013315755873918533,-0.00042940257117152214,0.020724674686789513
0.02557654120028019,0.0046224333345890045,-0.017731601372361183,0.012583971954882145,-0.00040183874079957604,0.020543398335576057
0.025650914758443832,0.004642256535589695,-0.017500756308436394,0.01261836662888527,-0.00042813626350834966,0.020615851506590843
0.025650914758443832,0.004642256535589695,-0.017500756308436394,0.01261836662888527,-0.00042813626350834966,0.020615851506590843
0.026004502549767494,0.004696091637015343,-0.018599050119519234,0.012601506896317005,-0.00040778398397378623,0.020383108407258987
0.025319991633296013,0.004618917591869831,-0.01741117797791958,0.01225277315825224,-0.00043440776062197983,0.02108018659055233
0.025202486664056778,0.004608989227563143,-0.017141122370958328,0.012372338213026524,-0.00041284551844000816,0.021166324615478516
0.02561275102198124,0.004189280793070793,-0.01841338723897934,0.011711177416145802,-0.0004936988116241992,0.02113722637295723
0.0257120281457901,0.0048859380185604095,-0.017707720398902893,0.01241361815482378,-0.0004594917700160295,0.021098202094435692
0.025977743789553642,0.004637987352907658,-0.017273154109716415,0.012151836417615414,-0.0004954109317623079,0.021455340087413788
0.02624225616455078,0.004496726207435131,-0.017486238852143288,0.012862333096563816,-0.0004569868615362793,0.021592313423752785
0.026296516880393028,0.004576602019369602,-0.01820708066225052,0.01269528642296791,-0.0004551293677650392,0.021427366882562637
0.026276428252458572,0.00485179852694273,-0.017646165564656258,0.012974741868674755,-0.0004263540613465011,0.021449629217386246
0.026401890441775322,0.004349664784967899,-0.017744433134794235,0.012724447064101696,-0.0004271886427886784,0.021477874368429184
0.025983843952417374,0.004369929898530245,-0.018060065805912018,0.013223029673099518,-0.00042736795148812234,0.02204051800072193
0.026979202404618263,0.004525302443653345,-0.016900600865483284,0.013080216012895107,-0.0004049923154525459,0.020896535366773605
0.02668439969420433,0.004154450725764036,-0.017315521836280823,0.013477533124387264,-0.0004111354355700314,0.021396221593022346
0.026880821213126183,0.004445123020559549,-0.016828451305627823,0.013283115811645985,-0.0003861673176288605,0.022279493510723114
0.02661001868546009,0.004595427308231592,-0.01694861799478531,0.013419430702924728,-0.0004085458058398217,0.02262272499501705
0.026367206126451492,0.004546807613223791,-0.017192674800753593,0.01303249504417181,-0.0003949250094592571,0.022090379148721695
0.026805074885487556,0.004278997424989939,-0.016794687137007713,0.01299456786364317,-0.000414226611610502,0.02091127634048462
0.027085939422249794,0.004811697639524937,-0.017652923241257668,0.013311510905623436,-0.0004019528569187969,0.020879093557596207
0.027469970285892487,0.004446006845682859,-0.017463887110352516,0.01273092906922102,-0.0003787085588555783,0.021900780498981476
0.026857463642954826,0.00449585635215044,-0.017763543874025345,0.012966543436050415,-0.0003821463615167886,0.022508027032017708
0.027142252773046494,0.0044821626506745815,-0.017902666702866554,0.012667941860854626,-0.0003846951003652066,0.02204396389424801
0.027621911838650703,0.00468968041241169,-0.01729186251759529,0.013486906886100769,-0.0003666058473754674,0.02201997861266136
0.027583451941609383,0.004218835849314928,-0.017773984000086784,0.0135306091979146,-0.0004176450602244586,0.02252824790775776
0.027672428637742996,0.004890443757176399,-0.017545193433761597,0.012912455014884472,-0.0003922705363947898,0.023598892614245415
0.0281808041036129,0.004907215479761362,-0.01766706444323063,0.013894758187234402,-0.00041451046126894653,0.022879265248775482
0.02787424810230732,0.004951328504830599,-0.01806838996708393,0.014461198821663857,-0.00040027278009802103,0.022175028920173645
0.02787424810230732,0.004951328504830599,-0.01806838996708393,0.014461198821663857,-0.00040027278009802103,0.022175028920173645
0.028438882902264595,0.004700719844549894,-0.01755593530833721,0.014198067598044872,-0.00037364166928455234,0.021706361323595047
0.028473174199461937,0.0048658535815775394,-0.018310217186808586,0.014495382085442543,-0.000399856740841642,0.022476565092802048
0.028874069452285767,0.004686112515628338,-0.018636679276823997,0.014050588011741638,-0.0003824531158898026,0.023308221250772476
0.028737658634781837,0.004860761575400829,-0.01792903058230877,0.014356211759150028,-0.0003609803388826549,0.02354198321700096
0.02904132567346096,0.004896786995232105,-0.018513916060328484,0.014046858064830303,-0.0003836472751572728,0.023510616272687912
0.028826387599110603,0.004773671273142099,-0.0179713424295187,0.01442233007401228,-0.0003697208594530821,0.023455776274204254
0.02991582453250885,0.004849370568990707,-0.01841338537633419,0.01406919863075018,-0.00038945511914789677,0.022950077429413795
0.029938500374555588,0.004839648026973009,-0.017938436940312386,0.013554259203374386,-0.0003595590533223003,0.022944385185837746
0.02730013057589531,0.004844336770474911,-0.018119949847459793,0.01371752005070448,-0.0003949166275560856,0.02300170436501503
0.028996963053941727,0.004710184410214424,-0.018410639837384224,0.013679544441401958,-0.0003717587096616626,0.02371404692530632
0.029885683208703995,0.004648805130273104,-0.017938673496246338,0.014345892705023289,-0.0003480487212073058,0.02354125678539276
0.029564928263425827,0.004284476861357689,-0.018254300579428673,0.014281497336924076,-0.0003776885278057307,0.023319751024246216
0.029275162145495415,0.004531798884272575,-0.01824961043894291,0.014736727811396122,-0.0003844686143565923,0.023340517655014992
0.03011545166373253,0.004622861742973328,-0.017517492175102234,0.014497301541268826,-0.00038712448440492153,0.023214934393763542
0.030539538711309433,0.004432778339833021,-0.01825476437807083,0.01487971842288971,-0.00042239847243763506,0.023200733587145805
0.029812416061758995,0.0045221466571092606,-0.01829633116722107,0.014496074058115482,-0.00043394757085479796,0.023584026843309402
0.029085300862789154,0.00494014797732234,-0.018289733678102493,0.01469802763313055,-0.00039888700121082366,0.023706091567873955
0.029085300862789154,0.00494014797732234,-0.018289733678102493,0.01469802763313055,-0.00039888700121082366,0.023706091567873955
0.030530894175171852,0.00445042597129941,-0.01777445524930954,0.014492422342300415,-0.0004054805904161185,0.023656386882066727
0.03016933985054493,0.004214133135974407,-0.01834266074001789,0.014412207528948784,-0.00037815977702848613,0.024054890498518944
0.03016933985054493,0.004214133135974407,-0.01834266074001789,0.014412207528948784,-0.00037815977702848613,0.024054890498518944
0.030164053663611412,0.004454656038433313,-0.01881325989961624,0.0148633336648345,-0.00038209400372579694,0.024272780865430832
0.029665550217032433,0.004983672872185707,-0.01825445331633091,0.01482107862830162,-0.000364492938388139,0.023534175008535385
0.029665550217032433,0.004983672872185707,-0.01825445331633091,0.01482107862830162,-0.000364492938388139,0.023534175008535385
0.030194470658898354,0.004371488932520151,-0.018621958792209625,0.015359493903815746,-0.00037324154982343316,0.023751530796289444
0.030194470658898354,0.004371488932520151,-0.018621958792209625,0.015359493903815746,-0.00037324154982343316,0.023751530796289444
0.030382156372070312,0.00474315183237195,-0.018815962597727776,0.015345307067036629,-0.00037096114829182625,0.02483193762600422
0.030382156372070312,0.00474315183237195,-0.018815962597727776,0.015345307067036629,-0.00037096114829182625,0.02483193762600422
0.03048606403172016,0.004882097244262695,-0.01815154030919075,0.014904003590345383,-0.00040354998782277107,0.02433299459517002
0.03089470975100994,0.0046895039267838,-0.018611913546919823,0.01520493719726801,-0.00041413772851228714,0.023555075749754906
0.03078732080757618,0.0047901468351483345,-0.018874427303671837,0.014593273401260376,-0.0004157730145379901,0.023301469162106514
0.03105926513671875,0.004729025531560183,-0.019378073513507843,0.015008720569312572,-0.0004211849591229111,0.024953585118055344
0.03071301057934761,0.004553061909973621,-0.01872369833290577,0.01544739305973053,-0.0005989882629364729,0.025152865797281265
0.030715499073266983,0.004715969320386648,-0.018513591960072517,0.015703581273555756,-0.000555638107471168,0.025246646255254745
0.031611014157533646,0.004780860152095556,-0.0191660039126873,0.016004282981157303,-0.0005882740369997919,0.025050578638911247
0.031899817287921906,0.004773668944835663,-0.01922844722867012,0.015612000599503517,-0.0006013222737237811,0.02503332681953907
0.031099725514650345,0.005055579822510481,-0.01986192911863327,0.01501045934855938,-0.0006271791062317789,0.024576619267463684
0.029278060421347618,0.004889903590083122,-0.019349731504917145,0.01474978867918253,-0.0005972500657662749,0.024110138416290283
0.03043164685368538,0.0048516253009438515,-0.018742721527814865,0.015068480744957924,-0.0006751618930138648,0.024484902620315552
0.031538695096969604,0.004783086944371462,-0.018990032374858856,0.015358653850853443,-0.0006535795982927084,0.025333013385534286
0.031010480597615242,0.005139559041708708,-0.01891942322254181,0.01510431058704853,-0.0006286432617343962,0.025355206802487373
0.031264957040548325,0.005112977232784033,-0.018536606803536415,0.015286344103515148,-0.0005660281167365611,0.024924058467149734
0.03181075677275658,0.0053502037189900875,-0.01861332729458809,0.015011610463261604,-0.000585986184887588,0.024567948654294014
0.03216222673654556,0.005087995436042547,-0.020213022828102112,0.01487858034670353,-0.0005452274344861507,0.02456948719918728
0.030740922316908836,0.004819458816200495,-0.01938963495194912,0.014260079711675644,-0.0005642782780341804,0.024537501856684685
0.030740922316908836,0.004819458816200495,-0.01938963495194912,0.014260079711675644,-0.0005642782780341804,0.024537501856684685
0.031060948967933655,0.00469962228089571,-0.019170701503753662,0.015318521298468113,-0.0005311031127348542,0.025074824690818787
0.03181023150682449,0.00514215836301446,-0.01946687139570713,0.01507503166794777,-0.0004951129667460918,0.02523289993405342
0.03163471817970276,0.005244786385446787,-0.019082069396972656,0.015803219750523567,-0.0004574683553073555,0.025080109015107155
0.031669121235609055,0.005068321246653795,-0.01914363168179989,0.015437690541148186,-0.00047661681310273707,0.025505924597382545
0.03173147514462471,0.005232234485447407,-0.01943170838057995,0.015374403446912766,-0.00045524234883487225,0.02576211839914322
0.03139771148562431,0.00511135021224618,-0.01924832910299301,0.014799744822084904,-0.0004861667985096574,0.026076627895236015
0.031884413212537766,0.004933679010719061,-0.01971510425209999,0.015607546083629131,-0.00048691770643927157,0.02570064552128315
0.03223542869091034,0.005228768102824688,-0.019710322842001915,0.014804938808083534,-0.00048340996727347374,0.02690024860203266
0.03229588642716408,0.005141729023307562,-0.019166799262166023,0.015309558250010014,-0.0005526924505829811,0.025198228657245636
0.03228215128183365,0.005317810922861099,-0.019642788916826248,0.01535851415246725,-0.000575209385715425,0.025031916797161102
0.03248126804828644,0.00500568887218833,-0.0197693333029747,0.015612906776368618,-0.0005153832607902586,0.02578102983534336
0.03264826908707619,0.004819514695554972,-0.019186653196811676,0.01587861403822899,-0.000548513897228986,0.025756103917956352
0.03283366188406944,0.0048184883780777454,-0.01946542225778103,0.01563141867518425,-0.0005029981257393956,0.025906192138791084
0.032891761511564255,0.005396547727286816,-0.01988060213625431,0.01589166559278965,-0.0004761477466672659,0.025778822600841522
0.0329732820391655,0.00557769974693656,-0.019756602123379707,0.016340086236596107,-0.0004576503997668624,0.02593783289194107
0.032808054238557816,0.005066838581115007,-0.01973298192024231,0.016311556100845337,-0.00042762415250763297,0.025918807834386826
0.033222027122974396,0.004773986991494894,-0.01976199448108673,0.016703182831406593,-0.00044994542258791625,0.025754578411579132
0.03293171525001526,0.00493162265047431,-0.01924658566713333,0.016950737684965134,-0.00042983307503163815,0.025786463171243668
0.03305431455373764,0.005259440280497074,-0.019417908042669296,0.016836201772093773,-0.00040683193947188556,0.02600971981883049
0.03356288745999336,0.005104728974401951,-0.019794493913650513,0.017285918816924095,-0.00037094796425662935,0.026221511885523796
0.033445775508880615,0.005419693421572447,-0.019888486713171005,0.01664736680686474,-0.00034253468038514256,0.026220452040433884
0.03405872732400894,0.005133804865181446,-0.02021906152367592,0.016344476491212845,-0.00034917087759822607,0.02625729702413082
0.033788520842790604,0.0047002132050693035,-0.019976668059825897,0.01601860485970974,-0.00035454941098578274,0.02599160559475422
0.03370533511042595,0.0048733060248196125,-0.01994367688894272,0.016333794221282005,-0.00037549316766671836,0.026306966319680214
0.03389642760157585,0.0047706374898552895,-0.020142128691077232,0.0164739191532135,-0.0003665864933282137,0.02698221243917942
0.03389093652367592,0.004831853322684765,-0.019618887454271317,0.01637437380850315,-0.00039014749927446246,0.02731163613498211
0.03419382870197296,0.0050327228382229805,-0.019148685038089752,0.016732996329665184,-0.00037704157875850797,0.02698087878525257
0.03419382870197296,0.0050327228382229805,-0.019148685038089752,0.016732996329665184,-0.00037704157875850797,0.02698087878525257
0.03509751334786415,0.004629512317478657,-0.02072739042341709,0.016338245943188667,-0.0004582635301630944,0.025862835347652435
0.03509751334786415,0.004629512317478657,-0.02072739042341709,0.016338245943188667,-0.0004582635301630944,0.025862835347652435
0.033268772065639496,0.004653480369597673,-0.020007513463497162,0.01624213345348835,-0.0004938135971315205,0.02686075121164322
0.03419671580195427,0.005085197277367115,-0.02003730647265911,0.016618186607956886,-0.00045707542449235916,0.0270850732922554
0.03496674448251724,0.005228568334132433,-0.019739771261811256,0.01632954180240631,-0.00048698970931582153,0.026930322870612144
0.03488146513700485,0.005099191330373287,-0.01946926675736904,0.016231445595622063,-0.0004876243765465915,0.028279846534132957
0.035488370805978775,0.004720587749034166,-0.019511323422193527,0.016787592321634293,-0.00048406075802631676,0.028421014547348022
0.03443564102053642,0.0036548571661114693,-0.020390156656503677,0.016597753390669823,-0.0005072968197055161,0.02758190967142582
0.034484416246414185,0.0036033031065016985,-0.020662419497966766,0.016838088631629944,-0.0005033080233260989,0.02680845372378826
0.034384239464998245,0.003897138638421893,-0.01983121782541275,0.016740787774324417,-0.0004996324423700571,0.02789410948753357
0.03544066846370697,0.004044003318995237,-0.020179051905870438,0.0171341709792614,-0.0004937043995596468,0.02828346937894821
0.03461698815226555,0.004414316266775131,-0.020683899521827698,0.01717972755432129,-0.000522626272868365,0.02722582407295704
0.036115434020757675,0.004170293919742107,-0.019791968166828156,0.017246557399630547,-0.0005166230257600546,0.027490176260471344
0.03573613613843918,0.0034941956400871277,-0.020725270733237267,0.016526762396097183,-0.000595229968894273,0.027513112872838974
0.0353328101336956,0.0036198582965880632,-0.02036178670823574,0.01627824641764164,-0.0006567155942320824,0.027851443737745285
0.03571714833378792,0.0038957754150032997,-0.020084647461771965,0.016270793974399567,-0.0006474073743447661,0.02794993296265602
0.03520702198147774,0.003993443213403225,-0.020502330735325813,0.016249487176537514,-0.000627006171271205,0.02779996767640114
0.03574259951710701,0.0034464269410818815,-0.02105497196316719,0.01710517704486847,-0.0006123384227976203,0.02805626019835472
0.036368921399116516,0.003469671355560422,-0.02025837078690529,0.017377590760588646,-0.0005974832456558943,0.028157508000731468
0.035877667367458344,0.0037282174453139305,-0.02018403820693493,0.01809447631239891,-0.0005562136066146195,0.027865231037139893
0.035681817680597305,0.004205130040645599,-0.02066686749458313,0.01780613139271736,-0.000602451735176146,0.027933431789278984
0.03568018227815628,0.004008109215646982,-0.020711122080683708,0.017154091969132423,-0.000589851988479495,0.027692697942256927
0.037158504128456116,0.00342053035274148,-0.020756714046001434,0.017314931377768517,-0.0005736929597333074,0.028048180043697357
0.03658150136470795,0.0033816350623965263,-0.02054917998611927,0.017178362235426903,-0.0005848887376487255,0.028328830376267433
0.03658150136470795,0.0033816350623965263,-0.02054917998611927,0.017178362235426903,-0.0005848887376487255,0.028328830376267433
0.03541223704814911,0.0035934378392994404,-0.020757444202899933,0.017637303099036217,-0.0005532787763513625,0.02841338701546192
0.03669058531522751,0.0036678665783256292,-0.0204525887966156,0.017769398167729378,-0.0005774336168542504,0.028584569692611694
0.03628186881542206,0.0036226219963282347,-0.020334947854280472,0.017710935324430466,-0.0006207268452271819,0.0286397784948349
0.0377541147172451,0.0036144002806395292,-0.02109563909471035,0.01772233657538891,-0.0006572912679985166,0.028376413509249687
0.037285953760147095,0.00350723578594625,-0.020522071048617363,0.017788013443350792,-0.000680348661262542,0.028200510889291763
0.037285953760147095,0.00350723578594625,-0.020522071048617363,0.017788013443350792,-0.000680348661262542,0.028200510889291763
0.037040844559669495,0.0036710796412080526,-0.021099811419844627,0.018009893596172333,-0.0008019034867174923,0.02965388633310795
0.037040844559669495,0.0036710796412080526,-0.021099811419844627,0.018009893596172333,-0.0008019034867174923,0.02965388633310795
0.03776604309678078,0.003927025478333235,-0.02064487338066101,0.01837371662259102,-0.0008233668049797416,0.02940348908305168
0.03624289482831955,0.003921650815755129,-0.02004380337893963,0.01805524341762066,-0.0008100172271952033,0.028018049895763397
0.036791980266571045,0.0037583105731755495,-0.020501993596553802,0.01720280945301056,-0.0007417344604618847,0.027748461812734604
0.036815397441387177,0.003721917048096657,-0.020787769928574562,0.01731042005121708,-0.0007467867690138519,0.028917331248521805
0.03710673749446869,0.0036318455822765827,-0.02011905238032341,0.017397809773683548,-0.0006871235091239214,0.028686843812465668
0.036939870566129684,0.00357797765173018,-0.020571252331137657,0.018252840265631676,-0.0006533885025419295,0.028948230668902397
0.036704737693071365,0.0036619766615331173,-0.020386630669236183,0.01863892190158367,-0.0006290886085480452,0.03020423650741577
0.03704528138041496,0.003921248950064182,-0.020078176632523537,0.018696114420890808,-0.0006156020681373775,0.029127437621355057
0.037252847105264664,0.003679306246340275,-0.020562851801514626,0.019043002277612686,-0.0005796901532448828,0.02849435806274414
0.03732818365097046,0.0036152878310531378,-0.020172804594039917,0.01878444291651249,-0.0006026483024470508,0.028783313930034637
0.03733231872320175,0.0037838960997760296,-0.020114760845899582,0.018623774871230125,-0.0005604053731076419,0.030201764777302742
0.03735214099287987,0.0038560109678655863,-0.020371995866298676,0.018368860706686974,-0.0005697369924746454,0.030276421457529068
0.036291588097810745,0.0037919478490948677,-0.020329540595412254,0.01804230734705925,-0.0006024559261277318,0.02961064502596855
0.03770299628376961,0.0037449148949235678,-0.019922086969017982,0.018393808975815773,-0.0006833416409790516,0.02953704074025154
0.03817641735076904,0.003739210544154048,-0.020335888490080833,0.01787373796105385,-0.0006678206846117973,0.02943190559744835
0.037648413330316544,0.004224626813083887,-0.020961392670869827,0.017885897308588028,-0.0009358084644190967,0.02941860817372799
0.0378103032708168,0.0040775323286652565,-0.02055227942764759,0.018774792551994324,-0.0009328930755145848,0.029766110703349113
0.03759044408798218,0.0039955610409379005,-0.020038146525621414,0.01883074641227722,-0.0008765824022702873,0.030134856700897217
0.037468086928129196,0.004483827389776707,-0.020400600507855415,0.01874583028256893,-0.0008763136574998498,0.029815753921866417
0.0381193533539772,0.004197341855615377,-0.021049976348876953,0.018579138442873955,-0.0008719993056729436,0.02988343872129917
0.037937894463539124,0.003925361204892397,-0.02086607739329338,0.017819980159401894,-0.0007761754677630961,0.03036058135330677
0.037670597434043884,0.004336818121373653,-0.021222015842795372,0.01858256570994854,-0.0007875774172134697,0.030281350016593933
0.037670597434043884,0.004336818121373653,-0.021222015842795372,0.01858256570994854,-0.0007875774172134697,0.030281350016593933
0.03775057941675186,0.00413065031170845,-0.021240880712866783,0.018938865512609482,-0.0007496653124690056,0.030441943556070328
0.03914686292409897,0.0041342503391206264,-0.02028832398355007,0.018820906057953835,-0.0007297260453924537,0.03054889105260372
0.03914686292409897,0.0041342503391206264,-0.02028832398355007,0.018820906057953835,-0.0007297260453924537,0.03054889105260372
0.03811720758676529,0.004366307053714991,-0.02052484080195427,0.018539417535066605,-0.0006677671917714179,0.03087315894663334
0.03720467537641525,0.004561604466289282,-0.021409085020422935,0.018469976261258125,-0.0006287164287641644,0.030759984627366066
0.03817262873053551,0.004090328700840473,-0.021182429045438766,0.018569953739643097,-0.000612845120485872,0.030923133715987206
0.038043513894081116,0.00429860595613718,-0.020221153274178505,0.018195059150457382,-0.0005936486995778978,0.031011385843157768
0.03912835195660591,0.0041849613189697266,-0.02127750776708126,0.018393632024526596,-0.0006207874394021928,0.031102726235985756
0.039150647819042206,0.0043109869584441185,-0.021528903394937515,0.018877802416682243,-0.0005701842019334435,0.03030625730752945
0.037859972566366196,0.004512656480073929,-0.020999068394303322,0.01864580065011978,-0.000577968661673367,0.031015777960419655
0.03750088810920715,0.004270853940397501,-0.020673081278800964,0.018811330199241638,-0.0006136198062449694,0.03140297159552574
0.03914707154035568,0.004481751471757889,-0.021273672580718994,0.018546031787991524,-0.0006840730784460902,0.03113541193306446
0.03890945017337799,0.0044056205078959465,-0.02050808072090149,0.018350748345255852,-0.0007081639487296343,0.03198133036494255
0.038791026920080185,0.004221176262944937,-0.020669851452112198,0.018566450104117393,-0.0006835920503363013,0.030583824962377548
0.0386708527803421,0.004029422532767057,-0.021690934896469116,0.01837928034365177,-0.0008072860655374825,0.029988212510943413
0.03909269720315933,0.004177702125161886,-0.021272482350468636,0.01901056431233883,-0.0008460317039862275,0.031081493943929672
