davideferrari95/blind_handover_controller/data/Test 211 - [2024-02-08 -- 12-09-15]/joint_states_data.csv
shoulder_pan_joint,shoulder_lift_joint,elbow_joint,wrist_1_joint,wrist_2_joint,wrist_3_joint
0.004460144322365522,0.013997900299727917,-0.01258197519928217,-0.0028284150175750256,-0.0,0.004712605383247137
0.004253842867910862,0.013325241394340992,-0.013062424957752228,-0.0024826382286846638,-0.0,0.00420406786724925
0.004253842867910862,0.013325241394340992,-0.013062424957752228,-0.0024826382286846638,-0.0,0.00420406786724925
0.00397180300205946,0.013959603384137154,-0.012626267969608307,-0.0022713621146976948,-0.0,0.004229249432682991
0.003991301171481609,0.013584217987954617,-0.013014665804803371,-0.0019258339889347553,-0.0,0.004146013408899307
0.004250155296176672,0.01367323100566864,-0.012920891866087914,-0.001711411983706057,-0.0,0.004391494207084179
0.004162897821515799,0.013425902463495731,-0.012487438507378101,-0.0015877154655754566,-0.0,0.004790487699210644
0.0043674036860466,0.013639691285789013,-0.013131610117852688,-0.001476265024393797,-0.0,0.0047952281311154366
0.004592597484588623,0.013281354680657387,-0.012082744389772415,-0.0015411337371915579,-0.0,0.004683096427470446
0.0044168285094201565,0.01327573973685503,-0.012665596790611744,-0.0019251825287938118,-0.0,0.0046277656219899654
0.004002314060926437,0.01362019032239914,-0.012142522260546684,-0.001843595295213163,-0.0,0.0045730723068118095
0.003914332017302513,0.013183144852519035,-0.012795730493962765,-0.002022587927058339,-0.0,0.0043258462101221085
0.004388260189443827,0.013506527990102768,-0.012491732835769653,-0.0018868265906348825,-0.0,0.004555682651698589
0.0040312171913683414,0.013527944684028625,-0.01270529069006443,-0.0017661036690697074,-0.0,0.004574917256832123
0.0039607929065823555,0.013182821683585644,-0.01202391553670168,-0.001784491934813559,-0.0,0.004476763308048248
0.0039607929065823555,0.013182821683585644,-0.01202391553670168,-0.001784491934813559,-0.0,0.004476763308048248
0.003995862789452076,0.013473065569996834,-0.012081344611942768,-0.002055412856861949,-0.0,0.0044399737380445
0.0038661283906549215,0.013789361342787743,-0.012529086321592331,-0.001984415575861931,-0.0,0.004417068790644407
0.0039196559228003025,0.013461563736200333,-0.012520786374807358,-0.0022244476713240147,-0.0,0.004562580492347479
0.003991829697042704,0.01369516458362341,-0.012440307065844536,-0.002379684243351221,-0.0,0.004304640926420689
0.003991829697042704,0.01369516458362341,-0.012440307065844536,-0.002379684243351221,-0.0,0.004304640926420689
0.003933710511773825,0.013046404346823692,-0.012102112174034119,-0.002204694552347064,-0.0,0.0041165417060256
0.0039024637080729008,0.013193841092288494,-0.012593910098075867,-0.002100488403812051,-0.0,0.004283369053155184
0.0039024637080729008,0.013193841092288494,-0.012593910098075867,-0.002100488403812051,-0.0,0.004283369053155184
0.004116582218557596,0.013226918876171112,-0.012598550878465176,-0.0019242867128923535,-0.0,0.004322517663240433
0.003953832201659679,0.01322382315993309,-0.011964918114244938,-0.0021744018886238337,-0.0,0.004277659114450216
0.003953832201659679,0.01322382315993309,-0.011964918114244938,-0.0021744018886238337,-0.0,0.004277659114450216
0.003831427311524749,0.013547694310545921,-0.011928306892514229,-0.002067968947812915,-0.0,0.0040490999817848206
0.0038192998617887497,0.01276825089007616,-0.012716110795736313,-0.002137587871402502,-0.0,0.004138446878641844
0.004277045838534832,0.013544122688472271,-0.012545682489871979,-0.0020788502879440784,-0.0,0.004097295925021172
0.004063177388161421,0.01327079813927412,-0.01255029160529375,-0.0019839038141071796,-0.0,0.004264947958290577
0.004257043823599815,0.013886436820030212,-0.01195056363940239,-0.0018213362200185657,-0.0,0.0042109000496566296
0.0043079727329313755,0.013621880672872066,-0.01224430464208126,-0.0016983837122097611,-0.0,0.003975325729697943
0.004036605358123779,0.012841184623539448,-0.012388243339955807,-0.001715267077088356,-0.0,0.0043535251170396805
0.0042693158611655235,0.013451906852424145,-0.012556375935673714,-0.0019931714050471783,-0.0,0.004593648482114077
0.004300246015191078,0.013592838309705257,-0.012892215512692928,-0.0023668233770877123,-0.0,0.004606935195624828
0.0040794676169753075,0.013689556159079075,-0.012246878817677498,-0.0024741177912801504,-0.0,0.004263653419911861
0.00392333697527647,0.013323904015123844,-0.012383708730340004,-0.002532981103286147,-0.0,0.004387382417917252
0.004029382951557636,0.01378719788044691,-0.01204759068787098,-0.0025566958356648684,-0.0,0.00455580884590745
0.003990721423178911,0.013235162012279034,-0.012634782120585442,-0.0023903895635157824,-0.0,0.004171527456492186
0.004027653951197863,0.01314801350235939,-0.012299766764044762,-0.002397075993940234,-0.0,0.004252786748111248
0.003924492746591568,0.013424484059214592,-0.012312539853155613,-0.0024674045853316784,-0.0,0.004076677840203047
0.0037965390365570784,0.012931372970342636,-0.01207401417195797,-0.002315707039088011,-0.0,0.0039055643137544394
0.0037965390365570784,0.012931372970342636,-0.01207401417195797,-0.002315707039088011,-0.0,0.0039055643137544394
0.004224622156471014,0.01353138592094183,-0.012282533571124077,-0.0022559124045073986,-0.0,0.004140801727771759
0.0041332002729177475,0.013454989530146122,-0.011852632276713848,-0.00240513333119452,-0.0,0.004059625789523125
0.004373726900666952,0.013666138984262943,-0.012319623492658138,-0.0025643520057201385,-0.0,0.004250849597156048
0.0047196936793625355,0.013366363011300564,-0.012434977106750011,-0.0025462768971920013,-0.0,0.004148791544139385
0.0044242581352591515,0.013256370089948177,-0.012565209530293941,-0.002522337483242154,-0.0,0.003990505822002888
0.004303548019379377,0.013218403793871403,-0.01222247164696455,-0.002241620095446706,-0.0,0.004142995458096266
0.004106106236577034,0.013591915369033813,-0.01166593935340643,-0.0020730311516672373,-0.0,0.00420285202562809
0.003993683028966188,0.013757658191025257,-0.012599148787558079,-0.0020220258738845587,-0.0,0.004042504355311394
0.004300693515688181,0.013337783515453339,-0.011923400685191154,-0.0021905796602368355,-0.0,0.0039929961785674095
0.004488371778279543,0.013450217433273792,-0.012318426743149757,-0.0023917267099022865,-0.0,0.0035335319116711617
0.00436055613681674,0.01306671928614378,-0.012643641792237759,-0.0023055975325405598,-0.0,0.0035236342810094357
0.004445923957973719,0.014004787430167198,-0.01193023007363081,-0.0023635164834558964,-0.0,0.003950841724872589
0.004184823948889971,0.01312223356217146,-0.012499035336077213,-0.002217119326815009,-0.0,0.004207820165902376
0.004204327706247568,0.013699752278625965,-0.012312178499996662,-0.0021663932129740715,-0.0,0.003977897576987743
0.0040633417665958405,0.013264880515635014,-0.01251193881034851,-0.0022771069779992104,-0.0,0.0042518069967627525
0.004398579243570566,0.013860125094652176,-0.012432865798473358,-0.002288072369992733,-0.0,0.0036453164648264647
0.004557604901492596,0.012904616072773933,-0.012198284268379211,-0.0024967205245047808,-0.0,0.0038576126098632812
0.004417340736836195,0.01313250046223402,-0.012133854441344738,-0.0025675592478364706,-0.0,0.0041595082730054855
0.004506727680563927,0.01324431225657463,-0.011792073957622051,-0.0025106153916567564,-0.0,0.004130121320486069
0.004543287679553032,0.013396043330430984,-0.01216361578553915,-0.002572207245975733,-0.0,0.004024600610136986
0.004658471792936325,0.013001784682273865,-0.011970547959208488,-0.002673187991604209,-0.0,0.003969691228121519
0.004511335864663124,0.013717278838157654,-0.012186017818748951,-0.0027389368042349815,-0.0,0.004088170826435089
0.0046820081770420074,0.012981286272406578,-0.011834896169602871,-0.002489301608875394,-0.0,0.004063440021127462
0.004225909244269133,0.013872649520635605,-0.012701126746833324,-0.0023521198891103268,-0.0,0.003984807059168816
0.004200106021016836,0.012944409623742104,-0.012120702303946018,-0.002271262463182211,-0.0,0.003914838191121817
0.004200106021016836,0.012944409623742104,-0.012120702303946018,-0.002271262463182211,-0.0,0.003914838191121817
0.00463278591632843,0.013315259478986263,-0.013023553416132927,-0.0021902339067310095,-0.0,0.003904008073732257
0.004743521101772785,0.013270330615341663,-0.012139747850596905,-0.002319957362487912,-0.0,0.003997143357992172
0.004702500067651272,0.013296783901751041,-0.013078597374260426,-0.0025961429346352816,-0.0,0.004028384108096361
0.004473695065826178,0.01286182552576065,-0.012309351935982704,-0.0024358597584068775,-0.0,0.004016024060547352
0.0048426794819533825,0.012495367787778378,-0.01230178028345108,-0.002481297589838505,-0.0,0.003599646734073758
0.004915276076644659,0.012682817876338959,-0.012622625567018986,-0.002548596588894725,-0.0,0.003535790368914604
0.004827375523746014,0.012439854443073273,-0.012095389887690544,-0.0024558419827371836,-0.0,0.00406543118879199
0.004552748054265976,0.012990828603506088,-0.012558404356241226,-0.002565890783444047,-0.0,0.004156899638473988
0.00427310261875391,0.012712495401501656,-0.012152574025094509,-0.0026413544546812773,-0.0,0.0039946334436535835
0.004439671523869038,0.013017471879720688,-0.012598851695656776,-0.0024499816354364157,-0.0,0.003871518187224865
0.004243037663400173,0.0129133565351367,-0.012029606848955154,-0.0023200525902211666,-0.0,0.003856181399896741
0.00463211489841342,0.012810394167900085,-0.01190696656703949,-0.00231747142970562,-0.0,0.003574987407773733
0.004720019176602364,0.012595633044838905,-0.012716814875602722,-0.0022696400992572308,-0.0,0.0035454726312309504
0.004302650224417448,0.01259668730199337,-0.012451248243451118,-0.0024623614735901356,-0.0,0.0041461484506726265
0.003966743592172861,0.012774091213941574,-0.012569383718073368,-0.0025467693340033293,-0.0,0.0041164071299135685
0.00414202781394124,0.012484190054237843,-0.012110152281820774,-0.002522717695683241,-0.0,0.0038835424929857254
0.0046618604101240635,0.012540164403617382,-0.012631667777895927,-0.0027657197788357735,-0.0,0.003390117548406124
0.004267053212970495,0.012348033487796783,-0.012165192514657974,-0.0026277918368577957,-0.0,0.00351727195084095
0.00446543050929904,0.012946657836437225,-0.011915585026144981,-0.0023964021820575,-0.0,0.003797297365963459
0.00445454940199852,0.0123569555580616,-0.012658846564590931,-0.002245453419163823,-0.0,0.004018433392047882
0.00445454940199852,0.0123569555580616,-0.012658846564590931,-0.002245453419163823,-0.0,0.004018433392047882
0.004388732369989157,0.012800676748156548,-0.0125279501080513,-0.002568016527220607,-0.0,0.0035456684418022633
0.0042973957024514675,0.012827148661017418,-0.012437183409929276,-0.002561879577115178,-0.0,0.004148098640143871
0.004503912758082151,0.012607323937118053,-0.01249416172504425,-0.0026316377334296703,-0.0,0.004107069224119186
0.00471878657117486,0.01283358596265316,-0.012054141610860825,-0.0025073878932744265,-0.0,0.003581983270123601
0.004475908819586039,0.012551638297736645,-0.01255284994840622,-0.0023468199651688337,-0.0,0.003594430861994624
0.004475908819586039,0.012551638297736645,-0.01255284994840622,-0.0023468199651688337,-0.0,0.003594430861994624
0.0042323763482272625,0.01270947977900505,-0.011768853291869164,-0.002435500966385007,-0.0,0.0036650754045695066
0.004323141183704138,0.01280880905687809,-0.011935901828110218,-0.002512888750061393,-0.0,0.003985987976193428
0.004496392328292131,0.01297570951282978,-0.011914756149053574,-0.002456056186929345,-0.0,0.004182073287665844
0.004660925827920437,0.012964940629899502,-0.011830214411020279,-0.0024991421960294247,-0.0,0.0036203903146088123
0.004666055087000132,0.012594109401106834,-0.011948147788643837,-0.002523726550862193,-0.0,0.003515890333801508
0.004550668876618147,0.012659433297812939,-0.011592013761401176,-0.0024562336038798094,-0.0,0.0033316765911877155
0.0045341732911765575,0.012729440815746784,-0.011885673739016056,-0.002547533717006445,-0.0,0.003286666702479124
0.00459983479231596,0.01329899113625288,-0.011587949469685555,-0.0024044536985456944,-0.0,0.0034087258391082287
0.004502444062381983,0.012761875987052917,-0.012086937204003334,-0.0025729991029947996,-0.0,0.003412658581510186
0.0047147576697170734,0.012970950454473495,-0.011933043599128723,-0.002800634363666177,-0.0,0.0034861534368246794
0.004679866600781679,0.012584663927555084,-0.011380363255739212,-0.002724255667999387,-0.0,0.003671671263873577
0.004928696900606155,0.012718657031655312,-0.012275801040232182,-0.0026243869215250015,-0.0,0.0037762972060590982
0.004726644605398178,0.012595754116773605,-0.011453905142843723,-0.0027660459745675325,-0.0,0.00373663823120296
0.004682868253439665,0.012329945340752602,-0.01180531457066536,-0.0032579863909631968,-0.0,0.0034243268892169
0.004693266004323959,0.012635198421776295,-0.011593694798648357,-0.003720169421285391,-0.0,0.0030331446323543787
0.004917946644127369,0.012352454476058483,-0.011342652142047882,-0.003417383646592498,-0.0,0.0027645514346659184
0.004800617229193449,0.013184012845158577,-0.011869389563798904,-0.0035437257029116154,-0.0,0.002857545856386423
0.004781809635460377,0.012900015339255333,-0.011289452202618122,-0.003300231182947755,-0.0,0.0031659670639783144
0.004735792987048626,0.012928617186844349,-0.011912249028682709,-0.003024613717570901,-0.0,0.003116314997896552
0.004841249901801348,0.01275570411235094,-0.011434699408710003,-0.0029089609161019325,-0.0,0.00298502529039979
0.004868357442319393,0.012705453671514988,-0.012072032317519188,-0.002906957408413291,-0.0,0.0031007539946585894
0.004388254601508379,0.01235875952988863,-0.011247335001826286,-0.003277277573943138,-0.0,0.003282989840954542
0.004551936872303486,0.012489561922848225,-0.011464760638773441,-0.0036716086324304342,-0.0,0.003253170056268573
0.0046867486089468,0.01235667522996664,-0.011336940340697765,-0.003320102347061038,-0.0,0.003103508846834302
0.0046867486089468,0.01235667522996664,-0.011336940340697765,-0.003320102347061038,-0.0,0.003103508846834302
0.004500259179621935,0.012627002783119678,-0.011609426699578762,-0.0029542178381234407,-0.0,0.003276555333286524
0.004500259179621935,0.012627002783119678,-0.011609426699578762,-0.0029542178381234407,-0.0,0.003276555333286524
0.004570741672068834,0.012868192978203297,-0.01143844984471798,-0.0025940281338989735,-0.0,0.0029978512320667505
0.004494883120059967,0.013025149703025818,-0.01136390957981348,-0.002651694929227233,-0.0,0.0026775917503982782
0.004338282626122236,0.012945073656737804,-0.011437694542109966,-0.0027845909353345633,-0.0,0.00307966535910964
0.004876771941781044,0.013072723522782326,-0.011037314310669899,-0.003070864360779524,-0.0,0.003075427608564496
0.004941083490848541,0.012443662621080875,-0.01175791397690773,-0.0030832430347800255,-7.682724572077859e-07,0.0030524800531566143
0.004879159387201071,0.013236897066235542,-0.011460247449576855,-0.003391904290765524,-5.016269710722554e-08,0.0028914459981024265
0.005062040872871876,0.012643782421946526,-0.01177160069346428,-0.0031476952135562897,-3.2752660583668103e-09,0.0028831984382122755
0.004885172005742788,0.01349670346826315,-0.01184962410479784,-0.0031155955512076616,-2.1385146431462942e-10,0.0028766600880771875
0.004535237792879343,0.012723967432975769,-0.011240871623158455,-0.0031250084284693003,-1.3962972271464036e-11,0.0029736019205302
0.005113924853503704,0.012847033329308033,-0.01189887523651123,-0.003005799138918519,-9.116824049165695e-13,0.0029100640676915646
0.004980138503015041,0.012585760094225407,-0.011661723256111145,-0.0027935474645346403,-5.952634489925918e-14,0.0029063993133604527
0.004813535138964653,0.012903355993330479,-0.011057231575250626,-0.0028579523786902428,-3.886644559794247e-15,0.0027701565995812416
0.004690211731940508,0.012839225120842457,-0.011567770503461361,-0.0029398102778941393,-2.537701180853227e-16,0.002496251603588462
0.004706256091594696,0.012570327147841454,-0.010891424492001534,-0.003151209559291601,-1.656937561841913e-17,0.0024788544978946447
0.005168428644537926,0.01318217720836401,-0.011282439343631268,-0.0031109752599149942,-1.0818618717374388e-18,0.002620975486934185
0.004935738630592823,0.012962532229721546,-0.011715810745954514,-0.0030954969115555286,-7.063784450374446e-20,0.0028183029498904943
0.004966150503605604,0.013342123478651047,-0.011450718156993389,-0.003154312027618289,-4.6121466458875754e-21,0.0028007570654153824
0.005320927128195763,0.012636309489607811,-0.011482181958854198,-0.003402053378522396,-3.0114021634295045e-22,0.003049511695280671
0.005077059846371412,0.012297642417252064,-0.010937747545540333,-0.0035780109465122223,-1.9662302842370354e-23,0.0031422902829945087
0.005077059846371412,0.012297642417252064,-0.010937747545540333,-0.0035780109465122223,-1.9662302842370354e-23,0.0031422902829945087
0.005051968153566122,0.012643412686884403,-0.01053213607519865,-0.0030944980680942535,0.0002495803637430072,0.002462967997416854
0.005453502293676138,0.01237243041396141,-0.011270967312157154,-0.003149457508698106,0.00028623914113268256,0.002590274205431342
0.005453502293676138,0.01237243041396141,-0.011270967312157154,-0.003149457508698106,0.00028623914113268256,0.002590274205431342
0.005264741368591785,0.012867268174886703,-0.010989854112267494,-0.002927080262452364,0.0002778163179755211,0.002647391753271222
0.004840479698032141,0.012310312129557133,-0.011491679586470127,-0.003040062263607979,0.00030280344071798027,0.0029520669486373663
0.004757989197969437,0.012476506642997265,-0.011937410570681095,-0.0033800967503339052,0.0002939330879598856,0.0030430147890001535
0.00517507828772068,0.011921077966690063,-0.011035768315196037,-0.003413461847230792,0.00030078913550823927,0.00293115247040987
0.005191189702600241,0.011999126523733139,-0.011756651103496552,-0.003465890884399414,0.0003062756441067904,0.0027020680718123913
0.005202147178351879,0.01260337419807911,-0.011328008025884628,-0.0034151249565184116,0.000414343667216599,0.0025334609672427177
0.005023318808525801,0.012156774289906025,-0.011079252697527409,-0.0033872746862471104,0.000481100520119071,0.0024560538586229086
0.005018989555537701,0.013243842869997025,-0.011570211499929428,-0.0035616878885775805,0.0005231558461673558,0.0023538898676633835
0.005248494446277618,0.012487685307860374,-0.011099659837782383,-0.0036472289357334375,0.0004822275077458471,0.002414925256744027
0.005015490110963583,0.012468664906919003,-0.011911974288523197,-0.003668916178867221,0.00047874049050733447,0.0026119088288396597
0.005638145375996828,0.0121482377871871,-0.01163655798882246,-0.0036832354962825775,0.00047516723861917853,0.0026738159358501434
0.005328525323420763,0.012235017493367195,-0.011449027806520462,-0.003690762910991907,0.00044380887993611395,0.002729525323957205
0.005064075347036123,0.012800293043255806,-0.012178019620478153,-0.0032384188380092382,0.0004659112892113626,0.0025237645022571087
0.005026404280215502,0.012059816159307957,-0.011635621078312397,-0.0031091535929590464,0.00044415591401048005,0.0023788143880665302
0.00490212719887495,0.012757662683725357,-0.011845678091049194,-0.0033367902506142855,0.0004187707381788641,0.0021868140902370214
0.005302777513861656,0.0118176881223917,-0.011272025294601917,-0.003250465029850602,0.000434334680903703,0.0021789302118122578
0.005562562961131334,0.01185014471411705,-0.011294669471681118,-0.0034884426277130842,0.0004412868293002248,0.002497804816812277
0.005005789455026388,0.012073171325027943,-0.012077436782419682,-0.004048960283398628,0.0004409660759847611,0.0027580205351114273
0.0049434020183980465,0.012133845128118992,-0.011506880633533001,-0.0041330913081765175,0.0004098204371985048,0.0025655319914221764
0.005210045725107193,0.01269757654517889,-0.012162867933511734,-0.0040694535709917545,0.0004400811449158937,0.002601281739771366
0.005348427686840296,0.01264464296400547,-0.011156609281897545,-0.003958496730774641,0.00044318471918813884,0.0023707745131105185
0.00535778421908617,0.012442093342542648,-0.01160728931427002,-0.004485524725168943,0.0005417861393652856,0.0023515464272350073
0.0057242317125201225,0.012454512529075146,-0.011887290515005589,-0.004866727627813816,0.0005973414517939091,0.0023800181224942207
0.005303343292325735,0.012336171232163906,-0.01186071801930666,-0.004768309649080038,0.0005613354733213782,0.0023211922962218523
0.005009237676858902,0.011798528954386711,-0.011574199423193932,-0.004176692571491003,0.0005888633313588798,0.0024735210463404655
0.005009237676858902,0.011798528954386711,-0.011574199423193932,-0.004176692571491003,0.0005888633313588798,0.0024735210463404655
0.005185356829315424,0.012297163717448711,-0.010952196083962917,-0.0038875718601047993,0.00061024323804304,0.002339291386306286
0.005474497564136982,0.011819633655250072,-0.010967484675347805,-0.003914614208042622,0.0006935788551345468,0.002424695296213031
0.005569671280682087,0.012189728207886219,-0.01066731009632349,-0.003951375372707844,0.0008034108323045075,0.0026426378171890974
0.005151492543518543,0.011917775496840477,-0.011160947382450104,-0.003991536796092987,0.0008378619095310569,0.0023845250252634287
0.005177004728466272,0.011934544891119003,-0.011288193985819817,-0.003916288260370493,0.0008467322331853211,0.002287371549755335
0.005558202043175697,0.012327762320637703,-0.010950709693133831,-0.004081979859620333,0.0009705222328193486,0.0020656506530940533
0.005608098115772009,0.012084363959729671,-0.011613495647907257,-0.003970067482441664,0.0010052755242213607,0.002003837376832962
0.005705127492547035,0.01271701231598854,-0.010907542891800404,-0.0035890601575374603,0.0009724608389660716,0.0022772459778934717
0.005498440470546484,0.012442764826118946,-0.010868126526474953,-0.0035933698527514935,0.0008708728710189462,0.0023693174589425325
0.005681120324879885,0.012955281883478165,-0.01175909023731947,-0.0033465754240751266,0.0008682290790602565,0.0025340034626424313
0.005287983454763889,0.012198389507830143,-0.011468232609331608,-0.004100231919437647,0.0007819593884050846,0.002216666704043746
0.00573795847594738,0.011752604506909847,-0.011767163872718811,-0.004642312880605459,0.000698939198628068,0.001909241545945406
0.005629064980894327,0.012398351915180683,-0.011622842401266098,-0.004799362272024155,0.0006951035466045141,0.0017857870552688837
0.005900868214666843,0.011807740665972233,-0.010466042906045914,-0.004374048672616482,0.0006908280192874372,0.0017338835168629885
0.00566150713711977,0.012638580985367298,-0.01113865990191698,-0.004268101416528225,0.0006652957526966929,0.001758175203576684
0.0057670362293720245,0.012165251187980175,-0.010908530093729496,-0.004384503699839115,0.0006846548058092594,0.0020515164360404015
0.005313566420227289,0.012347063980996609,-0.01099586021155119,-0.0047548324801027775,0.0007531724986620247,0.002092493698000908
0.005835589021444321,0.012729804962873459,-0.011677436530590057,-0.004655079450458288,0.00077817402780056,0.0024131466634571552
0.0062741744332015514,0.01209215447306633,-0.01046235952526331,-0.004406098276376724,0.0007941043004393578,0.0022032076958566904
0.005653449334204197,0.012737056240439415,-0.010942746885120869,-0.004444798454642296,0.0007928927661851048,0.0018827876774594188
0.0058729033917188644,0.01208037231117487,-0.010700827464461327,-0.004908079747110605,0.0007438268512487411,0.0016281914431601763
0.005459200590848923,0.012528407387435436,-0.010161210782825947,-0.0049466462805867195,0.0008774439338594675,0.0015174191212281585
0.005779712460935116,0.012198563665151596,-0.011422034353017807,-0.0050339410081505775,0.0008226307108998299,0.0013260263949632645
0.006007385905832052,0.012973320670425892,-0.010259891860187054,-0.004857453051954508,0.0008297911263071001,0.00167629006318748
0.006213192827999592,0.011941089294850826,-0.010751256719231606,-0.004968963097780943,0.0008573287050239742,0.0017436834750697017
0.005701187066733837,0.012572522275149822,-0.010399097576737404,-0.004904459230601788,0.0008249481325037777,0.0019269671756774187
0.006412241142243147,0.01204865612089634,-0.01114225760102272,-0.004951651208102703,0.0007716591353528202,0.0019241494592279196
0.006024162285029888,0.01229921169579029,-0.011099803261458874,-0.005141828209161758,0.0007757644634693861,0.0017975261434912682
0.006024162285029888,0.01229921169579029,-0.011099803261458874,-0.005141828209161758,0.0007757644634693861,0.0017975261434912682
0.0062459977343678474,0.01237129420042038,-0.01022719033062458,-0.004841269925236702,0.0007507470436394215,0.0016518179327249527
0.006408941466361284,0.012225264683365822,-0.011026019230484962,-0.004654549062252045,0.0007197174709290266,0.0015209052944555879
0.005632008425891399,0.012396133504807949,-0.010417690500617027,-0.004219201859086752,0.0006807390600442886,0.0014755330048501492
0.0060457270592451096,0.012469635345041752,-0.010481784120202065,-0.004325852729380131,0.0006029774667695165,0.001478091231547296
0.006335763726383448,0.012237763963639736,-0.010990465059876442,-0.004492706153541803,0.0006309756427071989,0.0015206917887553573
0.006142647936940193,0.012054534628987312,-0.010280965827405453,-0.004659523256123066,0.000640212616417557,0.0016051912680268288
0.006073444150388241,0.012762325815856457,-0.010681845247745514,-0.004908965900540352,0.0006423697923310101,0.0016872475389391184
0.005871617700904608,0.012423989363014698,-0.010839891619980335,-0.004670463036745787,0.0006254582549445331,0.001761013176292181
0.006069582421332598,0.012449330650269985,-0.010023783892393112,-0.0047792186960577965,0.0006392101058736444,0.001630796934477985
0.006515055429190397,0.012628682889044285,-0.010681540705263615,-0.00480140745639801,0.0006141287158243358,0.001410254160873592
0.006663488689810038,0.012615583837032318,-0.010462463833391666,-0.004874043632298708,0.0006372490897774696,0.0012134041171520948
0.00624421751126647,0.012620987370610237,-0.010191448964178562,-0.0044821156188845634,0.0006280718371272087,0.0010626842267811298
0.006397898308932781,0.012102087028324604,-0.011175593361258507,-0.0048821368254721165,0.0006099281599745154,0.0010293535888195038
0.006434716749936342,0.012140415608882904,-0.010193104855716228,-0.005502508021891117,0.0006327099981717765,0.0010107242269441485
0.006236747372895479,0.012027516961097717,-0.009648861363530159,-0.005304473452270031,0.0007136818021535873,0.0009427422774024308
0.0060978783294558525,0.012038204818964005,-0.010706928558647633,-0.005164762493222952,0.0007440793560817838,0.0010565583361312747
0.006069064140319824,0.012473637238144875,-0.010020671412348747,-0.005008745938539505,0.0007491969154216349,0.0015649665147066116
0.005989411845803261,0.012078099884092808,-0.009641962125897408,-0.0049679516814649105,0.0007649519830010831,0.0016329374630004168
0.006409928202629089,0.012701020576059818,-0.010694301687180996,-0.0054593151435256,0.0008265171200037003,0.0015068436041474342
0.006659816950559616,0.01238227915018797,-0.010056821629405022,-0.005474874284118414,0.0008716637967154384,0.0013086471008136868
0.006091333460062742,0.012064938433468342,-0.010595344007015228,-0.005333495792001486,0.0008814128232188523,0.0008615542319603264
0.006421852856874466,0.011623404920101166,-0.010417899116873741,-0.005093555431813002,0.0008334651938639581,0.0008270792313851416
0.00656316289678216,0.01235085166990757,-0.010089045390486717,-0.00594717264175415,0.0008707999368198216,0.0008345472160726786
0.006170861888676882,0.011971978470683098,-0.010581474751234055,-0.0059031154960393906,0.0008768256520852447,0.000856592901982367
0.006170861888676882,0.011971978470683098,-0.010581474751234055,-0.0059031154960393906,0.0008768256520852447,0.000856592901982367
0.0061501553282141685,0.01252021174877882,-0.009858671575784683,-0.0051409159786999226,0.0008313648286275566,0.0008018673397600651
0.006459853611886501,0.012120220810174942,-0.010200130753219128,-0.004942817147821188,0.0007830070098862052,0.0008409431902691722
0.006323690991848707,0.012127378024160862,-0.010607908479869366,-0.0052591776475310326,0.0007724661845713854,0.0008642816683277488
0.006484956946223974,0.01234462484717369,-0.00995930191129446,-0.0056063528172671795,0.0007494420860894024,0.0012963470071554184
0.006179200019687414,0.012196637690067291,-0.010011046193540096,-0.005587369669228792,0.0006980763282626867,0.0011244731722399592
0.006179200019687414,0.012196637690067291,-0.010011046193540096,-0.005587369669228792,0.0006980763282626867,0.0011244731722399592
0.006127541419118643,0.012317005544900894,-0.009713106788694859,-0.005739348474889994,0.0007139681838452816,0.0009625837556086481
0.006825224030762911,0.011909371241927147,-0.010855693370103836,-0.0054409196600317955,0.0007206820300780237,0.0008352484437637031
0.006423418875783682,0.012145507149398327,-0.011181368492543697,-0.005750167649239302,0.0006748566520400345,0.0007373008993454278
0.006221748888492584,0.012830488383769989,-0.009611244313418865,-0.0059334454126656055,0.0007193578639999032,0.0007473194855265319
0.006109838839620352,0.012513759545981884,-0.01014288142323494,-0.0059064473025500774,0.0008539772825315595,0.0006821412243880332
0.006649110000580549,0.012031047604978085,-0.010015690699219704,-0.005838585551828146,0.0008746079984121025,0.0006242868257686496
0.006828338373452425,0.012331612408161163,-0.009684253484010696,-0.005800644867122173,0.0008655150886625051,0.00047547754365950823
0.006544587668031454,0.011916830204427242,-0.010646424256265163,-0.005982006900012493,0.0009636349277570844,0.0004871607816312462
0.006097055971622467,0.012296893633902073,-0.009837954305112362,-0.005554295610636473,0.0010819807648658752,0.000530943856574595
0.006197863724082708,0.01200463529676199,-0.009772884659469128,-0.0058575961738824844,0.0010725143365561962,0.0005607939092442393
0.006675340700894594,0.01167622022330761,-0.009974542073905468,-0.006087314337491989,0.0010428837267681956,0.0009630263666622341
0.00670796912163496,0.012358471751213074,-0.009767341427505016,-0.006283360067754984,0.0009491060045547783,0.0009274305775761604
0.006651022471487522,0.0116835692897439,-0.009998002089560032,-0.006199179217219353,0.0008586503681726754,0.0009215073077939451
0.006656598299741745,0.012416666373610497,-0.01034562662243843,-0.006037665996700525,0.0008496068185195327,0.0008112001814879477
0.006774113513529301,0.012156392447650433,-0.010705461725592613,-0.0063249641098082066,0.0008555391686968505,0.0007189876632764935
0.0067336782813072205,0.012505868449807167,-0.010212967172265053,-0.006385341752320528,0.0008192597888410091,0.0006452531670220196
0.006629519164562225,0.013207982294261456,-0.00991235114634037,-0.006161231081932783,0.0007354271947406232,0.0005354324239306152
0.00698842154815793,0.012095331214368343,-0.010553037747740746,-0.006723394617438316,0.0007549786823801696,0.0005451983888633549
0.007030325476080179,0.011534514836966991,-0.011103037744760513,-0.006845278199762106,0.000780613103415817,0.0005217297584749758
0.007502034772187471,0.012717289850115776,-0.01018160954117775,-0.006121947430074215,0.0007943700766190886,0.000487440061988309
0.007502034772187471,0.012717289850115776,-0.01018160954117775,-0.006121947430074215,0.0007943700766190886,0.000487440061988309
0.0069927335716784,0.012051762081682682,-0.010782682336866856,-0.006144056096673012,0.001051706844009459,0.00045658042654395103
0.0066101741977036,0.01180982869118452,-0.009863830171525478,-0.006572541780769825,0.0010586351854726672,0.0004293436650186777
0.0066360789351165295,0.01263248547911644,-0.009895513765513897,-0.006786750629544258,0.0010364478221163154,0.0004051719733979553
0.006989361718297005,0.01180629339069128,-0.011012183502316475,-0.006844451650977135,0.0009607804822735488,0.0003835786774288863
0.006953524891287088,0.01213468611240387,-0.010427611880004406,-0.006540773902088404,0.0009357320377603173,0.0003641701478045434
0.006707717198878527,0.012369509786367416,-0.010886678472161293,-0.0066742911003530025,0.0010108592687174678,0.00034663279075175524
0.006779112387448549,0.01229282096028328,-0.011353908106684685,-0.00735738268122077,0.0010333426762372255,0.00033070702920667827
0.007199070416390896,0.012395387515425682,-0.010136480443179607,-0.007063479628413916,0.0011385768884792924,0.0003161808126606047
0.007167763076722622,0.01190092507749796,-0.01007073000073433,-0.006453447975218296,0.0011397383641451597,0.00030287718982435763
0.00671776570379734,0.012548191472887993,-0.010927420109510422,-0.006100237835198641,0.0011001784587278962,0.0002906481677200645
0.00683547230437398,0.012282343581318855,-0.01048703957349062,-0.006776474416255951,0.0010698928963392973,0.00027936845435760915
0.007460418157279491,0.012127632275223732,-0.010690116323530674,-0.007475314196199179,0.001010273932479322,0.0002689317334443331
0.0070218113251030445,0.011932077817618847,-0.010222765617072582,-0.007056183647364378,0.0009751433390192688,0.0002592468517832458
0.007273353170603514,0.01167470496147871,-0.010559722781181335,-0.006286001298576593,0.000858536281157285,0.00025023537455126643
0.0073837172240018845,0.01187996007502079,-0.010366102680563927,-0.006506906822323799,0.0008570977370254695,0.0002418296498944983
0.007618561387062073,0.011607213877141476,-0.010692874900996685,-0.007013140246272087,0.0008402016828767955,0.0002339702914468944
0.0067985872738063335,0.012045541778206825,-0.010085397399961948,-0.007361762225627899,0.0007819208549335599,0.00022660572722088546
0.007034601643681526,0.012043374590575695,-0.01057606004178524,-0.007550997193902731,0.0007799626910127699,0.00021969077351968735
0.007038545329123735,0.012026256881654263,-0.009982435032725334,-0.006607677787542343,0.0007363135810010135,0.0002131853107130155
0.007058490067720413,0.011917149648070335,-0.009546203538775444,-0.0065329116769135,0.0007520257495343685,0.00019435024296399206
0.007288649678230286,0.011448140256106853,-0.010221531614661217,-0.0067972722463309765,0.0007717650150880218,0.00017696777649689466
0.007106022443622351,0.011540903709828854,-0.010042962618172169,-0.006801724433898926,0.0010388720547780395,0.0001667861215537414
0.007263174280524254,0.011741288006305695,-0.010730607435107231,-0.006850776262581348,0.0010210645850747824,0.0001624810101930052
0.007121068425476551,0.011676711961627007,-0.010977687314152718,-0.006798165384680033,0.001230717054568231,0.00015839532716199756
0.007139070425182581,0.011729402467608452,-0.010009332560002804,-0.007132366299629211,0.001242408761754632,0.00015451043145731091
0.007086204830557108,0.01171228475868702,-0.009784730151295662,-0.006879707798361778,0.0012092706747353077,7.446484960382804e-05
0.007086204830557108,0.01171228475868702,-0.009784730151295662,-0.006879707798361778,0.0012092706747353077,7.446484960382804e-05
0.007573703769594431,0.011457689106464386,-0.010023850947618484,-0.0067907460033893585,0.0011493634665384889,4.8334379243897274e-05
0.007164976559579372,0.011572757735848427,-0.01125955581665039,-0.007427966222167015,0.0011137942783534527,4.553321923594922e-05
0.007215873803943396,0.011611519381403923,-0.010613395832479,-0.007519647479057312,0.001077274908311665,4.4309166696621105e-05
0.007254344876855612,0.011664184741675854,-0.009518448263406754,-0.007315847557038069,0.0009999243775382638,4.3238032958470285e-05
0.007978356443345547,0.012124991975724697,-0.00988998357206583,-0.00724386889487505,0.0009279617224819958,2.25231906370027e-05
0.007907867431640625,0.011499810963869095,-0.011951185762882233,-0.007339605130255222,0.0008290790137834847,2.0719915482914075e-05
0.007191673386842012,0.011643664911389351,-0.009235977195203304,-0.007375361863523722,0.0007078195922076702,2.017155202338472e-05
0.007257874123752117,0.012110540643334389,-0.009779628366231918,-0.006978359539061785,0.0007833376876078546,5.096091626910493e-06
0.007509837858378887,0.011388169601559639,-0.010113613680005074,-0.006946650333702564,0.0008007163996808231,3.327383524265315e-07
0.008075346238911152,0.011784536764025688,-0.010156353004276752,-0.007500398438423872,0.0007707314216531813,2.1725437449049423e-08
0.007805356755852699,0.011821187101304531,-0.010034979321062565,-0.00791759230196476,0.000978783704340458,1.418515749307403e-09
0.006974073126912117,0.01139303483068943,-0.010037003085017204,-0.0075663551688194275,0.0009785019792616367,9.261894029499729e-11
0.007326093502342701,0.01230617705732584,-0.00957014411687851,-0.007273211143910885,0.0009683938114903867,6.047354457472398e-12
0.008199650794267654,0.011484476737678051,-0.010101293213665485,-0.0076097953133285046,0.0008915786747820675,3.948490297743523e-13
0.007879067212343216,0.011712158098816872,-0.01000337302684784,-0.00773635832592845,0.0009962926851585507,2.5780818248993288e-14
0.0075712669640779495,0.011623205617070198,-0.009512889198958874,-0.007434434723109007,0.0009870141511783004,-0.0005343692610040307
0.007674071006476879,0.011593908071517944,-0.009857234545052052,-0.007386313751339912,0.0009125426295213401,-0.0008566859178245068
0.007571715395897627,0.012230953201651573,-0.00976378470659256,-0.008606618270277977,0.0009067166247405112,-0.0008892883779481053
0.007955345325171947,0.01136952918022871,-0.009596340358257294,-0.00822110753506422,0.0008866640855558217,-0.0008418755605816841
0.00734732998535037,0.011953668668866158,-0.010608891025185585,-0.007716094143688679,0.0008945644949562848,-0.000797125103417784
0.007544719148427248,0.011556856334209442,-0.009826669469475746,-0.007866143248975277,0.0009571371483616531,-0.0007204482681117952
0.00784419383853674,0.011619922704994678,-0.009115670807659626,-0.008163870312273502,0.0010445693042129278,-0.0006550311227329075
0.008737524971365929,0.011125092394649982,-0.009742431342601776,-0.008088740520179272,0.0011013697367161512,-0.0006495128618553281
0.008421800099313259,0.01172514446079731,-0.009548534639179707,-0.00820058025419712,0.0010724732419475913,-0.0007554814801551402
0.008421800099313259,0.01172514446079731,-0.009548534639179707,-0.00820058025419712,0.0010724732419475913,-0.0007554814801551402
0.00871436670422554,0.012106857262551785,-0.009983694180846214,-0.008533082902431488,0.00106433080509305,-0.001245484920218587
0.008979986421763897,0.012199049815535545,-0.009983220137655735,-0.008347454480826855,0.0010534183820709586,-0.0013342957245185971
0.008723059669137001,0.011994917877018452,-0.009566464461386204,-0.008047210052609444,0.000993761233985424,-0.0011047874577343464
0.008723059669137001,0.011994917877018452,-0.009566464461386204,-0.008047210052609444,0.000993761233985424,-0.0011047874577343464
0.009040532633662224,0.0124043058604002,-0.009578807279467583,-0.008389185182750225,0.0009725449490360916,-0.0009940022137016058
0.008234714157879353,0.0121774822473526,-0.009516565129160881,-0.008632185868918896,0.000970056455116719,-0.0008981518330983818
0.008783639408648014,0.012584530748426914,-0.01025672908872366,-0.008692003786563873,0.001070851692929864,-0.00092784792650491
0.008893885649740696,0.011868735775351524,-0.010116216726601124,-0.00849242229014635,0.001211310038343072,-0.0012001382419839501
0.008421821519732475,0.011659015901386738,-0.009328406304121017,-0.00862940214574337,0.0013671915512531996,-0.001523889834061265
0.009113403037190437,0.011573960073292255,-0.00940303597599268,-0.007985974662005901,0.0013172446051612496,-0.0017451286548748612
0.008848492056131363,0.011134312488138676,-0.009751890785992146,-0.008298465982079506,0.001433957600966096,-0.0018638045294210315
0.00865569245070219,0.011877467855811119,-0.009422998875379562,-0.008821693249046803,0.0013951732544228435,-0.0017217443091794848
0.008462983183562756,0.01179603673517704,-0.009830531664192677,-0.00891792494803667,0.0013295350363478065,-0.0014444212429225445
0.008926746435463428,0.011854206211864948,-0.01023310050368309,-0.008861293084919453,0.00123494490981102,-0.001304392353631556
0.009051295928657055,0.012134482152760029,-0.008972142823040485,-0.008736719377338886,0.0012653168523684144,-0.0013191589387133718
0.00845064502209425,0.011699995025992393,-0.010062395595014095,-0.00853416882455349,0.00120632559992373,-0.001462467247620225
0.008989445865154266,0.011903786100447178,-0.009271887131035328,-0.009065134450793266,0.0010994437616318464,-0.0015751547180116177
0.009229754097759724,0.011459175497293472,-0.009666587226092815,-0.009627729654312134,0.0010894382139667869,-0.0022624842822551727
0.009229754097759724,0.011459175497293472,-0.009666587226092815,-0.009627729654312134,0.0010894382139667869,-0.0022624842822551727
0.009213135577738285,0.011638596653938293,-0.009572277776896954,-0.009486428461968899,0.0010677383979782462,-0.00257599214091897
0.008896204642951488,0.011510441079735756,-0.009236570447683334,-0.009391695261001587,0.0010553592583164573,-0.0022961366921663284
0.008809475228190422,0.012533140368759632,-0.009081322699785233,-0.008747042156755924,0.0010931757278740406,-0.002015512902289629
0.008982743136584759,0.01218911912292242,-0.008900800719857216,-0.008568813093006611,0.0010402710177004337,-0.0017134988447651267
0.00914819072932005,0.01141144149005413,-0.00900136400014162,-0.008864767849445343,0.0011424714466556907,-0.0016749637434259057
0.008874165825545788,0.011958058923482895,-0.009550676681101322,-0.008899427019059658,0.0011166806798428297,-0.002090941881760955
0.009447338990867138,0.012134981341660023,-0.00923972949385643,-0.010523059405386448,0.0011192973470315337,-0.0026586262974888086
0.009357537142932415,0.011377857066690922,-0.008761236444115639,-0.009186159819364548,0.0011853367323055863,-0.002879351144656539
0.009357537142932415,0.011377857066690922,-0.008761236444115639,-0.009186159819364548,0.0011853367323055863,-0.002879351144656539
0.009034832939505577,0.011443853378295898,-0.008991810493171215,-0.009627276100218296,0.0012562163174152374,-0.0024826843291521072
0.009034832939505577,0.011443853378295898,-0.008991810493171215,-0.009627276100218296,0.0012562163174152374,-0.0024826843291521072
0.009660453535616398,0.011905357241630554,-0.009410827420651913,-0.009442497976124287,0.0012256611371412873,-0.0021740745287388563
0.008971153758466244,0.012078935280442238,-0.009601697325706482,-0.00933133251965046,0.0012890464859083295,-0.002032291144132614
0.009709112346172333,0.012132428586483002,-0.009724895469844341,-0.009208093397319317,0.0012896491680294275,-0.0018970562377944589
0.009552808478474617,0.012297246605157852,-0.008807964622974396,-0.009631558321416378,0.0015069301007315516,-0.002260230015963316
0.009338955394923687,0.011725978925824165,-0.009640759788453579,-0.008874218910932541,0.0015453160740435123,-0.0027738017961382866
0.009019541554152966,0.01253434456884861,-0.008931390941143036,-0.008480647578835487,0.0014694678829982877,-0.0028773692902177572
0.009784774854779243,0.011829613707959652,-0.008901371620595455,-0.009374652989208698,0.0015234278980642557,-0.002704889513552189
0.009354638867080212,0.011529150418937206,-0.009126110933721066,-0.009756606072187424,0.0014660723973065615,-0.0025837209541350603
0.009378688409924507,0.012259166687726974,-0.009851017966866493,-0.008891800418496132,0.0015026392647996545,-0.002646754262968898
0.008910358883440495,0.011640726588666439,-0.00924716703593731,-0.00942444708198309,0.0015890952199697495,-0.002655101241543889
0.009829044342041016,0.012047560885548592,-0.008628908544778824,-0.009468892589211464,0.0015613343566656113,-0.003068628953769803
0.009151585400104523,0.01187954656779766,-0.008885189890861511,-0.009212675504386425,0.0016331460792571306,-0.0033018984831869602
0.009671526029706001,0.012293894775211811,-0.0092280562967062,-0.009731050580739975,0.00155067618470639,-0.0030904090963304043
0.009799988009035587,0.011871501803398132,-0.008934613317251205,-0.009745694696903229,0.0015371046029031277,-0.002961725229397416
0.009228426963090897,0.011443480849266052,-0.010217628441751003,-0.009319433011114597,0.0014747710665687919,-0.0027627418749034405
0.009786853566765785,0.012353913858532906,-0.009159623645246029,-0.009602895937860012,0.001556011731736362,-0.0029999965336173773
0.00913110189139843,0.011469310149550438,-0.009409318678081036,-0.009810170158743858,0.0015466086333617568,-0.0026647860649973154
0.009395254775881767,0.011604578234255314,-0.00959668681025505,-0.009790097363293171,0.0013979894574731588,-0.0029079210944473743
0.009567941538989544,0.011240417137742043,-0.008964499458670616,-0.010187082923948765,0.0014659921871498227,-0.004200667608529329
0.009567941538989544,0.011240417137742043,-0.008964499458670616,-0.010187082923948765,0.0014659921871498227,-0.004200667608529329
0.009842691011726856,0.0112098203971982,-0.009548399597406387,-0.010736619122326374,0.0016906679375097156,-0.0042124781757593155
0.009543905965983868,0.011702638119459152,-0.008812973275780678,-0.010520344600081444,0.0016344812465831637,-0.003727046540006995
0.009543905965983868,0.011702638119459152,-0.008812973275780678,-0.010520344600081444,0.0016344812465831637,-0.003727046540006995
0.00923964288085699,0.0116238072514534,-0.008880934678018093,-0.009644909761846066,0.0017086226725950837,-0.0036452370695769787
0.00941570196300745,0.01116371899843216,-0.009371749125421047,-0.010045704431831837,0.001676559098996222,-0.0034079633187502623
0.009719851426780224,0.011671732179820538,-0.009096117690205574,-0.01061350479722023,0.0015199902700260282,-0.004033572040498257
0.009480943903326988,0.011510513722896576,-0.00932129193097353,-0.010728485882282257,0.001589507795870304,-0.004146271850913763
0.009877700358629227,0.011122378520667553,-0.01000491064041853,-0.010435479693114758,0.001484614796936512,-0.00402666674926877
0.009839363396167755,0.011684073135256767,-0.00892576016485691,-0.010505014099180698,0.0014868570724502206,-0.003986337687820196
0.009779820218682289,0.011076356284320354,-0.008451279252767563,-0.010071835480630398,0.0014237804571166635,-0.004152778536081314
0.010309076867997646,0.011578178964555264,-0.009365539997816086,-0.010354876518249512,0.0013280283892527223,-0.004258266184478998
0.009842217899858952,0.01115629356354475,-0.010013268329203129,-0.01052179280668497,0.0012010132195428014,-0.0041298228316009045
0.010164348408579826,0.011110171675682068,-0.00938397366553545,-0.01083825808018446,0.001291946624405682,-0.0041230786591768265
0.010116037912666798,0.011920259334146976,-0.009433983825147152,-0.010527911596000195,0.0012862526345998049,-0.004154806025326252
0.010083520784974098,0.01138052623718977,-0.0093896659091115,-0.009796425700187683,0.0016662896377965808,-0.003902840195223689
0.009890904650092125,0.011769815348088741,-0.009065130725502968,-0.010315421037375927,0.0016545053804293275,-0.00371285411529243
0.01028417982161045,0.011770857498049736,-0.0092693530023098,-0.010507628321647644,0.0019079733174294233,-0.0038440830539911985
0.010853307321667671,0.011207349598407745,-0.009169007651507854,-0.010281281545758247,0.001789664849638939,-0.004362268839031458
0.010045386850833893,0.011458557099103928,-0.008995425887405872,-0.010729197412729263,0.00150445313192904,-0.004743544850498438
0.010070959106087685,0.011333126574754715,-0.009612523019313812,-0.010727931745350361,0.0014628611970692873,-0.004746435675770044
0.010420162230730057,0.011387448757886887,-0.010047015734016895,-0.011043676175177097,0.0014011163730174303,-0.004618731793016195
0.010326990857720375,0.011591358110308647,-0.008575791493058205,-0.011450807563960552,0.0014352314174175262,-0.004689720459282398
0.010525932535529137,0.011234764009714127,-0.008662509731948376,-0.011198419146239758,0.0014680264284834266,-0.004748580977320671
0.010366104543209076,0.011246394366025925,-0.00981356855481863,-0.011577287688851357,0.0018125713104382157,-0.004051850643008947
0.010242339223623276,0.011173287406563759,-0.009048021398484707,-0.011135371401906013,0.001943920156918466,-0.0039139059372246265
0.010205430909991264,0.012531195767223835,-0.009478793479502201,-0.011217121966183186,0.0019580365624278784,-0.004913774318993092
0.010381829924881458,0.011478827334940434,-0.008669898845255375,-0.01120864786207676,0.0019599373918026686,-0.004614488687366247
0.0103116724640131,0.0115207489579916,-0.00902307778596878,-0.01074712909758091,0.0017860222142189741,-0.004533480387181044
0.010859719477593899,0.011358867399394512,-0.009326344355940819,-0.011353923939168453,0.0016178488731384277,-0.004554694052785635
0.010455298237502575,0.011541926302015781,-0.009086379781365395,-0.01156519167125225,0.001446962240152061,-0.004680774640291929
0.010455298237502575,0.011541926302015781,-0.009086379781365395,-0.01156519167125225,0.001446962240152061,-0.004680774640291929
0.01017699483782053,0.01094411313533783,-0.009271719492971897,-0.011872420087456703,0.00131212396081537,-0.004857207648456097
0.01017699483782053,0.01094411313533783,-0.009271719492971897,-0.011872420087456703,0.00131212396081537,-0.004857207648456097
0.010443666949868202,0.0112283481284976,-0.008501727133989334,-0.011675624176859856,0.001369811361655593,-0.0046224347315728664
0.010226130485534668,0.011005398817360401,-0.008061527274549007,-0.012285829521715641,0.0014162998413667083,-0.004738600924611092
0.009685835801064968,0.011998812668025494,-0.009037504903972149,-0.011626423336565495,0.0016678501851856709,-0.004964958410710096
0.010142512619495392,0.011404686607420444,-0.009004656225442886,-0.011989518068730831,0.0017664767801761627,-0.0049520148895680904
0.010293828323483467,0.012025028467178345,-0.008834019303321838,-0.012502282857894897,0.001873413217253983,-0.005104959476739168
0.010172300972044468,0.011933354660868645,-0.009227636270225048,-0.011980651877820492,0.001744443434290588,-0.005542364437133074
0.01044068206101656,0.01155161578208208,-0.009371520020067692,-0.011781550943851471,0.0015898197889328003,-0.005236067343503237
0.010955664329230785,0.011382880620658398,-0.008532758802175522,-0.011293857358396053,0.0015268451534211636,-0.005208986811339855
0.010613994672894478,0.012060272507369518,-0.008353807963430882,-0.011818012222647667,0.0015327007276937366,-0.005166505929082632
0.010486478917300701,0.011363311670720577,-0.0096671087667346,-0.01206978503614664,0.0014747853856533766,-0.005363576579838991
0.009623871184885502,0.011427187360823154,-0.009415356442332268,-0.012396793812513351,0.0016090201679617167,-0.005523487459868193
0.010382543317973614,0.011237629689276218,-0.009335925802588463,-0.013012940064072609,0.001996302045881748,-0.005766388028860092
0.01092671137303114,0.01099449209868908,-0.00905858539044857,-0.01264249812811613,0.002133779926225543,-0.005842266604304314
0.010355936363339424,0.011557663790881634,-0.00902269221842289,-0.012520873919129372,0.002502109855413437,-0.006060434505343437
0.010305366478860378,0.010752810165286064,-0.008537729270756245,-0.012060368433594704,0.0025057285092771053,-0.005724469665437937
0.010078460909426212,0.011086632497608662,-0.008952941745519638,-0.012931033968925476,0.0021652723662555218,-0.005883965641260147
0.00866242591291666,0.011670557782053947,-0.009286811575293541,-0.012817010283470154,0.0019076101016253233,-0.005637343507260084
0.0107282605022192,0.0110247191041708,-0.008593345992267132,-0.013865666463971138,0.0017643815372139215,-0.006288267206400633
0.010744151659309864,0.011291423812508583,-0.008866511285305023,-0.013279990293085575,0.001672708778642118,-0.006063525099307299
0.010899039916694164,0.010611729696393013,-0.008846132084727287,-0.012433205731213093,0.00185872963629663,-0.0059916311874985695
0.010288992896676064,0.010840632021427155,-0.008496598340570927,-0.013036335818469524,0.0017511723563075066,-0.0060101766139268875
0.010614827275276184,0.010897370986640453,-0.008954038843512535,-0.01323467306792736,0.001824245322495699,-0.00588628463447094
0.010508849285542965,0.012091413140296936,-0.009067739360034466,-0.012300726026296616,0.0020554661750793457,-0.0057436819188296795
0.010029731318354607,0.011356567032635212,-0.008755490183830261,-0.012354501523077488,0.0018923206953331828,-0.005647300276905298
0.01056750025600195,0.01084122434258461,-0.008630870841443539,-0.012340068817138672,0.0018440127605572343,-0.005267904605716467
0.010868867859244347,0.011242013424634933,-0.008956307545304298,-0.013082273304462433,0.0016512348083779216,-0.005792614072561264
0.010108687914907932,0.01087846141308546,-0.00855865515768528,-0.01288914680480957,0.001556067494675517,-0.006087549962103367
0.010108687914907932,0.01087846141308546,-0.00855865515768528,-0.01288914680480957,0.001556067494675517,-0.006087549962103367
0.010445764288306236,0.011010645888745785,-0.008050639182329178,-0.012880688533186913,0.0016155324410647154,-0.006089780479669571
0.011136885732412338,0.011515790596604347,-0.009392150677740574,-0.012873281724750996,0.002085745567455888,-0.006322406232357025
0.010471414774656296,0.010893291793763638,-0.008663585409522057,-0.013032156974077225,0.0022078456822782755,-0.005736537277698517
0.010370065458118916,0.011329421773552895,-0.008026771247386932,-0.013350354507565498,0.002426881343126297,-0.005839189514517784
0.010492672212421894,0.011032436974346638,-0.008237418718636036,-0.012706827372312546,0.002152112079784274,-0.005778774619102478
0.010148975066840649,0.010877727530896664,-0.009026174433529377,-0.01280438806861639,0.001884927274659276,-0.005985000170767307
0.010616205632686615,0.012629945762455463,-0.008985839784145355,-0.01286437176167965,0.0018512718379497528,-0.006299585569649935
0.010628185234963894,0.011575373820960522,-0.008558223955333233,-0.013145243749022484,0.0018803816055878997,-0.005881576333194971
0.010300626046955585,0.011395939625799656,-0.008755278773605824,-0.01306159421801567,0.0019688461907207966,-0.006291958503425121
0.010738654993474483,0.011173499748110771,-0.008691434748470783,-0.012985536828637123,0.0024576648138463497,-0.0066147781908512115
0.010118518956005573,0.010977702215313911,-0.00827033817768097,-0.013416717760264874,0.002343734260648489,-0.005997112486511469
0.010855554603040218,0.011373767629265785,-0.008458874188363552,-0.013341155834496021,0.0022028745152056217,-0.006456111557781696
0.010901883244514465,0.011205295100808144,-0.00882315170019865,-0.013873934745788574,0.0019851557444781065,-0.006604896858334541
0.010610283352434635,0.01082130242139101,-0.008472765795886517,-0.013462318107485771,0.00176323635969311,-0.006620517000555992
0.011003327555954456,0.011211130768060684,-0.008403988555073738,-0.01399974338710308,0.0016944198869168758,-0.0063598486594855785
0.01064501702785492,0.01108840387314558,-0.008862217888236046,-0.013970163650810719,0.0018643500516191125,-0.0067401123233139515
0.010794580914080143,0.011650333181023598,-0.008464469574391842,-0.01426603738218546,0.0024051940999925137,-0.0069655063562095165
0.011158118955790997,0.011800447478890419,-0.008410199545323849,-0.013758274726569653,0.002801412483677268,-0.0069374083541333675
0.010875267907977104,0.0114875053986907,-0.008886285126209259,-0.01393553800880909,0.002815478015691042,-0.006573798600584269
0.011409254744648933,0.011248946189880371,-0.00879265833646059,-0.013647605665028095,0.0026213161181658506,-0.006650635506957769
0.01160657498985529,0.011143513023853302,-0.008441749028861523,-0.014358926564455032,0.002351257251575589,-0.0070339711382985115
0.011772407218813896,0.011565645225346088,-0.00797786470502615,-0.013663114048540592,0.0023632561787962914,-0.00733176851645112
0.011463740840554237,0.011279812082648277,-0.008429321460425854,-0.014246886596083641,0.0021952916868031025,-0.007668227422982454
0.011909175664186478,0.011582259088754654,-0.008055186830461025,-0.014462718740105629,0.0020819760393351316,-0.007123368792235851
0.01307582762092352,0.011142183095216751,-0.008480235934257507,-0.014215223491191864,0.0020137641113251448,-0.007376381196081638
0.01302557997405529,0.011388478800654411,-0.008522670716047287,-0.014818720519542694,0.0019450647523626685,-0.007370977196842432
0.01302557997405529,0.011388478800654411,-0.008522670716047287,-0.014818720519542694,0.0019450647523626685,-0.007370977196842432
0.012963149696588516,0.011764457449316978,-0.007703038863837719,-0.014307057484984398,0.0019138249335810542,-0.007149205543100834
0.012590684927999973,0.011273197829723358,-0.007347963750362396,-0.014597205445170403,0.0018950900994241238,-0.007002424914389849
0.013115175068378448,0.011639494448900223,-0.008510606363415718,-0.014240078628063202,0.0018807159503921866,-0.007211345713585615
0.012997649610042572,0.011082815937697887,-0.008536344394087791,-0.01477428711950779,0.002039677929133177,-0.007782256230711937
0.012946522794663906,0.011213305406272411,-0.007846448570489883,-0.014276161789894104,0.0019750806968659163,-0.0073266648687422276
0.012905324809253216,0.011329181492328644,-0.00809542927891016,-0.014547289349138737,0.002444764832034707,-0.007054259069263935
0.013225536793470383,0.01135442778468132,-0.008681269362568855,-0.01367424987256527,0.002732472959905863,-0.007138980086892843
0.013138851150870323,0.012137752026319504,-0.00839443039149046,-0.01395644061267376,0.0025565954856574535,-0.007432237733155489
0.013285666704177856,0.011407893151044846,-0.007650014944374561,-0.01388191431760788,0.0025611589662730694,-0.007414737716317177
0.013468213379383087,0.011495599523186684,-0.008232178166508675,-0.014499479904770851,0.0023398487828671932,-0.00779544236138463
0.013370801694691181,0.011622186750173569,-0.008077929727733135,-0.014507276937365532,0.0022788734640926123,-0.00802658312022686
0.013494372367858887,0.01143729779869318,-0.008165186271071434,-0.01489177905023098,0.00235287775285542,-0.007878611795604229
0.013180430978536606,0.011650584638118744,-0.008318966254591942,-0.01469375379383564,0.0024953775573521852,-0.00817061960697174
0.01371097657829523,0.011589426547288895,-0.008242986164987087,-0.015501736663281918,0.0023935269564390182,-0.008425435051321983
0.01321099791675806,0.011549805290997028,-0.008245714008808136,-0.015217725187540054,0.002305053872987628,-0.008199143223464489
0.013774345628917217,0.011873413808643818,-0.0077283368445932865,-0.01592213287949562,0.002244433620944619,-0.008181926794350147
0.013344434089958668,0.011532877571880817,-0.008420519530773163,-0.015533840283751488,0.0024758786894381046,-0.008629530668258667
0.013630532659590244,0.011581102386116982,-0.00866659451276064,-0.016314463689923286,0.0025918176397681236,-0.008573007769882679
0.013337787240743637,0.011581949889659882,-0.008293777704238892,-0.01602664589881897,0.0025194338522851467,-0.008732984773814678
0.013455048203468323,0.011500425636768341,-0.007622921839356422,-0.015168768353760242,0.002458191243931651,-0.009115085937082767
0.013314333744347095,0.011707711964845657,-0.008393467403948307,-0.015286259353160858,0.0024418432731181383,-0.008662370964884758
0.01317644864320755,0.01127586979418993,-0.008491617627441883,-0.015312707051634789,0.002353368327021599,-0.008582908660173416
0.013588525354862213,0.011900271289050579,-0.008221141062676907,-0.01570994220674038,0.0024032355286180973,-0.008858178742229939
0.013565998524427414,0.011552078649401665,-0.008665032684803009,-0.015947574749588966,0.002557771746069193,-0.009118640795350075
0.013566331006586552,0.011765510775148869,-0.008030679076910019,-0.014842727221548557,0.0025543682277202606,-0.008735258132219315
0.013820741325616837,0.011227209120988846,-0.007717811968177557,-0.01593538001179695,0.0023185634054243565,-0.008359268307685852
0.013562922365963459,0.01179858110845089,-0.008421934209764004,-0.01621764898300171,0.0022367252968251705,-0.008293531835079193
0.013793010264635086,0.011023706756532192,-0.008745908737182617,-0.016901027411222458,0.002305139321833849,-0.00893840380012989
0.01345027331262827,0.010955261997878551,-0.008541630581021309,-0.01707003079354763,0.002317736390978098,-0.008699754253029823
0.01345027331262827,0.010955261997878551,-0.008541630581021309,-0.01707003079354763,0.002317736390978098,-0.008699754253029823
0.013632605783641338,0.011308395303785801,-0.008656403981149197,-0.01686396822333336,0.0030533766839653254,-0.009204449132084846
0.013632605783641338,0.011308395303785801,-0.008656403981149197,-0.01686396822333336,0.0030533766839653254,-0.009204449132084846
0.01411963440477848,0.011672702617943287,-0.008313682861626148,-0.016357848420739174,0.003026894060894847,-0.009386914782226086
0.01371811330318451,0.011414348147809505,-0.008320903405547142,-0.01687137968838215,0.002783514792099595,-0.00952249113470316
0.014100397936999798,0.011216703802347183,-0.008984724059700966,-0.01703198440372944,0.002357294550165534,-0.009372414089739323
0.013560781255364418,0.011920501478016376,-0.008485290221869946,-0.017546115443110466,0.002192953834310174,-0.008625376038253307
0.013895665295422077,0.011587311513721943,-0.008246995508670807,-0.017916815355420113,0.002134043490514159,-0.008989842608571053
0.013684937730431557,0.011766741052269936,-0.00930190458893776,-0.01738826557993889,0.0021149381063878536,-0.008944662287831306
0.01427680067718029,0.011848613619804382,-0.008831718936562538,-0.017406664788722992,0.0022868223022669554,-0.00901441927999258
0.013834411278367043,0.011839699931442738,-0.008429190143942833,-0.016970369964838028,0.0023935451172292233,-0.00798412598669529
0.014145678840577602,0.011896111071109772,-0.00909530557692051,-0.01743728294968605,0.002384493127465248,-0.00963708944618702
0.013757976703345776,0.011372032575309277,-0.00882644858211279,-0.017369143664836884,0.0026380366180092096,-0.010232356376945972
0.014699608087539673,0.011560370214283466,-0.008423772640526295,-0.01706206612288952,0.0027980885934084654,-0.009745349176228046
0.014224007725715637,0.011789168231189251,-0.008986198343336582,-0.017834017053246498,0.002891399199143052,-0.009553046897053719
0.014278152957558632,0.01119477953761816,-0.008959963917732239,-0.017755374312400818,0.0028903461061418056,-0.009192798286676407
0.014150725677609444,0.011692377738654613,-0.008551382459700108,-0.017384331673383713,0.0029504764825105667,-0.009236596524715424
0.014494586735963821,0.011272842064499855,-0.008740726858377457,-0.017301209270954132,0.002830064157024026,-0.009143730625510216
0.014186497777700424,0.01202233973890543,-0.008467444218695164,-0.01739616133272648,0.0025186887942254543,-0.009844091720879078
0.015018932521343231,0.01202926691621542,-0.008732893504202366,-0.01797470450401306,0.0026001178193837404,-0.009256834164261818
0.014501690864562988,0.012092341668903828,-0.008788231760263443,-0.01777079701423645,0.0026749272365123034,-0.009482049383223057
0.014496526680886745,0.011882459744811058,-0.008022075518965721,-0.017632238566875458,0.00285592139698565,-0.009825524874031544
0.014572151005268097,0.012168941088020802,-0.008492287248373032,-0.017899533733725548,0.0027895302046090364,-0.008903678506612778
0.014305771328508854,0.011831125244498253,-0.008270536549389362,-0.01804836466908455,0.00279807741753757,-0.009164636954665184
0.014757590368390083,0.011626701802015305,-0.007860161364078522,-0.017705461010336876,0.0027418117970228195,-0.009036133997142315
0.014950134791433811,0.01157683040946722,-0.008709320798516273,-0.017665520310401917,0.002607226138934493,-0.009069004096090794
0.015019617043435574,0.010837607085704803,-0.008577642031013966,-0.018585925921797752,0.0029028088320046663,-0.009184319525957108
0.014552897773683071,0.011632105335593224,-0.00796547345817089,-0.018308566883206367,0.0029959273524582386,-0.009090621024370193
0.014552897773683071,0.011632105335593224,-0.00796547345817089,-0.018308566883206367,0.0029959273524582386,-0.009090621024370193
0.014980854466557503,0.011130863800644875,-0.008044108748435974,-0.017917290329933167,0.0029590295162051916,-0.009304633364081383
0.014715095981955528,0.011834423057734966,-0.007820740342140198,-0.0185636468231678,0.002721987199038267,-0.009181165136396885
0.015837999060750008,0.011579429730772972,-0.008056504651904106,-0.01901404745876789,0.002328352304175496,-0.009197579696774483
0.01492404006421566,0.011097520589828491,-0.007989979349076748,-0.019167469814419746,0.0021877149119973183,-0.00910861324518919
0.014913637191057205,0.011434542946517467,-0.007914221845567226,-0.01915331929922104,0.0023012703750282526,-0.009167355485260487
0.0150409284979105,0.011256632395088673,-0.007910407148301601,-0.019001247361302376,0.0028297894168645144,-0.009105873294174671
0.01587226614356041,0.010903822258114815,-0.00735704367980361,-0.01869160868227482,0.0030034868977963924,-0.008603167720139027
0.01537568960338831,0.011769039556384087,-0.007199050392955542,-0.019193338230252266,0.0029082009568810463,-0.009426090866327286
0.015196657739579678,0.011867355555295944,-0.007865292951464653,-0.018835870549082756,0.003146654926240444,-0.009667492471635342
0.014979485422372818,0.011476453393697739,-0.007598881609737873,-0.019070032984018326,0.0033460448030382395,-0.00930190458893776
0.015150927007198334,0.01150579284876585,-0.00751085439696908,-0.01950065977871418,0.0032988088205456734,-0.009595902636647224
0.015810593962669373,0.010816586203873158,-0.007046408019959927,-0.01901063323020935,0.0030419006943702698,-0.010380323976278305
0.01572822779417038,0.011318119242787361,-0.007930119521915913,-0.018884705379605293,0.0027377221267670393,-0.009946594946086407
0.015552684664726257,0.01132808718830347,-0.007454031612724066,-0.019555876031517982,0.0024810798931866884,-0.010021138936281204
0.015187851153314114,0.011819017119705677,-0.0070646400563418865,-0.019535964354872704,0.002431291388347745,-0.009996337816119194
0.015737170353531837,0.01195954903960228,-0.006874783895909786,-0.019390858709812164,0.0022993648890405893,-0.009901943616569042
0.015216536819934845,0.011166197247803211,-0.00749733904376626,-0.02001056633889675,0.0025382619351148605,-0.010320106521248817
0.01578112691640854,0.011914722621440887,-0.007673733402043581,-0.019529307261109352,0.00291998079046607,-0.010405543260276318
0.01533281709998846,0.011606834828853607,-0.006735801696777344,-0.019200019538402557,0.002874920843169093,-0.010388657450675964
0.016051409766077995,0.011961933225393295,-0.006675252225250006,-0.021485107019543648,0.0029071138706058264,-0.009949327446520329
0.015388205647468567,0.011526461690664291,-0.007399312220513821,-0.02042410336434841,0.0030274202581495047,-0.010671469382941723
0.015848521143198013,0.011224173940718174,-0.0077329473569989204,-0.01945895329117775,0.003143124748021364,-0.010588622651994228
0.015541673637926579,0.011796964332461357,-0.006900963373482227,-0.0197144728153944,0.003617342794314027,-0.010043347254395485
0.01604950614273548,0.011639714241027832,-0.0077149709686636925,-0.019001998007297516,0.0032442016527056694,-0.010539080947637558
0.015498851425945759,0.011838379316031933,-0.007438450586050749,-0.019662704318761826,0.0030233128927648067,-0.010366804897785187
0.016045892611145973,0.011772014200687408,-0.006968798115849495,-0.020028647035360336,0.003007355611771345,-0.010531987063586712
0.01565008983016014,0.012349795550107956,-0.007200343068689108,-0.020554669201374054,0.0031230184249579906,-0.010917474515736103
0.016093043610453606,0.011537264101207256,-0.008069565519690514,-0.02032516896724701,0.0031798777636140585,-0.011002903804183006
0.015773773193359375,0.011813754215836525,-0.007623405661433935,-0.020401690155267715,0.003308542538434267,-0.01091117225587368
0.01581818237900734,0.011648421175777912,-0.007169793825596571,-0.020319364964962006,0.003303605131804943,-0.010889670811593533
0.01581818237900734,0.011648421175777912,-0.007169793825596571,-0.020319364964962006,0.003303605131804943,-0.010889670811593533
0.01583462953567505,0.011580642312765121,-0.007120843976736069,-0.020925749093294144,0.0032923156395554543,-0.01036851666867733
0.016372529789805412,0.011888617649674416,-0.007581404410302639,-0.02122780680656433,0.0030548947397619486,-0.009900789707899094
0.016399413347244263,0.011651272885501385,-0.007371331565082073,-0.02064288966357708,0.0030650808475911617,-0.010375208221375942
0.01581675373017788,0.012342531234025955,-0.007198182865977287,-0.019960764795541763,0.003292371053248644,-0.010265354998409748
0.01441673468798399,0.012051579542458057,-0.007292739115655422,-0.020374508574604988,0.0031923227943480015,-0.010850729420781136
0.016981154680252075,0.012101417407393456,-0.007980846799910069,-0.020839663222432137,0.003097614971920848,-0.010965375229716301
0.017141353338956833,0.01238071359694004,-0.008215727284550667,-0.020514657720923424,0.0029301419854164124,-0.010268114507198334
0.016347214579582214,0.011739660054445267,-0.007177290506660938,-0.020674459636211395,0.003074121428653598,-0.010687955655157566
0.016889089718461037,0.012369121424853802,-0.00707229832187295,-0.02091566100716591,0.003236159449443221,-0.011192524805665016
0.01690508797764778,0.012270481325685978,-0.008127584122121334,-0.0205607358366251,0.0035832358989864588,-0.01097427774220705
0.016684003174304962,0.012269156984984875,-0.007532461080700159,-0.020280247554183006,0.003386191325262189,-0.011411340907216072
0.017578082159161568,0.011872340925037861,-0.007326591294258833,-0.020701507106423378,0.00354133453220129,-0.011782540008425713
0.017012320458889008,0.011840328574180603,-0.007993437349796295,-0.020824601873755455,0.0033507707994431257,-0.011496951803565025
0.01666373759508133,0.012156454846262932,-0.007908356375992298,-0.02042292058467865,0.003471619915217161,-0.011074193753302097
0.017066560685634613,0.01182628609240055,-0.007632246240973473,-0.020540351048111916,0.0036395923234522343,-0.011313432827591896
0.01773058995604515,0.012980633415281773,-0.007120538968592882,-0.021237239241600037,0.0036689217668026686,-0.011596502736210823
0.018077021464705467,0.012102440930902958,-0.007345240097492933,-0.021226562559604645,0.0036760943476110697,-0.012389641255140305
0.01741080731153488,0.0118956184014678,-0.007622826378792524,-0.021284230053424835,0.00341718178242445,-0.012237739749252796
0.018119364976882935,0.012601363472640514,-0.0074917892925441265,-0.02166113071143627,0.003321204101666808,-0.01259149145334959
0.01744764670729637,0.011757575906813145,-0.007366092875599861,-0.02174297720193863,0.0033966898918151855,-0.012156066484749317
0.01818811520934105,0.012405372224748135,-0.007722960785031319,-0.02187587320804596,0.0031405396293848753,-0.012182509526610374
0.018064744770526886,0.012509241700172424,-0.007231442257761955,-0.02162700518965721,0.003448227886110544,-0.01206010952591896
0.017919855192303658,0.0123537452891469,-0.006991979666054249,-0.021990125998854637,0.0035645465832203627,-0.012595556676387787
0.018039196729660034,0.01241997443139553,-0.007205580361187458,-0.022227825596928596,0.0034711367916315794,-0.01192992739379406
0.017858728766441345,0.012439576908946037,-0.007813488133251667,-0.02246955782175064,0.0032825940288603306,-0.012122491374611855
0.0181503277271986,0.011960813775658607,-0.007489463314414024,-0.022603465244174004,0.003259513061493635,-0.012582169845700264
0.0183664932847023,0.012444098480045795,-0.007146729156374931,-0.02266177348792553,0.003456837497651577,-0.012710795737802982
0.0183664932847023,0.012444098480045795,-0.007146729156374931,-0.02266177348792553,0.003456837497651577,-0.012710795737802982
0.018665028735995293,0.011974113062024117,-0.007362453266978264,-0.023023420944809914,0.0036583999171853065,-0.012661002576351166
0.018702076748013496,0.012193193659186363,-0.007587275933474302,-0.023047519847750664,0.0036852171178907156,-0.012582046911120415
0.018926875665783882,0.011919352225959301,-0.007256881799548864,-0.023573189973831177,0.0035765902139246464,-0.012608672492206097
0.018137359991669655,0.011578538455069065,-0.007140208967030048,-0.0237366184592247,0.003330396255478263,-0.012558509595692158
0.01852397434413433,0.012220299802720547,-0.007477482780814171,-0.02332334965467453,0.0035212915390729904,-0.011587562970817089
0.01907394267618656,0.011700766161084175,-0.007518618367612362,-0.02354835346341133,0.003755773650482297,-0.012816671282052994
0.01897442899644375,0.01192483026534319,-0.007171992212533951,-0.024135733023285866,0.004273678176105022,-0.013620045967400074
0.019526557996869087,0.011754975654184818,-0.007146453019231558,-0.024859068915247917,0.004250049125403166,-0.013013702817261219
0.019305959343910217,0.012086731381714344,-0.00743083655834198,-0.024993188679218292,0.003847610205411911,-0.013122733682394028
0.018694143742322922,0.012426548637449741,-0.007367318030446768,-0.02394142933189869,0.0035291980020701885,-0.01300807949155569
0.019642921164631844,0.012408250942826271,-0.007013804744929075,-0.022881735116243362,0.0033204916398972273,-0.012921465560793877
0.019807711243629456,0.012995118275284767,-0.007409484591335058,-0.02342028170824051,0.0035280154552310705,-0.012705930508673191
0.019231900572776794,0.012127717025578022,-0.007779534440487623,-0.024324724450707436,0.00384316174313426,-0.013206626288592815
0.019741524010896683,0.012400301173329353,-0.00792402308434248,-0.024932723492383957,0.0041585504077374935,-0.01350258570164442
0.01982431672513485,0.012387615628540516,-0.007052258588373661,-0.02420203946530819,0.004626675043255091,-0.013808767311275005
0.0193061213940382,0.01255510188639164,-0.006634925492107868,-0.024239927530288696,0.004218918737024069,-0.013969210907816887
0.01981183886528015,0.012537195347249508,-0.006774206645786762,-0.024319540709257126,0.003554621944203973,-0.013894040137529373
0.019909605383872986,0.011959318071603775,-0.007451354991644621,-0.024837786331772804,0.003302263095974922,-0.014091569930315018
0.020781949162483215,0.012496409006416798,-0.007174062076956034,-0.0244649276137352,0.00341723277233541,-0.013913050293922424
0.02021150104701519,0.012109130620956421,-0.006861346773803234,-0.023479022085666656,0.0037995462771505117,-0.014048132114112377
0.02033282071352005,0.012223142199218273,-0.006712491158396006,-0.02391129732131958,0.0042559304274618626,-0.014048147015273571
0.02060125209391117,0.0123245008289814,-0.00712919607758522,-0.02499287761747837,0.004108835943043232,-0.0141923688352108
0.02031209133565426,0.012364080175757408,-0.007483568973839283,-0.02557133138179779,0.004006893374025822,-0.014194810763001442
0.02069246582686901,0.012305894866585732,-0.0070740594528615475,-0.025498375296592712,0.004035123623907566,-0.01454038918018341
0.020902229472994804,0.012128513306379318,-0.007363047916442156,-0.02561461552977562,0.0038883397355675697,-0.01463861484080553
0.020943600684404373,0.011819309554994106,-0.007586106192320585,-0.025981329381465912,0.003833449212834239,-0.014742771163582802
0.021450549364089966,0.011720837093889713,-0.00756433792412281,-0.025909215211868286,0.0038853639271110296,-0.014810212887823582
0.02115986868739128,0.012510965578258038,-0.006693283561617136,-0.025726526975631714,0.004228466656059027,-0.014718392863869667
0.020734483376145363,0.012069596908986568,-0.006742932368069887,-0.026233002543449402,0.0047246855683624744,-0.014983311295509338
0.020734483376145363,0.012069596908986568,-0.006742932368069887,-0.026233002543449402,0.0047246855683624744,-0.014983311295509338
0.021193619817495346,0.01234617829322815,-0.007483344059437513,-0.02616279013454914,0.004437054041773081,-0.01481050904840231
0.02110382355749607,0.0117644676938653,-0.0068336063995957375,-0.025959009304642677,0.004502176772803068,-0.015085237100720406
0.021093953400850296,0.012097570113837719,-0.006786263082176447,-0.02562687173485756,0.004421633668243885,-0.014843582175672054
0.020526262000203133,0.012372947297990322,-0.007278280798345804,-0.02568088099360466,0.004059716127812862,-0.01497834175825119
0.021416855975985527,0.011380385607481003,-0.007579216733574867,-0.026089854538440704,0.003915796056389809,-0.014871684834361076
0.02172245644032955,0.01235946174710989,-0.007508890237659216,-0.026445766910910606,0.003947768360376358,-0.014857715927064419
0.02129657194018364,0.012027558870613575,-0.006939415819942951,-0.02615853026509285,0.004009731113910675,-0.015235709957778454
0.021206263452768326,0.012317853048443794,-0.00667724059894681,-0.026824068278074265,0.004497340880334377,-0.01521940715610981
0.02169046737253666,0.011781923472881317,-0.007018435746431351,-0.02726292796432972,0.004747908096760511,-0.015421661548316479
0.02166767418384552,0.012065250426530838,-0.0072738551534712315,-0.027400804683566093,0.004579692147672176,-0.015644004568457603
0.021694118157029152,0.011968156322836876,-0.007187318056821823,-0.027279291301965714,0.004275338724255562,-0.015644626691937447
0.021918244659900665,0.01156668271869421,-0.006982818711549044,-0.02708244137465954,0.0039041354320943356,-0.015623127110302448
0.022281641140580177,0.012217624112963676,-0.007330238353461027,-0.027372440323233604,0.0037612970918416977,-0.01563647948205471
0.022015009075403214,0.011638722382485867,-0.00716013228520751,-0.0275574903935194,0.004139298107475042,-0.01538737490773201
0.0220841895788908,0.012125829234719276,-0.0069081163965165615,-0.027095625177025795,0.004205687437206507,-0.015773717314004898
0.022246388718485832,0.012024683877825737,-0.0071504367515444756,-0.027125567197799683,0.004498045425862074,-0.01616382598876953
0.02225976623594761,0.011979106813669205,-0.0075140418484807014,-0.02714693360030651,0.004701111000031233,-0.016362041234970093
0.022927813231945038,0.012003801763057709,-0.007054496556520462,-0.026895781978964806,0.004389842506498098,-0.015803683549165726
0.02319624088704586,0.011575422249734402,-0.0072352089919149876,-0.027276836335659027,0.004302998539060354,-0.015713205561041832
0.02216447703540325,0.012012659572064877,-0.007563103921711445,-0.02784750796854496,0.0041062673553824425,-0.015196557156741619
0.01999145746231079,0.0122150257229805,-0.007708906661719084,-0.027913307771086693,0.003904052311554551,-0.01569555141031742
0.023121384903788567,0.011731165461242199,-0.007717526983469725,-0.02651878632605076,0.004654629621654749,-0.016575012356042862
0.02321057766675949,0.011880557052791119,-0.007305642124265432,-0.026220401749014854,0.005131721030920744,-0.01652534492313862
0.022861892357468605,0.011834085918962955,-0.007048184983432293,-0.027357153594493866,0.0047872839495539665,-0.01593095064163208
0.02297946810722351,0.011567017063498497,-0.0075089107267558575,-0.027775701135396957,0.003896367968991399,-0.016024664044380188
0.02307223714888096,0.01182570867240429,-0.007281683385372162,-0.028558239340782166,0.0037516893353313208,-0.015363537706434727
0.02307223714888096,0.01182570867240429,-0.007281683385372162,-0.028558239340782166,0.0037516893353313208,-0.015363537706434727
0.023206394165754318,0.012065409682691097,-0.007262847851961851,-0.029253661632537842,0.004249607212841511,-0.01502994354814291
0.02273816242814064,0.011627180501818657,-0.007528340443968773,-0.02856471762061119,0.004547516815364361,-0.015410643070936203
0.022586945444345474,0.012093516066670418,-0.007682435214519501,-0.027263129130005836,0.004865716677159071,-0.015684673562645912
0.022317444905638695,0.011759978719055653,-0.007251757197082043,-0.02760540135204792,0.0048303077928721905,-0.016194894909858704
0.023014383390545845,0.01160835288465023,-0.00711978180333972,-0.028787409886717796,0.004806247539818287,-0.01630602404475212
0.023655027151107788,0.011624249629676342,-0.007724267430603504,-0.02920450083911419,0.004606943111866713,-0.01624196022748947
0.023017114028334618,0.011279676109552383,-0.007798501756042242,-0.02966666966676712,0.004323412198573351,-0.016238916665315628
0.023136643692851067,0.011336141265928745,-0.007586153224110603,-0.029912730678915977,0.004500061739236116,-0.016830924898386
0.023276720196008682,0.011517052538692951,-0.007143733557313681,-0.030002782121300697,0.004526311066001654,-0.017033446580171585
0.023304108530282974,0.011807044968008995,-0.00788663886487484,-0.030052026733756065,0.004828546661883593,-0.016979219391942024
0.023548727855086327,0.011938894167542458,-0.007934553548693657,-0.03006257489323616,0.004864379297941923,-0.01665366441011429
0.02321390062570572,0.011454719118773937,-0.008002260699868202,-0.030352424830198288,0.004800093825906515,-0.016140414401888847
0.023348452523350716,0.01196655910462141,-0.007868633605539799,-0.029977506026625633,0.004221280105412006,-0.016490468755364418
0.02333962358534336,0.011381183750927448,-0.007947430945932865,-0.030021686106920242,0.0040769753977656364,-0.016129272058606148
0.02370944432914257,0.011683912947773933,-0.007205680012702942,-0.029981382191181183,0.004178091883659363,-0.01637008599936962
0.023844212293624878,0.011705230921506882,-0.007146740797907114,-0.030053652822971344,0.004789387807250023,-0.016657372936606407
0.024000559002161026,0.01145954430103302,-0.008151724934577942,-0.030078647658228874,0.005287117324769497,-0.01708107255399227
0.023587895557284355,0.01201619766652584,-0.007915263995528221,-0.02969801239669323,0.0054135858081281185,-0.017315490171313286
0.023377664387226105,0.011587020941078663,-0.007358475122600794,-0.029685968533158302,0.00463729165494442,-0.017193904146552086
0.02367287315428257,0.011377476155757904,-0.007272610440850258,-0.029790684580802917,0.003773629665374756,-0.017023567110300064
0.023844994604587555,0.011891012080013752,-0.007318510673940182,-0.03007555566728115,0.004016476683318615,-0.016972219571471214
0.02425340563058853,0.01138439029455185,-0.008037175051867962,-0.03028843365609646,0.004166438244283199,-0.017246894538402557
0.024121345952153206,0.011401254683732986,-0.007591633591800928,-0.03089473582804203,0.004836478270590305,-0.01718871109187603
0.0237826406955719,0.011106106452643871,-0.007445170544087887,-0.03227687254548073,0.004733531270176172,-0.017307108268141747
0.02232857421040535,0.011344785802066326,-0.007569882553070784,-0.030776260420680046,0.004637541715055704,-0.017854295670986176
0.024493157863616943,0.011280548758804798,-0.007541354279965162,-0.030767520889639854,0.00505936611443758,-0.01752723567187786
0.02456122636795044,0.010738867335021496,-0.007277946453541517,-0.03265770897269249,0.004907665308564901,-0.017854172736406326
0.02535078302025795,0.012073246762156487,-0.006747018080204725,-0.032622139900922775,0.004595187492668629,-0.017917972058057785
0.02483750320971012,0.011871804483234882,-0.006287826225161552,-0.031148504465818405,0.0043076276779174805,-0.01753881759941578
0.023766933009028435,0.011567451059818268,-0.006678334437310696,-0.032685864716768265,0.004652827512472868,-0.01795601099729538
0.024176834151148796,0.010816600173711777,-0.00677274726331234,-0.032629430294036865,0.005071783438324928,-0.0177262295037508
0.024176834151148796,0.010816600173711777,-0.00677274726331234,-0.032629430294036865,0.005071783438324928,-0.0177262295037508
0.025134475901722908,0.011231489479541779,-0.006653212010860443,-0.032592497766017914,0.005064586643129587,-0.017979729920625687
0.024821823462843895,0.011239731684327126,-0.0064170644618570805,-0.03351997956633568,0.005070613231509924,-0.017943209037184715
0.02507254108786583,0.011058795265853405,-0.006487345322966576,-0.033243339508771896,0.004669505171477795,-0.01776452176272869
0.025541890412569046,0.012310320511460304,-0.006513190921396017,-0.031135573983192444,0.004969011526554823,-0.018203485757112503
0.024948779493570328,0.011499679647386074,-0.006515352055430412,-0.031604740768671036,0.004854294937103987,-0.018156608566641808
0.024703774601221085,0.011910971254110336,-0.007169725839048624,-0.03241505101323128,0.0049092755652964115,-0.018267791718244553
0.02434907853603363,0.01171431876718998,-0.007032996974885464,-0.03230324760079384,0.004844865296036005,-0.018188735470175743
0.024738356471061707,0.011259162798523903,-0.006156046874821186,-0.03222266584634781,0.0047090002335608006,-0.017840197309851646
0.024656668305397034,0.011716841720044613,-0.006033157929778099,-0.032508041709661484,0.004572251345962286,-0.017822418361902237
0.02513469010591507,0.011175690218806267,-0.0062223393470048904,-0.032317716628313065,0.004689957946538925,-0.017890019342303276
0.025043711066246033,0.011879104189574718,-0.006646248511970043,-0.03241656720638275,0.004808702506124973,-0.018233686685562134
0.02540624514222145,0.011345398612320423,-0.006756908260285854,-0.032725390046834946,0.005210553295910358,-0.018223995342850685
0.024941090494394302,0.010905668139457703,-0.006120204925537109,-0.032330166548490524,0.005281941499561071,-0.018116455525159836
0.025046495720744133,0.011627431027591228,-0.0056528495624661446,-0.03208128362894058,0.005053340923041105,-0.01853272318840027
0.02494673617184162,0.011889128014445305,-0.00630049267783761,-0.03199794515967369,0.0050120884552598,-0.018503505736589432
0.025134393945336342,0.01169729232788086,-0.0070374757051467896,-0.03211749345064163,0.004978247918188572,-0.017937539145350456
0.025185927748680115,0.011551758274435997,-0.0067389607429504395,-0.031993318349123,0.004709241911768913,-0.017840851098299026
0.025320203974843025,0.011318343691527843,-0.005862636025995016,-0.03242035582661629,0.0048827603459358215,-0.018489964306354523
0.025296900421380997,0.011593557894229889,-0.005730527453124523,-0.032428961247205734,0.005156432744115591,-0.01871461234986782
0.025349600240588188,0.011634048074483871,-0.006304720416665077,-0.0328826941549778,0.004966882988810539,-0.01841844990849495
0.02529502660036087,0.01145140454173088,-0.006805005017668009,-0.03288830444216728,0.005408409982919693,-0.019160011783242226
0.025530297309160233,0.011623643338680267,-0.006369227077811956,-0.0325930155813694,0.005239398218691349,-0.01921628788113594
0.025536291301250458,0.01201484352350235,-0.0061514973640441895,-0.03246906399726868,0.004813057836145163,-0.017710303887724876
0.025355322286486626,0.01153186522424221,-0.006737107876688242,-0.032719943672418594,0.005228435155004263,-0.01834695413708687
0.025355322286486626,0.01153186522424221,-0.006737107876688242,-0.032719943672418594,0.005228435155004263,-0.01834695413708687
0.026335280388593674,0.011975727044045925,-0.006678042933344841,-0.033001843839883804,0.005217262543737888,-0.01954074203968048
0.026254968717694283,0.011300343088805676,-0.0061192880384624004,-0.03307907655835152,0.005699496250599623,-0.019812913611531258
0.025668947026133537,0.011023041792213917,-0.006164087913930416,-0.03334540128707886,0.005210690200328827,-0.01924627646803856
0.02573348581790924,0.011266669258475304,-0.006288729142397642,-0.033953070640563965,0.004911896772682667,-0.019213926047086716
0.026013603433966637,0.01126246526837349,-0.006822689436376095,-0.034643467515707016,0.005343359895050526,-0.019354460760951042
0.0259634368121624,0.01176291424781084,-0.0064214980229735374,-0.033448636531829834,0.005167574156075716,-0.0199748408049345
0.025972243398427963,0.012254273518919945,-0.006470021791756153,-0.03308502584695816,0.005263989325612783,-0.02000955492258072
0.02527206763625145,0.011575838550925255,-0.006277520675212145,-0.03482364863157272,0.005181835498660803,-0.01907266676425934
0.026158947497606277,0.011832513846457005,-0.006760531570762396,-0.034515976905822754,0.0051085809245705605,-0.018775807693600655
0.02604159526526928,0.011708592064678669,-0.00699613569304347,-0.034656133502721786,0.004837069194763899,-0.018909702077507973
0.026267852634191513,0.012425253167748451,-0.006752561777830124,-0.03540699928998947,0.00476909289136529,-0.019199324771761894
0.026700034737586975,0.011724844574928284,-0.006486082915216684,-0.0339781679213047,0.005115132313221693,-0.019407792016863823
0.025989674031734467,0.01165953278541565,-0.006409808062016964,-0.03345762938261032,0.005238433368504047,-0.019842274487018585
0.026407737284898758,0.012321594171226025,-0.006960941478610039,-0.03512278571724892,0.00500171072781086,-0.01952388323843479
0.02648877538740635,0.011931577697396278,-0.007119942922145128,-0.035443998873233795,0.004809301812201738,-0.01936251111328602
0.025994205847382545,0.012675105594098568,-0.007002844475209713,-0.03520311415195465,0.004717493895441294,-0.019256867468357086
0.02606322430074215,0.012479531578719616,-0.006272971164435148,-0.03541151061654091,0.00490867905318737,-0.019294820725917816
0.026340583339333534,0.012187669984996319,-0.006369605660438538,-0.03584543988108635,0.004826502408832312,-0.019329477101564407
0.02660761959850788,0.012462043203413486,-0.007278685923665762,-0.035468000918626785,0.005287419073283672,-0.01965188980102539
0.027237802743911743,0.012072104029357433,-0.006969057489186525,-0.035648420453071594,0.005293323192745447,-0.019459523260593414
0.027152255177497864,0.012550853192806244,-0.006296543870121241,-0.03556286171078682,0.005123969167470932,-0.019472748041152954
0.02593834511935711,0.01191872451454401,-0.006210101302713156,-0.03559768944978714,0.005018592346459627,-0.01952781341969967
0.026573408395051956,0.011767483316361904,-0.007172612473368645,-0.0357743576169014,0.0050654602237045765,-0.019612830132246017
0.02778012491762638,0.01181615237146616,-0.006895231548696756,-0.036025453358888626,0.005640112329274416,-0.019537262618541718
0.02739226445555687,0.01242148969322443,-0.006159560289233923,-0.036794498562812805,0.005844613537192345,-0.01971481554210186
0.028030307963490486,0.012147066183388233,-0.006287803873419762,-0.03676341474056244,0.005451406352221966,-0.019546005874872208
0.027816075831651688,0.012581405229866505,-0.007116464897990227,-0.03745913878083229,0.004993688780814409,-0.01993081159889698
0.027816075831651688,0.012581405229866505,-0.007116464897990227,-0.03745913878083229,0.004993688780814409,-0.01993081159889698
0.02781737595796585,0.012081543914973736,-0.006722256541252136,-0.03708339482545853,0.0052828118205070496,-0.02041766233742237
0.027631131932139397,0.012066930532455444,-0.006473643239587545,-0.03737699240446091,0.0051477225497365,-0.020157204940915108
0.02706465870141983,0.011995426379144192,-0.0063483826816082,-0.03786729276180267,0.005279707256704569,-0.020202673971652985
0.02795947901904583,0.011783493682742119,-0.007194025907665491,-0.03815869987010956,0.005688536446541548,-0.021664662286639214
0.028456460684537888,0.012735866941511631,-0.0069615598767995834,-0.037072908133268356,0.005581370089203119,-0.02030058577656746
0.026589613407850266,0.011928901076316833,-0.006311334669589996,-0.037755824625492096,0.005682345014065504,-0.019640693441033363
0.027976099401712418,0.012354097329080105,-0.006308574695140123,-0.03792998194694519,0.005337483715265989,-0.020031211897730827
0.028335431590676308,0.012046503834426403,-0.006862111389636993,-0.03905737027525902,0.0053170789033174515,-0.020110750570893288
0.028299272060394287,0.012206239625811577,-0.006800360046327114,-0.03947653993964195,0.005375632084906101,-0.02043096348643303
0.02767946943640709,0.012504072859883308,-0.0063425772823393345,-0.03785441070795059,0.005461524240672588,-0.02088179998099804
0.02798999659717083,0.012115543708205223,-0.006050337105989456,-0.03687279671430588,0.0052627939730882645,-0.020713957026600838
0.028448278084397316,0.012553328648209572,-0.006592770107090473,-0.038122422993183136,0.0056440699845552444,-0.020924100652337074
0.028333691880106926,0.012182986363768578,-0.006818266585469246,-0.03829969838261604,0.005436623003333807,-0.021014656871557236
0.028087712824344635,0.012406785972416401,-0.006634924095124006,-0.03780762106180191,0.005834122188389301,-0.0210561566054821
0.0286567322909832,0.012221110053360462,-0.006213362328708172,-0.03746412321925163,0.005530828144401312,-0.021024759858846664
0.028994686901569366,0.012415704317390919,-0.006516844499856234,-0.03722666576504707,0.005728301592171192,-0.021073905751109123
0.028595782816410065,0.012739481404423714,-0.006616469472646713,-0.03755847364664078,0.005789843387901783,-0.021062633022665977
0.02882234938442707,0.012335334904491901,-0.0071677216328680515,-0.037651002407073975,0.005682649556547403,-0.020845133811235428
0.02889915741980076,0.01302764005959034,-0.006437967997044325,-0.03708618879318237,0.005284540820866823,-0.020665843039751053
0.02985609695315361,0.012588372454047203,-0.006384002044796944,-0.03728150948882103,0.005664343945682049,-0.020534472540020943
0.03039318509399891,0.013049506582319736,-0.0062755681574344635,-0.03753534331917763,0.005454652942717075,-0.02044721320271492
0.029642850160598755,0.012768969871103764,-0.007080674637109041,-0.03762643411755562,0.005862407851964235,-0.020490171387791634
0.03009868413209915,0.01270525623112917,-0.006117736920714378,-0.03802436590194702,0.005687194410711527,-0.02155550941824913
0.03071875125169754,0.012443351559340954,-0.006530314218252897,-0.03816007822751999,0.00527018029242754,-0.021806539967656136
0.02974657528102398,0.013071664609014988,-0.006624584086239338,-0.03922012448310852,0.005369833670556545,-0.0210812259465456
0.03094377927482128,0.012720956467092037,-0.006781767588108778,-0.039616167545318604,0.005499635823071003,-0.02059886045753956
0.0310727059841156,0.013248076662421227,-0.006576912011951208,-0.03974470868706703,0.006046872120350599,-0.020731115713715553
0.03142886236310005,0.012593601830303669,-0.00664594816043973,-0.04049566388130188,0.006078246980905533,-0.021094534546136856
0.03142886236310005,0.012593601830303669,-0.00664594816043973,-0.04049566388130188,0.006078246980905533,-0.021094534546136856
0.02950459159910679,0.013428792357444763,-0.006615860853344202,-0.040461067110300064,0.006101877894252539,-0.0212256982922554
0.02962471917271614,0.01306272391229868,-0.00678719487041235,-0.040447551757097244,0.0063331034034490585,-0.021615788340568542
0.031206468120217323,0.014891667291522026,-0.006582863163203001,-0.04115288704633713,0.006065421737730503,-0.021365510299801826
0.030597388744354248,0.013041975907981396,-0.0063290707767009735,-0.04271991550922394,0.006375388242304325,-0.021551892161369324
0.029732659459114075,0.013465601950883865,-0.00599734578281641,-0.0413920059800148,0.005825259257107973,-0.021871307864785194
0.030640626326203346,0.013186031021177769,-0.0062615834176540375,-0.039728034287691116,0.0056956191547214985,-0.021890640258789062
0.03027699887752533,0.012434340082108974,-0.006606302689760923,-0.0414576381444931,0.006298561114817858,-0.02167207933962345
0.03034132719039917,0.012644265778362751,-0.006333128083497286,-0.04092036932706833,0.006308248732239008,-0.021538935601711273
0.030205171555280685,0.012843490578234196,-0.005911511834710836,-0.04208758845925331,0.006341711152344942,-0.021320976316928864
0.030445976182818413,0.012860866263508797,-0.006064502522349358,-0.04225882142782211,0.006237150635570288,-0.02122640609741211
0.030566716566681862,0.012732982635498047,-0.0065000043250620365,-0.04053987190127373,0.0061738984659314156,-0.021451156586408615
0.03059670515358448,0.013361400924623013,-0.00642178300768137,-0.04126531258225441,0.005886629689484835,-0.02251632697880268
0.03098980523645878,0.012767164967954159,-0.006148287560790777,-0.04261092469096184,0.005401359871029854,-0.02215183898806572
0.03107282519340515,0.012710378505289555,-0.006193258799612522,-0.04229133948683739,0.00577680254355073,-0.02202724479138851
0.031119195744395256,0.012942986562848091,-0.00584668293595314,-0.041894543915987015,0.005820862017571926,-0.022171417251229286
0.03133205696940422,0.012537721544504166,-0.006275712978094816,-0.042399048805236816,0.005802951753139496,-0.022444700822234154
0.031084349378943443,0.01304730772972107,-0.006799825467169285,-0.04225149378180504,0.005886964499950409,-0.02271469309926033
0.03146209940314293,0.012446194887161255,-0.006323672365397215,-0.04281872883439064,0.005346345249563456,-0.022696176543831825
0.030834674835205078,0.012960544787347317,-0.006111824885010719,-0.04187898337841034,0.00580111937597394,-0.022791048511862755
0.030473435297608376,0.01274779625236988,-0.005546417087316513,-0.04166855663061142,0.005534044466912746,-0.022624218836426735
0.031233781948685646,0.01274348609149456,-0.006899246014654636,-0.04166803136467934,0.006036063190549612,-0.022306054830551147
0.030656728893518448,0.013076220639050007,-0.006142437923699617,-0.04092779383063316,0.006019387394189835,-0.02240513265132904
0.031034259125590324,0.012789124622941017,-0.005793025717139244,-0.04143700748682022,0.006160370074212551,-0.022875836119055748
0.031135862693190575,0.012649277225136757,-0.0060274312272667885,-0.04375632107257843,0.006012366618961096,-0.023203181102871895
0.031140200793743134,0.01299998164176941,-0.006063858047127724,-0.04230440780520439,0.006479303352534771,-0.02281666360795498
0.030994633212685585,0.012854707427322865,-0.00635613314807415,-0.04054012894630432,0.006951117422431707,-0.0226959977298975
0.03153841197490692,0.013488528318703175,-0.006173319648951292,-0.04087718203663826,0.006176589522510767,-0.023070765659213066
0.031124228611588478,0.013113989494740963,-0.006070636212825775,-0.041005492210388184,0.0058645447716116905,-0.023047905415296555
0.030867090448737144,0.013218656182289124,-0.0060691507533192635,-0.04139286279678345,0.006132384296506643,-0.023240381851792336
0.030867090448737144,0.013218656182289124,-0.0060691507533192635,-0.04139286279678345,0.006132384296506643,-0.023240381851792336
0.031277041882276535,0.012856762856245041,-0.006914619822055101,-0.04180894419550896,0.006293420679867268,-0.02338188886642456
0.03038928098976612,0.013452447019517422,-0.006817596964538097,-0.03998794034123421,0.006138805765658617,-0.02327173762023449
0.03107462264597416,0.012998304329812527,-0.006103347986936569,-0.04015408083796501,0.00601666746661067,-0.02299199253320694
0.031659405678510666,0.012832987122237682,-0.006196203641593456,-0.04194103926420212,0.005510952789336443,-0.0229441337287426
0.03130956366658211,0.012810437008738518,-0.006204458884894848,-0.0416451059281826,0.0058149294927716255,-0.02396184578537941
0.029983580112457275,0.01265146117657423,-0.006565446965396404,-0.04187483713030815,0.006403046194463968,-0.02473926544189453
0.030155861750245094,0.01332339458167553,-0.0062995003536343575,-0.04194657504558563,0.006263022311031818,-0.024543393403291702
0.031191032379865646,0.013118562288582325,-0.00589543953537941,-0.04232527315616608,0.0064324731938540936,-0.02366892620921135
0.030923305079340935,0.01380773726850748,-0.005801872815936804,-0.04254543036222458,0.0065886275842785835,-0.022330453619360924
0.031513944268226624,0.012516291812062263,-0.0061720204539597034,-0.04265664517879486,0.0061929249204695225,-0.023023108020424843
0.032456010580062866,0.013198314234614372,-0.007192953024059534,-0.04269350320100784,0.00642839539796114,-0.02427755482494831
0.031751345843076706,0.013082909397780895,-0.006379629019647837,-0.042731087654829025,0.0063558355905115604,-0.0245333481580019
0.030517492443323135,0.01335130911320448,-0.006234914995729923,-0.04308817535638809,0.006116772536188364,-0.023787640035152435
0.031074954196810722,0.013359039090573788,-0.005709508899599314,-0.04321916028857231,0.006062719970941544,-0.024249626323580742
0.032131094485521317,0.01314991433173418,-0.006205510348081589,-0.04317644238471985,0.00625686114653945,-0.02521597035229206
0.03186958283185959,0.013439572416245937,-0.006790684070438147,-0.043982818722724915,0.007021299097687006,-0.024507980793714523
0.03173229843378067,0.013399265706539154,-0.006664396729320288,-0.04339785501360893,0.006534316577017307,-0.023687677457928658
0.03211073949933052,0.013806956820189953,-0.006169482134282589,-0.04377538338303566,0.006246290635317564,-0.02374175563454628
0.03233647719025612,0.01327128428965807,-0.005777235142886639,-0.043555229902267456,0.005943287629634142,-0.024306833744049072
0.03233784809708595,0.013297634199261665,-0.006343720946460962,-0.043967247009277344,0.00597574096173048,-0.025204092264175415
0.032740551978349686,0.0135057857260108,-0.006333346478641033,-0.04413041099905968,0.006711829919368029,-0.02443997748196125
0.03189346194267273,0.013166582211852074,-0.005936985369771719,-0.044863469898700714,0.006448280066251755,-0.024708040058612823
0.032267287373542786,0.013539699837565422,-0.005901628639549017,-0.04570454731583595,0.006320353131741285,-0.02437341958284378
0.03271351382136345,0.013314133509993553,-0.00695660337805748,-0.044272881001234055,0.006339312996715307,-0.024880340322852135
0.032734718173742294,0.01343050878494978,-0.006415751297026873,-0.04398420453071594,0.006222609430551529,-0.024677200242877007
0.03393096104264259,0.013304910622537136,-0.005816075950860977,-0.044721342623233795,0.006535521242767572,-0.024374617263674736
0.03417518734931946,0.013258306309580803,-0.006305794231593609,-0.04610035568475723,0.006632394157350063,-0.024888580664992332
0.03417518734931946,0.013258306309580803,-0.006305794231593609,-0.04610035568475723,0.006632394157350063,-0.024888580664992332
0.03240155801177025,0.013336275704205036,-0.007049449719488621,-0.047099519520998,0.006537050474435091,-0.024787303060293198
0.032414503395557404,0.013577023521065712,-0.006941183935850859,-0.044190093874931335,0.006396227050572634,-0.024972768500447273
0.03387698531150818,0.013642504811286926,-0.0061457292176783085,-0.04476328194141388,0.0064446278847754,-0.024924976751208305
