davideferrari95/blind_handover_controller/data/Test 172 - [2024-02-08 -- 11-13-43]/joint_states_data.csv
shoulder_pan_joint,shoulder_lift_joint,elbow_joint,wrist_1_joint,wrist_2_joint,wrist_3_joint
0.007738164160400629,-0.027486447244882584,-0.005736075807362795,0.021124202758073807,-0.01005716621875763,0.006918946281075478
0.007738164160400629,-0.027486447244882584,-0.005736075807362795,0.021124202758073807,-0.01005716621875763,0.006918946281075478
0.007738164160400629,-0.027486447244882584,-0.005736075807362795,0.021124202758073807,-0.01005716621875763,0.006918946281075478
0.0074879941530525684,-0.027995876967906952,-0.006775202229619026,0.021503334864974022,-0.009977067820727825,0.006364164873957634
0.00745914364233613,-0.028092047199606895,-0.00669065210968256,0.02224777638912201,-0.009349614381790161,0.006051465403288603
0.008102411404252052,-0.027020886540412903,-0.006043624132871628,0.02241947129368782,-0.009736943058669567,0.005897407419979572
0.007209171075373888,-0.026172883808612823,-0.0060941423289477825,0.022277044132351875,-0.010459957644343376,0.006051746197044849
0.007296532858163118,-0.025838380679488182,-0.007074574939906597,0.022499648854136467,-0.008998098783195019,0.006519850343465805
0.0077389562502503395,-0.02680063806474209,-0.007764345500618219,0.022992057725787163,-0.00845631118863821,0.006372043397277594
0.007739456370472908,-0.026624470949172974,-0.007063447963446379,0.02323245443403721,-0.00869903713464737,0.005781048443168402
0.006621276959776878,-0.02611658349633217,-0.006537015084177256,0.023229962214827538,-0.008163389749825,0.005758142564445734
0.006455353461205959,-0.026115460321307182,-0.007036814000457525,0.023137081414461136,-0.007867573760449886,0.0057199494913220406
0.007065349258482456,-0.02644253708422184,-0.007674495689570904,0.02311967872083187,-0.007749239448457956,0.006344038061797619
0.006940102204680443,-0.02633201889693737,-0.008007732219994068,0.02344924584031105,-0.0079228226095438,0.005901990458369255
0.0068320720456540585,-0.026333732530474663,-0.007684231270104647,0.024024970829486847,-0.007767939940094948,0.005748631898313761
0.006431159563362598,-0.026193767786026,-0.00760256964713335,0.023847702890634537,-0.007240130100399256,0.00593219930306077
0.006475537084043026,-0.025995999574661255,-0.008166718296706676,0.022981690242886543,-0.006751171313226223,0.005556667689234018
0.006746204569935799,-0.026219798251986504,-0.007811722345650196,0.022142183035612106,-0.007212532684206963,0.005845821928232908
0.006406690925359726,-0.02634459175169468,-0.007404576521366835,0.02321305125951767,-0.007332846522331238,0.0058133564889431
0.006152132526040077,-0.026082754135131836,-0.007619213778525591,0.02429826185107231,-0.007012910209596157,0.0054662697948515415
0.006129099056124687,-0.025911660864949226,-0.007870014756917953,0.023966068401932716,-0.0070233698934316635,0.005481726955622435
0.006739433389157057,-0.025555741041898727,-0.008068696595728397,0.023832911625504494,-0.006560100242495537,0.005862333346158266
0.006243076641112566,-0.02603631466627121,-0.008501400239765644,0.023917151615023613,-0.006952244322746992,0.006213827524334192
0.006228853017091751,-0.025830939412117004,-0.008092230185866356,0.02422460913658142,-0.006971363443881273,0.006066582631319761
0.005890220869332552,-0.026166528463363647,-0.008134176954627037,0.024003874510526657,-0.00693921186029911,0.00591866672039032
0.005868180189281702,-0.026190660893917084,-0.008107801899313927,0.024142662063241005,-0.0070077343843877316,0.0054367920383811
0.005868180189281702,-0.026190660893917084,-0.008107801899313927,0.024142662063241005,-0.0070077343843877316,0.0054367920383811
0.005921564064919949,-0.025639889761805534,-0.008456399664282799,0.02273586206138134,-0.006779819261282682,0.005475930869579315
0.006040504667907953,-0.02571106143295765,-0.008367890492081642,0.023062707856297493,-0.006470627151429653,0.006054139230400324
0.005476810969412327,-0.02589322067797184,-0.0080986013635993,0.024647030979394913,-0.0066559333354234695,0.0058838739059865475
0.005522235296666622,-0.025570545345544815,-0.008009465411305428,0.024795224890112877,-0.007358851842582226,0.005873383954167366
0.006419266574084759,-0.025580046698451042,-0.008242747746407986,0.024394456297159195,-0.007585051003843546,0.005586167331784964
0.0063103921711444855,-0.02543320134282112,-0.008340404368937016,0.024495242163538933,-0.007107154931873083,0.005767174065113068
0.005443282425403595,-0.02565835230052471,-0.007825057953596115,0.025073349475860596,-0.0065162950195372105,0.005958933848887682
0.005386915523558855,-0.025691945105791092,-0.008510312996804714,0.025146666914224625,-0.0064272042363882065,0.005806296598166227
0.005626976955682039,-0.025949064642190933,-0.008627287112176418,0.025292420759797096,-0.006193701643496752,0.006121674552559853
0.006265564821660519,-0.025606492534279823,-0.007880468852818012,0.025385232642292976,-0.006406942382454872,0.005643427837640047
0.005878283176571131,-0.02546956203877926,-0.008198516443371773,0.0258634015917778,-0.006602744106203318,0.004960095044225454
0.005757417529821396,-0.024999143555760384,-0.00842836033552885,0.026060694828629494,-0.006112809292972088,0.00487504992634058
0.0060225012712180614,-0.024968374520540237,-0.008068987168371677,0.02618895098567009,-0.0060453698970377445,0.00624236511066556
0.005501290317624807,-0.024891581386327744,-0.007425803225487471,0.026211198419332504,-0.006157091353088617,0.005772268399596214
0.005806978326290846,-0.02519490197300911,-0.006306302268058062,0.02630629949271679,-0.005498406942933798,0.005090974736958742
0.0052449763752520084,-0.024960551410913467,-0.006515382323414087,0.026580791920423508,-0.005802598316222429,0.004718900192528963
0.0052504525519907475,-0.025239253416657448,-0.006172196473926306,0.0260908342897892,-0.006153777241706848,0.004720717202872038
0.004972259979695082,-0.024398930370807648,-0.0064864265732467175,0.025417011231184006,-0.006547423079609871,0.005522957071661949
0.0050774021074175835,-0.024957267567515373,-0.006294634193181992,0.02528465911746025,-0.006261951755732298,0.005481378640979528
0.0055365548469126225,-0.024692855775356293,-0.006537194363772869,0.02562740072607994,-0.005770791321992874,0.005334024783223867
0.0057233902625739574,-0.024754058569669724,-0.006331121549010277,0.026352066546678543,-0.006438999902456999,0.005062542390078306
0.004685383755713701,-0.023850606754422188,-0.0063283126801252365,0.026046007871627808,-0.00677269883453846,0.005436694249510765
0.0035481522791087627,-0.02367434650659561,-0.006032361648976803,0.02667710743844509,-0.006183710414916277,0.005148680415004492
0.003370068734511733,-0.024116143584251404,-0.006653756834566593,0.026890099048614502,-0.005287135485559702,0.0048211002722382545
0.004172425251454115,-0.024774663150310516,-0.006804901175200939,0.02688516303896904,-0.0055228909477591515,0.005059469025582075
0.004172425251454115,-0.024774663150310516,-0.006804901175200939,0.02688516303896904,-0.0055228909477591515,0.005059469025582075
0.004814302548766136,-0.023500997573137283,-0.005937359295785427,0.027302335947752,-0.005573438014835119,0.004706854932010174
0.004515057895332575,-0.023739736527204514,-0.0059122201055288315,0.02685927413403988,-0.005855700932443142,0.005018190015107393
0.00391404191032052,-0.024418549612164497,-0.006789433304220438,0.02755984477698803,-0.005895121488720179,0.0050811851397156715
0.0036822310648858547,-0.024753166362643242,-0.006999634671956301,0.026045287027955055,-0.0052671367302536964,0.004848784301429987
0.0036545656621456146,-0.02326107583940029,-0.006431201938539743,0.026089977473020554,-0.004797505680471659,0.004594906698912382
0.0037531533744186163,-0.023029334843158722,-0.006421003025025129,0.025884345173835754,-0.005246548447757959,0.004575772676616907
0.0034063856583088636,-0.02290705405175686,-0.006720931734889746,0.026494663208723068,-0.005195231176912785,0.004780285060405731
0.003573416732251644,-0.023813430219888687,-0.007365475874394178,0.026601305231451988,-0.004975533578544855,0.004789997357875109
0.003778589889407158,-0.024751761928200722,-0.006999878212809563,0.02621505782008171,-0.004930030554533005,0.004789949394762516
0.0034419496078044176,-0.024640817195177078,-0.006636845413595438,0.026500508189201355,-0.0048188152723014355,0.004776601679623127
0.0034801564179360867,-0.02419441007077694,-0.00634800037369132,0.02765556052327156,-0.004505246412009001,0.004639425314962864
0.0036830876488238573,-0.02412870153784752,-0.0072856019251048565,0.027864020317792892,-0.0036066097673028708,0.0045590815134346485
0.003473167307674885,-0.02458770200610161,-0.007227122317999601,0.02671481855213642,-0.0035310357343405485,0.004684596788138151
0.0034579394850879908,-0.024493183940649033,-0.006584786344319582,0.02627442590892315,-0.003804768668487668,0.00493604177609086
0.003478378290310502,-0.02434430457651615,-0.006884636823087931,0.0273008793592453,-0.004388146102428436,0.00489569129422307
0.0034776064567267895,-0.024460887536406517,-0.006926126778125763,0.027721131220459938,-0.0043452344834804535,0.004742051009088755
0.0033736354671418667,-0.024792034178972244,-0.00738533167168498,0.02687564678490162,-0.004331714008003473,0.004609006457030773
0.003609323175624013,-0.024792959913611412,-0.0072486791759729385,0.027449896559119225,-0.004130602348595858,0.004532300401479006
0.003917031455785036,-0.02394566871225834,-0.007559970021247864,0.02843737043440342,-0.0037772192154079676,0.0046986788511276245
0.0036163022741675377,-0.024649953469634056,-0.008138647302985191,0.026913795620203018,-0.0037984605878591537,0.00442090816795826
0.0035108637530356646,-0.02431986853480339,-0.007676402572542429,0.02673579938709736,-0.004476164933294058,0.0045473272912204266
0.003573768772184849,-0.02478022873401642,-0.00748003926128149,0.027201704680919647,-0.004334647674113512,0.0046116323210299015
0.003666918957605958,-0.025150451809167862,-0.00761598302051425,0.028243839740753174,-0.003918292932212353,0.004285946488380432
0.003666918957605958,-0.025150451809167862,-0.00761598302051425,0.028243839740753174,-0.003918292932212353,0.004285946488380432
0.003910469356924295,-0.02469225414097309,-0.008316989988088608,0.02761908248066902,-0.003800774924457073,0.004013413097709417
0.003941962495446205,-0.02427040971815586,-0.00794046837836504,0.028082573786377907,-0.003850564593449235,0.003877108683809638
0.003765498287975788,-0.023670142516493797,-0.007753739133477211,0.02771538496017456,-0.0033059031702578068,0.004104668274521828
0.0036421939730644226,-0.023854058235883713,-0.0071304794400930405,0.027372846379876137,-0.002905774163082242,0.004258791916072369
0.0036752985324710608,-0.02472742646932602,-0.008010847494006157,0.027892617508769035,-0.0026513992343097925,0.004090137779712677
0.003741739084944129,-0.024878228083252907,-0.0077812871895730495,0.027761757373809814,-0.002516242442652583,0.003942619077861309
0.0037049928214401007,-0.02420751377940178,-0.0074964347295463085,0.029019992798566818,-0.0025879356544464827,0.0038515462074428797
0.003694036742672324,-0.024381451308727264,-0.007606056518852711,0.028206394985318184,-0.002691931091248989,0.0033879047259688377
0.003811570582911372,-0.02506616711616516,-0.008026567287743092,0.027718817815184593,-0.0029854169115424156,0.003517628414556384
0.003909300547093153,-0.024563509970903397,-0.007799877785146236,0.028320321813225746,-0.0029005224350839853,0.003818368539214134
0.003866506041958928,-0.0245682280510664,-0.007249774876981974,0.028449544683098793,-0.003038643626496196,0.003935174085199833
0.004248714540153742,-0.023954354226589203,-0.008145444095134735,0.028587449342012405,-0.003005664562806487,0.0039019519463181496
0.004169250372797251,-0.02390572987496853,-0.008414863608777523,0.02832876332104206,-0.002871515229344368,0.004315533675253391
0.003968074452131987,-0.024573080241680145,-0.00757261598482728,0.027916723862290382,-0.0026163512375205755,0.0042034233920276165
0.003849569009616971,-0.024202030152082443,-0.007390369661152363,0.028318187221884727,-0.0024096895940601826,0.00395023450255394
0.004404892213642597,-0.02385130524635315,-0.008227507583796978,0.028840787708759308,-0.002385045401751995,0.0034589595161378384
0.0042189001105725765,-0.024480164051055908,-0.0078824358060956,0.02867739088833332,-0.0026358331087976694,0.0035232477821409702
0.004453939851373434,-0.024161050096154213,-0.007124965079128742,0.027926189824938774,-0.0027001823764294386,0.00366780161857605
0.004044700879603624,-0.024572622030973434,-0.008024771697819233,0.028264325112104416,-0.0026809361297637224,0.0036672749556601048
0.004044700879603624,-0.024572622030973434,-0.008024771697819233,0.028264325112104416,-0.0026809361297637224,0.0036672749556601048
0.004234051797538996,-0.023986853659152985,-0.007574218325316906,0.028547218069434166,-0.00241296598687768,0.0036514110397547483
0.004329603631049395,-0.024251848459243774,-0.008101892657577991,0.029309887439012527,-0.00206682737916708,0.0033605294302105904
0.004570487886667252,-0.024103032425045967,-0.008326531387865543,0.030039437115192413,-0.0018318304792046547,0.0031629540026187897
0.004727034363895655,-0.024390069767832756,-0.007929014973342419,0.02928437851369381,-0.0015631814021617174,0.0027923507150262594
0.004727034363895655,-0.024390069767832756,-0.007929014973342419,0.02928437851369381,-0.0015631814021617174,0.0027923507150262594
0.004384159576147795,-0.02433968335390091,-0.00754858972504735,0.027820469811558723,-0.0015711887972429395,0.0026772664859890938
0.004281758796423674,-0.024026038125157356,-0.007718585431575775,0.027654411271214485,-0.0017587702022865415,0.0026273089461028576
0.004393015056848526,-0.023768668994307518,-0.008091434836387634,0.02900160476565361,-0.0017029551090672612,0.003143422771245241
0.004566265735775232,-0.02410036511719227,-0.007505037821829319,0.029882892966270447,-0.0015361743280664086,0.0032900022342801094
0.004679684992879629,-0.024250369518995285,-0.00738627789542079,0.029267461970448494,-0.0015443103620782495,0.003230053000152111
0.004730043467134237,-0.024027720093727112,-0.008181316778063774,0.029012970626354218,-0.0014918880769982934,0.0034115726593881845
0.004634334705770016,-0.023928089067339897,-0.007709812838584185,0.0292487945407629,-0.001569141517393291,0.0032556133810430765
0.0045883627608418465,-0.02253599464893341,-0.007434178609400988,0.029462028294801712,-0.0015817630337551236,0.0029650384094566107
0.004595560021698475,-0.023807549849152565,-0.007531340699642897,0.029401198029518127,-0.0015752374893054366,0.002659175079315901
0.004484487231820822,-0.023824825882911682,-0.0079233692958951,0.028944525867700577,-0.0014656897401437163,0.002519624773412943
0.004618984181433916,-0.023744730278849602,-0.008149832487106323,0.028649717569351196,-0.0014373974408954382,0.002392111113294959
0.004826072603464127,-0.02419225126504898,-0.007170696277171373,0.029314802959561348,-0.00127260887529701,0.0024853521026670933
0.004880149848759174,-0.02352064661681652,-0.00699821300804615,0.02817380242049694,-0.001053806859999895,0.0026004272513091564
0.004700727295130491,-0.023212460801005363,-0.00761877465993166,0.028200244531035423,-0.0010011951671913266,0.0025404253974556923
0.005035060457885265,-0.02337024174630642,-0.007491886615753174,0.028367208316922188,-0.0010612745536491275,0.002675015712156892
0.005030652042478323,-0.023754535242915154,-0.006801104638725519,0.02889435924589634,-0.001074302475899458,0.0026290416717529297
0.004827806260436773,-0.02404535561800003,-0.006868068594485521,0.028988158330321312,-0.001108273514546454,0.0025511221028864384
0.005220362450927496,-0.023432226851582527,-0.007418490946292877,0.02834901213645935,-0.0011615409748628736,0.0028202668763697147
0.005160179454833269,-0.023112691938877106,-0.007660002913326025,0.027935108169913292,-0.0012227902188897133,0.0028875041753053665
0.004965634550899267,-0.02341296151280403,-0.007158205844461918,0.02781984768807888,-0.0012694598408415914,0.0025837221182882786
0.005168672651052475,-0.023251663893461227,-0.007002712693065405,0.027942633256316185,-0.001300065778195858,0.00257706712000072
0.004891717340797186,-0.022770704701542854,-0.007398702669888735,0.02759135514497757,-0.00118437095079571,0.0027144812047481537
0.00512337451800704,-0.023118507117033005,-0.0077243465930223465,0.027737248688936234,-0.0011568310437723994,0.0025433367118239403
0.005487093236297369,-0.023162655532360077,-0.006982640828937292,0.02753167599439621,-0.0011531857308000326,0.0026913871988654137
0.005444683134555817,-0.022719265893101692,-0.007678493391722441,0.02763557992875576,-0.0009929114021360874,0.0023560556583106518
0.0052846623584628105,-0.022737879306077957,-0.007793314289301634,0.02739107422530651,-0.0009116018190979958,0.0021554583217948675
0.004900740925222635,-0.0228456798940897,-0.007256071083247662,0.027305128052830696,-0.000767177960369736,0.0019468269310891628
0.00530791562050581,-0.022187363356351852,-0.0070813060738146305,0.0277034230530262,-0.0007768317591398954,0.001988569973036647
0.005293284542858601,-0.022039610892534256,-0.007592769339680672,0.027816638350486755,-0.0006859166896902025,0.0020736614242196083
0.005452999845147133,-0.02223198302090168,-0.007482742425054312,0.027240905910730362,-0.0006089321104809642,0.002433614805340767
0.005452999845147133,-0.02223198302090168,-0.007482742425054312,0.027240905910730362,-0.0006089321104809642,0.002433614805340767
0.005588672123849392,-0.022639065980911255,-0.007238765247166157,0.027309780940413475,-0.0005471576587297022,0.0028489099349826574
0.005330414045602083,-0.022495198994874954,-0.007252314127981663,0.027533110231161118,-0.0004967599525116384,0.0026905410923063755
0.0052511608228087425,-0.02205050364136696,-0.007563494611531496,0.027928296476602554,-0.00045486411545425653,0.0022268483880907297
0.005012116394937038,-0.021453574299812317,-0.007491849362850189,0.027384916320443153,-0.000419496966060251,0.001934687839820981
0.005961255170404911,-0.021979041397571564,-0.007439534179866314,0.027869073674082756,-0.00038923544343560934,0.001770644448697567
0.005433653946965933,-0.021547934040427208,-0.007516278885304928,0.028648225590586662,-0.0003630502615123987,0.0017102918354794383
0.005031744483858347,-0.021388061344623566,-0.007776233367621899,0.028660012409090996,-0.0003401660069357604,0.0019191907485947013
0.005323238670825958,-0.022169452160596848,-0.007613985799252987,0.027517417445778847,-0.00032000508508645,0.0019443815108388662
0.005576892755925655,-0.02228623628616333,-0.0073382193222641945,0.02695913426578045,-0.00030208940734155476,0.0017811425495892763
0.006081285886466503,-0.02115565910935402,-0.007289683911949396,0.0278975460678339,-0.0002860837848857045,0.0016888153040781617
0.005644289776682854,-0.021031178534030914,-0.007535042241215706,0.028363658115267754,-0.00027168079395778477,0.0014677605358883739
0.005343470256775618,-0.022307122126221657,-0.007346638944000006,0.027817457914352417,-0.00025866719079203904,0.0012825523735955358
0.005276449024677277,-0.02214738167822361,-0.007221076171845198,0.028264660388231277,-0.0002468376187607646,0.0012264347169548273
0.0057095251977443695,-0.0212409645318985,-0.0072725084610283375,0.028542891144752502,-0.0002360476355534047,0.0011997349793091416
0.005640700459480286,-0.02053164876997471,-0.0075872899033129215,0.027911346405744553,-0.00022615694615524262,0.0014575376408174634
0.005682841874659061,-0.020778093487024307,-0.007672715932130814,0.027460116893053055,-0.00021706646657548845,0.0014797351323068142
0.005248948000371456,-0.021157920360565186,-0.007032988592982292,0.02594611980021,-0.0002086773602059111,0.0019138450734317303
0.005729629658162594,-0.021111786365509033,-0.007210295181721449,0.026101958006620407,-0.00020091223996132612,0.0018234141170978546
0.005453400779515505,-0.021134978160262108,-0.007631979417055845,0.02703390084207058,-0.0001937042543431744,0.0017330923583358526
0.00577697716653347,-0.02069130539894104,-0.006689190398901701,0.026374192908406258,-0.0001526485284557566,0.0014576896792277694
0.005575911607593298,-0.020756343379616737,-0.006541901268064976,0.02639670856297016,-0.00014586822362616658,0.0012823531869798899
0.005220302380621433,-0.02032236009836197,-0.007017611060291529,0.02642938867211342,-0.00014117200043983757,0.0012005171738564968
0.005762382410466671,-0.020957935601472855,-0.007310209795832634,0.02654903754591942,-0.00013686998863704503,0.0010756936389952898
0.005431603640317917,-0.020294878631830215,-0.007050688844174147,0.02643703669309616,-0.00013282893633004278,0.0010447422973811626
0.005431603640317917,-0.020294878631830215,-0.007050688844174147,0.02643703669309616,-0.00013282893633004278,0.0010447422973811626
0.005119348876178265,-0.020468885079026222,-0.006897611077874899,0.02717815525829792,-0.00012902017624583095,0.0009240302024409175
0.004648501984775066,-0.02047687955200672,-0.006766720674932003,0.026647331193089485,-0.00012542406329885125,0.0009047425701282918
0.00424896739423275,-0.020078569650650024,-0.007181752938777208,0.026910394430160522,-0.00012202264770166948,0.000902994885109365
0.00409458763897419,-0.019896959885954857,-0.007207609247416258,0.027022134512662888,-0.00011880121019203216,0.0009025236358866096
0.004469345789402723,-0.01987943984568119,-0.007330945692956448,0.026325570419430733,-0.00011574511881917715,0.0009459071443416178
0.00466980179771781,-0.019864436239004135,-0.006609117612242699,0.026210667565464973,-0.00011284281208645552,0.000951692636590451
0.004656472243368626,-0.019954975694417953,-0.007014025934040546,0.026054393500089645,-0.00011008221190422773,0.0009445595205761492
0.004538659006357193,-0.017903674393892288,-0.006777994800359011,0.02650946006178856,-0.00010745341569418088,0.0009305152343586087
0.004321217071264982,-0.021112050861120224,-0.006963168270885944,0.02688557840883732,-8.536102541256696e-05,0.0008365135872736573
0.00447015929967165,-0.02023175358772278,-0.006999202072620392,0.02625235542654991,-8.213610271923244e-05,0.0007877906318753958
0.004129637032747269,-0.01965479552745819,-0.007526494096964598,0.024793138727545738,-8.022212568903342e-05,0.0007953572785481811
0.004167335107922554,-0.019290456548333168,-0.0070691476576030254,0.02417158894240856,-7.846813241485506e-05,0.0007930989377200603
0.0041342866607010365,-0.018797527998685837,-0.006490621250122786,0.024598509073257446,-6.011555524310097e-05,0.0007784642511978745
0.004289670847356319,-0.019131895154714584,-0.006638542748987675,0.02516797184944153,-5.655697896145284e-05,0.000753829546738416
0.004555886145681143,-0.019505804404616356,-0.006958502810448408,0.02472512051463127,-5.5249394790735096e-05,0.0009090641979128122
0.004713444039225578,-0.019192827865481377,-0.007049421314150095,0.024622738361358643,1.5203582734102383e-05,0.0009165059309452772
0.004322347231209278,-0.01855713315308094,-0.006330834701657295,0.025788741186261177,3.6958412238163874e-05,0.0008853686740621924
0.004415471572428942,-0.019267454743385315,-0.006324297748506069,0.025407522916793823,5.523264917428605e-05,0.0008349567651748657
0.004919440485537052,-0.019193172454833984,-0.0067446851171553135,0.024710040539503098,5.534301089937799e-05,0.0008160521392710507
0.004503781441599131,-0.0190403051674366,-0.007436490152031183,0.023670462891459465,7.121001544874161e-05,0.0007478694897145033
0.004581012297421694,-0.019283438101410866,-0.0069656940177083015,0.02346929721534252,7.964672840898857e-05,0.0007383672054857016
0.005157453007996082,-0.018241113051772118,-0.0065068528056144714,0.02410486340522766,8.643249748274684e-05,0.0006745942519046366
0.0048652952536940575,-0.01866644248366356,-0.007299874909222126,0.024621281772851944,0.0005906177684664726,0.0006069270893931389
0.004738223273307085,-0.01833527721464634,-0.0072442940436303616,0.024402841925621033,0.0007264968007802963,0.0005720608751289546
0.004745339509099722,-0.018565528094768524,-0.007221811916679144,0.02409335970878601,0.0015063353348523378,0.0005256179720163345
0.004712208174169064,-0.019558392465114594,-0.006977399345487356,0.02406853437423706,0.0015127334045246243,0.0005495990044437349
0.004924421664327383,-0.018743906170129776,-0.007700392976403236,0.023969773203134537,0.0013991777086630464,0.000514507875777781
0.004875878803431988,-0.018617436289787292,-0.007717861793935299,0.02390606887638569,0.0012066313065588474,0.00048413744661957026
0.005205994006246328,-0.018538741394877434,-0.006688837893307209,0.023495730012655258,0.0009928004583343863,0.0004074569442309439
0.005034780129790306,-0.018266769126057625,-0.006592134945094585,0.02335495501756668,0.0010404848726466298,0.0004075467586517334
0.005034780129790306,-0.018266769126057625,-0.006592134945094585,0.02335495501756668,0.0010404848726466298,0.0004075467586517334
0.004991122987121344,-0.018468430265784264,-0.007223052438348532,0.023281682282686234,0.001353888656012714,0.000429230451118201
0.004991122987121344,-0.018468430265784264,-0.007223052438348532,0.023281682282686234,0.001353888656012714,0.000429230451118201
0.005527939647436142,-0.018221408128738403,-0.007090684026479721,0.0231906957924366,0.0014797296607866883,0.0004156299401074648
0.005202756728976965,-0.018360840156674385,-0.006822679191827774,0.023283755406737328,0.002221600618213415,0.0003907994832843542
0.005180561449378729,-0.017741218209266663,-0.0066277687437832355,0.02292809449136257,0.0024241385981440544,0.0003680229710880667
0.005060195457190275,-0.01772923953831196,-0.007043474819511175,0.02356044203042984,0.002377472585067153,0.0003843249869532883
0.004888114519417286,-0.018458742648363113,-0.007064467761665583,0.02370988205075264,0.0021367038134485483,0.00037573467125184834
0.0053495196625590324,-0.01807258464396,-0.005858232267200947,0.023270560428500175,0.00203890074044466,0.0003578077885322273
0.005363071337342262,-0.017851071432232857,-0.007029496133327484,0.022652044892311096,0.002146478509530425,0.0003409101627767086
0.005330696702003479,-0.017874153330922127,-0.007497237529605627,0.023022498935461044,0.0020845120307058096,0.0003254972107242793
0.005475565325468779,-0.01763973757624626,-0.007022140081971884,0.023642202839255333,0.0022065588273108006,0.00031141546787694097
0.005221396218985319,-0.018088150769472122,-0.006884510163217783,0.023136790841817856,0.0019963174127042294,0.0002985019818879664
0.005617546383291483,-0.017647363245487213,-0.006672651506960392,0.022836482152342796,0.002041320549324155,0.00028661653050221503
0.005306780803948641,-0.017617205157876015,-0.007441006135195494,0.022804012522101402,0.001880747266113758,0.00027564214542508125
0.005412466358393431,-0.01792454533278942,-0.007447730749845505,0.02289009653031826,0.0020370667334645987,0.0002654767595231533
0.005369921680539846,-0.01790868118405342,-0.0067253075540065765,0.02337781712412834,0.0021003338042646646,0.00025603509857319295
0.005625501275062561,-0.01804186776280403,-0.006475628819316626,0.023077242076396942,0.002346778055652976,0.00024724204558879137
0.005262534134089947,-0.018029704689979553,-0.007082308642566204,0.02329111285507679,0.0025796517729759216,0.00023903229157440364
0.0053819455206394196,-0.0178487841039896,-0.006839613895863295,0.02221158891916275,0.0029678521677851677,0.0002173800894524902
0.0053819455206394196,-0.0178487841039896,-0.006839613895863295,0.02221158891916275,0.0029678521677851677,0.0002173800894524902
0.00566658703610301,-0.017679467797279358,-0.006768730469048023,0.022813109681010246,0.0027990397065877914,0.00021100894082337618
0.0056254374794662,-0.01793154701590538,-0.007346286438405514,0.022649995982646942,0.002630086150020361,0.00020500062964856625
0.005563374608755112,-0.017796717584133148,-0.007350184954702854,0.02257058583199978,0.002457370050251484,0.000199324989807792
0.005439774598926306,-0.01795409619808197,-0.006560784764587879,0.022559870034456253,0.0024130314122885466,0.00019395501294638962
0.005991288926452398,-0.0179358571767807,-0.006456878036260605,0.02212458848953247,0.002376164309680462,0.0001888673286885023
0.005359524395316839,-0.017363842576742172,-0.007141918409615755,0.02214001677930355,0.002509717596694827,0.0001840395270846784
0.005359524395316839,-0.017363842576742172,-0.007141918409615755,0.02214001677930355,0.002509717596694827,0.0001840395270846784
0.005617550574243069,-0.017869817093014717,-0.006894193589687347,0.02235938236117363,0.0026653397362679243,0.00017945226863957942
0.005416615400463343,-0.0174992848187685,-0.0071389153599739075,0.022192543372511864,0.0026007688138633966,0.00016433319251518697
0.005975882522761822,-0.017723536118865013,-0.007004217244684696,0.02179015427827835,0.0027297118213027716,0.00015029168571345508
0.005632034502923489,-0.017926663160324097,-0.007556091528385878,0.0214015431702137,0.0027304741088300943,0.00014614430256187916
0.0059057679027318954,-0.017544368281960487,-0.007444832473993301,0.021346649155020714,0.0028034024871885777,0.00014278845628723502
0.005594228859990835,-0.017717141658067703,-0.007395911496132612,0.020919427275657654,0.002822115086019039,0.00013962101365905255
0.005857785232365131,-0.017163723707199097,-0.006586924660950899,0.020965231582522392,0.003012686036527157,0.00013659350224770606
0.005575438030064106,-0.017455901950597763,-0.006973561830818653,0.021314477548003197,0.0028726323507726192,0.0001336948771495372
0.005901592783629894,-0.01757849007844925,-0.007504710927605629,0.02165832370519638,0.00273935217410326,0.00013091655273456126
0.006201386451721191,-0.01650453545153141,-0.006983595434576273,0.02142353542149067,0.0025733208749443293,0.0001282514276681468
0.005862588528543711,-0.017878664657473564,-0.006907286122441292,0.02080901339650154,0.00293923681601882,0.00012569254613481462
0.005703873001039028,-0.017377378419041634,-0.007183807902038097,0.020146729424595833,0.0031786784529685974,0.00012323389819357544
0.005798081401735544,-0.01681080460548401,-0.007123022805899382,0.02025424689054489,0.0032065100967884064,0.00012086948117939755
0.006151276174932718,-0.017483895644545555,-0.0073892055079340935,0.02051348239183426,0.003063679439947009,6.1685117543675e-05
0.006126547697931528,-0.017342127859592438,-0.00711413286626339,0.020816249772906303,0.0030161160975694656,4.2223739001201466e-05
0.005899669602513313,-0.01730693131685257,-0.007302053272724152,0.020454898476600647,0.003187668276950717,4.01051584049128e-05
0.006528426893055439,-0.01677912287414074,-0.007273566443473101,0.02114049904048443,0.003457611193880439,2.1673629817087203e-05
0.0063813673332333565,-0.016959410160779953,-0.0073190974071621895,0.021142935380339622,0.002838792745023966,1.8923299649031833e-05
0.006406106520444155,-0.017010582610964775,-0.006968158297240734,0.021093057468533516,0.002600074978545308,4.754693236463936e-06
0.0057421415112912655,-0.017326829954981804,-0.008073172532022,0.020714974030852318,0.00255856616422534,3.1044748993735993e-07
0.0057421415112912655,-0.017326829954981804,-0.008073172532022,0.020714974030852318,0.00255856616422534,3.1044748993735993e-07
0.006815671920776367,-0.01663627102971077,-0.007743946276605129,0.01978764496743679,0.002743392251431942,2.027000256532574e-08
0.006444496568292379,-0.016683751717209816,-0.006971569731831551,0.01921812631189823,0.0028960881754755974,1.3234863205369152e-09
0.006587087642401457,-0.016603657975792885,-0.0069907172583043575,0.019407927989959717,0.002881846623495221,8.641420218280516e-11
0.006816847715526819,-0.016300706192851067,-0.00761573389172554,0.019553804770112038,0.003130564698949456,5.6422297389779885e-12
0.006821994669735432,-0.01619522087275982,-0.007970749400556087,0.019537005573511124,0.003296560375019908,-0.0002825103292707354
0.006220478098839521,-0.015930095687508583,-0.007691632024943829,0.019795777276158333,0.0035620147828012705,-0.0009780612308532
0.006611324846744537,-0.016075626015663147,-0.00703820213675499,0.019148465245962143,0.0037465987261384726,-0.0010010345140472054
0.007008631248027086,-0.016155492514371872,-0.008001819252967834,0.018706712871789932,0.0034655367489904165,-0.000855538877658546
0.006853397469967604,-0.0166806448251009,-0.007767286617308855,0.01867406629025936,0.003497280180454254,-0.0008283836068585515
0.006239152047783136,-0.016567185521125793,-0.007681144401431084,0.018349358811974525,0.003311537206172943,-0.0007559994119219482
0.006357420701533556,-0.01600305177271366,-0.007742255460470915,0.018455414101481438,0.00312080723233521,-0.0007660586852580309
0.006875429302453995,-0.015456044115126133,-0.008332978002727032,0.018638407811522484,0.002973579801619053,-0.000670999230351299
0.006665542721748352,-0.015284000895917416,-0.00718613201752305,0.01827598549425602,0.0032275354024022818,-0.0007433457649312913
0.006232825107872486,-0.015588300302624702,-0.007175227627158165,0.01844053901731968,0.0033027639146894217,-0.0008112621726468205
0.0063263061456382275,-0.015383708290755749,-0.008106973022222519,0.01799687370657921,0.003428906435146928,-0.0016829750966280699
0.006789425853639841,-0.01630799099802971,-0.007952245883643627,0.017259329557418823,0.0036788228899240494,-0.0018962029134854674
0.007280097808688879,-0.015274749137461185,-0.007602933794260025,0.01764841191470623,0.003450501710176468,-0.0019605045672506094
0.007285029627382755,-0.016027886420488358,-0.007129984442144632,0.017437249422073364,0.0034663050901144743,-0.0016077470500022173
0.006976688280701637,-0.015475270338356495,-0.007336168549954891,0.017445653676986694,0.003168288618326187,-0.0014556542737409472
0.006634669844061136,-0.01499203685671091,-0.007698886562138796,0.016847414895892143,0.003227042965590954,-0.0011083274148404598
0.006990320049226284,-0.014880482107400894,-0.007526598405092955,0.016479335725307465,0.0033003641292452812,-0.0011120144044980407
0.006812651176005602,-0.015463050454854965,-0.0074366177432239056,0.01776741072535515,0.00355670228600502,-0.001453802571631968
0.006450682412832975,-0.015332858078181744,-0.007472116965800524,0.01822149194777012,0.00379101000726223,-0.0025673508644104004
0.007430633530020714,-0.015434683300554752,-0.007343124132603407,0.018045222386717796,0.0034436164423823357,-0.0024637479800730944
0.007430633530020714,-0.015434683300554752,-0.007343124132603407,0.018045222386717796,0.0034436164423823357,-0.0024637479800730944
0.0070505645126104355,-0.015355105511844158,-0.00782304722815752,0.01646018959581852,0.0029918132349848747,-0.002015946200117469
0.006611187942326069,-0.014977564103901386,-0.007773453835397959,0.016398940235376358,0.0031375549733638763,-0.0017325502121821046
0.006611187942326069,-0.014977564103901386,-0.007773453835397959,0.016398940235376358,0.0031375549733638763,-0.0017325502121821046
0.006815630476921797,-0.014692660421133041,-0.006901253946125507,0.016834206879138947,0.0032233349047601223,-0.0017029551090672612
0.007206220645457506,-0.01425383985042572,-0.007185792550444603,0.016882959753274918,0.003222402883693576,-0.0019501692149788141
0.007317272946238518,-0.01505192182958126,-0.007728276774287224,0.016409285366535187,0.003307080129161477,-0.0018800314282998443
0.007181673310697079,-0.014811898581683636,-0.007919056341052055,0.01656109280884266,0.0031191122252494097,-0.0021915442775934935
0.0072638229466974735,-0.014859816059470177,-0.007525806315243244,0.015998877584934235,0.0030231052078306675,-0.0020455450285226107
0.0074361031875014305,-0.014698920771479607,-0.007609959226101637,0.016730088740587234,0.003167295828461647,-0.0019454073626548052
0.0070295995101332664,-0.014950280077755451,-0.006892658304423094,0.016561148688197136,0.0032081142999231815,-0.001903703436255455
0.0073166703805327415,-0.014431043528020382,-0.008208747021853924,0.017449943348765373,0.00348058994859457,-0.0021266473922878504
0.006790728773921728,-0.014575164765119553,-0.007936050184071064,0.016742367297410965,0.0033406266011297703,-0.0029888085555285215
0.007259337697178125,-0.01411387324333191,-0.0076067461632192135,0.015907015651464462,0.003544935490936041,-0.0035964802373200655
0.007403752766549587,-0.014488318003714085,-0.006802826654165983,0.016173509880900383,0.00333856581710279,-0.0033233719877898693
0.0072809066623449326,-0.014149895869195461,-0.007399773690849543,0.015388630330562592,0.0035172735806554556,-0.0030232202261686325
0.007104216609150171,-0.014504371210932732,-0.008041179738938808,0.01564912311732769,0.003684145864099264,-0.0028014006093144417
0.007409354206174612,-0.014012213796377182,-0.006972016766667366,0.015444573014974594,0.0034445924684405327,-0.0028911081608384848
0.00832635723054409,-0.014048142358660698,-0.00693824328482151,0.01565837673842907,0.003307943232357502,-0.0032351482659578323
0.007870491594076157,-0.014057597145438194,-0.00757581414654851,0.015755947679281235,0.003264187602326274,-0.003163601504638791
0.006939173210412264,-0.014392396435141563,-0.007403193041682243,0.016177736222743988,0.0034759449772536755,-0.0029939685482531786
0.008060180582106113,-0.01361261960119009,-0.00719065498560667,0.016006145626306534,0.003947058692574501,-0.0028353212401270866
0.007315631024539471,-0.01376478374004364,-0.008289530873298645,0.015282314270734787,0.0035914676263928413,-0.003298961790278554
0.007303456775844097,-0.01418554037809372,-0.00705738365650177,0.014871153049170971,0.0034515562001615763,-0.003284112550318241
0.008138051256537437,-0.013619004748761654,-0.006553350482136011,0.015141050331294537,0.0032872988376766443,-0.003495280398055911
0.0079213697463274,-0.014177310280501842,-0.0067904433235526085,0.014765279367566109,0.00345217646099627,-0.0032807346433401108
0.006931984331458807,-0.01353419292718172,-0.007639490533620119,0.015034851618111134,0.0028956872411072254,-0.0035559216048568487
0.007277568802237511,-0.01378649566322565,-0.007411307189613581,0.014409473165869713,0.0028174100443720818,-0.003783449763432145
0.008142229169607162,-0.013404798693954945,-0.007343430537730455,0.014742913655936718,0.0028046343941241503,-0.0038497471250593662
0.007790537551045418,-0.01366731058806181,-0.007056357804685831,0.014402606524527073,0.0030643439386039972,-0.0038416674360632896
0.0074822609312832355,-0.013882532715797424,-0.007325657643377781,0.014507267624139786,0.0031709636095911264,-0.00382799725048244
0.007572825066745281,-0.013231828808784485,-0.007165668066591024,0.013658893294632435,0.0030609534587711096,-0.0038090425077825785
0.007572825066745281,-0.013231828808784485,-0.007165668066591024,0.013658893294632435,0.0030609534587711096,-0.0038090425077825785
0.007724182214587927,-0.013209812343120575,-0.007031719200313091,0.013709042221307755,0.003012988017871976,-0.0034352510701864958
0.007360544521361589,-0.01275410782545805,-0.007350840140134096,0.01312349084764719,0.0031248191371560097,-0.003427118295803666
0.007334504276514053,-0.01314353197813034,-0.007867774926126003,0.013129333034157753,0.0032343491911888123,-0.003616269212216139
0.0077818650752305984,-0.012897371314466,-0.007111346814781427,0.013094554655253887,0.00300540286116302,-0.0037625874392688274
0.007892083376646042,-0.012902545742690563,-0.00750142615288496,0.013091644272208214,0.0029554099310189486,-0.003669430734589696
0.0074966768734157085,-0.01256257202476263,-0.0068058171309530735,0.013240346685051918,0.0030387286096811295,-0.004044904373586178
0.007360581774264574,-0.011569173075258732,-0.007295842282474041,0.012700451537966728,0.003344254568219185,-0.004071433562785387
0.008065497502684593,-0.013081510551273823,-0.007518466096371412,0.012629625387489796,0.0036221216432750225,-0.0035497774370014668
0.008230738341808319,-0.012808658182621002,-0.006863156799226999,0.012114223092794418,0.0035057079512625933,-0.003499535610899329
0.007666782476007938,-0.01267988607287407,-0.006460631266236305,0.012435020878911018,0.0035590091720223427,-0.0036624835338443518
0.007438582833856344,-0.012258864939212799,-0.0070230383425951,0.0122850202023983,0.0037995795719325542,-0.004281100817024708
0.00806651171296835,-0.012737996876239777,-0.007470583077520132,0.012398443184792995,0.0038863113150000572,-0.0046356418170034885
0.008273202925920486,-0.011803393252193928,-0.007324965205043554,0.012080641463398933,0.0038691298104822636,-0.004628125112503767
0.008261950686573982,-0.01214536838233471,-0.006810600403696299,0.011451559141278267,0.003461598651483655,-0.004458055831491947
0.008420583792030811,-0.012028512544929981,-0.0063303685747087,0.01190138142555952,0.0035136176738888025,-0.004315981175750494
0.008221243508160114,-0.012148328125476837,-0.00680965930223465,0.011462947353720665,0.0034362655133008957,-0.00423936964944005
0.007865012623369694,-0.012080029584467411,-0.006785648409277201,0.011356436647474766,0.003190071554854512,-0.00450468435883522
0.007865012623369694,-0.012080029584467411,-0.006785648409277201,0.011356436647474766,0.003190071554854512,-0.00450468435883522
0.008283944800496101,-0.01169913075864315,-0.006711372174322605,0.011363843455910683,0.003263590857386589,-0.004574532154947519
0.008275425992906094,-0.011667245998978615,-0.0073007140308618546,0.012074664235115051,0.0035077976062893867,-0.004599330481141806
0.008097557350993156,-0.011874156072735786,-0.006820466369390488,0.011506561189889908,0.0034831995144486427,-0.004634329583495855
0.008023319765925407,-0.012165039777755737,-0.006608183030039072,0.01140896137803793,0.0034513906575739384,-0.004684964194893837
0.008294716477394104,-0.011226344853639603,-0.0066778394393622875,0.010640778578817844,0.003649946767836809,-0.004482581280171871
0.008328564465045929,-0.011494087986648083,-0.00721192080527544,0.010291074402630329,0.0035683405585587025,-0.004529388155788183
0.007639552466571331,-0.010858045890927315,-0.007140111643821001,0.01020125113427639,0.0034325344022363424,-0.004774168599396944
0.007788068149238825,-0.010747349821031094,-0.006589869502931833,0.010005890391767025,0.003571466077119112,-0.005127458367496729
0.008444887585937977,-0.01094239205121994,-0.006313310004770756,0.009570362977683544,0.0036282804794609547,-0.005115780048072338
0.008433768525719643,-0.01065952330827713,-0.006441263481974602,0.009650706313550472,0.003976524341851473,-0.0050394111312925816
0.008523542433977127,-0.010810384526848793,-0.007213501259684563,0.009954161942005157,0.003975340165197849,-0.0049080322496593
0.008161818608641624,-0.010906096547842026,-0.007121203001588583,0.010372059419751167,0.0036044989246875048,-0.004781849216669798
0.00816684402525425,-0.010439007543027401,-0.006761031690984964,0.010793176479637623,0.003618877148255706,-0.004446713719516993
0.008084384724497795,-0.010616620071232319,-0.006560695823282003,0.010063021443784237,0.003296090289950371,-0.004887220915406942
0.008966798894107342,-0.010725785046815872,-0.0075482591055333614,0.009214675053954124,0.0034029921516776085,-0.005531661678105593
0.008371679112315178,-0.011206110939383507,-0.006975110154598951,0.009177984669804573,0.0035644015297293663,-0.005237890407443047
0.008371636271476746,-0.011258912272751331,-0.006888474337756634,0.008485298603773117,0.00366611173376441,-0.005146275274455547
0.007917164824903011,-0.010183480568230152,-0.0066534774377942085,0.007661244831979275,0.003840581513941288,-0.00514442240819335
0.008808055892586708,-0.010752330534160137,-0.006824039388448,0.007643457502126694,0.003971803933382034,-0.005101884249597788
0.008584017865359783,-0.01085866242647171,-0.006612532772123814,0.007639260496944189,0.003655975917354226,-0.005176703445613384
0.008241801522672176,-0.009909505024552345,-0.00715284701436758,0.007395601365715265,0.003424916183575988,-0.005159695632755756
0.007932236418128014,-0.010508334264159203,-0.006607877556234598,0.0064153210259974,0.003487762063741684,-0.005699104629456997
0.008434578776359558,-0.010370930656790733,-0.0070894560776650906,0.006814111955463886,0.003710599150508642,-0.005754230078309774
0.008124575018882751,-0.010194358415901661,-0.006438771262764931,0.007289217785000801,0.003832954913377762,-0.005751636810600758
0.008623388595879078,-0.010035842657089233,-0.006128613371402025,0.007013149093836546,0.0037627608980983496,-0.005692985840141773
0.00880099181085825,-0.009735196828842163,-0.006595012731850147,0.005964545998722315,0.0037682687398046255,-0.005687260534614325
0.008734033443033695,-0.010736186988651752,-0.006985167507082224,0.005738774314522743,0.004246612079441547,-0.006089383270591497
0.008865171112120152,-0.009805116802453995,-0.007335570640861988,0.006235663313418627,0.004037796054035425,-0.006095017306506634
0.008865171112120152,-0.009805116802453995,-0.007335570640861988,0.006235663313418627,0.004037796054035425,-0.006095017306506634
0.008777542971074581,-0.009196173399686813,-0.00681802723556757,0.005828583147376776,0.003833427792415023,-0.006128804292529821
0.008756840601563454,-0.009486251510679722,-0.006330194417387247,0.005786290857940912,0.0038690560031682253,-0.006410267204046249
0.00873320922255516,-0.00955114234238863,-0.006228848360478878,0.005365407560020685,0.0036245216615498066,-0.00648936303332448
0.008083753287792206,-0.00895580556243658,-0.006958621554076672,0.005711640231311321,0.003918169066309929,-0.006092527881264687
0.009608286432921886,-0.008800751529633999,-0.0072302669286727905,0.005474757868796587,0.004180981777608395,-0.006435703486204147
0.009422080591320992,-0.009315854869782925,-0.0066180601716041565,0.005094863008707762,0.004099165089428425,-0.006833638995885849
0.009479784406721592,-0.008663262240588665,-0.006457161158323288,0.005095543805509806,0.004082837142050266,-0.006969334091991186
0.009513686411082745,-0.008425022475421429,-0.006745642516762018,0.005120959598571062,0.0040593878366053104,-0.0065244147554039955
0.009766924194991589,-0.008511782623827457,-0.007254245691001415,0.004555993247777224,0.0035409152042120695,-0.0064570046961307526
0.009799432940781116,-0.00863928534090519,-0.007458231411874294,0.004416116513311863,0.004053817596286535,-0.006935248151421547
0.009705530479550362,-0.00815504975616932,-0.006704599596560001,0.004492748063057661,0.004145962651818991,-0.007014812435954809
0.010178918018937111,-0.008571537211537361,-0.006938837468624115,0.00530393747612834,0.003971262369304895,-0.005891341250389814
0.009938026778399944,-0.008482752367854118,-0.006696576718240976,0.005520682316273451,0.0038394781295210123,-0.007290197070688009
0.009951985441148281,-0.0079404441639781,-0.006810233928263187,0.005127246491611004,0.0041806367225945,-0.007792845834046602
0.01001785509288311,-0.007900290191173553,-0.007472607307136059,0.004902838263660669,0.004190034698694944,-0.0068841734901070595
0.009876230731606483,-0.008413795381784439,-0.007106971461325884,0.005669556558132172,0.004391851369291544,-0.006854311563074589
0.009920894168317318,-0.007701663300395012,-0.0073725092224776745,0.005558301694691181,0.004210419021546841,-0.0066450717858970165
0.009861042723059654,-0.0075315809808671474,-0.006709845270961523,0.0056985365226864815,0.004354260396212339,-0.006845110561698675
0.009817301295697689,-0.0071251229383051395,-0.006246656645089388,0.005131395533680916,0.00408162409439683,-0.007306637242436409
0.009733287617564201,-0.007488846778869629,-0.007228862959891558,0.004861681256443262,0.0038381670601665974,-0.006917930673807859
0.010619351640343666,-0.006599490996450186,-0.006830031517893076,0.004712373483926058,0.004285754170268774,-0.00639053201302886
0.010115798562765121,-0.007031657733023167,-0.006280039437115192,0.004938282538205385,0.004166922532021999,-0.0065701124258339405
0.010145345702767372,-0.007304789032787085,-0.0061150211840868,0.004871917422860861,0.004444570280611515,-0.00715335039421916
0.010485772043466568,-0.006788523867726326,-0.006891207303851843,0.004234105348587036,0.00412830850109458,-0.007019496988505125
0.01018920075148344,-0.006555214524269104,-0.006961685139685869,0.003553263144567609,0.003857371164485812,-0.0066572073847055435
0.01007937639951706,-0.006864126306027174,-0.006461344193667173,0.0030350154265761375,0.004076053388416767,-0.007022325415164232
0.010855731554329395,-0.006421149242669344,-0.006476287730038166,0.002846871269866824,0.004032092168927193,-0.007539376616477966
0.010855731554329395,-0.006421149242669344,-0.006476287730038166,0.002846871269866824,0.004032092168927193,-0.007539376616477966
0.010778890922665596,-0.006452513393014669,-0.005470517091453075,0.0026943322736769915,0.004335154313594103,-0.007152874488383532
0.010497878305613995,-0.005742136389017105,-0.007155544590204954,0.0026671390514820814,0.004125911742448807,-0.006810721941292286
0.010522082448005676,-0.005697310436517,-0.007442418485879898,0.00229168520309031,0.004434695467352867,-0.00687923189252615
0.009801438078284264,-0.006631733383983374,-0.007272202987223864,0.0023038177751004696,0.00459939893335104,-0.007235151715576649
0.01058985572308302,-0.006083985324949026,-0.006875930353999138,0.002903551561757922,0.00424983911216259,-0.0074179526418447495
0.011076300404965878,-0.005702395457774401,-0.006484778597950935,0.0031766947358846664,0.004118588753044605,-0.007235378492623568
0.010205991566181183,-0.005092500243335962,-0.006659537088125944,0.0026806362438946962,0.00418131472542882,-0.007066881749778986
0.010327351279556751,-0.00485361460596323,-0.006768566556274891,0.0020975391380488873,0.004409383051097393,-0.007436538580805063
0.010911907069385052,-0.005232415162026882,-0.006462838500738144,0.0018923352472484112,0.004505693446844816,-0.007642315700650215
0.010186977684497833,-0.005266154184937477,-0.007111079525202513,0.001636855653487146,0.004233512096107006,-0.007376512046903372
0.010602504946291447,-0.005250303074717522,-0.00754632567986846,0.0015046123880892992,0.003961759619414806,-0.006780776660889387
0.010558012872934341,-0.005064818542450666,-0.006137558724731207,0.0017281059408560395,0.004599377512931824,-0.007554347161203623
0.010558012872934341,-0.005064818542450666,-0.006137558724731207,0.0017281059408560395,0.004599377512931824,-0.007554347161203623
0.010364781133830547,-0.004874799400568008,-0.006710778921842575,0.001670486875809729,0.004750838968902826,-0.00740900170058012
0.010400761850178242,-0.0048515573143959045,-0.0076685394160449505,0.0016989794094115496,0.004581918939948082,-0.007269172463566065
0.01119358278810978,-0.004716836381703615,-0.007137001026421785,0.0016670557670295238,0.004671973176300526,-0.006806944962590933
0.010536858811974525,-0.005097252316772938,-0.006515459157526493,0.0014872674364596605,0.004738138522952795,-0.007258139085024595
0.01040188129991293,-0.0050652422942221165,-0.006174961104989052,0.0013718035770580173,0.004967936780303717,-0.007952393032610416
0.011042455211281776,-0.004756644368171692,-0.0070236907340586185,0.001275592832826078,0.004707533400505781,-0.0077914162538945675
0.010222054086625576,-0.0048399693332612514,-0.006919450126588345,0.0011798936175182462,0.0043248883448541164,-0.007139316760003567
0.01087147369980812,-0.004778074566274881,-0.006001512985676527,0.001199719961732626,0.004383365157991648,-0.007048831786960363
0.010326775722205639,-0.0044957902282476425,-0.00633310666307807,0.0011656073620542884,0.0045205759815871716,-0.007350125350058079
0.010304689407348633,-0.0045931534841656685,-0.007371590938419104,0.001171406707726419,0.005049008410423994,-0.007994834333658218
0.010879579000175,-0.004767598118633032,-0.0073464857414364815,0.000980794313363731,0.005028080195188522,-0.007810237351804972
0.011001884005963802,-0.004374925047159195,-0.006380295380949974,0.0009568320238031447,0.0047889878042042255,-0.007498383522033691
0.011256800033152103,-0.0039088670164346695,-0.006479183211922646,0.0008209154475480318,0.004808853380382061,-0.008041060529649258
0.011236703023314476,-0.004256394226104021,-0.007436974905431271,0.0007128638681024313,0.004736762028187513,-0.007798238657414913
0.011236703023314476,-0.004256394226104021,-0.007436974905431271,0.0007128638681024313,0.004736762028187513,-0.007798238657414913
0.010251408442854881,-0.004439554177224636,-0.006947518792003393,0.0007060397183522582,0.004782482981681824,-0.007639952935278416
0.011130770668387413,-0.00430000014603138,-0.006704328116029501,0.0006558406166732311,0.004890190903097391,-0.007561555132269859
0.011094185523688793,-0.00430646538734436,-0.006708902772516012,0.0005953257204964757,0.00511713232845068,-0.006982669234275818
0.010697797872126102,-0.003980887588113546,-0.007169668562710285,0.0005439645028673112,0.0048658777959644794,-0.006762727163732052
0.010899966582655907,-0.003811805509030819,-0.0072143953293561935,0.0005006964784115553,0.004612451884895563,-0.00681981910020113
0.010386324487626553,-0.00338559877127409,-0.006858376786112785,0.00046380702406167984,0.004899757448583841,-0.00716420216485858
0.010799811221659184,-0.0033980566076934338,-0.006775494199246168,0.0004319810832384974,0.005256359465420246,-0.007459757383912802
0.011223457753658295,-0.004174104426056147,-0.007659172173589468,0.0004042467917315662,0.005146565847098827,-0.007582951337099075
0.01178825180977583,-0.004017054568976164,-0.007794766221195459,0.0003815305244643241,0.005397898145020008,-0.007534332573413849
0.012439732439815998,-0.0033740499056875706,-0.006823543459177017,0.00014117069076746702,0.005120572634041309,-0.007392986211925745
0.012013301253318787,-0.0032323484774678946,-0.0063514504581689835,0.00011796094622695819,0.00515695009380579,-0.007341817952692509
0.011647370643913746,-0.0033329965081065893,-0.006939796730875969,0.00010984300024574623,0.004881596192717552,-0.00751879345625639
0.012039192020893097,-0.003596179187297821,-0.007720454130321741,0.00010346600174671039,0.004708071239292622,-0.008526017889380455
0.01182484719902277,-0.0036950507201254368,-0.007294992450624704,9.783622954273596e-05,0.004466499667614698,-0.00805615447461605
0.012116183526813984,-0.0032980688847601414,-0.0069760968908667564,9.27905784919858e-05,0.00459887832403183,-0.007112354505807161
0.012130784802138805,-0.0030276679899543524,-0.006844544317573309,4.714935857919045e-05,0.004977744538336992,-0.00738570699468255
0.01231927890330553,-0.002970245899632573,-0.007391812279820442,4.225572047289461e-05,0.004941621795296669,-0.008162607438862324
0.012531877495348454,-0.003070812439545989,-0.007551486603915691,4.019265907118097e-05,0.004891139455139637,-0.007777849677950144
0.011893803253769875,-0.003321869531646371,-0.007475010119378567,3.8463018427137285e-05,0.005037176888436079,-0.007511814124882221
0.013517812825739384,-0.003347233170643449,-0.00694400817155838,4.915852969133994e-06,0.005053442437201738,-0.007906629703938961
0.012427679263055325,-0.0025759751442819834,-0.007125269155949354,2.0957049429171093e-08,0.005319303832948208,-0.008219716139137745
0.012427679263055325,-0.0025759751442819834,-0.007125269155949354,2.0957049429171093e-08,0.005319303832948208,-0.008219716139137745
0.012728617526590824,-0.002636695746332407,-0.007012287154793739,8.934318562747734e-11,0.004878777079284191,-0.008116060867905617
0.012728617526590824,-0.002636695746332407,-0.007012287154793739,8.934318562747734e-11,0.004878777079284191,-0.008116060867905617
0.01291649043560028,-0.002595725702121854,-0.006934009958058596,3.808839907967071e-13,0.00476418761536479,-0.008021854795515537
0.013171951286494732,-0.002869251649826765,-0.006793436594307423,-0.001120608882047236,0.004645190201699734,-0.00726590771228075
0.012606789357960224,-0.002891101175919175,-0.0067039066925644875,-0.001346224918961525,0.004596026614308357,-0.008415767922997475
0.012606789357960224,-0.002891101175919175,-0.0067039066925644875,-0.001346224918961525,0.004596026614308357,-0.008415767922997475
0.012254717759788036,-0.0028046623338013887,-0.007142094895243645,-0.001875310786999762,0.00474093621596694,-0.00821272935718298
0.012254717759788036,-0.0028046623338013887,-0.007142094895243645,-0.001875310786999762,0.00474093621596694,-0.00821272935718298
0.012833436019718647,-0.0030481365974992514,-0.006691842805594206,-0.002182548400014639,0.004687724635004997,-0.007963964715600014
0.012636000290513039,-0.0033010421320796013,-0.0062735253013670444,-0.002955088624730706,0.004964226391166449,-0.00837036781013012
0.012947509996592999,-0.0031397936400026083,-0.0065279691480100155,-0.0036350772716104984,0.004939369857311249,-0.008242571726441383
0.012927142903208733,-0.002719711512327194,-0.007467182353138924,-0.004251671954989433,0.004644259810447693,-0.007951408624649048
0.0131691824644804,-0.0026921695098280907,-0.007710454519838095,-0.004897452425211668,0.004869236145168543,-0.008265463635325432
0.013430357910692692,-0.0024056697729974985,-0.006496890913695097,-0.006002460606396198,0.005295117385685444,-0.008644193410873413
0.012775777839124203,-0.0025863039772957563,-0.0062764729373157024,-0.005730820819735527,0.005152786150574684,-0.008543052710592747
0.013227587565779686,-0.002679437166079879,-0.00679834745824337,-0.0058349547907710075,0.005012568086385727,-0.008073112927377224
0.01280363742262125,-0.002722276607528329,-0.006946634501218796,-0.0065995738841593266,0.004692543298006058,-0.008335269056260586
0.013349505141377449,-0.002465947763994336,-0.006756708025932312,-0.007694282103329897,0.004785133991390467,-0.008669188246130943
0.013089546002447605,-0.002510403748601675,-0.006616192404180765,-0.007224506698548794,0.005533653777092695,-0.008542049676179886
0.013265534304082394,-0.0024463855661451817,-0.006280817091464996,-0.0072828633710742,0.005391101352870464,-0.008208432234823704
0.012981071136891842,-0.0025553449522703886,-0.0071848430670797825,-0.007646061945706606,0.004778564907610416,-0.0085136154666543
0.013518189080059528,-0.0026281618047505617,-0.006709423381835222,-0.00808471068739891,0.004849017132073641,-0.009053517132997513
0.013222177512943745,-0.0024299398064613342,-0.006486855912953615,-0.00870719738304615,0.004832994192838669,-0.008409676142036915
0.013568706810474396,-0.0022382857277989388,-0.006636031903326511,-0.009436647407710552,0.00491258455440402,-0.008633353747427464
0.013742676936089993,-0.00192147062625736,-0.006603828631341457,-0.009833242744207382,0.004659031052142382,-0.008960727602243423
0.013427013531327248,-0.0018799128010869026,-0.007291113957762718,-0.009177248924970627,0.004281824920326471,-0.008404734544456005
0.013783244416117668,-0.0022532851435244083,-0.006545425858348608,-0.008573561906814575,0.004405772313475609,-0.008501546457409859
0.013773712329566479,-0.002567957853898406,-0.0069140540435910225,-0.0096934475004673,0.004634155426174402,-0.00856246892362833
0.01373317465186119,-0.001995565602555871,-0.007058512419462204,-0.010547005571424961,0.00454671261832118,-0.008890338242053986
0.013982640579342842,-0.0020874394103884697,-0.0073207370005548,-0.010133842006325722,0.004570381250232458,-0.009055987000465393
0.013542772270739079,-0.0020581050775945187,-0.006403649225831032,-0.009486214257776737,0.004947267938405275,-0.008862568996846676
0.01411843579262495,-0.0020008294377475977,-0.006259132642298937,-0.010077604092657566,0.005006920546293259,-0.008931230753660202
0.01391309592872858,-0.0018202189821749926,-0.006553536746650934,-0.010948684066534042,0.004664749838411808,-0.009300081059336662
0.01391309592872858,-0.0018202189821749926,-0.006553536746650934,-0.010948684066534042,0.004664749838411808,-0.009300081059336662
0.014450850896537304,-0.00200257683172822,-0.007175711914896965,-0.010563177987933159,0.00499308854341507,-0.009180271066725254
0.013719155453145504,-0.0020724772475659847,-0.006619623862206936,-0.010565458796918392,0.005225603934377432,-0.009091455489397049
0.014485306106507778,-0.002018496859818697,-0.006090933922678232,-0.010952330194413662,0.004779096692800522,-0.009073548018932343
0.014056427404284477,-0.001790463924407959,-0.005591198801994324,-0.011134525761008263,0.004922652617096901,-0.008965778164565563
0.014369641430675983,-0.0017253233818337321,-0.006019581109285355,-0.011816772632300854,0.005318440496921539,-0.009124589152634144
0.01410446036607027,-0.0015891526127234101,-0.006876401603221893,-0.011818147264420986,0.005266494117677212,-0.00938208308070898
0.014642665162682533,-0.0013183458941057324,-0.006752649322152138,-0.012682721018791199,0.005310464650392532,-0.009320314973592758
0.014248866587877274,-0.0011967370519414544,-0.005969078745692968,-0.0131800202652812,0.00500856339931488,-0.009560641832649708
0.014706846326589584,-0.0012668658746406436,-0.0057809725403785706,-0.012484106235206127,0.004515302833169699,-0.009456213563680649
0.014594480395317078,-0.0013096820330247283,-0.0066536180675029755,-0.012773731723427773,0.0043715001083910465,-0.009671521373093128
0.015205464325845242,-0.001243675360456109,-0.006318341009318829,-0.012909702956676483,0.004869616590440273,-0.009710405021905899
0.014913643710315228,-0.0011791487922891974,-0.005946035496890545,-0.013387883082032204,0.005056203808635473,-0.009590772911906242
0.015220042318105698,-0.0011348300613462925,-0.006038334220647812,-0.012775404378771782,0.004818794317543507,-0.009384207427501678
0.014776984229683876,-0.0009818464750424027,-0.006001110188663006,-0.012519584968686104,0.004845938645303249,-0.009475426748394966
0.013454071246087551,-0.0008384897955693305,-0.006399875041097403,-0.011608699336647987,0.00508455466479063,-0.009592202492058277
0.015001971274614334,-0.0007974107284098864,-0.006635261233896017,-0.011749397031962872,0.0046716975048184395,-0.00970579031854868
0.015643253922462463,-0.0007317126728594303,-0.0059882099740207195,-0.011758862994611263,0.004928653594106436,-0.009982694871723652
0.01470024324953556,-0.0007390699465759099,-0.006121863145381212,-0.011879753321409225,0.005639906041324139,-0.010175780393183231
0.015229369513690472,-0.0006718408549204469,-0.006653954274952412,-0.011930376291275024,0.005643306765705347,-0.010007664561271667
0.015189232304692268,-0.0006072114920243621,-0.0068420665338635445,-0.011832648888230324,0.005180192645639181,-0.00976500753313303
0.015031819231808186,-0.0005090504419058561,-0.006213113199919462,-0.012454109266400337,0.004643077962100506,-0.00982680544257164
0.015592606738209724,-0.0004709821077995002,-0.006483811419457197,-0.012593303807079792,0.005163877736777067,-0.010590927675366402
0.01525096409022808,-0.000438215269241482,-0.006472538225352764,-0.012965179979801178,0.005281579215079546,-0.01035294122993946
0.015208430588245392,-0.0004658154502976686,-0.006159499287605286,-0.012318575754761696,0.005146509502083063,-0.009820009581744671
0.015626495704054832,-0.00043961391202174127,-0.006107908673584461,-0.013093214482069016,0.0053150407038629055,-0.009869009256362915
0.015123496763408184,-0.00041434113518334925,-0.005842409562319517,-0.013628311455249786,0.00498016644269228,-0.010807879269123077
0.01580939255654812,-0.00039179177838377655,-0.006285885348916054,-0.014397202990949154,0.0048211487010121346,-0.010203283280134201
0.015036833472549915,-0.00037157186307013035,-0.006796627305448055,-0.01384207047522068,0.005092777777463198,-0.009938186034560204
0.015432631596922874,-0.00035333470441401005,-0.0063107493333518505,-0.014522925019264221,0.005347297992557287,-0.009626613929867744
0.015432631596922874,-0.00035333470441401005,-0.0063107493333518505,-0.014522925019264221,0.005347297992557287,-0.009626613929867744
0.015130757354199886,-0.0003368056786712259,-0.006211002357304096,-0.01436841581016779,0.0060373330488801,-0.010622859001159668
0.01572423055768013,-0.000283173838397488,-0.0066169253550469875,-0.015066889114677906,0.005617107264697552,-0.010713310912251472
0.015989258885383606,-0.0002695118309929967,-0.006365449167788029,-0.014998970553278923,0.00526878098025918,-0.010892712511122227
0.01597391813993454,-0.00025843558250926435,-0.006660072598606348,-0.015762586146593094,0.005068158730864525,-0.0104374960064888
0.015745654702186584,-0.00024825087166391313,-0.006664539221674204,-0.015381875447928905,0.004864860326051712,-0.010612636804580688
0.016008343547582626,-0.0002388395369052887,-0.005846478044986725,-0.01581570692360401,0.005167526192963123,-0.011004443280398846
0.01590786874294281,-0.00013160231173969805,-0.006000718101859093,-0.015742864459753036,0.00510033406317234,-0.011195185594260693
0.015670638531446457,-7.729783101240173e-05,-0.0062776291742920876,-0.016243845224380493,0.005317453294992447,-0.011142440140247345
0.015988394618034363,-7.348757208092138e-05,-0.006496019661426544,-0.015851804986596107,0.00528869079425931,-0.010348889976739883
0.01595514826476574,-7.059648487484083e-05,-0.00593195203691721,-0.016305888071656227,0.005074358079582453,-0.010586817748844624
0.016216641291975975,-6.793194188503549e-05,-0.00606631301343441,-0.016567682847380638,0.005314472131431103,-0.010873241350054741
0.01587449200451374,-6.546133226947859e-05,-0.005680851638317108,-0.01629418134689331,0.005255189258605242,-0.010574187152087688
0.01623895950615406,-6.31642687949352e-05,-0.006432435475289822,-0.01727944053709507,0.005907316226512194,-0.01078540738672018
0.016221577301621437,-4.098395584151149e-05,-0.006709330249577761,-0.017696591094136238,0.005655547138303518,-0.010734605602920055
0.016020692884922028,-2.9651489967363887e-05,-0.0059208376333117485,-0.018114227801561356,0.0057391151785850525,-0.010208877734839916
0.01624327525496483,-2.8575872420333326e-05,-0.0056489636190235615,-0.018016155809164047,0.005671882536262274,-0.010574093088507652
0.015933558344841003,-9.498454346612561e-06,-0.00574128795415163,-0.0171365886926651,0.005574418697506189,-0.011004016734659672
0.016512079164385796,-1.2743389277147799e-07,-0.006615612655878067,-0.017680246382951736,0.005329018924385309,-0.011244852095842361
0.016661999747157097,-2.293765351268906e-11,-0.0062190331518650055,-0.018326319754123688,0.005606105551123619,-0.011178170330822468
0.01641327142715454,-3.0773788465415786e-13,-0.005886069033294916,-0.01919870264828205,0.00527285598218441,-0.011172719299793243
0.01633894257247448,-4.128696506449899e-15,-0.006191631779074669,-0.01773211359977722,0.005232527852058411,-0.010499503463506699
0.016416585072875023,-5.539173612930722e-17,-0.006275991443544626,-0.017598090693354607,0.004897357430309057,-0.010788070037961006
0.016204841434955597,-7.431508496413689e-19,-0.006449831649661064,-0.018452642485499382,0.005673135165125132,-0.010841825045645237
0.01653822511434555,-9.970317308037783e-21,-0.0061288257129490376,-0.01763913966715336,0.005548205226659775,-0.01079623308032751
0.016094956547021866,-1.3376453099100888e-22,-0.005482591688632965,-0.017944134771823883,0.005380515940487385,-0.011582307517528534
0.01687004044651985,-1.7946216801304828e-24,-0.005894789472222328,-0.01843351684510708,0.0054562450386583805,-0.011281809769570827
0.01649470441043377,-2.407713954076138e-26,-0.006238747388124466,-0.01926765963435173,0.005105049815028906,-0.010777955874800682
0.016904320567846298,-3.2302556473500403e-28,-0.006291459314525127,-0.019833460450172424,0.005400936584919691,-0.010808578692376614
0.016904320567846298,-3.2302556473500403e-28,-0.006291459314525127,-0.019833460450172424,0.005400936584919691,-0.010808578692376614
0.01704319380223751,0.0005263977218419313,-0.005904372315853834,-0.01937681809067726,0.006177443079650402,-0.011140656657516956
0.015613586641848087,0.0007240551058202982,-0.0057141841389238834,-0.01929319277405739,0.006046986673027277,-0.011391525156795979
0.01771519146859646,0.0007384649361483753,-0.006264944560825825,-0.01999388076364994,0.006012598052620888,-0.011478164233267307
0.017722418531775475,0.0006714314222335815,-0.007034686394035816,-0.020831093192100525,0.005371901672333479,-0.011945455335080624
0.017553936690092087,0.0006633302546106279,-0.0068955812603235245,-0.020195182412862778,0.005341101437807083,-0.01197886187583208
0.018138529732823372,0.0006322062690742314,-0.005775888450443745,-0.019815033301711082,0.005745214410126209,-0.01206023246049881
0.01768779754638672,0.0009345795260742307,-0.005088729318231344,-0.020053299143910408,0.005968137644231319,-0.01155843399465084
0.018011702224612236,0.003664013696834445,-0.0061356741935014725,-0.020275123417377472,0.005936306435614824,-0.012206842191517353
0.017502889037132263,0.005759023129940033,-0.007091171573847532,-0.02073587290942669,0.005865325219929218,-0.01179477758705616
0.0172782763838768,0.004712164402008057,-0.006352014373987913,-0.021562155336141586,0.005939135327935219,-0.012163189239799976
0.01816864311695099,0.0035649696364998817,-0.005537495017051697,-0.021028168499469757,0.006425282917916775,-0.012593473307788372
0.017818942666053772,0.002870623953640461,-0.005710413679480553,-0.02101479470729828,0.006476039998233318,-0.012674860656261444
0.018309885635972023,0.0024834328796714544,-0.006661316379904747,-0.021938305348157883,0.006319544278085232,-0.01231346745043993
0.018335487693548203,0.0032822301145642996,-0.007323775440454483,-0.022457405924797058,0.005768290720880032,-0.011997614987194538
0.017606530338525772,0.00437571806833148,-0.00619056262075901,-0.022148245945572853,0.0059349145740270615,-0.01193191483616829
0.018284110352396965,0.004349141381680965,-0.005936018191277981,-0.0220479816198349,0.006098643410950899,-0.012140830047428608
0.01833653450012207,0.0042532701045274734,-0.006475069094449282,-0.022450031712651253,0.0060079325921833515,-0.012225892394781113
0.01795002818107605,0.003814573399722576,-0.006829184014350176,-0.02226674184203148,0.006104809232056141,-0.01284962147474289
0.018109800294041634,0.0035776153672486544,-0.006661681924015284,-0.022516125813126564,0.005656609311699867,-0.012340908870100975
0.018323583528399467,0.0038034850731492043,-0.006203903816640377,-0.022920863702893257,0.005997899919748306,-0.01120974775403738
0.01783200539648533,0.004751622211188078,-0.006107497960329056,-0.022332068532705307,0.006157641299068928,-0.013594568707048893
0.017830384895205498,0.0048833186738193035,-0.0065706223249435425,-0.02252500131726265,0.005891798529773951,-0.012729614973068237
0.017830384895205498,0.0048833186738193035,-0.0065706223249435425,-0.02252500131726265,0.005891798529773951,-0.012729614973068237
0.018587961792945862,0.004396373871713877,-0.0061429147608578205,-0.024837994948029518,0.0062036337330937386,-0.012484020553529263
0.018587961792945862,0.004396373871713877,-0.0061429147608578205,-0.024837994948029518,0.0062036337330937386,-0.012484020553529263
0.017940467223525047,0.005175022874027491,-0.005885711405426264,-0.024476632475852966,0.006269576493650675,-0.012647625990211964
0.018197819590568542,0.0050755515694618225,-0.006372057367116213,-0.023700160905718803,0.006062695290893316,-0.012819734402000904
0.018159352242946625,0.005402877926826477,-0.006809720769524574,-0.023446427658200264,0.005738665349781513,-0.012826924212276936
0.018111366778612137,0.005799533799290657,-0.006656465120613575,-0.02406131848692894,0.005800990853458643,-0.013250249437987804
0.018352076411247253,0.005444403737783432,-0.006386245135217905,-0.02518872544169426,0.0060579972341656685,-0.012665542773902416
0.017989806830883026,0.0052209701389074326,-0.006372467149049044,-0.025375986471772194,0.005884407553821802,-0.013028974644839764
0.018103398382663727,0.005177198443561792,-0.007061663083732128,-0.02530083991587162,0.005686350166797638,-0.012691409327089787
0.018174434080719948,0.006000639405101538,-0.007038968615233898,-0.025879373773932457,0.0053114937618374825,-0.01329896692186594
0.018158117309212685,0.0069502126425504684,-0.006496763322502375,-0.026402249932289124,0.005757188890129328,-0.013379087671637535
0.01862727850675583,0.006798149552196264,-0.006316258106380701,-0.02622469887137413,0.005945421289652586,-0.013512407429516315
0.018193598836660385,0.006130770314484835,-0.0069969273172318935,-0.025546962395310402,0.006320065353065729,-0.013518807478249073
0.018160587176680565,0.006317420396953821,-0.0074825952760875225,-0.025417638942599297,0.006211667787283659,-0.013254439458251
0.01855800673365593,0.006382362451404333,-0.006979544181376696,-0.02606908790767193,0.005804107990115881,-0.01336416881531477
0.018407031893730164,0.0071535841561853886,-0.006461584474891424,-0.02712683565914631,0.006077015772461891,-0.01294415071606636
0.018624240532517433,0.007371615618467331,-0.006818058900535107,-0.02674054354429245,0.0061801280826330185,-0.013471534475684166
0.018718302249908447,0.007602291647344828,-0.007316824048757553,-0.027077998965978622,0.006498971953988075,-0.013369021937251091
0.01852850802242756,0.006695931311696768,-0.006865200586616993,-0.026701398193836212,0.006438733544200659,-0.013269481249153614
0.019019844010472298,0.007125421427190304,-0.007150364574044943,-0.026190180331468582,0.006003139074891806,-0.013132872059941292
0.019275333732366562,0.007521637715399265,-0.006463741417974234,-0.02672368660569191,0.005907608661800623,-0.013463268056511879
0.018853163346648216,0.007618325762450695,-0.006845611613243818,-0.027057453989982605,0.00609597098082304,-0.013605439104139805
0.01912648417055607,0.0089188851416111,-0.006974149961024523,-0.02721056528389454,0.006087735295295715,-0.013760752975940704
0.018972862511873245,0.007796470075845718,-0.006839605048298836,-0.027338232845067978,0.0061543225310742855,-0.013566541485488415
0.01916561648249626,0.008062019944190979,-0.0077326735481619835,-0.02777130715548992,0.0058104307390749454,-0.01341213472187519
0.019191108644008636,0.009498891420662403,-0.0069222524762153625,-0.02844998426735401,0.006283342372626066,-0.013252940960228443
0.018937814980745316,0.008616000413894653,-0.006512995809316635,-0.027456149458885193,0.006504895631223917,-0.013182150200009346
0.019149262458086014,0.008657985366880894,-0.006558541674166918,-0.02772604674100876,0.006395858246833086,-0.01335870660841465
0.019149262458086014,0.008657985366880894,-0.006558541674166918,-0.02772604674100876,0.006395858246833086,-0.01335870660841465
0.01925937458872795,0.009602120146155357,-0.0070582847110927105,-0.02907860465347767,0.006244100630283356,-0.013648323714733124
0.01925937458872795,0.009602120146155357,-0.0070582847110927105,-0.02907860465347767,0.006244100630283356,-0.013648323714733124
0.01942061074078083,0.008753343485295773,-0.006562294438481331,-0.028818853199481964,0.006116220261901617,-0.013885409571230412
0.019579006358981133,0.008867300115525723,-0.0065708826296031475,-0.02907569520175457,0.006425435654819012,-0.013874486088752747
0.01931612752377987,0.009575105272233486,-0.0065220315009355545,-0.029324542731046677,0.006671819370239973,-0.013970108702778816
0.01955697499215603,0.00952048972249031,-0.0069763013161718845,-0.02961689606308937,0.006574014201760292,-0.013798883184790611
0.019660325720906258,0.009279055520892143,-0.0073562548495829105,-0.029708031564950943,0.006325966212898493,-0.014051406644284725
0.019225599244236946,0.009955217130482197,-0.0069248429499566555,-0.0291003230959177,0.006341203581541777,-0.013880958780646324
0.019522322341799736,0.010558795183897018,-0.006296548526734114,-0.029491731896996498,0.006907884497195482,-0.014117389917373657
0.020152783021330833,0.01005623210221529,-0.006566830910742283,-0.029919983819127083,0.007022482343018055,-0.014021391049027443
0.019609717652201653,0.010932451114058495,-0.007017345633357763,-0.0293253343552351,0.00629896204918623,-0.014206360094249249
0.019333112984895706,0.010574987158179283,-0.006438317708671093,-0.029164975509047508,0.006188653409481049,-0.013933097012341022
0.02011685073375702,0.010524660348892212,-0.0062233516946434975,-0.02947124093770981,0.006757058668881655,-0.013177493587136269
0.020092882215976715,0.010858788155019283,-0.006634404882788658,-0.030285047367215157,0.006941426545381546,-0.014369893819093704
0.019685892388224602,0.010793735273182392,-0.007385379169136286,-0.029931645840406418,0.006905319169163704,-0.014744339510798454
0.020006030797958374,0.011690679006278515,-0.006545557174831629,-0.030189311131834984,0.00645836116746068,-0.014507681131362915
0.019860735163092613,0.010813628323376179,-0.006298180669546127,-0.03013674169778824,0.006397739518433809,-0.01436370424926281
0.02028561383485794,0.010857874527573586,-0.006206012796610594,-0.030349431559443474,0.006799567025154829,-0.013927172869443893
0.020734071731567383,0.012027165852487087,-0.00670769764110446,-0.030842654407024384,0.006997227668762207,-0.013959821313619614
0.021293172612786293,0.011536671780049801,-0.006974464748054743,-0.03050810657441616,0.006834903731942177,-0.014151622541248798
0.021042436361312866,0.011973155662417412,-0.006712967064231634,-0.030843989923596382,0.006365274544805288,-0.014614059589803219
0.020396945998072624,0.012000994756817818,-0.00643871258944273,-0.03112984262406826,0.006286919582635164,-0.015057624317705631
0.02031606249511242,0.011540068313479424,-0.006733591202646494,-0.029781172052025795,0.006969745736569166,-0.01464975904673338
0.02091524563729763,0.011364955455064774,-0.0066254474222660065,-0.029588675126433372,0.006630931980907917,-0.014454656280577183
0.021282317116856575,0.012616924941539764,-0.006105351727455854,-0.03122512437403202,0.00641402043402195,-0.014955482445657253
0.020890403538942337,0.011928407475352287,-0.006089490372687578,-0.03138398379087448,0.006237710360437632,-0.014893287792801857
0.02105657011270523,0.011960783042013645,-0.006598448380827904,-0.031532831490039825,0.006963859777897596,-0.014231466688215733
0.021461624652147293,0.01228620857000351,-0.006680731661617756,-0.03315819799900055,0.0067702545784413815,-0.014784571714699268
0.021461624652147293,0.01228620857000351,-0.006680731661617756,-0.03315819799900055,0.0067702545784413815,-0.014784571714699268
0.021719764918088913,0.011806122027337551,-0.006152055226266384,-0.03364527225494385,0.0063659860752522945,-0.014712889678776264
0.02147393673658371,0.01197496522217989,-0.006255981978029013,-0.032094378024339676,0.006129184737801552,-0.014914866536855698
0.02163696102797985,0.011038532480597496,-0.00631671492010355,-0.03208125755190849,0.006159396376460791,-0.014846672303974628
0.021125128492712975,0.011188020929694176,-0.00724751828238368,-0.03323012590408325,0.006469138897955418,-0.014720894396305084
0.021365562453866005,0.011911687441170216,-0.006717710755765438,-0.03378544747829437,0.00698870001360774,-0.01490702759474516
0.021540721878409386,0.011662655510008335,-0.006217533256858587,-0.033758677542209625,0.006860100198537111,-0.01537246722728014
0.022096775472164154,0.012067122384905815,-0.0061609260737895966,-0.033926431089639664,0.006121032405644655,-0.015249967575073242
0.02193548157811165,0.011336295865476131,-0.005999207962304354,-0.03388132154941559,0.0064471010118722916,-0.015612288378179073
0.021827563643455505,0.012705907225608826,-0.006478985771536827,-0.03421434387564659,0.00688152015209198,-0.015282976441085339
0.021681779995560646,0.012342422269284725,-0.006201861891895533,-0.03491102531552315,0.007000873796641827,-0.0151063809171319
0.02283380553126335,0.012076262384653091,-0.006341489963233471,-0.034741487354040146,0.006844923831522465,-0.014995673671364784
0.022259872406721115,0.012563448399305344,-0.0061988611705601215,-0.03490499407052994,0.00594507809728384,-0.01539007481187582
0.021923279389739037,0.01219670008867979,-0.006561830639839172,-0.03536178916692734,0.0060661714524030685,-0.01507230568677187
0.022117502987384796,0.012336690910160542,-0.007159838452935219,-0.034296683967113495,0.006688673980534077,-0.014955822378396988
0.022402629256248474,0.012351843528449535,-0.006326556205749512,-0.03585958853363991,0.006810658611357212,-0.015454296953976154
0.022662559524178505,0.012963219545781612,-0.006482924334704876,-0.035616230219602585,0.006649235729128122,-0.015731874853372574
0.022322148084640503,0.0121852345764637,-0.006533986888825893,-0.034623511135578156,0.006735994014889002,-0.01619219034910202
0.02234978787600994,0.011892826296389103,-0.006923501845449209,-0.034403085708618164,0.006785432808101177,-0.01584474928677082
0.022728577256202698,0.01257240492850542,-0.007266742642968893,-0.03579535707831383,0.007452990859746933,-0.015640873461961746
0.023183375597000122,0.012302792631089687,-0.00680659431964159,-0.036182790994644165,0.007144300267100334,-0.015483719296753407
0.02285538613796234,0.012755573727190495,-0.006358883809298277,-0.03821330890059471,0.007223166525363922,-0.01584281027317047
0.023078899830579758,0.013401246629655361,-0.0070015317760407925,-0.0373847559094429,0.007597051095217466,-0.015506921336054802
0.023849105462431908,0.01335520576685667,-0.006222419906407595,-0.036798279732465744,0.00716515863314271,-0.015629487112164497
0.023555148392915726,0.01367289386689663,-0.006070428993552923,-0.0378144197165966,0.007053935434669256,-0.016057126224040985
0.023364508524537086,0.01328228134661913,-0.006501869298517704,-0.03787166625261307,0.006851141341030598,-0.016429072245955467
0.02386980876326561,0.013107448816299438,-0.006720070261508226,-0.03776656091213226,0.006860664114356041,-0.016054265201091766
0.02386980876326561,0.013107448816299438,-0.006720070261508226,-0.03776656091213226,0.006860664114356041,-0.016054265201091766
0.02414109744131565,0.013560829684138298,-0.006588958203792572,-0.03825739398598671,0.007189207244664431,-0.016036976128816605
0.024159952998161316,0.01318424753844738,-0.006135173141956329,-0.03780093044042587,0.006635564379394054,-0.014982092194259167
0.02368914894759655,0.013500991277396679,-0.006473706103861332,-0.03803403303027153,0.006613755598664284,-0.01640799641609192
0.023689864203333855,0.012881593778729439,-0.0069126528687775135,-0.037733692675828934,0.00682303449138999,-0.016549894586205482
0.02430812269449234,0.013663619756698608,-0.006759334355592728,-0.037534188479185104,0.00745594035834074,-0.016398757696151733
0.024942388758063316,0.013672925531864166,-0.006295391824096441,-0.03895203396677971,0.007099595386534929,-0.016427146270871162
0.02399044670164585,0.01495284866541624,-0.006021224427968264,-0.03927300125360489,0.006477005314081907,-0.01648155227303505
0.024597175419330597,0.014220193028450012,-0.006105466745793819,-0.03857959806919098,0.0067626782692968845,-0.016701124608516693
0.025579242035746574,0.014414362609386444,-0.006629548035562038,-0.038754627108573914,0.0074035790748894215,-0.01619616337120533
0.025293268263339996,0.014090845361351967,-0.006582326255738735,-0.03969684615731239,0.007277365308254957,-0.01657082326710224
0.025594396516680717,0.01470763236284256,-0.006243334151804447,-0.039515651762485504,0.007143819704651833,-0.01637336239218712
0.024436280131340027,0.014183863997459412,-0.006031994707882404,-0.039399318397045135,0.00745957437902689,-0.016254598274827003
0.024266384541988373,0.014866436831653118,-0.006432334892451763,-0.03988592326641083,0.007622790988534689,-0.01662147417664528
0.02481004036962986,0.014627695083618164,-0.006850134115666151,-0.0415809191763401,0.0075777387246489525,-0.016674771904945374
0.025173857808113098,0.015189522877335548,-0.006528579164296389,-0.03969324752688408,0.0075036147609353065,-0.016688674688339233
0.02519238367676735,0.014490404166281223,-0.0060323383659124374,-0.03940268233418465,0.007490034680813551,-0.016175853088498116
0.025048784911632538,0.015526611357927322,-0.006098809652030468,-0.039954788982868195,0.007542973849922419,-0.016866449266672134
0.025048784911632538,0.015526611357927322,-0.006098809652030468,-0.039954788982868195,0.007542973849922419,-0.016866449266672134
0.02493065968155861,0.01516600139439106,-0.007112681400030851,-0.04012007638812065,0.007235322147607803,-0.016703233122825623
0.025273237377405167,0.015546370297670364,-0.006226205732673407,-0.040041252970695496,0.00739107234403491,-0.016223536804318428
0.024663211777806282,0.015587306581437588,-0.006155290175229311,-0.04187438637018204,0.007829738780856133,-0.016618750989437103
0.02490694262087345,0.01575845293700695,-0.006564486306160688,-0.04323318228125572,0.0074006179347634315,-0.01637345366179943
0.0250417310744524,0.015441695228219032,-0.0066224513575434685,-0.04097845032811165,0.006999841891229153,-0.016674363985657692
0.024763522669672966,0.01534714549779892,-0.006468170788139105,-0.04097627475857735,0.00672368286177516,-0.016893897205591202
0.02515534870326519,0.016112543642520905,-0.006376576144248247,-0.04219406470656395,0.007360421121120453,-0.016602402552962303
0.025393377989530563,0.015888189896941185,-0.005994043312966824,-0.04391716420650482,0.007010181434452534,-0.016592061147093773
0.025418849661946297,0.016140678897500038,-0.006752396002411842,-0.04393022879958153,0.006911357864737511,-0.016927603632211685
0.025437548756599426,0.015440132468938828,-0.006916444282978773,-0.042425576597452164,0.007117991801351309,-0.017217585816979408
0.025304218754172325,0.01624375581741333,-0.006701007951050997,-0.04208151996135712,0.006957490928471088,-0.017292236909270287
0.025304218754172325,0.01624375581741333,-0.006701007951050997,-0.04208151996135712,0.006957490928471088,-0.017292236909270287
0.025797655805945396,0.01610543206334114,-0.005931397434324026,-0.0434519425034523,0.007165338844060898,-0.01713292859494686
0.025561459362506866,0.016437962651252747,-0.00639575207605958,-0.043392352759838104,0.007265291642397642,-0.016870325431227684
0.025790521875023842,0.01635967195034027,-0.006701924838125706,-0.04357625171542168,0.0069199176505208015,-0.016925381496548653
0.02514880709350109,0.0162294190376997,-0.006188173312693834,-0.044733792543411255,0.006881828419864178,-0.01715378649532795
0.02449079044163227,0.016883138567209244,-0.006436859257519245,-0.04378831386566162,0.007185178343206644,-0.016774050891399384
0.02575143799185753,0.016322188079357147,-0.006439590826630592,-0.043648213148117065,0.00767740560695529,-0.017207596451044083
0.025873035192489624,0.016790194436907768,-0.006842218805104494,-0.044349029660224915,0.007874766364693642,-0.01772659458220005
0.025524774566292763,0.017433062195777893,-0.006768288090825081,-0.044158898293972015,0.007832811214029789,-0.018077118322253227
0.025139838457107544,0.017041560262441635,-0.006180146709084511,-0.04478629305958748,0.0071854060515761375,-0.017478998750448227
0.025405453518033028,0.01668245531618595,-0.006315306760370731,-0.044792089611291885,0.006990975700318813,-0.017175868153572083
0.02562210150063038,0.01679364964365959,-0.006048403214663267,-0.046487633138895035,0.007205996662378311,-0.017875855788588524
0.026039179414510727,0.01725717820227146,-0.0065779732540249825,-0.04634801298379898,0.007630669046193361,-0.018212709575891495
0.025540845468640327,0.016702592372894287,-0.006467187311500311,-0.04406912997364998,0.008126841858029366,-0.01853640191257
0.02576877363026142,0.017485681921243668,-0.006133595481514931,-0.04527026414871216,0.0076622869819402695,-0.018298685550689697
0.02560110203921795,0.017591476440429688,-0.006128611974418163,-0.0453454852104187,0.0073740496300160885,-0.01775161363184452
0.02562739886343479,0.017463183030486107,-0.006601964123547077,-0.047406092286109924,0.007963930256664753,-0.017667988315224648
0.025334961712360382,0.017958780750632286,-0.006631229072809219,-0.04579508304595947,0.007911252789199352,-0.017717700451612473
0.025055937469005585,0.017202084884047508,-0.006269351579248905,-0.04423314332962036,0.007757911458611488,-0.01819460280239582
0.025423288345336914,0.0180134829133749,-0.00655177840963006,-0.046781379729509354,0.007968268357217312,-0.019309742376208305
0.025859614834189415,0.018156424164772034,-0.006795797031372786,-0.04774733632802963,0.007493685930967331,-0.018944473937153816
0.026666462421417236,0.01859883964061737,-0.00670756446197629,-0.04601895809173584,0.007402011658996344,-0.017893847078084946
0.026226770132780075,0.01857881061732769,-0.006568566430360079,-0.045013926923274994,0.0074388994835317135,-0.019480513408780098
0.025273460894823074,0.0175727978348732,-0.006235252134501934,-0.04555140808224678,0.007988526485860348,-0.019112195819616318
0.025161081925034523,0.018187718465924263,-0.0065818410366773605,-0.04614410176873207,0.0076170568354427814,-0.018601123243570328
0.025654103606939316,0.01789420284330845,-0.0068849059753119946,-0.04666139557957649,0.007411319296807051,-0.01889742910861969
0.025654103606939316,0.01789420284330845,-0.0068849059753119946,-0.04666139557957649,0.007411319296807051,-0.01889742910861969
0.026184305548667908,0.01867777854204178,-0.006536609958857298,-0.04676469415426254,0.008020110428333282,-0.019120074808597565
0.025494124740362167,0.019476592540740967,-0.006417176686227322,-0.046663641929626465,0.008197351358830929,-0.019013341516256332
0.026507560163736343,0.019205326214432716,-0.006477431859821081,-0.0470576249063015,0.00788926612585783,-0.01952376402914524
0.027216613292694092,0.019068609923124313,-0.006834556348621845,-0.04758644104003906,0.007446582894772291,-0.019494375213980675
0.027085060253739357,0.019237572327256203,-0.006737252697348595,-0.048009853810071945,0.007827267050743103,-0.019269485026597977
0.0267490204423666,0.01896202750504017,-0.006528094410896301,-0.04855043441057205,0.007769785355776548,-0.019106244668364525
0.025927206501364708,0.0193658284842968,-0.006315447390079498,-0.049241892993450165,0.008057177998125553,-0.01892816834151745
0.02603716403245926,0.019572734832763672,-0.0068765664473176,-0.049503542482852936,0.0076913125813007355,-0.019206631928682327
0.02710704505443573,0.019383547827601433,-0.0071447379887104034,-0.049840640276670456,0.0076629389077425,-0.019279714673757553
0.026900386437773705,0.019742315635085106,-0.006494805216789246,-0.049155283719301224,0.00812922976911068,-0.019059740006923676
0.026341870427131653,0.019723277539014816,-0.006936297751963139,-0.050675660371780396,0.007757204584777355,-0.0190181452780962
0.02670014090836048,0.01983490400016308,-0.006983342580497265,-0.0507298968732357,0.00793030858039856,-0.01980399899184704
0.026655562222003937,0.01945624314248562,-0.007539638318121433,-0.048826467245817184,0.008169556967914104,-0.019945992156863213
0.026801038533449173,0.019768891856074333,-0.007393380627036095,-0.04969944432377815,0.007884052582085133,-0.019724542275071144
0.026619577780365944,0.019955681636929512,-0.006631904281675816,-0.050235189497470856,0.008010794408619404,-0.019637437537312508
0.027133308351039886,0.018707899376749992,-0.006874697748571634,-0.052433136850595474,0.008256062865257263,-0.01969706453382969
0.027490271255373955,0.020749036222696304,-0.007334918715059757,-0.05079163238406181,0.008212784305214882,-0.02002289704978466
0.027305494993925095,0.020596370100975037,-0.006969788111746311,-0.049710556864738464,0.008318943902850151,-0.01990654692053795
0.027357887476682663,0.02021879330277443,-0.006943429354578257,-0.05177319794893265,0.008363821543753147,-0.019747424870729446
0.027830645442008972,0.020477358251810074,-0.006950907409191132,-0.05217356234788895,0.008531751111149788,-0.01953570917248726
0.0275805052369833,0.02084869146347046,-0.007607360370457172,-0.05195741355419159,0.008126814849674702,-0.02020784467458725
0.027935124933719635,0.020748058333992958,-0.006984733510762453,-0.05163392424583435,0.008060486987233162,-0.020123623311519623
0.028795192018151283,0.021095890551805496,-0.006644781678915024,-0.05170636996626854,0.008327754214406013,-0.019849389791488647
0.028619466349482536,0.021626990288496017,-0.00691610062494874,-0.052755460143089294,0.008097420446574688,-0.019687235355377197
0.02786613442003727,0.021058091893792152,-0.007321631535887718,-0.052484266459941864,0.008184828795492649,-0.019842403009533882
0.027512656524777412,0.0207938551902771,-0.007253960706293583,-0.05151195451617241,0.007828481495380402,-0.01997184567153454
0.028225945308804512,0.021446451544761658,-0.007138763554394245,-0.05344062298536301,0.007450748700648546,-0.020039284601807594
0.028730548918247223,0.02183210663497448,-0.007072139531373978,-0.05427004024386406,0.00801599770784378,-0.01961127482354641
0.02826680801808834,0.021409684792160988,-0.007696354761719704,-0.05161639302968979,0.008115191012620926,-0.020173583179712296
0.029331134632229805,0.021685274317860603,-0.006844960618764162,-0.05237947776913643,0.00829903595149517,-0.021467402577400208
0.029829571023583412,0.021919550374150276,-0.006599825341254473,-0.053101491183042526,0.008467670530080795,-0.0212760828435421
0.029829571023583412,0.021919550374150276,-0.006599825341254473,-0.053101491183042526,0.008467670530080795,-0.0212760828435421
0.028929773718118668,0.022419145330786705,-0.007213533390313387,-0.05381762981414795,0.008784339763224125,-0.020289525389671326
0.02843981422483921,0.022016137838363647,-0.00750745739787817,-0.05133654177188873,0.008249808102846146,-0.02049100585281849
0.028515640646219254,0.0217983927577734,-0.007349521853029728,-0.05205373093485832,0.008138696663081646,-0.01977480575442314
0.02981763333082199,0.02245127409696579,-0.007342349272221327,-0.053123682737350464,0.008663808926939964,-0.019415851682424545
0.029855091124773026,0.022933008149266243,-0.007411847822368145,-0.05318348854780197,0.008725308813154697,-0.019872965291142464
0.029848599806427956,0.02277948521077633,-0.008051317185163498,-0.053481344133615494,0.008745793253183365,-0.02146333083510399
0.029854869470000267,0.022775376215577126,-0.007633944042026997,-0.05445528030395508,0.008961662650108337,-0.021671682596206665
0.02978658676147461,0.02263643406331539,-0.00696555944159627,-0.05507330223917961,0.008492683060467243,-0.02078828401863575
0.02999562956392765,0.022593161091208458,-0.007272073533385992,-0.0545329749584198,0.008579140529036522,-0.02048884704709053
0.030122296884655952,0.022842520847916603,-0.00762206269428134,-0.05500136315822601,0.008802374824881554,-0.021411806344985962
0.030419571325182915,0.02295200154185295,-0.007312406320124865,-0.055563293397426605,0.008381109684705734,-0.02160734497010708
0.03049379773437977,0.022471463307738304,-0.007221192587167025,-0.055630333721637726,0.008464486338198185,-0.021044835448265076
0.030185816809535027,0.02241021953523159,-0.007449691649526358,-0.05610538646578789,0.009048249572515488,-0.020755082368850708
0.03067534975707531,0.022931093350052834,-0.007947494275867939,-0.056304678320884705,0.00843321718275547,-0.0203666053712368
0.030345601961016655,0.023477666079998016,-0.007060936652123928,-0.05617835745215416,0.00842498429119587,-0.02074430324137211
0.030493194237351418,0.02324681542813778,-0.00675916438922286,-0.056519538164138794,0.008490475825965405,-0.021423090249300003
0.030873440206050873,0.023131903260946274,-0.007497512269765139,-0.05608654394745827,0.008441142737865448,-0.02208801358938217
0.030896998941898346,0.023036764934659004,-0.007575688883662224,-0.05818149819970131,0.00871602725237608,-0.021986113861203194
0.03040323406457901,0.02310742437839508,-0.007111132610589266,-0.05741845443844795,0.008987098932266235,-0.021394966170191765
0.031502965837717056,0.024230604991316795,-0.007467334624379873,-0.05853186547756195,0.008412360213696957,-0.02104869671165943
0.03101986087858677,0.023944955319166183,-0.0076181842014193535,-0.059696219861507416,0.008288577198982239,-0.021113494411110878
0.031232919543981552,0.023597145453095436,-0.007267333567142487,-0.05681373551487923,0.008979440666735172,-0.02135460451245308
0.031725022941827774,0.023446138948202133,-0.007173954974859953,-0.0571819543838501,0.008665461093187332,-0.02171400748193264
0.031725022941827774,0.023446138948202133,-0.007173954974859953,-0.0571819543838501,0.008665461093187332,-0.02171400748193264
0.0319727398455143,0.02440890669822693,-0.007819246500730515,-0.058928582817316055,0.008816124871373177,-0.021772531792521477
0.0319727398455143,0.02440890669822693,-0.007819246500730515,-0.058928582817316055,0.008816124871373177,-0.021772531792521477
0.03126648813486099,0.025001199916005135,-0.006964043248444796,-0.059136200696229935,0.009305333718657494,-0.02194697968661785
0.03135816752910614,0.02446167729794979,-0.0069101848639547825,-0.059128373861312866,0.009211783297359943,-0.02168344520032406
0.03149399533867836,0.024292470887303352,-0.006891255266964436,-0.05928817763924599,0.008699064143002033,-0.021792007610201836
0.03148254379630089,0.025346582755446434,-0.007491120137274265,-0.05940626934170723,0.009207460097968578,-0.021968331187963486
0.03143863379955292,0.024785136803984642,-0.008055534213781357,-0.059382401406764984,0.00875586923211813,-0.022117193788290024
0.032034970819950104,0.02470325492322445,-0.007135258987545967,-0.05878613889217377,0.008820051327347755,-0.02211856283247471
0.031945016235113144,0.024092400446534157,-0.007399342022836208,-0.05797460675239563,0.009092742577195168,-0.02203056588768959
0.031906988471746445,0.025505488738417625,-0.007829596288502216,-0.06029200181365013,0.008785311132669449,-0.022637657821178436
0.03160197287797928,0.02529137209057808,-0.007030705455690622,-0.05832101032137871,0.008819674141705036,-0.022686179727315903
0.03257502242922783,0.025548310950398445,-0.006675517186522484,-0.05867769196629524,0.009099421091377735,-0.022839520126581192
0.03288083150982857,0.025356370955705643,-0.006707288324832916,-0.058892108500003815,0.009620544500648975,-0.022925183176994324
0.03234008699655533,0.025417011231184006,-0.007365794852375984,-0.06108471751213074,0.009734034538269043,-0.022823693230748177
0.03079969622194767,0.025554154068231583,-0.006981207989156246,-0.05918626859784126,0.009412947110831738,-0.02305855229496956
0.031615834683179855,0.026114681735634804,-0.00722513347864151,-0.060616109520196915,0.009175396524369717,-0.022865455597639084
0.033151719719171524,0.026252826675772667,-0.007098711561411619,-0.06121520325541496,0.008796315640211105,-0.022494124248623848
0.03253534063696861,0.026359913870692253,-0.006720853503793478,-0.06117936968803406,0.008801467716693878,-0.022591482847929
0.03269364684820175,0.02616771310567856,-0.006925450637936592,-0.06091669201850891,0.009063874371349812,-0.02287192828953266
0.033437494188547134,0.026817265897989273,-0.0066934735514223576,-0.061500899493694305,0.009318290278315544,-0.02309391275048256
0.032518189400434494,0.026262011379003525,-0.006683816201984882,-0.06241687759757042,0.009150519967079163,-0.024496693164110184
0.03105039894580841,0.02649015747010708,-0.007157585583627224,-0.06282918900251389,0.00916761439293623,-0.024198701605200768
0.03234580531716347,0.026921777054667473,-0.007599550765007734,-0.06241070479154587,0.009272963739931583,-0.022364772856235504
0.03308938443660736,0.026596175506711006,-0.0070150806568562984,-0.062592051923275,0.009134862571954727,-0.022333649918437004
0.032382361590862274,0.026594003662467003,-0.00651559978723526,-0.06282590329647064,0.009637103416025639,-0.023391123861074448
0.03254851698875427,0.026830198243260384,-0.007224493660032749,-0.06318847835063934,0.009427801705896854,-0.023366359993815422
0.03285204991698265,0.027659989893436432,-0.007046361919492483,-0.06570049375295639,0.00888600293546915,-0.023588359355926514
0.03281950205564499,0.026979917660355568,-0.006817810703068972,-0.06349443644285202,0.008994423784315586,-0.024440675973892212
0.0333416610956192,0.02735372632741928,-0.0070202965289354324,-0.06323955953121185,0.009250451810657978,-0.024560336023569107
0.03314441442489624,0.028308292850852013,-0.007636313326656818,-0.06534656882286072,0.009710988961160183,-0.024120047688484192
0.03314441442489624,0.028308292850852013,-0.007636313326656818,-0.06534656882286072,0.009710988961160183,-0.024120047688484192
0.032748181372880936,0.028052009642124176,-0.007636273745447397,-0.06650342792272568,0.009454956278204918,-0.023548107594251633
0.03343435376882553,0.02862883172929287,-0.006969089154154062,-0.06362307816743851,0.009282839484512806,-0.023815948516130447
0.0346667617559433,0.027891019359230995,-0.00647900253534317,-0.0642099678516388,0.009078158996999264,-0.02431466616690159
0.034237753599882126,0.027579477056860924,-0.006875965744256973,-0.06444497406482697,0.009379364550113678,-0.02469729818403721
0.032510366290807724,0.02834998443722725,-0.007377612870186567,-0.06437482684850693,0.009483035653829575,-0.024809425696730614
0.03310896083712578,0.0287488903850317,-0.007018005941063166,-0.06383959949016571,0.009160622954368591,-0.024564038962125778
0.03441495820879936,0.028599871322512627,-0.006702484097331762,-0.0642964243888855,0.009278623387217522,-0.024291204288601875
0.034539319574832916,0.02879232168197632,-0.0072682639583945274,-0.06445640325546265,0.009150492958724499,-0.023963918909430504
0.035370320081710815,0.028773095458745956,-0.007361166179180145,-0.06560856103897095,0.009167038835585117,-0.023951388895511627
0.03468576446175575,0.0285573098808527,-0.006882377900183201,-0.0656043067574501,0.009354287758469582,-0.023937569931149483
0.034226272255182266,0.029007665812969208,-0.0072725857608020306,-0.06588077545166016,0.009228230454027653,-0.023959707468748093
0.03394410014152527,0.029456092044711113,-0.007682877592742443,-0.06805036216974258,0.009101998060941696,-0.024045564234256744
