davideferrari95/blind_handover_controller/data/Test 201 - [2024-02-08 -- 11-58-06]/joint_states_data.csv
shoulder_pan_joint,shoulder_lift_joint,elbow_joint,wrist_1_joint,wrist_2_joint,wrist_3_joint
0.0006606074748560786,-0.016164759173989296,-0.0028240573592483997,0.019942788407206535,-0.0016936128959059715,0.000894643017090857
0.000682972720824182,-0.016098391264677048,-0.003555061761289835,0.020240703597664833,-0.0013990103034302592,0.0007413634448312223
0.000682972720824182,-0.016098391264677048,-0.003555061761289835,0.020240703597664833,-0.0013990103034302592,0.0007413634448312223
0.0006412529037334025,-0.015678726136684418,-0.0030099370051175356,0.020497789606451988,-0.001035197637975216,0.0006639349739998579
0.0006412529037334025,-0.015678726136684418,-0.0030099370051175356,0.020497789606451988,-0.001035197637975216,0.0006639349739998579
0.000592700089327991,-0.01572011224925518,-0.002439199946820736,0.020233139395713806,-0.0009826080640777946,0.0006665571709163487
0.0006007528863847256,-0.01589077152311802,-0.0023351844865828753,0.01968703791499138,-0.0009690367733128369,0.0006659411592409015
0.0006355853984132409,-0.015605609863996506,-0.0026913462206721306,0.019856318831443787,-0.0008894911734387279,0.0006840507849119604
0.0006532652769237757,-0.015967750921845436,-0.003445438342168927,0.019802900031208992,-0.0007821376202628016,0.0007414265419356525
0.0006262420793063939,-0.015534905716776848,-0.0036399848759174347,0.0191531740128994,-0.0008307441603392363,0.0013864249922335148
0.0007368868100456893,-0.015257500112056732,-0.0031300741247832775,0.019531548023223877,-0.0009334363276138902,0.0014783176593482494
0.0006521776667796075,-0.015794958919286728,-0.002640136983245611,0.01905818097293377,-0.0010609462624415755,0.0014009358128532767
0.0006788019672967494,-0.015149871818721294,-0.002719502430409193,0.01931670494377613,-0.0010532373562455177,0.0012532133841887116
0.000672517460770905,-0.015095919370651245,-0.003085984382778406,0.019787926226854324,-0.001032098545692861,0.0010427135275676847
0.0006359735853038728,-0.015010449104011059,-0.003545414423570037,0.019375190138816833,-0.0010306949261575937,0.0008498962270095944
0.0006593766156584024,-0.01573902741074562,-0.0038691889494657516,0.019379356876015663,-0.0009625766542740166,0.0007145939162001014
0.0006791969062760472,-0.015608726069331169,-0.003504034597426653,0.020050298422574997,-0.0009495525155216455,0.0006163777434267104
0.0007051537977531552,-0.014621217735111713,-0.0031093896832317114,0.019976502284407616,-0.0009424829622730613,0.0006349412724375725
0.0006352108903229237,-0.014890441671013832,-0.002767763566225767,0.019227052107453346,-0.0008974694064818323,0.0005793058662675321
0.0006618000334128737,-0.01495138369500637,-0.0028716179076582193,0.019513076171278954,-0.0009610570268705487,0.0005659223534166813
0.0006752924527972937,-0.015017978847026825,-0.0034102320205420256,0.019020648673176765,-0.0009744110284373164,0.0005541579448617995
0.0006262206588871777,-0.015148608945310116,-0.003871740074828267,0.018860938027501106,-0.0009657177142798901,0.0005652537802234292
0.0006968937232159078,-0.015533439815044403,-0.0034944480285048485,0.019240902736783028,-0.001041657873429358,0.0005396553897298872
0.0007211094489321113,-0.015008741989731789,-0.003430311568081379,0.019227303564548492,-0.0010536988265812397,0.00043238396756350994
0.0007094395696185529,-0.015285477042198181,-0.003210373455658555,0.019286975264549255,-0.001030540093779564,0.00041130479075945914
0.0006672331364825368,-0.01484766136854887,-0.0036110158544033766,0.01954060234129429,-0.0009628973784856498,0.00041144961141981184
0.0006672331364825368,-0.01484766136854887,-0.0036110158544033766,0.01954060234129429,-0.0009628973784856498,0.00041144961141981184
0.000688672938849777,-0.015236200764775276,-0.003387459320947528,0.01938493922352791,-0.0008979071862995625,0.00044378076563589275
0.0007159420638345182,-0.015075262635946274,-0.003259981283918023,0.01929711177945137,-0.0008143531158566475,0.0004699910350609571
0.0007390703540295362,-0.015163235366344452,-0.003358114743605256,0.019485706463456154,-0.0007653490174561739,0.000716048467438668
0.0006854566745460033,-0.014402381144464016,-0.003777634585276246,0.019038768485188484,-0.0007794501725584269,0.0008139387355186045
0.0007057579350657761,-0.014906581491231918,-0.003912166692316532,0.01892106793820858,-0.0007424925570376217,0.0007262876024469733
0.000725373683962971,-0.014017489738762379,-0.00368184270337224,0.01914348267018795,-0.0007493289303965867,0.0006412941729649901
0.000818337663076818,-0.014457924291491508,-0.0034850449301302433,0.019161194562911987,-0.0006931914249435067,0.0005731852725148201
0.0008466302533634007,-0.014157481491565704,-0.003374908585101366,0.018829233944416046,-0.0006985623040236533,0.0005181130836717784
0.0008442130638286471,-0.014562016353011131,-0.0037374962121248245,0.018646972253918648,-0.0007240688428282738,0.00047270109644159675
0.0008508101454935968,-0.01482392568141222,-0.004125791136175394,0.01927909441292286,-0.0007376527646556497,0.0004346179775893688
0.0008199104340746999,-0.015017854981124401,-0.003403508337214589,0.018440183252096176,-0.0007430342957377434,0.00040822947630658746
0.0008199104340746999,-0.015017854981124401,-0.003403508337214589,0.018440183252096176,-0.0007430342957377434,0.00040822947630658746
0.0008287612581625581,-0.01456229854375124,-0.0033907275646924973,0.01875162683427334,-0.0007757404819130898,0.00043086372897960246
0.0008256796863861382,-0.014690130017697811,-0.003587793791666627,0.018767381086945534,-0.0008468205924145877,0.00041423653601668775
0.0007508909911848605,-0.014689051546156406,-0.003922482952475548,0.018111778423190117,-0.0008078707614913583,0.0003394010418560356
0.0007213371573016047,-0.015129377134144306,-0.004044823348522186,0.0185067318379879,-0.0009211561409756541,0.00036693221773020923
0.0007469645352102816,-0.014824050478637218,-0.003959744703024626,0.018138300627470016,-0.0009391052881255746,0.0003787233436014503
0.0007655653171241283,-0.014924240298569202,-0.003445833921432495,0.017776109278202057,-0.0009251784067600965,0.0003823366423603147
0.0007773989927954972,-0.014704442583024502,-0.003469365881755948,0.0184467826038599,-0.0008767524850554764,0.0004002272034995258
0.0009149402030743659,-0.01501521747559309,-0.0037461661268025637,0.018538136035203934,-0.0008267357479780912,0.000390558154322207
0.0007851212867535651,-0.015398346818983555,-0.0034913267008960247,0.01853654906153679,-0.0007863055216148496,0.0005728401010856032
0.0006686946144327521,-0.014564917422831059,-0.0035216975957155228,0.018570737913250923,-0.0007953043095767498,0.0006215393077582121
0.0005821069935336709,-0.014946222305297852,-0.003727420698851347,0.01797587051987648,-0.0008165647741407156,0.000604851171374321
0.0005153869860805571,-0.014823396690189838,-0.0039110141806304455,0.017743805423378944,-0.0008266858640126884,0.0005469895550049841
0.0005534915253520012,-0.015064059756696224,-0.004418996162712574,0.017830807715654373,-0.0009544417844153941,0.0004968263092450798
0.000503129733260721,-0.01479819044470787,-0.0036705739330500364,0.01777372509241104,-0.0009357426315546036,0.00045493635116145015
0.000503129733260721,-0.01479819044470787,-0.0036705739330500364,0.01777372509241104,-0.0009357426315546036,0.00045493635116145015
0.0005358305061236024,-0.015390772372484207,-0.0035295053385198116,0.018447278067469597,-0.0008294013096019626,0.0004195586370769888
0.0005408916622400284,-0.015102862380445004,-0.0030851042829453945,0.018367355689406395,-0.0008319688495248556,0.00038928817957639694
0.0005239406018517911,-0.015571258962154388,-0.003295221598818898,0.017436586320400238,-0.0008322899229824543,0.00036309490678831935
0.0004886744427494705,-0.01512259803712368,-0.003637511283159256,0.017976317554712296,-0.0007642449927516282,0.00034020590828731656
0.0003966795338783413,-0.01544650737196207,-0.0038020641077309847,0.017822524532675743,-0.0006818248075433075,0.00032003343221731484
0.0004098123754374683,-0.01523839682340622,-0.0037423737812787294,0.01841326802968979,-0.0007036773604340851,0.0003021197917405516
0.00040220044320449233,-0.01578328385949135,-0.003642305266112089,0.01889985427260399,-0.0007260742713697255,0.00028610648587346077
0.0004361367900855839,-0.014966098591685295,-0.0034905746579170227,0.017723586410284042,-0.0007441650377586484,0.00027170637622475624
0.0004646348534151912,-0.015097415074706078,-0.0035132889170199633,0.017815424129366875,-0.0007843045750632882,0.0002586869231890887
0.0007945550023578107,-0.015385755337774754,-0.003413744969293475,0.017198307439684868,-0.000771942432038486,0.00023606352624483407
0.0008085494046099484,-0.01525528822094202,-0.003635264467447996,0.0176425538957119,-0.0007368972292169929,0.00022617375361733139
0.0008078843238763511,-0.015420384705066681,-0.004290801007300615,0.017966732382774353,-0.0007034331210888922,0.00021708002896048129
0.0007363577024079859,-0.015133926644921303,-0.004233419429510832,0.018357420340180397,-0.0007137235952541232,0.00020868952560704201
0.0007988133584149182,-0.014908728189766407,-0.0035364916548132896,0.018426526337862015,-0.0006591292330995202,0.00020092312479391694
0.000803607574198395,-0.014935068786144257,-0.003110493766143918,0.017790688201785088,-0.0006224772077985108,0.00019371417874936014
0.0007122153765521944,-0.014779189601540565,-0.0032600625418126583,0.01775219477713108,-0.0005514821386896074,0.00018700510554481298
0.0007297045667655766,-0.015076380223035812,-0.0037410377990454435,0.017512505874037743,-0.0005825812113471329,0.00018074517720378935
0.0006574993021786213,-0.015149690210819244,-0.003992282319813967,0.017098424956202507,-0.0005311788991093636,0.0001748906943248585
0.0006791728083044291,-0.015512528829276562,-0.003906338009983301,0.017254283651709557,-0.000558787549380213,0.0001694033417152241
0.0006536894361488521,-0.014824187383055687,-0.003782773856073618,0.016398239880800247,-0.0005177399143576622,0.00016425047942902893
0.0006768513121642172,-0.015255695208907127,-0.003312707180157304,0.016731074079871178,-0.0005377072375267744,0.00015940150478854775
0.0007020931225270033,-0.014990136958658695,-0.0033113257959485054,0.016546662896871567,-0.0005078257527202368,0.0001548306317999959
0.0007222892600111663,-0.015245054848492146,-0.003480581333860755,0.016124922782182693,-0.0005036391667090356,0.0001505146356066689
0.0007222892600111663,-0.015245054848492146,-0.003480581333860755,0.016124922782182693,-0.0005036391667090356,0.0001505146356066689
0.0008813957683742046,-0.014843914657831192,-0.0035798733588308096,0.015550199896097183,-0.0004636782978195697,0.00014643327449448407
0.0009683285607025027,-0.015404882840812206,-0.00348923378624022,0.015671970322728157,-0.0004616395162884146,0.00014256677241064608
0.0008369369897991419,-0.015098197385668755,-0.0035876354668289423,0.01627884991466999,-0.00045917098759673536,0.00013889950059819967
0.000843656889628619,-0.015490327961742878,-0.0037734927609562874,0.016278844326734543,-0.0004253885999787599,0.00013541609223466367
0.0008472592453472316,-0.014752903021872044,-0.003362508723512292,0.016867725178599358,-0.0004427557287272066,0.00013210329052526504
0.0008353739394806325,-0.01502586342394352,-0.0031646057032048702,0.016794627532362938,-0.0004277170228306204,0.00011838652426376939
0.0008512448985129595,-0.014917973428964615,-0.003306221216917038,0.01685602031648159,-0.00040143440128304064,0.00010566444689175114
0.0009413312654942274,-0.015281323343515396,-0.0037294032517820597,0.016316566616296768,-0.00037743800203315914,0.00010260566341457888
0.0011232943506911397,-0.015114444307982922,-0.0038330466486513615,0.015864774584770203,-0.00035609756014309824,0.000100276643934194
0.0011918323580175638,-0.014749358408153057,-0.003722479334101081,0.015851672738790512,-0.0003818665281869471,9.808814502321184e-05
0.0011070367181673646,-0.014894618652760983,-0.0031974902376532555,0.016652602702379227,-0.00034793317900039256,9.399038390256464e-05
0.0012085383059456944,-0.014974374324083328,-0.0026771395932883024,0.0165875181555748,-0.0003319017414469272,7.840739999664947e-05
0.0011552110081538558,-0.014096151106059551,-0.002336223144084215,0.016489991918206215,-0.0003172736323904246,7.248756446642801e-05
0.0011474501807242632,-0.01451460923999548,-0.002238665707409382,0.01444203034043312,-0.0003038799040950835,7.077872578520328e-05
0.0011175681138411164,-0.014480401761829853,-0.002747834427282214,0.01629916951060295,-0.00027877467800863087,6.939586455700919e-05
0.0011192186502739787,-0.014512595720589161,-0.0034530474804341793,0.0168459489941597,-0.0002595495607238263,5.329181658453308e-05
0.0011865115957334638,-0.014609790407121181,-0.0036444291472434998,0.016795843839645386,-0.0002451961918268353,5.0259441195521504e-05
0.0013020032783970237,-0.01438719779253006,-0.0027992737013846636,0.016476517543196678,-0.00023250935191754252,4.921020081383176e-05
0.0014243568293750286,-0.013883879408240318,-0.002392563736066222,0.015474213287234306,-0.00022108167468104511,-1.4572443433280569e-05
0.0013427011435851455,-0.014224336482584476,-0.0022593021858483553,0.01594960130751133,-0.00021072594972793013,-3.4288073948118836e-05
0.0013104609679430723,-0.01397060789167881,-0.002218560315668583,0.015480592846870422,-0.00020129642507527024,-5.014271300751716e-05
0.0012182972859591246,-0.013655142858624458,-0.0029600339476019144,0.015523424372076988,-0.00019267592870164663,-5.98244478169363e-05
0.001271071727387607,-0.014266446232795715,-0.003033023327589035,0.015064207836985588,-0.00018476351397112012,-6.683847459498793e-05
0.001182550098747015,-0.01416418794542551,-0.0024699538480490446,0.015492025762796402,-0.00021055724937468767,-7.841891783755273e-05
0.001272735302336514,-0.014257987961173058,-0.0019325606990605593,0.016189973801374435,-0.00020473083714023232,-8.094946679193527e-05
0.001272735302336514,-0.014257987961173058,-0.0019325606990605593,0.016189973801374435,-0.00020473083714023232,-8.094946679193527e-05
0.0012660728534683585,-0.013745984062552452,-0.0018284115940332413,0.015920214354991913,-0.0001973868056666106,-7.984846160979941e-05
0.0016384396003559232,-0.014160245656967163,-0.0017941505648195744,0.015582771971821785,-0.00019043400243390352,-0.0005111009813845158
0.0016301781870424747,-0.0137887978926301,-0.00278300023637712,0.014597339555621147,-0.00018394702055957168,-0.0005560067947953939
0.0014805804239585996,-0.014072415418922901,-0.002933335956186056,0.014831078238785267,-0.00017788675904739648,-0.000525602838024497
0.0013619008241221309,-0.013599312864243984,-0.003113458165898919,0.014576341025531292,-0.00017221286543644965,-0.0005190057563595474
0.0014064762508496642,-0.01415303535759449,-0.002179292030632496,0.015022985637187958,-0.00016688996402081102,-0.0005120005225762725
0.001561471726745367,-0.014160837046802044,-0.0020161112770438194,0.014709573239088058,-0.00016188628796953708,-0.0005342894583009183
0.0016359512228518724,-0.014489036053419113,-0.0018039093120023608,0.015123394317924976,-0.00015717391215730458,-0.000504947267472744
0.0019681621342897415,-0.013634861446917057,-0.0019885541405528784,0.014520999975502491,-0.00015272828750312328,-0.0005432742764241993
0.001649533282034099,-0.01367674395442009,-0.0028994856402277946,0.013936147093772888,-0.00014455099881161004,-0.0005452981567941606
0.0015793043421581388,-0.014242689125239849,-0.0025424095802009106,0.014551226049661636,-0.00014078215463086963,-0.0005750090931542218
0.001610232749953866,-0.014083262532949448,-0.002078574150800705,0.014264059253036976,-0.0001372048573102802,-0.0006022544112056494
0.0016373931430280209,-0.014154775068163872,-0.0019950796850025654,0.014687241055071354,-0.00013380497694015503,-0.0007447837851941586
0.0016875416040420532,-0.013703187927603722,-0.002438819268718362,0.013940193690359592,-0.00013056944590061903,-0.0008125517633743584
0.002022006083279848,-0.01398376189172268,-0.0030367185827344656,0.014392971061170101,-0.00012748675362672657,-0.0008272286504507065
0.00197577103972435,-0.01349216140806675,-0.0031163645908236504,0.013848497532308102,-0.00012454618990886956,-0.0008222244796343148
0.002010819735005498,-0.014145046472549438,-0.0027647172100842,0.014742577448487282,-0.00012173834693385288,-0.0007665475714020431
0.0019529612036421895,-0.013588867150247097,-0.002459883689880371,0.013995732180774212,-0.00011905429710168391,-0.0008883195696398616
0.0018413641955703497,-0.01412381511181593,-0.0021839116234332323,0.014046730473637581,-0.00011648604413494468,-0.000896888435818255
0.0017776071326807141,-0.013693360611796379,-0.002336040372028947,0.013715271838009357,-0.00013053607835900038,-0.0009279684163630009
0.0017912714974954724,-0.015436798334121704,-0.0032030451111495495,0.01419008057564497,-0.00013011664850637317,-0.001053052837960422
0.0018038530834019184,-0.012795099057257175,-0.0033158939331769943,0.014151525683701038,-0.00012762915866915137,-0.0011702621122822165
0.0020447231363505125,-0.01319133210927248,-0.0027136283461004496,0.013983211480081081,-0.00012510451779235154,-0.0011725140502676368
0.0019893532153218985,-0.01361092459410429,-0.00259729428216815,0.013699102215468884,-0.0001226691238116473,-0.0011491099139675498
0.002249977085739374,-0.013673270121216774,-0.0022633373737335205,0.013991155661642551,-0.00012032621452817693,-0.0011479210807010531
0.002061850158497691,-0.014029941521584988,-0.002272093202918768,0.013455941341817379,-0.00011807110422523692,-0.0010649659670889378
0.002163452096283436,-0.01360194943845272,-0.0028846825007349253,0.013432564213871956,-0.00011589891801122576,-0.0010369123192504048
0.002026304369792342,-0.013554559089243412,-0.0034969572443515062,0.013450556434690952,-0.00011380531213944778,-0.001001332071609795
0.002026304369792342,-0.013554559089243412,-0.0034969572443515062,0.013450556434690952,-0.00011380531213944778,-0.001001332071609795
0.002178248018026352,-0.013268725946545601,-0.003434069687500596,0.013836318626999855,-0.00011178589193150401,-0.0010144051630049944
0.0021750451996922493,-0.013799061067402363,-0.00278482586145401,0.01395963691174984,-0.000109836932097096,-0.0010770302033051848
0.002157186856493354,-0.013353938236832619,-0.002557059982791543,0.01358050387352705,-0.00010795480193337426,-0.001205449691042304
0.002391835441812873,-0.013670679181814194,-0.0026404685340821743,0.013483484275639057,-0.00010613610356813297,-0.001299430732615292
0.0025658123195171356,-0.013100911863148212,-0.0028661310207098722,0.012908604927361012,-0.00010437757009640336,-0.0013148580910637975
0.0023857485502958298,-0.013680717907845974,-0.003490439150482416,0.013203299604356289,-5.5965825595194474e-05,-0.001454395824111998
0.002256058854982257,-0.013170776888728142,-0.0033072226215153933,0.012668423354625702,-3.994143844465725e-05,-0.001693112775683403
0.002148800063878298,-0.013431601226329803,-0.002881761174649,0.013117493130266666,-3.812908471445553e-05,-0.0026123719289898872
0.0023626808542758226,-0.013345003128051758,-0.002611663192510605,0.012652347795665264,-3.727629882632755e-05,-0.0024562072940170765
0.0025033254642039537,-0.013411120511591434,-0.0026778930332511663,0.012857512570917606,-3.6515953979687765e-05,-0.002122320933267474
0.0025213430635631084,-0.012905134819447994,-0.0030778523068875074,0.01221010833978653,-3.5091841709800065e-05,-0.001535546500235796
0.0025213430635631084,-0.012905134819447994,-0.0030778523068875074,0.01221010833978653,-3.5091841709800065e-05,-0.001535546500235796
0.0024115461856126785,-0.01302254293113947,-0.003014896996319294,0.012476413510739803,-3.377489701961167e-05,-0.0018154624849557877
0.0025805109180510044,-0.013502256944775581,-0.002848920878022909,0.012524835765361786,-3.315280264359899e-05,-0.0018201360944658518
0.002786393743008375,-0.012896372936666012,-0.0026063809636980295,0.012050366960465908,-3.255320552852936e-05,-0.002520129783079028
0.0026300419121980667,-0.013463121838867664,-0.0027075521647930145,0.012479319237172604,-3.197495607309975e-05,-0.002769175684079528
0.002694016555324197,-0.012503134086728096,-0.0028794703539460897,0.01247388869524002,-3.1416842830367386e-05,-0.0024248999543488026
0.002608301118016243,-0.012438016012310982,-0.0030492939986288548,0.012213177978992462,-3.0877905373927206e-05,-0.0021253691520541906
0.002444448182359338,-0.012393446639180183,-0.003506698878481984,0.012211544439196587,-3.035713962162845e-05,-0.0018843278521671891
0.00261249509640038,-0.012874500826001167,-0.0032744649797677994,0.010845120996236801,-2.9853659725631587e-05,-0.0017594422679394484
0.0026776213198900223,-0.012813105247914791,-0.0030419195536524057,0.012759857811033726,-2.9366608941927552e-05,-0.0018487159395590425
0.0025778391864150763,-0.011961734853684902,-0.00252562016248703,0.012615423649549484,-2.8895172363263555e-05,-0.0024411282502114773
0.0028231043834239244,-0.012712746858596802,-0.0023966736625880003,0.012077504768967628,-2.843864967871923e-05,-0.002899371087551117
0.0028862906619906425,-0.012051720172166824,-0.0027280738577246666,0.011526324786245823,-2.7996333301416598e-05,-0.0027723866514861584
0.0029735281132161617,-0.012002826668322086,-0.0032823816873133183,0.01149673480540514,-2.756755202426575e-05,-0.002581629902124405
0.002927333116531372,-0.012112591415643692,-0.0035598662216216326,0.011936888098716736,-2.7151709218742326e-05,-0.002442482626065612
0.002955690259113908,-0.012325644493103027,-0.0029494413174688816,0.011701597832143307,-2.6748237360152416e-05,-0.0023080373648554087
0.0031462700571864843,-0.012033068574965,-0.0026821109931916,0.012001171708106995,-2.6356578018749133e-05,-0.002412334783002734
0.0030566761270165443,-0.011575932614505291,-0.0026562928687781096,0.011351264081895351,-2.5976223696488887e-05,-0.002758570248261094
0.0030177419539541006,-0.011826250702142715,-0.0029878870118409395,0.010929945856332779,-2.560667780926451e-05,-0.003232294460758567
0.0029306199867278337,-0.011597338132560253,-0.0033626514486968517,0.011150496080517769,-2.5247520170523785e-05,-0.0032055454794317484
0.0031737051904201508,-0.011220358312129974,-0.003696189960464835,0.010918649844825268,-2.4898281481000595e-05,-0.003058462403714657
0.0031737051904201508,-0.011220358312129974,-0.003696189960464835,0.010918649844825268,-2.4898281481000595e-05,-0.003058462403714657
0.0033968528732657433,-0.012051858939230442,-0.0033228211104869843,0.01118655875325203,-2.455858702887781e-05,-0.002911244984716177
0.0033515712711960077,-0.011696710251271725,-0.0028814533725380898,0.011358791030943394,-2.4228020265582018e-05,-0.0027321067173033953
0.0031747121829539537,-0.01194261759519577,-0.002966102445498109,0.011105797253549099,-2.390625377302058e-05,-0.0025110775604844093
0.003255221527069807,-0.011000491678714752,-0.0030540789011865854,0.011321448720991611,-2.3592900106450543e-05,-0.0027123813051730394
0.003657757304608822,-0.01193215325474739,-0.0030589797534048557,0.011247886344790459,-1.754892036842648e-05,-0.003390348283573985
0.003358692629262805,-0.011666691862046719,-0.003488578600808978,0.0111063988879323,-1.1880674719577655e-05,-0.003673265455290675
0.003540825331583619,-0.011353391222655773,-0.003400522982701659,0.011284515261650085,-1.137532581196865e-05,-0.0034235904458910227
0.0033132745884358883,-0.011866328306496143,-0.0032197656109929085,0.010806161910295486,-1.1210431694053113e-05,-0.0030756238847970963
0.0029556925874203444,-0.011642920784652233,-0.002786915749311447,0.011088679544627666,-1.1071023436670657e-05,-0.0029957592487335205
0.0030488427728414536,-0.01173684373497963,-0.0027218335308134556,0.011023844592273235,-1.0936396392935421e-05,-0.0029103991109877825
0.004142523277550936,-0.011608166620135307,-0.003131318837404251,0.010281219147145748,-1.0676907550077885e-05,-0.00319226598367095
0.0035404562950134277,-0.011866197921335697,-0.0033705413807183504,0.010494280606508255,-6.971257562327082e-07,-0.003402923932299018
0.003363861935213208,-0.01106671430170536,-0.0032539579551666975,0.010890197940170765,-4.551732857294155e-08,-0.0036785395350307226
0.0032765239011496305,-0.011659395880997181,-0.002915914636105299,0.01135214138776064,-2.9719560146190815e-09,-0.003368623089045286
0.0035233385860919952,-0.01139125507324934,-0.0025105292443186045,0.010371281765401363,-1.940475002903952e-10,-0.0031352019868791103
0.0038174467626959085,-0.011089147068560123,-0.002490549348294735,0.009683375246822834,-1.266991546400309e-11,-0.0033488308545202017
0.0037510590627789497,-0.01122817862778902,-0.0028037040028721094,0.010194419883191586,-8.272548770137111e-13,-0.0036946870386600494
0.0035668984055519104,-0.011168129742145538,-0.0033815621864050627,0.009824734181165695,-5.401382737347388e-14,-0.003960705827921629
0.0036381524987518787,-0.011347468942403793,-0.0033453425858169794,0.00958837941288948,-3.5267169670998456e-15,-0.003521684557199478
0.003855480346828699,-0.01179570984095335,-0.0029631650540977716,0.01019578892737627,-2.3026940072198897e-16,-0.0033773810137063265
0.004023402463644743,-0.011269480921328068,-0.0027755480259656906,0.01001172699034214,-1.5034945655965913e-17,-0.003555872943252325
0.004025478381663561,-0.011564978398382664,-0.0024236515164375305,0.010340546257793903,-9.816745831256286e-19,-0.003854950424283743
0.003718193154782057,-0.011153720319271088,-0.002376898191869259,0.010210192762315273,-6.409633866096173e-20,-0.003924262244254351
0.003582365345209837,-0.011185814626514912,-0.002750252839177847,0.00954554881900549,-4.185033067506813e-21,-0.003920367453247309
0.0041201431304216385,-0.01160904299467802,-0.0033194520510733128,0.009634592570364475,-2.732527590312628e-22,-0.004281028639525175
0.004173383116722107,-0.011460390873253345,-0.003232409479096532,0.009423340670764446,-1.7841452523217404e-23,-0.004491349216550589
0.004011498764157295,-0.011730511672794819,-0.0027029849588871002,0.008860010653734207,-1.1649192803869861e-24,-0.004396598786115646
0.004011498764157295,-0.011730511672794819,-0.0027029849588871002,0.008860010653734207,-1.1649192803869861e-24,-0.004396598786115646
0.004112990107387304,-0.011289036832749844,-0.0026489323936402798,0.008509347215294838,-7.606090844956857e-26,-0.0040361168794333935
0.00408758083358407,-0.011210300028324127,-0.0023849112913012505,0.008497731760144234,6.192188448039815e-05,-0.0039026287849992514
0.004365277010947466,-0.01163479220122099,-0.002258558990433812,0.008134032599627972,0.0005152029916644096,-0.004246090538799763
0.004598790314048529,-0.01113287266343832,-0.002616079756990075,0.007595746777951717,0.0005805197288282216,-0.004395018331706524
0.004377296194434166,-0.011273718439042568,-0.0033695409074425697,0.007798726204782724,0.0005961190909147263,-0.004304203204810619
0.004465932492166758,-0.011721758171916008,-0.0033763835672289133,0.008007154799997807,0.000563266163226217,-0.003993321675807238
0.0041761440224945545,-0.011709562502801418,-0.0030071449000388384,0.007998599670827389,0.0005540556157939136,-0.003808959387242794
0.004356573801487684,-0.01161131076514721,-0.002640295075252652,0.007505566813051701,0.0005448138690553606,-0.0041767265647649765
0.0044668810442090034,-0.011071431450545788,-0.002529090503230691,0.007855691947042942,0.0006257103523239493,-0.004557293374091387
0.004565389361232519,-0.011312691494822502,-0.0026931120082736015,0.007870730012655258,0.0006641708896495402,-0.004257736727595329
0.004345843568444252,-0.011616935953497887,-0.0033201053738594055,0.007590566761791706,0.0006331349140964448,-0.004218221176415682
0.004121227655559778,-0.010951056145131588,-0.003210346680134535,0.007851308211684227,0.0006476201233454049,-0.004360647406429052
0.005077400244772434,-0.01111468393355608,-0.0030198509339243174,0.007655520457774401,0.000679715012665838,-0.004602096974849701
0.005077400244772434,-0.01111468393355608,-0.0030198509339243174,0.007655520457774401,0.000679715012665838,-0.004602096974849701
0.004849701654165983,-0.011766601353883743,-0.003034088294953108,0.007220139726996422,0.0007110062288120389,-0.0045934924855828285
0.0046246773563325405,-0.011243194341659546,-0.0035216843243688345,0.00749449897557497,0.0006352218333631754,-0.004275328945368528
0.004739664029330015,-0.01137956976890564,-0.0032399650663137436,0.008093328215181828,0.0006502183387055993,-0.004006726201623678
0.004773546010255814,-0.011092090047895908,-0.0032349845860153437,0.00812537595629692,0.0006406998145394027,-0.003924687393009663
0.004994711838662624,-0.011793609708547592,-0.0029908709693700075,0.007924363948404789,0.0006232960149645805,-0.004269244149327278
0.004882687237113714,-0.01154601015150547,-0.0029112771153450012,0.008207457140088081,0.0006427695625461638,-0.0046530975960195065
0.005204496439546347,-0.011191561818122864,-0.00279390811920166,0.0077637722715735435,0.0006796756060793996,-0.004659312777221203
0.005232695490121841,-0.011171668767929077,-0.0028401236049830914,0.0071369316428899765,0.000704855308867991,-0.004857182502746582
0.0049584368243813515,-0.011048220098018646,-0.00275342701934278,0.007229965645819902,0.0007246864261105657,-0.004421857185661793
0.004795717541128397,-0.010984147898852825,-0.0028854678384959698,0.0072282240726053715,0.0008661078754812479,-0.004378879442811012
0.004794740118086338,-0.011292579583823681,-0.002711101435124874,0.007895790971815586,0.000901349529158324,-0.004430429078638554
0.005168391391634941,-0.010793381370604038,-0.0027640736661851406,0.00736085744574666,0.0008696395670995116,-0.004635340068489313
0.0054833353497087955,-0.01084345392882824,-0.002385526429861784,0.007264644838869572,0.000871589407324791,-0.0048301308415830135
0.005229738540947437,-0.011145167052745819,-0.002204004442319274,0.007350409869104624,0.0009779533138498664,-0.004793552681803703
0.004874474368989468,-0.010506666265428066,-0.002149623818695545,0.006892479490488768,0.00109360390342772,-0.005054350942373276
0.004817402455955744,-0.010581551119685173,-0.0024663549847900867,0.007080895360559225,0.0011073893401771784,-0.004969934932887554
0.004817402455955744,-0.010581551119685173,-0.0024663549847900867,0.007080895360559225,0.0011073893401771784,-0.004969934932887554
0.0052399528212845325,-0.010822569951415062,-0.0027064478490501642,0.006969381123781204,0.0011480626417323947,-0.004658892750740051
0.005223114974796772,-0.011215049773454666,-0.002779109636321664,0.007437880616635084,0.0012197437463328242,-0.00473905261605978
0.005237679462879896,-0.010539422743022442,-0.002417198847979307,0.007062099874019623,0.0011675087735056877,-0.005233884323388338
0.004941265098750591,-0.010716494172811508,-0.0024525956250727177,0.00669591361656785,0.0011251873802393675,-0.005166700575500727
0.004824180621653795,-0.0107710687443614,-0.0023403791710734367,0.006415312644094229,0.001057030283845961,-0.005439722444862127
0.005055308807641268,-0.01057169958949089,-0.0022214429918676615,0.006510485429316759,0.0010464228689670563,-0.005093619227409363
0.005008213687688112,-0.009993428364396095,-0.00235034991055727,0.00644824281334877,0.001023370772600174,-0.004625579342246056
0.005614675115793943,-0.010992187075316906,-0.0027278356719762087,0.006086742039769888,0.0011562877334654331,-0.005281361751258373
0.005194921512156725,-0.00997226219624281,-0.002814364619553089,0.005865623243153095,0.0011422104435041547,-0.005281269084662199
0.005161191336810589,-0.009760321117937565,-0.0026884267572313547,0.006150865461677313,0.0011071015615016222,-0.005716816987842321
0.004999836441129446,-0.010164136998355389,-0.0026678754948079586,0.006241772323846817,0.001257004914805293,-0.0052174353040754795
0.005890438333153725,-0.009953458793461323,-0.0024932492524385452,0.005733596161007881,0.0012433670926839113,-0.004950228147208691
0.005544890649616718,-0.010271592065691948,-0.002600080566480756,0.0058796401135623455,0.0012086591450497508,-0.005287378095090389
0.005384030751883984,-0.009933872148394585,-0.0027297688648104668,0.0059200311079621315,0.0011479138629510999,-0.005426123738288879
0.005475797690451145,-0.010058539919555187,-0.0026224995963275433,0.005868333857506514,0.0012129771057516336,-0.005939791910350323
0.005066928453743458,-0.00948259700089693,-0.002903933171182871,0.0058069690130651,0.001205392531119287,-0.00556323304772377
0.005209303926676512,-0.010023499839007854,-0.0026802674401551485,0.00584886921569705,0.0011663258774206042,-0.004990098066627979
0.005358410999178886,-0.009119835682213306,-0.002647116081789136,0.0059563592076301575,0.0011809890856966376,-0.004793995525687933
0.006315595004707575,-0.00914911087602377,-0.002669947687536478,0.00556078040972352,0.0011455375934019685,-0.005542748142033815
0.005804192740470171,-0.010191868990659714,-0.0027710660360753536,0.0058072349056601524,0.0011176710249856114,-0.005482641980051994
0.00587060721591115,-0.008906872011721134,-0.0028225623536854982,0.005221932660788298,0.0012161892373114824,-0.005819628946483135
0.005820741876959801,-0.009146553464233875,-0.0027248894330114126,0.0051579405553638935,0.0012820372357964516,-0.0057873777113854885
0.005816063843667507,-0.009456825442612171,-0.0029142440762370825,0.005649080500006676,0.001324022770859301,-0.005552914459258318
0.00618475629016757,-0.009663115255534649,-0.003245403291657567,0.005643890704959631,0.0013579634251073003,-0.005506434012204409
0.005937883630394936,-0.008702380582690239,-0.002865962451323867,0.005562543869018555,0.0013724184827879071,-0.005571551155298948
0.005691695958375931,-0.009287687949836254,-0.0026569466572254896,0.005465684458613396,0.0013769250363111496,-0.005363790318369865
0.005711076315492392,-0.00868410337716341,-0.0026527761947363615,0.0046713994815945625,0.001420265412889421,-0.005767758935689926
0.005711076315492392,-0.00868410337716341,-0.0026527761947363615,0.0046713994815945625,0.001420265412889421,-0.005767758935689926
0.00615699915215373,-0.008227294310927391,-0.002806680975481868,0.0040662153623998165,0.0013720629503950477,-0.005808912683278322
0.006343224085867405,-0.008448825217783451,-0.003136568469926715,0.004203930962830782,0.0014363721711561084,-0.006118990480899811
0.006171651184558868,-0.008777915500104427,-0.003352709114551544,0.0042115007527172565,0.001540191937237978,-0.005837074480950832
0.006268115248531103,-0.007977059110999107,-0.003020665841177106,0.004255367908626795,0.0016785119660198689,-0.006021946202963591
0.0062668779864907265,-0.007851500995457172,-0.0027622429188340902,0.00432900944724679,0.0017541410634294152,-0.006102296523749828
0.006493404507637024,-0.008244938217103481,-0.0026656801346689463,0.0043946229852736,0.0016062501817941666,-0.005493152420967817
0.006578851491212845,-0.008760330267250538,-0.003122156485915184,0.0040466091595590115,0.0013606625143438578,-0.005606234073638916
0.006745956372469664,-0.00776118878275156,-0.003090080339461565,0.0036877919919788837,0.0011568517656996846,-0.006521750707179308
0.006821540184319019,-0.008109922520816326,-0.003026345046237111,0.004184753634035587,0.001077877590432763,-0.0067919958382844925
0.0068088434636592865,-0.007961342111229897,-0.0028745124582201242,0.004116622731089592,0.0010019910987466574,-0.006350133568048477
0.006667337846010923,-0.007650373969227076,-0.002686584834009409,0.004023238085210323,0.0009199744672514498,-0.006346527952700853
0.006473136600106955,-0.008351587690412998,-0.0028254215139895678,0.003905047196894884,0.0009127089870162308,-0.006037131883203983
0.006946496665477753,-0.008486653678119183,-0.0028789262287318707,0.0038107421714812517,0.0008524305303581059,-0.006136827636510134
0.007034518290311098,-0.007651247084140778,-0.0029993588104844093,0.0034983442164957523,0.000854341487865895,-0.00645163981243968
0.00736589590087533,-0.007516483776271343,-0.003473894437775016,0.0030380086973309517,0.0009892700472846627,-0.006550671998411417
0.006624201778322458,-0.00798602495342493,-0.0031794137321412563,0.00296636950224638,0.0010208801832050085,-0.006416137795895338
0.00642681960016489,-0.008112065494060516,-0.0031359887216240168,0.0030940421856939793,0.0010235673980787396,-0.006178054492920637
0.006739730481058359,-0.007079113274812698,-0.00292052049189806,0.0034078669268637896,0.001106420997530222,-0.006431091111153364
0.007143929600715637,-0.0076989526860415936,-0.0028364749159663916,0.0033533659297972918,0.0011092450004070997,-0.005628468934446573
0.007004240993410349,-0.007710339967161417,-0.0027793932240456343,0.003054926870390773,0.001054920139722526,-0.005217728205025196
0.007208663504570723,-0.007427745033055544,-0.003181894775480032,0.0027980415616184473,0.0009973483392968774,-0.005657067522406578
0.006689857691526413,-0.007216859608888626,-0.0034891210962086916,0.0028245006687939167,0.000936107593588531,-0.0056413086131215096
0.007208080496639013,-0.0072768558748066425,-0.0034290652256458998,0.0025336872786283493,0.000946895161177963,-0.00585582060739398
0.0072586252354085445,-0.007527021691203117,-0.0030687374528497458,0.0024656252935528755,0.0010257537942379713,-0.005868764594197273
0.00684523768723011,-0.008050600066781044,-0.0028965482488274574,0.002494901418685913,0.001210951479151845,-0.005379605572670698
0.006825415417551994,-0.00769413448870182,-0.0032273808028548956,0.00246793613769114,0.0014605087926611304,-0.005041374359279871
0.007064728531986475,-0.006894888821989298,-0.0036451097112149,0.0022918344475328922,0.0014138767728582025,-0.005655876360833645
0.0072826058603823185,-0.007331422530114651,-0.003363767173141241,0.002097238088026643,0.0012412555515766144,-0.0062673683278262615
0.007496102247387171,-0.00799983087927103,-0.003207098925486207,0.0020177923142910004,0.0011810233118012547,-0.006302405148744583
0.007496102247387171,-0.00799983087927103,-0.003207098925486207,0.0020177923142910004,0.0011810233118012547,-0.006302405148744583
0.007001278456300497,-0.006800324656069279,-0.003161353524774313,0.002103315433487296,0.001127649680711329,-0.006006368435919285
0.007287851069122553,-0.0068605379201471806,-0.0031952501740306616,0.0020818866323679686,0.0010211857734248042,-0.006391681730747223
0.007405522279441357,-0.006870289798825979,-0.00335757527500391,0.0022707898169755936,0.0010072560980916023,-0.006313956808298826
0.0077794683165848255,-0.006817596964538097,-0.003521248232573271,0.0015942365862429142,0.0010158964432775974,-0.006800552364438772
0.0077794683165848255,-0.006817596964538097,-0.003521248232573271,0.0015942365862429142,0.0010158964432775974,-0.006800552364438772
0.007631589658558369,-0.006999241188168526,-0.0037120701745152473,0.0012925323098897934,0.0010155824711546302,-0.005757383070886135
0.007620884571224451,-0.007188916206359863,-0.003621465526521206,0.001223840401507914,0.0010788679355755448,-0.00671463692560792
0.007965117692947388,-0.006753322668373585,-0.0031672539189457893,0.001058812951669097,0.0010538941714912653,-0.007172557525336742
0.008133486844599247,-0.006817113608121872,-0.00313852122053504,0.0008617917192168534,0.0010317162377759814,-0.006951926741749048
0.00815510656684637,-0.007187293376773596,-0.003312739310786128,0.0008274573483504355,0.0010350116062909365,-0.00666884845122695
0.00783021654933691,-0.007248451933264732,-0.003583146259188652,0.0007445627707056701,0.0010315871331840754,-0.006343287881463766
0.00817668717354536,-0.006766509730368853,-0.0037096727173775434,0.0007572038448415697,0.001011374406516552,-0.0064921085722744465
0.007949511520564556,-0.0066979387775063515,-0.003751792013645172,0.0007656501256860793,0.0009956795256584883,-0.006862353533506393
0.007847681641578674,-0.006774685811251402,-0.003761988366022706,0.0007097359630279243,0.000992533634416759,-0.0068662650883197784
0.00782892107963562,-0.007570796180516481,-0.0037097265012562275,0.0006260474910959601,0.0010649367468431592,-0.006512331310659647
0.008062747307121754,-0.007035149727016687,-0.0033479651901870966,0.0006447233608923852,0.0010803760960698128,-0.006579218897968531
0.008312501944601536,-0.00624527782201767,-0.0035691093653440475,0.0005873276386409998,0.0011727948440238833,-0.006898669991642237
0.007727139163762331,-0.006731917150318623,-0.003767539979889989,0.0006124064675532281,0.001165409805253148,-0.007105933502316475
0.00807972252368927,-0.007171137724071741,-0.0037501200567930937,0.0005630324012599885,0.0011203635949641466,-0.0069512114860117435
0.008394266478717327,-0.007514112163335085,-0.003677511587738991,0.0005857486976310611,0.0011016225907951593,-0.006798468064516783
0.008325864560902119,-0.006286560092121363,-0.003655532607808709,0.0005458160303533077,0.0012011593207716942,-0.0068442001938819885
0.008048675954341888,-0.0060189347714185715,-0.003257117001339793,0.0005076039233244956,0.0012569448444992304,-0.006975710857659578
0.008259385824203491,-0.006527881603688002,-0.002864707726985216,0.0004741724405903369,0.0013317716075107455,-0.006782983895391226
0.008958547376096249,-0.00718898419290781,-0.002912169322371483,0.0004456653550732881,0.0015006480971351266,-0.006934616714715958
0.009058408439159393,-0.006943649612367153,-0.0034382236190140247,0.0004072187002748251,0.0014410351868718863,-0.007261658553034067
0.008349630050361156,-0.0063320635817945,-0.0038377689197659492,0.0003735092468559742,0.0013650720939040184,-0.0070731146261096
0.008599834516644478,-0.00642892811447382,-0.0034798486158251762,0.0003448687493801117,0.0012829172192141414,-0.007180555257946253
0.009126358665525913,-0.006836774293333292,-0.0031139864586293697,0.00032030229340307415,0.0013043101644143462,-0.006842271890491247
0.009126358665525913,-0.006836774293333292,-0.0031139864586293697,0.00032030229340307415,0.0013043101644143462,-0.006842271890491247
0.008255922235548496,-0.006950638256967068,-0.00277981860563159,0.0002990069624502212,0.001257335883565247,-0.00659582857042551
0.008616051636636257,-0.006764636375010014,-0.0031129156704992056,0.00028036715229973197,0.0013978170463815331,-0.00685245543718338
0.008938434533774853,-0.006523917429149151,-0.003458865685388446,0.0002639162994455546,0.001340710325166583,-0.006569476332515478
0.008551269769668579,-0.0065716286189854145,-0.003617545822635293,0.0002492895582690835,0.001545875333249569,-0.00699105579406023
0.008884716778993607,-0.006779003888368607,-0.0033719935454428196,0.00023619949934072793,0.0015599135076627135,-0.00784544087946415
0.009199473075568676,-0.006074646953493357,-0.003154784208163619,0.000213754057767801,0.001415766659192741,-0.007613974157720804
0.00892766285687685,-0.005975671112537384,-0.0034831331577152014,0.00020405827672220767,0.0014143061125651002,-0.007239860948175192
0.009957422502338886,-0.006349195726215839,-0.0037455677520483732,0.00019520417845342308,0.0013508856063708663,-0.007179457228630781
0.009305483661592007,-0.00713703827932477,-0.003245408646762371,0.00018708736752159894,0.001416144659742713,-0.007889618165791035
0.009493648074567318,-0.006463284604251385,-0.0032863516826182604,0.00016203743871301413,0.001382517977617681,-0.007857865653932095
0.009847115725278854,-0.006195996887981892,-0.0035738195292651653,0.0001393757265759632,0.0013392585096880794,-0.0075509739108383656
0.009671886451542377,-0.006613906007260084,-0.0037203070241957903,0.00013314805983100086,0.0014371228171512485,-0.00748421112075448
0.009665203280746937,-0.0062762293964624405,-0.0037762499414384365,0.00012833096843678504,0.0013692732900381088,-0.007497263606637716
0.009864084422588348,-0.006508168764412403,-0.0034864821936935186,0.00012390880146995187,0.0014259610325098038,-0.007364057004451752
0.009852887131273746,-0.006351865828037262,-0.0029441339429467916,0.0001197849924210459,0.001383730093948543,-0.007419976871460676
0.009651139378547668,-0.00627529202029109,-0.0029646658804267645,9.44722123676911e-05,0.0012980569154024124,-0.0076269484125077724
0.010015139356255531,-0.006662064231932163,-0.0033923042938113213,8.472424815408885e-05,0.0012195950839668512,-0.007690047845244408
0.01043199934065342,-0.006841742899268866,-0.0035740372259169817,8.171634544851258e-05,0.0012710675364360213,-0.00710673863068223
0.00960624497383833,-0.006735545117408037,-0.0033982594031840563,7.941924559418112e-05,0.0012874928070232272,-0.007426038850098848
0.010095763951539993,-0.006557767745107412,-0.003436162369325757,-6.0670601669698954e-05,0.0016572056338191032,-0.007615027949213982
0.009951005689799786,-0.007127481512725353,-0.003282922552898526,-6.733659392921254e-05,0.0016540063079446554,-0.007633348926901817
0.00929382536560297,-0.0070613669231534,-0.003222774714231491,-9.387810860062018e-05,0.0019809987861663103,-0.0073918793350458145
0.00980101153254509,-0.006907226052135229,-0.0033051632344722748,-0.00011791779252234846,0.0018282707314938307,-0.007433424703776836
0.010714394971728325,-0.00630056019872427,-0.003093213774263859,-0.0001441771601093933,0.001632853876799345,-0.008094880729913712
0.010714394971728325,-0.00630056019872427,-0.003093213774263859,-0.0001441771601093933,0.001632853876799345,-0.008094880729913712
0.00998871773481369,-0.006167219951748848,-0.0032447511330246925,-0.0009479462751187384,0.0014188175555318594,-0.007876449264585972
0.00998871773481369,-0.006167219951748848,-0.0032447511330246925,-0.0009479462751187384,0.0014188175555318594,-0.007876449264585972
0.010271773673593998,-0.006365998648107052,-0.003194031771272421,-0.0020536931697279215,0.001337886555120349,-0.007891388610005379
0.01007109321653843,-0.00661410391330719,-0.003328671446070075,-0.002331810537725687,0.001299671595916152,-0.007681399118155241
0.010126274079084396,-0.0059766387566924095,-0.003914720844477415,-0.002995953196659684,0.001438491395674646,-0.008156617172062397
0.010149634443223476,-0.006618887651711702,-0.0033580921590328217,-0.003529093461111188,0.0014920886605978012,-0.00780731625854969
0.010321930050849915,-0.006895504426211119,-0.0030233676079660654,-0.003918258938938379,0.0014426502166315913,-0.007992800325155258
0.010537791065871716,-0.005894607398658991,-0.0030024743173271418,-0.004324971232563257,0.0015230521094053984,-0.00813551340252161
0.010042346082627773,-0.006428385619074106,-0.0032171113416552544,-0.00466238334774971,0.0014347437536343932,-0.007778853643685579
0.01063949428498745,-0.006252052262425423,-0.0034584018867462873,-0.005266979802399874,0.0014823167584836483,-0.008121632039546967
0.010141312144696712,-0.00639420235529542,-0.0036358130164444447,-0.0052986061200499535,0.001567508326843381,-0.008525908924639225
0.01060778833925724,-0.0063275923021137714,-0.0034651830792427063,-0.005852984264492989,0.0020390439312905073,-0.008539593778550625
0.010849016718566418,-0.005834351759403944,-0.0034077265299856663,-0.006751531269401312,0.0019144515972584486,-0.009057401679456234
0.010160640813410282,-0.005800548940896988,-0.0036407397128641605,-0.006917404010891914,0.00201951595954597,-0.008774224668741226
0.01066165417432785,-0.006101147271692753,-0.003281707875430584,-0.007216629572212696,0.0019156415946781635,-0.008517434820532799
0.010621796362102032,-0.005936761386692524,-0.0034087623935192823,-0.006902206223458052,0.0019893385469913483,-0.008893711492419243
0.011135922744870186,-0.006164753809571266,-0.0030717377085238695,-0.0070589883252978325,0.0018393209902569652,-0.008657370693981647
0.01155112124979496,-0.0055933501571416855,-0.0032820303458720446,-0.00806285347789526,0.0016389042139053345,-0.008400935679674149
0.010489803738892078,-0.005762807093560696,-0.003556697629392147,-0.008430670015513897,0.0015204634983092546,-0.008339371532201767
0.010083414614200592,-0.005516624078154564,-0.003591399872675538,-0.0077645364217460155,0.0014309237012639642,-0.008252865634858608
0.010511898435652256,-0.005774817429482937,-0.0034531522542238235,-0.007802919484674931,0.0014685315545648336,-0.00830928049981594
0.010472231544554234,-0.00556193245574832,-0.0031496670562773943,-0.007954712957143784,0.0015105792554095387,-0.008706489577889442
0.010616078041493893,-0.005713302176445723,-0.003543586703017354,-0.008138488046824932,0.0019137439085170627,-0.008664564229547977
0.010763860307633877,-0.005440616514533758,-0.003825175343081355,-0.007763756439089775,0.0018626963719725609,-0.008485852740705013
0.01056379172950983,-0.005947219207882881,-0.003876487724483013,-0.007737511303275824,0.0019043281208723783,-0.008379637263715267
0.01056379172950983,-0.005947219207882881,-0.003876487724483013,-0.007737511303275824,0.0019043281208723783,-0.008379637263715267
0.010807391256093979,-0.005711889360100031,-0.0033750019501894712,-0.008240760304033756,0.0018793090712279081,-0.008294487372040749
0.010566476732492447,-0.005598088260740042,-0.002982192439958453,-0.00856011826545,0.0015727485297247767,-0.008682903833687305
0.010794692672789097,-0.005309911444783211,-0.003126908326521516,-0.008585023693740368,0.00152488611638546,-0.008980832062661648
0.011001145467162132,-0.005208798684179783,-0.003355423454195261,-0.008695041760802269,0.0014779862249270082,-0.009356806054711342
0.010897685773670673,-0.005012383684515953,-0.0035597120877355337,-0.008614756166934967,0.001714487443678081,-0.009442507289350033
0.011104019358754158,-0.0053036571480333805,-0.003668478224426508,-0.008415420539677143,0.0016191144241020083,-0.00972642470151186
0.010989701375365257,-0.005047038663178682,-0.0037284616846591234,-0.009500120766460896,0.001897407928481698,-0.00952478963881731
0.011201690882444382,-0.004927295260131359,-0.0033334384206682444,-0.009397750720381737,0.0020599516574293375,-0.00925739761441946
0.011366085149347782,-0.004954587202519178,-0.003359108231961727,-0.010198120959103107,0.001971237827092409,-0.009527325630187988
0.011366085149347782,-0.004954587202519178,-0.003359108231961727,-0.010198120959103107,0.001971237827092409,-0.009527325630187988
0.012346259318292141,-0.004748249892145395,-0.0036915394011884928,-0.009784406051039696,0.0018300318624824286,-0.0100405253469944
0.011321662925183773,-0.004832444712519646,-0.003320041811093688,-0.01050691120326519,0.0018398104002699256,-0.009953026659786701
0.01159745268523693,-0.00484473817050457,-0.0032288527581840754,-0.01057751476764679,0.0017976347589865327,-0.009617163799703121
0.011850846000015736,-0.00463034538552165,-0.003254998940974474,-0.010482758283615112,0.001822806429117918,-0.009752132929861546
0.01195437740534544,-0.004373939707875252,-0.0035603917203843594,-0.010931302793323994,0.0018318351358175278,-0.010656232014298439
0.01185240875929594,-0.004383639898151159,-0.0037149216514080763,-0.010722492821514606,0.0021509837824851274,-0.01031228806823492
0.011581682600080967,-0.004666422959417105,-0.0034816802944988012,-0.010851440019905567,0.002198214177042246,-0.00984563771635294
0.013398448936641216,-0.005206102970987558,-0.0033837249502539635,-0.010286584496498108,0.002188758458942175,-0.009889686480164528
0.013369455933570862,-0.004651188850402832,-0.0031749398913234472,-0.00984545610845089,0.0019791785161942244,-0.009313246235251427
0.013479858636856079,-0.004501199349761009,-0.003537927521392703,-0.010949186980724335,0.0018447197508066893,-0.009704548865556717
0.013376082293689251,-0.004483385942876339,-0.0033087925985455513,-0.01157859805971384,0.0018864935263991356,-0.00989245530217886
0.013772925361990929,-0.004050846677273512,-0.0033653127029538155,-0.010947228409349918,0.002141904318705201,-0.009627598337829113
0.013524744659662247,-0.004424466285854578,-0.003422577166929841,-0.011061681434512138,0.0023710564710199833,-0.00995552446693182
0.013453646562993526,-0.004670910537242889,-0.003431514836847782,-0.010816277004778385,0.0022419816814363003,-0.009860740043222904
0.013550850562751293,-0.004702666774392128,-0.0034867124632000923,-0.011002873070538044,0.0020247716456651688,-0.00988310482352972
0.01389891467988491,-0.004619166254997253,-0.0032416225876659155,-0.011327235959470272,0.001958911307156086,-0.010499817319214344
0.01396083366125822,-0.004498366266489029,-0.00359157077036798,-0.011029953137040138,0.001883750781416893,-0.010415037162601948
0.01396083366125822,-0.004498366266489029,-0.00359157077036798,-0.011029953137040138,0.001883750781416893,-0.010415037162601948
0.013385620899498463,-0.004234278108924627,-0.003393926192075014,-0.011434059590101242,0.0018760819220915437,-0.010546261444687843
0.01410383265465498,-0.003981654532253742,-0.0031206533312797546,-0.011683022603392601,0.002137897303327918,-0.01060445699840784
0.014173729345202446,-0.00425180047750473,-0.0030460315756499767,-0.011459036730229855,0.0023892344906926155,-0.010728029534220695
0.01392948254942894,-0.004337970167398453,-0.003156303660944104,-0.011414003558456898,0.002441231394186616,-0.010309006087481976
0.014584837481379509,-0.004089252557605505,-0.0034963046200573444,-0.011081725358963013,0.002498837886378169,-0.009564674459397793
0.013577536679804325,-0.00453882897272706,-0.0034616116899996996,-0.010793667286634445,0.0021465078461915255,-0.01099396962672472
0.014191989786922932,-0.004207897465676069,-0.0031988809350878,-0.010341926477849483,0.001939864712767303,-0.010692107491195202
0.013874267227947712,-0.003887185361236334,-0.0031120560597628355,-0.010573112405836582,0.0017946045845746994,-0.010039251297712326
0.01387673057615757,-0.003460352309048176,-0.003175308695062995,-0.01114341989159584,0.0017918164376169443,-0.010023324750363827
0.012207896448671818,-0.0034577413462102413,-0.0032830757554620504,-0.010918820276856422,0.001843006582930684,-0.010639101266860962
0.015183236449956894,-0.004185300786048174,-0.0033218807075172663,-0.01111481711268425,0.0019147270359098911,-0.01044462900608778
0.014637383632361889,-0.004086879547685385,-0.0031631311867386103,-0.010750466957688332,0.0022308174520730972,-0.010791844688355923
0.01441821176558733,-0.003944933880120516,-0.003502393141388893,-0.010787258855998516,0.002336287871003151,-0.010636463761329651
0.014211821369826794,-0.0033768494613468647,-0.0038825187366455793,-0.011287412606179714,0.00227605109103024,-0.010822365060448647
0.014395522885024548,-0.0033344982657581568,-0.0034358343109488487,-0.011017728596925735,0.0021300013177096844,-0.01027168519794941
0.014078810811042786,-0.0034864030312746763,-0.0031291907653212547,-0.011803459376096725,0.0020514230709522963,-0.010101353749632835
0.014975519850850105,-0.0034321218263357878,-0.003064473159611225,-0.011885822750627995,0.0021148843225091696,-0.010671972297132015
0.014238981530070305,-0.0035404481459409,-0.003226405940949917,-0.012016317807137966,0.0021067128982394934,-0.011132655665278435
0.014773405157029629,-0.0036967804189771414,-0.0035904168616980314,-0.012808830477297306,0.002600542502477765,-0.010843904688954353
0.014599275775253773,-0.0034012470860034227,-0.0033398442901670933,-0.012040039524435997,0.002888621063902974,-0.010740440338850021
0.014913090504705906,-0.0031348573975265026,-0.003583761164918542,-0.012387779541313648,0.0025839509908109903,-0.010505976155400276
0.014456134289503098,-0.0033974715042859316,-0.0038748064544051886,-0.011878346092998981,0.002561075845733285,-0.010587555356323719
0.015037333592772484,-0.003625459037721157,-0.00402872683480382,-0.012517957016825676,0.0024228834081441164,-0.010984248481690884
0.014346434734761715,-0.0033412755001336336,-0.003973463084548712,-0.012889054603874683,0.002263556933030486,-0.01108765322715044
0.014705336652696133,-0.0031568091362714767,-0.003942850045859814,-0.012874591164290905,0.002246609190478921,-0.011188145726919174
0.014476780779659748,-0.0028819404542446136,-0.003986564464867115,-0.013081841170787811,0.0024279204662889242,-0.011193173937499523
0.01489313319325447,-0.0032055070623755455,-0.004051707219332457,-0.013109643943607807,0.00243405532091856,-0.011316798627376556
0.014901570975780487,-0.003152186283841729,-0.003999120090156794,-0.01336551271378994,0.002445890801027417,-0.010732111521065235
0.015103429555892944,-0.0030124846380203962,-0.003979119937866926,-0.01342170499265194,0.002377386437729001,-0.01149834506213665
0.015103429555892944,-0.0030124846380203962,-0.003979119937866926,-0.01342170499265194,0.002377386437729001,-0.01149834506213665
0.014779038727283478,-0.0029898760840296745,-0.00403529591858387,-0.01397564634680748,0.002500070258975029,-0.011374589055776596
0.014751852490007877,-0.0028491199482232332,-0.0040773674845695496,-0.013352233916521072,0.0025917773600667715,-0.011155513115227222
0.015022506937384605,-0.0028229220770299435,-0.0038499420043081045,-0.013619118370115757,0.0023400713689625263,-0.01140709687024355
0.015134899877011776,-0.002850797027349472,-0.004273813683539629,-0.01410873793065548,0.0023012585006654263,-0.0115641038864851
0.015030436217784882,-0.0027274719905108213,-0.004231059458106756,-0.013840323314070702,0.002200002083554864,-0.01177319698035717
0.015355133451521397,-0.0023776725865900517,-0.003968334291130304,-0.014421586878597736,0.002267111325636506,-0.012083295732736588
0.015345362946391106,-0.002409587148576975,-0.0038285974878817797,-0.014106662943959236,0.0024295535404235125,-0.011462835595011711
0.015592607669532299,-0.002453027991577983,-0.0038819590117782354,-0.014127200469374657,0.0025946786627173424,-0.0117055494338274
0.01521457452327013,-0.002373467432335019,-0.004170605912804604,-0.01391475461423397,0.0028704458381980658,-0.01165931485593319
0.015423896722495556,-0.0026628500781953335,-0.004007283598184586,-0.014320660382509232,0.002738816197961569,-0.011330361478030682
0.015454870648682117,-0.0029224390164017677,-0.0038001956418156624,-0.013504056259989738,0.0024564110208302736,-0.011741823516786098
0.01587020605802536,-0.0025219551753252745,-0.003733693854883313,-0.015104626305401325,0.0021340898238122463,-0.011724799871444702
0.015769248828291893,-0.0024939952418208122,-0.003717700717970729,-0.015342588536441326,0.00202511646784842,-0.012055975385010242
0.01563778519630432,-0.0022254802752286196,-0.004226753022521734,-0.01535758562386036,0.002117809373885393,-0.01195509359240532
0.015770267695188522,-0.0021718903444707394,-0.0040498161688447,-0.01472446508705616,0.0024432551581412554,-0.01193828321993351
0.0158554557710886,-0.0023514823988080025,-0.00442875362932682,-0.015402507036924362,0.002670325804501772,-0.012087228707969189
0.0159635990858078,-0.0022675807122141123,-0.0041455975733697414,-0.01523381844162941,0.0027473403606563807,-0.011480030603706837
0.015760518610477448,-0.0021967836655676365,-0.0038629525806754827,-0.01561964862048626,0.0024626431986689568,-0.011776848696172237
0.016173170879483223,-0.0019905436784029007,-0.0038094022311270237,-0.015244689770042896,0.00228927587158978,-0.012019039131700993
0.015541539527475834,-0.001957562053576112,-0.004168419633060694,-0.015904389321804047,0.0022246430162340403,-0.011897590011358261
0.016184814274311066,-0.0018987164366990328,-0.004240657202899456,-0.015908101573586464,0.0021215886808931828,-0.01253306120634079
0.015697021037340164,-0.00192710489500314,-0.004065208602696657,-0.015590481460094452,0.002202733652666211,-0.012003669515252113
0.016157077625393867,-0.0021807285957038403,-0.004093404859304428,-0.01567428931593895,0.0021654635202139616,-0.011975111439824104
0.016110235825181007,-0.0021501409355551004,-0.004174747038632631,-0.015658926218748093,0.0023553508799523115,-0.012372351251542568
0.016110235825181007,-0.0021501409355551004,-0.004174747038632631,-0.015658926218748093,0.0023553508799523115,-0.012372351251542568
0.016108019277453423,-0.0020340820774435997,-0.0041494653560221195,-0.01612548716366291,0.0024120009038597345,-0.012238833121955395
0.016108019277453423,-0.0020340820774435997,-0.0041494653560221195,-0.01612548716366291,0.0024120009038597345,-0.012238833121955395
0.016306135803461075,-0.0017486799042671919,-0.0040077343583106995,-0.016763482242822647,0.002479534363374114,-0.012350903823971748
0.0166242066770792,-0.0016920003108680248,-0.004334206692874432,-0.016471432521939278,0.002679982455447316,-0.01236964762210846
0.016518911346793175,-4.4610973418457434e-05,-0.004539247136563063,-0.016971878707408905,0.002477350179105997,-0.012127259746193886
0.016402456909418106,-5.98513167915371e-07,-0.004614075180143118,-0.01708611473441124,0.002637538593262434,-0.012324713170528412
0.016784604638814926,-8.02981858782914e-09,-0.004517208319157362,-0.017434215173125267,0.0025958858896046877,-0.012336241081357002
0.016869982704520226,-1.0773027608879104e-10,-0.0040740156546235085,-0.017141055315732956,0.0027744879480451345,-0.012659040279686451
0.01669234409928322,0.00033332366729155183,-0.0038649174384772778,-0.01760581135749817,0.0026490376330912113,-0.01306110993027687
0.016648007556796074,-0.0003951698017772287,-0.0043549141846597195,-0.017808469012379646,0.0024743375834077597,-0.01305769570171833
0.01626947708427906,-0.00018679363711271435,-0.004068088252097368,-0.017769847065210342,0.0022459218744188547,-0.012813379056751728
0.016835732385516167,-4.986163185094483e-05,-0.004300371743738651,-0.01808501034975052,0.0021572420373559,-0.012706797569990158
0.01664723828434944,-6.689574547635857e-07,-0.00417995173484087,-0.01760351099073887,0.002296745078638196,-0.012318420223891735
0.01703382283449173,-8.974917697912588e-09,-0.003958811517804861,-0.017894187942147255,0.0025652095209807158,-0.012573105283081532
0.017225787043571472,-1.2040997365847517e-10,-0.0038458947092294693,-0.018284207209944725,0.0027555886190384626,-0.012964228168129921
0.016918644309043884,-1.6154533223275425e-12,-0.0038522754330188036,-0.01811220683157444,0.0028147255070507526,-0.012605562806129456
0.015871331095695496,-2.1673367446442895e-14,-0.003979665692895651,-0.01827831380069256,0.002914601005613804,-0.012253981083631516
0.01688198745250702,-2.9077587582011983e-16,-0.00400547357276082,-0.01838184893131256,0.0028214214835315943,-0.01228862814605236
0.017634687945246696,-3.901129766178194e-18,-0.0038565201684832573,-0.018183916807174683,0.002557548927143216,-0.012446334585547447
0.01748804561793804,-5.2338631875419603e-20,-0.0038308328948915005,-0.018560240045189857,0.002662181854248047,-0.012207137420773506
0.01748804561793804,-5.2338631875419603e-20,-0.0038308328948915005,-0.018560240045189857,0.002662181854248047,-0.012207137420773506
0.017315823584794998,-7.021896032232696e-22,-0.004363746847957373,-0.018363548442721367,0.002797890454530716,-0.012686314061284065
0.017369069159030914,-9.420769412210197e-24,-0.0042029134929180145,-0.018013840541243553,0.00270259496755898,-0.013126465491950512
0.01735261082649231,-1.263916516871082e-25,-0.0036471886560320854,-0.018702050670981407,0.0025140729267150164,-0.013196050189435482
0.01765028014779091,-1.695705241800158e-27,-0.003447549417614937,-0.018953412771224976,0.002409352222457528,-0.013012893497943878
0.01748054102063179,-2.2750048972706993e-29,-0.004232377745211124,-0.019282124936580658,0.0025692954659461975,-0.012796657159924507
0.017450520768761635,-3.052209167927036e-31,-0.004217434208840132,-0.019641581922769547,0.0026595888193696737,-0.013229078613221645
0.018291592597961426,-4.09492824329552e-33,-0.003938818350434303,-0.019016427919268608,0.003054603235796094,-0.012983497232198715
0.018204132094979286,-5.493869146940998e-35,-0.004216525703668594,-0.018965542316436768,0.00321798212826252,-0.013190827332437038
0.018433621153235435,-7.370727235197072e-37,-0.004270118195563555,-0.020309334620833397,0.0030488825868815184,-0.01303629856556654
0.018014512956142426,-1.326707347068807e-40,-0.00431521562859416,-0.02001999132335186,0.002399719785898924,-0.013089600019156933
0.018014512956142426,-1.326707347068807e-40,-0.00431521562859416,-0.02001999132335186,0.002399719785898924,-0.013089600019156933
0.018822556361556053,-2.382207389352189e-44,-0.003990605939179659,-0.020517509430646896,0.0020825969986617565,-0.012947806157171726
0.018795253708958626,-0.0,-0.003876426490023732,-0.019612574949860573,0.0021723650861531496,-0.013029616326093674
0.018766749650239944,0.0002859688247554004,-0.0042231641709804535,-0.01907706819474697,0.0021956295240670443,-0.013529133051633835
0.01862856186926365,0.0002754189190454781,-0.004624809138476849,-0.020424257963895798,0.002517523244023323,-0.013683941215276718
0.018402693793177605,0.0002596200502011925,-0.0040992433205246925,-0.021292923018336296,0.002801398281008005,-0.01377893891185522
0.01848072186112404,0.0002454581845086068,-0.0037815943360328674,-0.020447568967938423,0.0026744119822978973,-0.013710906729102135
0.018626393750309944,0.00023276118736248463,-0.004179076757282019,-0.020550204440951347,0.0028086912352591753,-0.01413329504430294
0.018611587584018707,0.00026495035854168236,-0.004319461062550545,-0.0211586095392704,0.0030482569709420204,-0.014152527786791325
0.01946789212524891,0.00028077239403501153,-0.004051999654620886,-0.02187279425561428,0.00328021589666605,-0.014173932373523712
0.01919117011129856,0.00030831884942017496,-0.0038051935844123363,-0.0216774120926857,0.0033756617922335863,-0.013871362432837486
0.018484286963939667,0.0003083811607211828,-0.004295993596315384,-0.021087605506181717,0.003184322267770767,-0.01417732983827591
0.019103137776255608,0.00045766268158331513,-0.004133818205446005,-0.020937828347086906,0.0030072559602558613,-0.013973343186080456
0.018732352182269096,0.0004958256031386554,-0.003923953045159578,-0.021302256733179092,0.002960013225674629,-0.014008892700076103
0.018894558772444725,0.0004626483714673668,-0.003840629942715168,-0.021658940240740776,0.0027195962611585855,-0.014313707128167152
0.018894558772444725,0.0004626483714673668,-0.003840629942715168,-0.021658940240740776,0.0027195962611585855,-0.014313707128167152
0.019482946023344994,0.000488717167172581,-0.003989312797784805,-0.02254662849009037,0.002397846430540085,-0.014816921204328537
0.019044622778892517,0.0004607824084814638,-0.004031809978187084,-0.022605612874031067,0.00228931475430727,-0.014496826566755772
0.01910301297903061,0.00048346086987294257,-0.0039197844453155994,-0.022482287138700485,0.002529492834582925,-0.01435465645045042
0.01926933228969574,0.0004593953490257263,-0.00442748237401247,-0.02221016213297844,0.002970028668642044,-0.014491802081465721
0.019428640604019165,0.0005717527819797397,-0.004632945638149977,-0.022598441690206528,0.00290696625597775,-0.014792866073548794
0.019114535301923752,0.0006139559554867446,-0.004689969588071108,-0.0230899378657341,0.0028375419788062572,-0.014598185196518898
0.01947934739291668,0.00064071238739416,-0.00437927758321166,-0.022904925048351288,0.0026285063941031694,-0.014674880541861057
0.01901298388838768,0.0006581346970051527,-0.004231475759297609,-0.02268797717988491,0.002471027197316289,-0.014658555388450623
0.0189581997692585,0.0006114214775152504,-0.00411855336278677,-0.022534580901265144,0.0023387714754790068,-0.014726012945175171
0.019492538645863533,0.0007667066529393196,-0.0040269214659929276,-0.022657526656985283,0.002179376082494855,-0.014795178547501564
0.01941889151930809,0.0008040597895160317,-0.00509668979793787,-0.024300971999764442,0.0026925199199467897,-0.015229176729917526
0.019465025514364243,0.0008067878661677241,-0.004453419242054224,-0.023986954241991043,0.0024340995587408543,-0.014934781938791275
0.017724981531500816,0.0008576928521506488,-0.00423167971894145,-0.023745976388454437,0.0022186029236763716,-0.014721698127686977
0.02003358118236065,0.0009101785835810006,-0.00402772706001997,-0.022878797724843025,0.0020957316737622023,-0.014909904450178146
0.020480316132307053,0.0009093439439311624,-0.003911755047738552,-0.02344640903174877,0.00203861016780138,-0.014617079868912697
0.01985890232026577,0.0009174364386126399,-0.004329353105276823,-0.023852933198213577,0.0021338537335395813,-0.014480949379503727
0.019978299736976624,0.001051954459398985,-0.004604372661560774,-0.024455571547150612,0.002130849752575159,-0.014614833518862724
0.01996811106801033,0.0011655203998088837,-0.004594562109559774,-0.02381366863846779,0.002454445930197835,-0.014859971590340137
0.020459981635212898,0.001157922437414527,-0.004114371258765459,-0.02364017441868782,0.002686144085600972,-0.014759811572730541
0.020152602344751358,0.0012372309574857354,-0.003983147442340851,-0.024484800174832344,0.002653273055329919,-0.01474026683717966
0.019941015169024467,0.0013202311238273978,-0.004093353636562824,-0.024958545342087746,0.0026938801165670156,-0.015027322806417942
0.020923873409628868,0.0012463574530556798,-0.004082384053617716,-0.02457638829946518,0.002586215501651168,-0.015295956283807755
0.0215670894831419,0.001407079165801406,-0.004100331570953131,-0.023714283481240273,0.0024578275624662638,-0.01517642941325903
0.020846320316195488,0.0014918458182364702,-0.004277046304196119,-0.024038022384047508,0.002398560754954815,-0.015154168009757996
0.02141515351831913,0.001947539858520031,-0.004441131372004747,-0.02459687553346157,0.0025333266239613295,-0.015565987676382065
0.02080363593995571,0.0017945163417607546,-0.004426721949130297,-0.024446213617920876,0.0025351180229336023,-0.015225960873067379
0.020402243360877037,0.0016033779829740524,-0.004239282570779324,-0.024549569934606552,0.0028121736831963062,-0.015219874680042267
0.020402243360877037,0.0016033779829740524,-0.004239282570779324,-0.024549569934606552,0.0028121736831963062,-0.015219874680042267
0.02102546952664852,0.0015527058858424425,-0.00439048744738102,-0.024738769978284836,0.002968684071674943,-0.015193512663245201
0.02162202075123787,0.0015539041487500072,-0.00433208467438817,-0.0250422153621912,0.0030797182116657495,-0.015425377525389194
0.02133619226515293,0.0017252099933102727,-0.004099718760699034,-0.025256088003516197,0.0033314458560198545,-0.015620505437254906
0.020847680047154427,0.0018275484908372164,-0.0043548718094825745,-0.02475135587155819,0.003224982414394617,-0.01568756066262722
0.021343449130654335,0.0022936807945370674,-0.004944910760968924,-0.023958895355463028,0.0030750727746635675,-0.01494514662772417
0.02209160290658474,0.0021006984170526266,-0.004490821622312069,-0.025442566722631454,0.0028704064898192883,-0.016101235523819923
0.02214033529162407,0.00224479753524065,-0.004050992429256439,-0.025575967505574226,0.002745554316788912,-0.016268383711576462
0.021888770163059235,0.002070257905870676,-0.004398141987621784,-0.025578230619430542,0.0024790908209979534,-0.016016662120819092
0.02158474735915661,0.0020283148624002934,-0.004619227722287178,-0.026233701035380363,0.0022042717318981886,-0.015559250488877296
0.02177581377327442,0.00224633002653718,-0.0046674027107656,-0.026556095108389854,0.0020754802972078323,-0.014901312999427319
0.022083796560764313,0.0021392882335931063,-0.00473091471940279,-0.02695109136402607,0.002045420231297612,-0.015242359600961208
0.022494759410619736,0.002070159185677767,-0.004320780746638775,-0.027059923857450485,0.0020574552472680807,-0.015813931822776794
0.022467708215117455,0.002004757057875395,-0.004457500297576189,-0.027027156203985214,0.0024795792996883392,-0.016647208482027054
0.02301332727074623,0.0027088935021311045,-0.00425536185503006,-0.02794051170349121,0.002919849706813693,-0.016156645491719246
0.022870507091283798,0.003474531229585409,-0.0043549854308366776,-0.028073661029338837,0.0028269956819713116,-0.015823446214199066
0.022517433390021324,0.003225530730560422,-0.0045096902176737785,-0.028017982840538025,0.0029589245095849037,-0.015931198373436928
0.022722210735082626,0.0030899345874786377,-0.004785232711583376,-0.027477746829390526,0.002907771384343505,-0.016159946098923683
0.02319003827869892,0.0030150343663990498,-0.004770040512084961,-0.02755587175488472,0.002896048128604889,-0.016263457015156746
0.023419901728630066,0.003225689986720681,-0.004872662480920553,-0.02785608358681202,0.002820499474182725,-0.016414016485214233
0.023313267156481743,0.003143940819427371,-0.004814586602151394,-0.027627917006611824,0.0028918238822370768,-0.01586664468050003
0.024125533178448677,0.0034578279592096806,-0.00444552768021822,-0.027829382568597794,0.0025881510227918625,-0.016098354011774063
0.02372073382139206,0.003240366466343403,-0.004560935776680708,-0.02802572399377823,0.002372478134930134,-0.016150537878274918
0.023826351389288902,0.003456038422882557,-0.005001403857022524,-0.02846323885023594,0.002539453562349081,-0.01656125858426094
0.023826351389288902,0.003456038422882557,-0.005001403857022524,-0.02846323885023594,0.002539453562349081,-0.01656125858426094
0.024150270968675613,0.004192797001451254,-0.0051302844658494,-0.02798483707010746,0.0028774419333785772,-0.016696928068995476
0.024297941476106644,0.004033735953271389,-0.004768962971866131,-0.027852894738316536,0.0029745944775640965,-0.016784844920039177
0.024391645565629005,0.0043739513494074345,-0.004413039889186621,-0.028563763946294785,0.002935502678155899,-0.017168652266263962
0.02445904165506363,0.004621902946382761,-0.004854369908571243,-0.028682000935077667,0.00293431687168777,-0.016773873940110207
0.024174289777874947,0.004181697033345699,-0.004921248182654381,-0.0292211826890707,0.00324164517223835,-0.016616258770227432
0.024285608902573586,0.004063932690769434,-0.0051996889524161816,-0.028998346999287605,0.003214853350073099,-0.016539067029953003
0.024635961279273033,0.0048485929146409035,-0.00482715992256999,-0.029260626062750816,0.0030122033786028624,-0.016679376363754272
0.024815471842885017,0.005046247038990259,-0.004653625190258026,-0.029376309365034103,0.002848707139492035,-0.01645612344145775
0.025021683424711227,0.005034316796809435,-0.004474525805562735,-0.029740022495388985,0.002781475195661187,-0.01660931669175625
0.024645719677209854,0.005272768437862396,-0.005120052024722099,-0.030170412734150887,0.002669340930879116,-0.016609083861112595
0.02475670725107193,0.004877564497292042,-0.004950316157191992,-0.029999515041708946,0.0030382482800632715,-0.016718052327632904
0.024847369641065598,0.005215349607169628,-0.005007721018046141,-0.029842570424079895,0.0034171026200056076,-0.016296472400426865
0.02497824653983116,0.005555625073611736,-0.005102996248751879,-0.030677370727062225,0.0032883554231375456,-0.01647927425801754
0.0250303465873003,0.005263783037662506,-0.004829911515116692,-0.03147260844707489,0.0030562335159629583,-0.01658274047076702
0.025301512330770493,0.005386559292674065,-0.004885197151452303,-0.03102196380496025,0.002740598516538739,-0.016587771475315094
0.025603728368878365,0.005534155759960413,-0.004604965914040804,-0.03107725828886032,0.002847629599273205,-0.01709282211959362
0.025784166529774666,0.005486075300723314,-0.004816647619009018,-0.029960952699184418,0.0030112259555608034,-0.017112169414758682
0.02539556287229061,0.005479146726429462,-0.005383350420743227,-0.030520804226398468,0.003377569140866399,-0.01699952781200409
0.02532392367720604,0.005686974618583918,-0.005070661194622517,-0.03132404759526253,0.003210306167602539,-0.016971930861473083
0.02562183514237404,0.005962757859379053,-0.004889755044132471,-0.030532049015164375,0.002904749708250165,-0.016815045848488808
0.025963740423321724,0.006192075554281473,-0.004868356976658106,-0.031548988074064255,0.0028707238379865885,-0.017250563949346542
0.025963740423321724,0.006192075554281473,-0.004868356976658106,-0.031548988074064255,0.0028707238379865885,-0.017250563949346542
0.02700435370206833,0.0061605400405824184,-0.004798662383109331,-0.03204707056283951,0.0029448606073856354,-0.01707802712917328
0.02643769420683384,0.005921383388340473,-0.004861835855990648,-0.030473383143544197,0.003041269490495324,-0.017091233283281326
0.02465870790183544,0.006286035757511854,-0.005748249590396881,-0.02972841076552868,0.0033202236518263817,-0.017273470759391785
0.026352381333708763,0.007027586456388235,-0.00529644638299942,-0.031170260161161423,0.0032592397183179855,-0.01786334626376629
0.02657853253185749,0.006813020445406437,-0.0047431522980332375,-0.03178953751921654,0.003241832833737135,-0.017095988616347313
0.026765096932649612,0.006680439226329327,-0.005145598668605089,-0.03158269077539444,0.0033899240661412477,-0.017133569344878197
0.02616782858967781,0.006669533904641867,-0.005106572061777115,-0.03196709230542183,0.0035418483894318342,-0.017795855179429054
0.026615753769874573,0.006821169517934322,-0.005507122725248337,-0.031971804797649384,0.003207729896530509,-0.017816726118326187
0.02635231614112854,0.007123621180653572,-0.004762278404086828,-0.032332636415958405,0.002738452749326825,-0.018075183033943176
0.025651799514889717,0.006980950944125652,-0.004986525047570467,-0.031339678913354874,0.0028283395804464817,-0.017960714176297188
0.025651799514889717,0.006980950944125652,-0.004986525047570467,-0.031339678913354874,0.0028283395804464817,-0.017960714176297188
0.026192141696810722,0.007842406630516052,-0.0049763210117816925,-0.032721146941185,0.0031454593408852816,-0.017962725833058357
0.026933608576655388,0.00729735754430294,-0.005377867259085178,-0.03385820984840393,0.003116538282483816,-0.018017400056123734
0.026922523975372314,0.006989045534282923,-0.005260189063847065,-0.032050810754299164,0.0033410233445465565,-0.018207307904958725
0.027110857889056206,0.007176464889198542,-0.005007435567677021,-0.030703501775860786,0.003296836744993925,-0.018025629222393036
0.026721494272351265,0.007855746895074844,-0.005164614878594875,-0.031833626329898834,0.0031893597915768623,-0.017852243036031723
0.027104252949357033,0.007704505231231451,-0.0050207446329295635,-0.03293072432279587,0.0029566718731075525,-0.018110742792487144
0.02687673456966877,0.0074987271800637245,-0.004884134046733379,-0.032686471939086914,0.002696804003790021,-0.01769155077636242
0.026749666780233383,0.007830466143786907,-0.005539651028811932,-0.03324492648243904,0.0025647692382335663,-0.01774059794843197
0.026814786717295647,0.00750837242230773,-0.005258884746581316,-0.03325967490673065,0.0027128765359520912,-0.01780080981552601
0.02690056525170803,0.0073834871873259544,-0.004918521270155907,-0.032559219747781754,0.0028892632108181715,-0.017896348610520363
0.02690056525170803,0.0073834871873259544,-0.004918521270155907,-0.032559219747781754,0.0028892632108181715,-0.017896348610520363
0.026947859674692154,0.008425948210060596,-0.005108686164021492,-0.03397861495614052,0.003247968154028058,-0.017439261078834534
0.026918578892946243,0.008167240768671036,-0.005721045657992363,-0.03453958034515381,0.0031612864695489407,-0.01787976548075676
0.026870792731642723,0.008203192614018917,-0.005363252945244312,-0.03454795852303505,0.0032931689638644457,-0.01829472929239273
0.026870792731642723,0.008203192614018917,-0.005363252945244312,-0.03454795852303505,0.0032931689638644457,-0.01829472929239273
0.026962922886013985,0.008615054190158844,-0.005117619410157204,-0.035049524158239365,0.0034781270660459995,-0.018668537959456444
0.027478503063321114,0.008831231854856014,-0.005186145659536123,-0.03554484248161316,0.003399704582989216,-0.018711280077695847
0.027491314336657524,0.00894551258534193,-0.005325233563780785,-0.03602571412920952,0.0030617949087172747,-0.018310947343707085
0.02755441702902317,0.008831080980598927,-0.005493375472724438,-0.03627537563443184,0.003236483782529831,-0.017990678548812866
0.027273982763290405,0.009098192676901817,-0.005467262584716082,-0.03593079373240471,0.003168851835653186,-0.01806989498436451
0.028605177998542786,0.009022983722388744,-0.005584097001701593,-0.036355938762426376,0.0030618621967732906,-0.018144261091947556
0.029246624559164047,0.008712791837751865,-0.005538849625736475,-0.0365394726395607,0.0029403232038021088,-0.018171904608607292
0.028502581641077995,0.009597236290574074,-0.005452753975987434,-0.036311544477939606,0.0029589731711894274,-0.018780404701828957
0.0273959431797266,0.009392442181706429,-0.005406924989074469,-0.03656405955553055,0.0031523751094937325,-0.01896403357386589
0.02760346047580242,0.009224602952599525,-0.0056622689589858055,-0.036402225494384766,0.0035593255888670683,-0.0185671616345644
0.028910716995596886,0.009400313720107079,-0.0059512280859053135,-0.036775052547454834,0.0039306627586483955,-0.019437633454799652
0.02870103158056736,0.009431040845811367,-0.005381115712225437,-0.03725491836667061,0.003533614333719015,-0.019376138225197792
0.02930062636733055,0.009834825061261654,-0.005270383786410093,-0.03713443875312805,0.00350393820554018,-0.01920037530362606
0.02884342148900032,0.01011516060680151,-0.005407225340604782,-0.03700057417154312,0.0031081857159733772,-0.018593937158584595
0.029401181265711784,0.010297211818397045,-0.005399004090577364,-0.03703787922859192,0.003086542245000601,-0.01865428127348423
0.02871207892894745,0.010112443938851357,-0.006013189442455769,-0.037698645144701004,0.002999686636030674,-0.018633296713232994
0.028700368478894234,0.00979921780526638,-0.0055119129829108715,-0.03786512091755867,0.0030599823221564293,-0.018946241587400436
0.029090596362948418,0.009628253057599068,-0.005426247138530016,-0.03750506788492203,0.003334952052682638,-0.019259313121438026
0.029351461678743362,0.012286683544516563,-0.005370795726776123,-0.03772072121500969,0.003180244704708457,-0.019778138026595116
0.029261702671647072,0.009511178359389305,-0.005912771448493004,-0.038155414164066315,0.0032458368223160505,-0.019353903830051422
0.02937411703169346,0.009524685330688953,-0.006452282425016165,-0.03867756202816963,0.003245235187932849,-0.019474469125270844
0.029011910781264305,0.009909131564199924,-0.006011200603097677,-0.03912738710641861,0.003138067200779915,-0.01985022984445095
0.028773238882422447,0.008670025505125523,-0.005625931546092033,-0.039214275777339935,0.003433492034673691,-0.019526176154613495
0.029143262654542923,0.008122558705508709,-0.00513058016076684,-0.03912581875920296,0.00334343989379704,-0.01988452486693859
0.028927335515618324,0.008871245197951794,-0.005914304405450821,-0.039535555988550186,0.0034240265376865864,-0.02020643651485443
0.029019983485341072,0.009145861491560936,-0.006107153836637735,-0.041469696909189224,0.003176290774717927,-0.02041609399020672
0.02931216172873974,0.009136741980910301,-0.005858293268829584,-0.040640659630298615,0.0033271866850554943,-0.02019275538623333
0.02931216172873974,0.009136741980910301,-0.005858293268829584,-0.040640659630298615,0.0033271866850554943,-0.02019275538623333
0.029497409239411354,0.009138642810285091,-0.005283084232360125,-0.038548048585653305,0.0035826670937240124,-0.020184440538287163
0.029708117246627808,0.009839411824941635,-0.005584667902439833,-0.039440810680389404,0.003721844404935837,-0.020356910303235054
0.02985546924173832,0.00937481876462698,-0.005550998263061047,-0.04056593030691147,0.0037576998583972454,-0.02006242796778679
0.029274435713887215,0.009152411483228207,-0.006358329672366381,-0.041243117302656174,0.0035773268900811672,-0.02025010623037815
0.03014921396970749,0.010672442615032196,-0.006067546084523201,-0.04131109267473221,0.0032991233747452497,-0.020793164148926735
0.030068647116422653,0.009779668413102627,-0.005682794842869043,-0.038880255073308945,0.0031066478695720434,-0.02083100751042366
0.029721925035119057,0.009533311240375042,-0.0057569826021790504,-0.03920046612620354,0.002991538029164076,-0.020654121413826942
0.02975044585764408,0.01012825220823288,-0.0053624557331204414,-0.040802180767059326,0.0032940253149718046,-0.020556699484586716
0.03003890998661518,0.009177938103675842,-0.006417226046323776,-0.041094373911619186,0.003176541067659855,-0.0207134447991848
0.029741590842604637,0.009798437356948853,-0.006132490932941437,-0.040431324392557144,0.003162047127261758,-0.020802408456802368
0.030358895659446716,0.010028855875134468,-0.005412501748651266,-0.04015396162867546,0.0030787962023168802,-0.02128533646464348
0.03028436377644539,0.009632029570639133,-0.00561310350894928,-0.040664639323949814,0.003423777874559164,-0.02126765064895153
0.030008669942617416,0.010468479245901108,-0.00554391136392951,-0.039906151592731476,0.0032537744846194983,-0.02106453664600849
0.030589330941438675,0.011273856274783611,-0.006468352861702442,-0.04105246067047119,0.003135522361844778,-0.02112879417836666
0.03068595752120018,0.010305988602340221,-0.006048699375241995,-0.043504126369953156,0.0032032751478254795,-0.021265504881739616
0.030759932473301888,0.010287881828844547,-0.005606553982943296,-0.042801737785339355,0.0032510391902178526,-0.021361416205763817
0.030384140089154243,0.009924396872520447,-0.005302577745169401,-0.04054320603609085,0.0031291621271520853,-0.022028964012861252
0.030590709298849106,0.01023134309798479,-0.006003565154969692,-0.04225999861955643,0.0030674361623823643,-0.02239706926047802
0.031096840277314186,0.010971381328999996,-0.006465815007686615,-0.0434333011507988,0.003182856133207679,-0.022251935675740242
0.03200335055589676,0.010337146930396557,-0.005994702223688364,-0.04493887722492218,0.0030371290631592274,-0.02151445858180523
0.0317709743976593,0.010674891993403435,-0.005549907684326172,-0.0434429794549942,0.0033099374268203974,-0.020459331572055817
0.03033200092613697,0.011048792861402035,-0.005192288663238287,-0.041399870067834854,0.003530079498887062,-0.021257132291793823
0.03078300692141056,0.010502352379262447,-0.0058352770283818245,-0.04306066036224365,0.003373207990080118,-0.0224376879632473
0.032096777111291885,0.011005167849361897,-0.006004903465509415,-0.04367130249738693,0.003212031675502658,-0.02239694446325302
0.031372904777526855,0.010442725382745266,-0.006297124084085226,-0.04345044121146202,0.0032602129504084587,-0.021338477730751038
0.032262254506349564,0.010915410704910755,-0.005684356205165386,-0.04392024129629135,0.0036293056327849627,-0.021448591724038124
0.032262254506349564,0.010915410704910755,-0.005684356205165386,-0.04392024129629135,0.0036293056327849627,-0.021448591724038124
0.03278457000851631,0.011604195460677147,-0.005669726524502039,-0.04405808076262474,0.0038059884682297707,-0.0226528812199831
0.031936731189489365,0.010539734736084938,-0.006138128694146872,-0.04435697942972183,0.004160564858466387,-0.02321404218673706
0.031578343361616135,0.011041968129575253,-0.006024437490850687,-0.04476369544863701,0.003949484787881374,-0.021765831857919693
0.031611617654561996,0.01120267529040575,-0.006256796885281801,-0.04562877491116524,0.0035813734866678715,-0.020722026005387306
0.03262040391564369,0.010711762122809887,-0.005822407081723213,-0.044218555092811584,0.003588002407923341,-0.021152900531888008
0.03225354477763176,0.011283044703304768,-0.00574949337169528,-0.044253263622522354,0.0038454639725387096,-0.021789323538541794
0.032279424369335175,0.011720104143023491,-0.0061157518066465855,-0.044956449419260025,0.003544478677213192,-0.02270093373954296
0.03297815099358559,0.01149776391685009,-0.005995097570121288,-0.04585762694478035,0.0035414681769907475,-0.02153601124882698
0.03226142376661301,0.010812499560415745,-0.0064329225569963455,-0.04591032490134239,0.004193162079900503,-0.02201877161860466
0.03278729319572449,0.01118787657469511,-0.005736008286476135,-0.045709025114774704,0.004094639793038368,-0.022007890045642853
0.03316231444478035,0.01116491761058569,-0.0059301527217030525,-0.04549500346183777,0.003489283611997962,-0.021996280178427696
0.03260228782892227,0.011146040633320808,-0.005931117571890354,-0.04530712217092514,0.003097144654020667,-0.02248249016702175
0.03316032886505127,0.011465645395219326,-0.006337528117001057,-0.0452147014439106,0.0031840724404901266,-0.022600332275032997
0.03319467604160309,0.011266943998634815,-0.005705179646611214,-0.04465516656637192,0.0035574070643633604,-0.02243121527135372
0.033100828528404236,0.01125944685190916,-0.005706714931875467,-0.044908806681632996,0.003654913743957877,-0.0224185511469841
0.033424001187086105,0.011180312372744083,-0.005556086543947458,-0.04492736980319023,0.003457829589024186,-0.022645914927124977
0.03348246216773987,0.010878903791308403,-0.006084168329834938,-0.044433631002902985,0.0035761771723628044,-0.022961296141147614
0.03459520265460014,0.011780168861150742,-0.0064315879717469215,-0.044944219291210175,0.0037184234242886305,-0.02294996753334999
0.03412526100873947,0.011193166486918926,-0.005596498493105173,-0.04610494151711464,0.003815293312072754,-0.022832076996564865
0.03278045728802681,0.011034656316041946,-0.005356467794626951,-0.04416191950440407,0.0037986559327691793,-0.022662360221147537
0.034115809947252274,0.010956528596580029,-0.005606562830507755,-0.043960459530353546,0.0036094484385102987,-0.022463630884885788
0.034848105162382126,0.010695060715079308,-0.006148770917207003,-0.04521029070019722,0.0032319757156074047,-0.022595776244997978
0.03447001427412033,0.01119635347276926,-0.006372297648340464,-0.046394236385822296,0.0032723722979426384,-0.023002387955784798
0.03473714739084244,0.010994868353009224,-0.005487124435603619,-0.047213029116392136,0.003368382342159748,-0.02283199317753315
0.03473714739084244,0.010994868353009224,-0.005487124435603619,-0.047213029116392136,0.003368382342159748,-0.02283199317753315
0.03527899086475372,0.010795782320201397,-0.005982029717415571,-0.04481136053800583,0.004097857512533665,-0.023092349991202354
0.03443872183561325,0.011240236461162567,-0.00584098557010293,-0.0463058203458786,0.003838624805212021,-0.02349061705172062
0.03421374410390854,0.010992315597832203,-0.005730070639401674,-0.04750489816069603,0.003532188478857279,-0.023165065795183182
0.03528190404176712,0.010989565402269363,-0.005757232196629047,-0.04715096950531006,0.0035839530173689127,-0.023038888350129128
0.03525673225522041,0.011233648285269737,-0.006060016807168722,-0.04757034778594971,0.0037714368663728237,-0.023237932473421097
0.03447915241122246,0.010573112405836582,-0.0056174020282924175,-0.04773735627532005,0.0043548597022891045,-0.02306458353996277
0.035201579332351685,0.010854627005755901,-0.005687756929546595,-0.04814055562019348,0.004187692888081074,-0.02311226911842823
0.03513375297188759,0.011040248908102512,-0.005374656990170479,-0.04807828366756439,0.0043812962248921394,-0.023229561746120453
0.03504333272576332,0.010787750594317913,-0.005987410433590412,-0.04774408042430878,0.004234076011925936,-0.02338690124452114
0.03521156683564186,0.011071549728512764,-0.006314474623650312,-0.0493655689060688,0.003993443213403225,-0.02332732453942299
0.035582784563302994,0.01084117405116558,-0.005713657941669226,-0.047045934945344925,0.003981903661042452,-0.022973688319325447
0.03560928627848625,0.0112500861287117,-0.005770538002252579,-0.04805213585495949,0.0038054354954510927,-0.023378320038318634
0.03607970103621483,0.010626930743455887,-0.006430875044316053,-0.04914348945021629,0.003635902889072895,-0.023544831201434135
0.0356641486287117,0.011158991605043411,-0.006088212598115206,-0.05128049477934837,0.0036677930038422346,-0.023209577426314354
0.035782407969236374,0.010859685018658638,-0.005606114864349365,-0.050171494483947754,0.003999962005764246,-0.02281353808939457
0.03582396358251572,0.010847048833966255,-0.0060669309459626675,-0.048770904541015625,0.003738308558240533,-0.02280035987496376
0.03490034118294716,0.01175218727439642,-0.005842442158609629,-0.05002737417817116,0.003270499175414443,-0.023024100810289383
0.035414066165685654,0.011323437094688416,-0.006146273575723171,-0.05053562670946121,0.003264061873778701,-0.023993564769625664
0.03641347959637642,0.012164321728050709,-0.00594435166567564,-0.050607819110155106,0.0036114053800702095,-0.023552168160676956
0.03565444052219391,0.011353941634297371,-0.005416173953562975,-0.050550155341625214,0.0037962752394378185,-0.023662107065320015
0.03528809919953346,0.011152488179504871,-0.005765808746218681,-0.05076600983738899,0.003853998612612486,-0.023850325495004654
0.034957051277160645,0.011551326140761375,-0.00595852779224515,-0.05006095767021179,0.003764211433008313,-0.023285727947950363
0.03553904965519905,0.011443194933235645,-0.0061469716019928455,-0.05059744417667389,0.0037704836577177048,-0.023797422647476196
0.0356912724673748,0.012025161646306515,-0.005599034484475851,-0.050301749259233475,0.003953063860535622,-0.02451302297413349
0.03580886498093605,0.011781302280724049,-0.005503297317773104,-0.04976001754403114,0.00394212594255805,-0.024920638650655746
0.03533702343702316,0.011567192152142525,-0.006401037331670523,-0.05021819472312927,0.0038733736146241426,-0.02456786297261715
0.035292401909828186,0.012173815630376339,-0.0063131144270300865,-0.04945657402276993,0.00381250842474401,-0.025044819340109825
0.03550082817673683,0.012512008659541607,-0.006319948472082615,-0.04948273301124573,0.003725344082340598,-0.025513295084238052
0.03550082817673683,0.012512008659541607,-0.006319948472082615,-0.04948273301124573,0.003725344082340598,-0.025513295084238052
0.0359448567032814,0.01204767357558012,-0.005550654139369726,-0.05018153041601181,0.003695555031299591,-0.025147726759314537
0.03670337051153183,0.012396220117807388,-0.005736454855650663,-0.048693809658288956,0.00410175696015358,-0.02453569695353508
0.03584820032119751,0.012514309957623482,-0.00608585961163044,-0.04908343404531479,0.004160404205322266,-0.023791693150997162
0.03543120622634888,0.012797100469470024,-0.006297254469245672,-0.05000410974025726,0.003998774569481611,-0.02449336089193821
0.03565412387251854,0.012351755052804947,-0.006112616043537855,-0.0503661148250103,0.004013529978692532,-0.025331789627671242
0.0352461002767086,0.012256992980837822,-0.005963442847132683,-0.04965353384613991,0.003728266106918454,-0.024986637756228447
0.036440372467041016,0.012272220104932785,-0.006008869968354702,-0.04970917850732803,0.0035384686198085546,-0.024546418339014053
0.03740817308425903,0.013030479662120342,-0.0060676573775708675,-0.052471764385700226,0.0036645662039518356,-0.02459503337740898
0.036325979977846146,0.012961250729858875,-0.006269887555390596,-0.05063726380467415,0.0037751109339296818,-0.02499651163816452
0.03490258753299713,0.013032651506364346,-0.0062394957058131695,-0.05048954486846924,0.0037458273582160473,-0.025381874293088913
0.036986131221055984,0.012674412690103054,-0.006393220275640488,-0.05337298661470413,0.004031861666589975,-0.025282636284828186
0.036651767790317535,0.01322191022336483,-0.005611439701169729,-0.05224316194653511,0.004006433766335249,-0.02531118132174015
0.03643561527132988,0.013162347488105297,-0.005895764566957951,-0.05148180574178696,0.004404689185321331,-0.025548119097948074
0.03649954870343208,0.01363258808851242,-0.006218336522579193,-0.05226043611764908,0.00423018541187048,-0.02548297494649887
0.03635243698954582,0.01343663688749075,-0.005999880842864513,-0.052598968148231506,0.004434640984982252,-0.025117628276348114
0.03690889850258827,0.013699726201593876,-0.006147531792521477,-0.05364517495036125,0.004183617420494556,-0.025972241535782814
0.03669644519686699,0.013301999308168888,-0.005499627906829119,-0.05263069272041321,0.00405127415433526,-0.025149505585432053
0.037308089435100555,0.013425977900624275,-0.006027808412909508,-0.05197235196828842,0.00431085005402565,-0.025536220520734787
0.037302207201719284,0.013741507194936275,-0.006644392851740122,-0.053145069628953934,0.004496229812502861,-0.026063308119773865
0.037119437009096146,0.014294532127678394,-0.006192228756844997,-0.05302775651216507,0.004105508327484131,-0.025960002094507217
0.038258351385593414,0.013627996668219566,-0.005883054342120886,-0.05247405916452408,0.003975639119744301,-0.02550647035241127
0.03839137777686119,0.014456392265856266,-0.005660979077219963,-0.05418737232685089,0.004077489487826824,-0.025917470455169678
0.036738891154527664,0.013742558658123016,-0.006247604265809059,-0.054252803325653076,0.003984756302088499,-0.02628808468580246
0.036880284547805786,0.013707788661122322,-0.006545206531882286,-0.05198453366756439,0.004186749458312988,-0.026675503700971603
0.03803452104330063,0.013553799130022526,-0.0061125485226511955,-0.052476655691862106,0.004158589988946915,-0.026028022170066833
0.03790699690580368,0.013569222763180733,-0.006017026957124472,-0.054552748799324036,0.004099156707525253,-0.025023004040122032
0.03922414034605026,0.013331019319593906,-0.005674273706972599,-0.05431761592626572,0.0043551321141421795,-0.025052856653928757
0.038062259554862976,0.013293243944644928,-0.006831725127995014,-0.05210300162434578,0.004401464480906725,-0.02538345754146576
0.03666316345334053,0.014255794696509838,-0.007329457905143499,-0.053153008222579956,0.004523078911006451,-0.02628551609814167
0.038289427757263184,0.013718467205762863,-0.006537658628076315,-0.054000552743673325,0.004219935741275549,-0.02627311274409294
0.038289427757263184,0.013718467205762863,-0.006537658628076315,-0.054000552743673325,0.004219935741275549,-0.02627311274409294
0.039249733090400696,0.0141084473580122,-0.006365524139255285,-0.054093923419713974,0.00390533241443336,-0.026470402255654335
0.03845023736357689,0.013542390428483486,-0.006139877252280712,-0.05228323116898537,0.003819145495072007,-0.02693871036171913
0.03815334290266037,0.01367038395255804,-0.0068928031250834465,-0.05290215462446213,0.004011026117950678,-0.026350513100624084
0.03882517293095589,0.013435338623821735,-0.006794117856770754,-0.05360739305615425,0.004065933171659708,-0.025566359981894493
0.03891634941101074,0.014528339728713036,-0.006254229228943586,-0.05396866425871849,0.004536986351013184,-0.025298800319433212
0.0392008014023304,0.014048129320144653,-0.00639592669904232,-0.05331744626164436,0.00465587479993701,-0.0257137268781662
0.03913770988583565,0.01427087839692831,-0.00692050252109766,-0.053534213453531265,0.004657567013055086,-0.02663395181298256
0.039265673607587814,0.014182605780661106,-0.006257618777453899,-0.054226964712142944,0.004099035169929266,-0.026663172990083694
0.03950924426317215,0.013945130631327629,-0.006111167371273041,-0.05448293313384056,0.003865062491968274,-0.025399498641490936
0.03943980857729912,0.014560071751475334,-0.007248191628605127,-0.054884590208530426,0.004133628681302071,-0.02580350637435913
0.03948397561907768,0.013558786362409592,-0.007836244069039822,-0.0551021583378315,0.004527465905994177,-0.02643587812781334
0.04002435505390167,0.014369702897965908,-0.006847633048892021,-0.0559251606464386,0.004591814242303371,-0.02634740062057972
0.039688557386398315,0.013640537858009338,-0.006476422306150198,-0.05463583022356033,0.004200639668852091,-0.02639964036643505
0.03969024121761322,0.014502499252557755,-0.006715890020132065,-0.05693655088543892,0.003526386572048068,-0.02661607787013054
0.03965103626251221,0.01396335568279028,-0.007143318187445402,-0.05518999323248863,0.003517167642712593,-0.02690061740577221
0.03981424868106842,0.014676995575428009,-0.00696963956579566,-0.054022789001464844,0.004222270101308823,-0.027125338092446327
0.0397675596177578,0.01404771488159895,-0.006556716747581959,-0.05571110546588898,0.0045651402324438095,-0.026995323598384857
0.03991052508354187,0.014371170662343502,-0.006316300015896559,-0.057588446885347366,0.004777361638844013,-0.02718951925635338
0.040384162217378616,0.014323869720101357,-0.006660134065896273,-0.05693426355719566,0.004987332504242659,-0.027329156175255775
0.0399135984480381,0.014507279731333256,-0.007169793825596571,-0.055579863488674164,0.004833382088690996,-0.02701650932431221
0.039935167878866196,0.014119213446974754,-0.006796031259000301,-0.05743098631501198,0.004484201315790415,-0.02683492749929428
0.04041670262813568,0.014775902032852173,-0.006335036363452673,-0.05787089467048645,0.004083145409822464,-0.026833487674593925
0.040002040565013885,0.014766308479011059,-0.006927228067070246,-0.057637184858322144,0.003969772253185511,-0.026942633092403412
0.04022499918937683,0.014711910858750343,-0.0073332395404577255,-0.05772722512483597,0.003906070487573743,-0.02713260054588318
0.04144902899861336,0.014583862386643887,-0.006577478256076574,-0.05777445062994957,0.004122517071664333,-0.02694101072847843
0.04092937707901001,0.015017252415418625,-0.006797663867473602,-0.05777310952544212,0.0042107366025447845,-0.026966406032443047
0.038771018385887146,0.01403440348803997,-0.00690991198644042,-0.05782650038599968,0.00432734377682209,-0.02693629451096058
0.038771018385887146,0.01403440348803997,-0.00690991198644042,-0.05782650038599968,0.00432734377682209,-0.02693629451096058
0.040629707276821136,0.014935757033526897,-0.007476629223674536,-0.056416455656290054,0.0040048398077487946,-0.02775627002120018
0.041130345314741135,0.014767814427614212,-0.007284896913915873,-0.057701658457517624,0.0038546049036085606,-0.026392748579382896
0.04058975726366043,0.015262056142091751,-0.007277227472513914,-0.05909828469157219,0.003915764857083559,-0.026826981455087662
0.04207708314061165,0.014818464405834675,-0.00654628686606884,-0.05609028413891792,0.004197569563984871,-0.0274552833288908
0.0393093079328537,0.015104463323950768,-0.0070016831159591675,-0.05614381656050682,0.00423006946220994,-0.027802705764770508
0.039810653775930405,0.014704184606671333,-0.007473345845937729,-0.058004897087812424,0.0044451006688177586,-0.027503561228513718
