davideferrari95/blind_handover_controller/data/Test 131 - [2024-02-07 -- 17-04-40]/joint_states_data.csv
shoulder_pan_joint,shoulder_lift_joint,elbow_joint,wrist_1_joint,wrist_2_joint,wrist_3_joint
0.005243233405053616,1.6245365512881915e-13,-0.013762345537543297,0.013353408314287663,-0.0,0.006581202615052462
0.005243233405053616,1.6245365512881915e-13,-0.013762345537543297,0.013353408314287663,-0.0,0.006581202615052462
0.005717335734516382,2.1795231347113793e-15,-0.014207393862307072,0.013622988946735859,-0.0,0.006695751566439867
0.005341914016753435,2.9241082807933294e-17,-0.013722924515604973,0.012918624095618725,-0.0,0.00600340124219656
0.004906131885945797,3.923064321276416e-19,-0.014243449084460735,0.01316944882273674,-0.0,0.00646528135985136
0.005186089314520359,7.061377952559156e-23,-0.014139489270746708,0.012225767597556114,-1.835857801779639e-05,0.006426305044442415
0.005341473035514355,9.473739252628298e-25,-0.013213717378675938,0.012469304725527763,-1.1986838899247232e-06,0.006335532292723656
0.005488660652190447,1.2710231675509917e-26,-0.013657557778060436,0.012749126181006432,-7.826549364153834e-08,0.006165469530969858
0.005153967998921871,1.7052399191017115e-28,-0.013622536323964596,0.013230486772954464,-5.110177170308816e-09,0.005958862602710724
0.005131755955517292,2.2877969465308108e-30,-0.013953456655144691,0.0129078458994627,-3.3365807339258424e-10,0.006186134647578001
0.005046533886343241,3.0693717968720643e-32,-0.013773608021438122,0.013266033492982388,-2.1785488343861736e-11,0.006492870859801769
0.005884693469852209,4.117953698069732e-34,-0.014047111384570599,0.013290917500853539,-1.4224368211079863e-12,0.005933333188295364
0.005386468954384327,5.5247606706935495e-36,-0.013594225980341434,0.014026187360286713,-9.287495360450759e-14,0.005814665462821722
0.005261005833745003,7.412171590162434e-38,-0.013902542181313038,0.013815334066748619,-6.064071499719409e-15,0.005448343697935343
0.005295507609844208,9.944370604019637e-40,-0.013631397858262062,0.01394879911094904,-3.9594054840567797e-16,0.005941485520452261
0.005160177126526833,1.3341762678836583e-41,-0.013087463565170765,0.013420763425529003,-2.5852085787995362e-17,0.006036404520273209
0.005329218227416277,1.793662034335766e-43,-0.013799544423818588,0.013878888450562954,-1.687956338504284e-18,0.0061717163771390915
0.005535237491130829,2.802596928649634e-45,-0.013297160156071186,0.013531477190554142,-1.102114897897311e-19,0.005712061654776335
0.005535237491130829,2.802596928649634e-45,-0.013297160156071186,0.013531477190554142,-1.102114897897311e-19,0.005712061654776335
0.005555940326303244,0.0,-0.013409608975052834,0.013729657046496868,-7.196022195988119e-21,0.005950971972197294
0.005369221791625023,0.0,-0.012752254493534565,0.013573081232607365,-4.6984883681100035e-22,0.005695726722478867
0.005011813249439001,0.0,-0.013543813489377499,0.013882787898182869,-3.067777192942474e-23,0.0061012874357402325
0.00543711194768548,0.0,-0.013212080113589764,0.013943063095211983,-2.003039322935553e-24,0.0061981938779354095
0.005720264744013548,0.0,-0.013670823536813259,0.014369250275194645,-1.3078415246689522e-25,0.005793889053165913
0.005731150507926941,0.0,-0.013310922309756279,0.014440394937992096,-8.539270617225746e-27,0.005611196625977755
0.005554586183279753,0.0,-0.013321280479431152,0.013786476105451584,-5.575533003744535e-28,0.005671766120940447
0.005548334214836359,0.0,-0.013184384442865849,0.01347260270267725,-3.640424679095457e-29,0.006316531915217638
0.005252182483673096,0.00016436526493635029,-0.013658074662089348,0.013230537064373493,-2.3769372222214627e-30,0.006502124480903149
0.005968686193227768,0.00039497565012425184,-0.013392696157097816,0.013397646136581898,-1.5519701616590117e-31,0.005839656572788954
0.005647039506584406,0.00036613777047023177,-0.01300407201051712,0.013047164306044579,-1.0133255746399433e-32,0.0058419727720320225
0.005428652744740248,0.00037699518725275993,-0.012758724391460419,0.013390692882239819,-4.319965846089648e-35,0.006333555094897747
0.005366972181946039,0.0003531698021106422,-0.013521406799554825,0.013908915221691132,-2.8206286130808116e-36,0.0061680651269853115
0.005592076573520899,0.0003314961795695126,-0.013012625277042389,0.013459738343954086,-1.841668950269254e-37,0.005570068024098873
0.006184176076203585,0.00035816384479403496,-0.01365547813475132,0.013275636360049248,-1.202478314570712e-38,0.005588131491094828
0.005887486971914768,0.00034436641726642847,-0.013032198883593082,0.012603702023625374,-7.851321152780874e-40,0.00574448611587286
0.005724142771214247,0.0003571540582925081,-0.013426183722913265,0.012751825153827667,-5.126370172039478e-41,0.006111457943916321
0.0054263765923678875,0.0003546333173289895,-0.013251370750367641,0.012959475629031658,-3.347702031271988e-42,0.006095286458730698
0.005561439786106348,0.00039891814230941236,-0.01336823869496584,0.012574559077620506,-2.1860256043467146e-43,0.005901853088289499
0.0061363158747553825,0.0004398196469992399,-0.013049144297838211,0.013219721615314484,-1.401298464324817e-44,0.006105549167841673
0.0055573913268744946,0.0004143903497606516,-0.012800763361155987,0.012650909833610058,-1.401298464324817e-45,0.005984494462609291
0.0057301828637719154,0.0004481868236325681,-0.013548344373703003,0.013036011718213558,-0.0,0.006271131336688995
0.005363303702324629,0.0004766119527630508,-0.01315889973193407,0.012568009085953236,-0.0,0.006508596241474152
0.005363303702324629,0.0004766119527630508,-0.01315889973193407,0.012568009085953236,-0.0,0.006508596241474152
0.0056982641108334064,0.0004534228646662086,-0.013723264448344707,0.012696896679699421,-0.0,0.00615354347974062
0.005472368095070124,0.0006836065440438688,-0.012906922958791256,0.012112272903323174,-0.0,0.005897979252040386
0.005779578350484371,0.0007015086011961102,-0.013582992367446423,0.012579016387462616,-0.0,0.005301999393850565
0.0053845117799937725,0.0006322248373180628,-0.013235830701887608,0.012490538880228996,-0.0,0.005521370563656092
0.005724562332034111,0.0006488886428996921,-0.013457529246807098,0.01258011069148779,-0.0,0.005867543630301952
0.005368808750063181,0.0005975803360342979,-0.012842360883951187,0.012778829783201218,-0.0,0.006202090065926313
0.005769438575953245,0.0006227584090083838,-0.01367065031081438,0.012716646306216717,-0.0,0.005615270230919123
0.006502002943307161,0.0006255832850001752,-0.013340290635824203,0.012927673757076263,-0.0,0.00542479520663619
0.0055857147090137005,0.0006622669170610607,-0.013347413390874863,0.012971373274922371,-0.0,0.005320695228874683
0.005326584912836552,0.0006805622833780944,-0.013238659128546715,0.012112792581319809,-0.0,0.005946722347289324
0.005201622378081083,0.0007022222271189094,-0.013161132112145424,0.012126060202717781,-0.0,0.006243167445063591
0.005680715199559927,0.0006555060390383005,-0.013298146426677704,0.012486854568123817,-0.0,0.005603375844657421
0.005815884098410606,0.0009022422018460929,-0.013186147436499596,0.012741371989250183,-0.0,0.005409452132880688
0.005822287872433662,0.0008168433560058475,-0.013271433301270008,0.01298356894403696,-0.0,0.005518801510334015
0.00573552493005991,0.0008320731576532125,-0.013243228197097778,0.01302881445735693,-0.0,0.005791156552731991
0.005647081416100264,0.0008381103980354965,-0.01270903181284666,0.013272943906486034,-0.0,0.005890718195587397
0.005631335079669952,0.0008749679545871913,-0.013032342307269573,0.012914289720356464,-0.0,0.005787493195384741
0.006172908470034599,0.0008497422677464783,-0.012871463783085346,0.013156096450984478,-0.0,0.005575476214289665
0.005577798932790756,0.000783096591476351,-0.013256875798106194,0.01298429910093546,-0.0,0.005702775437384844
0.005352884065359831,0.0007922166842035949,-0.013222534209489822,0.013018080964684486,-0.0,0.006198519375175238
0.005031649488955736,0.0008338124607689679,-0.012898382730782032,0.013040781021118164,-0.0,0.006219849921762943
0.005354599561542273,0.0008558392873965204,-0.013264290988445282,0.013322287239134312,-0.0,0.005889579188078642
0.005761581938713789,0.0008620370645076036,-0.01258857548236847,0.013012520037591457,-0.0,0.00602351501584053
0.005212976131588221,0.0008666085195727646,-0.013506341725587845,0.012197380885481834,-0.0,0.006383324507623911
0.005865807179361582,0.0010076045291498303,-0.013207981362938881,0.012259024195373058,-0.0,0.005559241399168968
0.005516182165592909,0.0009965146891772747,-0.014119039289653301,0.012162482365965843,-0.0,0.005134596489369869
0.00531756179407239,0.0009813871001824737,-0.013262178748846054,0.01252757478505373,-0.0,0.0057821921072900295
0.005612910259515047,0.0009702902170829475,-0.013308367691934109,0.012284824624657631,-0.0,0.006123755127191544
0.005612910259515047,0.0009702902170829475,-0.013308367691934109,0.012284824624657631,-0.0,0.006123755127191544
0.005934651009738445,0.0009428471676073968,-0.013082092627882957,0.01216351892799139,-0.0,0.006212666630744934
0.005544779356569052,0.0009383424185216427,-0.013368256390094757,0.012371941469609737,-0.0,0.006159960757941008
0.005355003289878368,0.0009325622231699526,-0.013598690740764141,0.011984718963503838,-0.0,0.0060780951753258705
0.005401745438575745,0.0009353253990411758,-0.014039117842912674,0.012214877642691135,-0.0,0.006159740034490824
0.005617741495370865,0.0010790867963805795,-0.013718703761696815,0.011803098022937775,-0.0,0.006335713900625706
0.005603946279734373,0.001086205942556262,-0.013451917096972466,0.012187806889414787,-0.0,0.006129219196736813
0.005684876814484596,0.0010589194716885686,-0.013736321590840816,0.012119009159505367,-0.0,0.0061476025730371475
0.0057965973392128944,0.0011059934040531516,-0.013225847855210304,0.012210856191813946,-0.0,0.006317400839179754
0.006031398195773363,0.0010874278377741575,-0.013374103233218193,0.012308428063988686,-5.53730787942186e-05,0.0061621349304914474
0.005609782412648201,0.0011534418445080519,-0.013047018088400364,0.011661357246339321,-5.983578012092039e-05,0.006204893812537193
0.005963531322777271,0.0011858228826895356,-0.01362278126180172,0.012139387428760529,-5.9385660279076546e-05,0.0057626948691904545
0.005761212203651667,0.0012498988071456552,-0.013992879539728165,0.012331471778452396,-5.788131966255605e-05,0.005336289294064045
0.0058600022457540035,0.0013511792058125138,-0.013402129523456097,0.012690416537225246,-5.714636790798977e-05,0.0054100858978927135
0.005728744436055422,0.0014157267287373543,-0.014039846137166023,0.012492528185248375,-5.6429784308420494e-05,0.0055309166200459
0.006255828309804201,0.0013589212903752923,-0.013547690585255623,0.01286889798939228,-5.573089583776891e-05,0.006005353294312954
0.005647019948810339,0.0013009404065087438,-0.014483205042779446,0.011968141421675682,-5.504916043719277e-05,0.005960109177976847
0.005901881959289312,0.0013608243316411972,-0.013744433410465717,0.012340319342911243,-5.438389052869752e-05,0.0058539328165352345
0.005826781969517469,0.00132951105479151,-0.013802589848637581,0.012295789085328579,-5.373446401790716e-05,0.0060331798158586025
0.005757232662290335,0.0014281428884714842,-0.013484911993145943,0.01244409754872322,-5.3100447985343635e-05,0.00570937292650342
0.006166345905512571,0.0013204620918259025,-0.013881854712963104,0.012734179385006428,-5.248114393907599e-05,0.005904694553464651
0.0059281918220222,0.0012819536495953798,-0.013742274604737759,0.012298477813601494,-5.187616261537187e-05,0.006188778672367334
0.006191485095769167,0.0013652144698426127,-0.013734758831560612,0.012861811555922031,-5.128494740347378e-05,0.0060587553307414055
0.005781225860118866,0.0014670564560219646,-0.014133255928754807,0.012311444617807865,-5.070704719400965e-05,0.006076408550143242
0.005896331276744604,0.0018856339156627655,-0.014265441335737705,0.01266233716160059,-5.01420654472895e-05,0.005645181983709335
0.005896331276744604,0.0018856339156627655,-0.014265441335737705,0.01266233716160059,-5.01420654472895e-05,0.005645181983709335
0.006222067400813103,0.0019104882376268506,-0.013703412376344204,0.012258296832442284,-2.5136905605904758e-05,0.006307980976998806
0.0064488803036510944,0.0017365646781399846,-0.0121641019359231,0.012229857966303825,-1.6412602690252243e-06,0.006176961585879326
0.006156195420771837,0.0015655996976420283,-0.014092698693275452,0.012195250019431114,-1.0716256326759321e-07,0.0058537498116493225
0.005919556599110365,0.0015983302146196365,-0.013866167515516281,0.012079031206667423,-6.996949686310927e-09,0.0054666888900101185
0.006020413711667061,0.0015396580565720797,-0.013587928377091885,0.012578421272337437,-4.5685083494007017e-10,0.005638958420604467
0.006686868611723185,0.001449443749152124,-0.0130299162119627,0.012312479317188263,-2.982909405591094e-11,0.006464163772761822
0.00656302273273468,0.0016197053482756019,-0.013937801122665405,0.013172673992812634,-1.9476265218643096e-12,0.006757947616279125
0.006338991690427065,0.0019405281636863947,-0.013413451611995697,0.012080676853656769,-1.2716609991587913e-13,0.0063725244253873825
0.006053319200873375,0.002105747815221548,-0.014043718576431274,0.01206930447369814,-8.303037924361437e-15,0.006144689861685038
0.0062232171185314655,0.0018555002752691507,-0.013032232411205769,0.012324019335210323,-5.421290383300116e-16,0.005573872476816177
0.006260049995034933,0.0017032164614647627,-0.013483510352671146,0.011891774833202362,-3.539714952373259e-17,0.006024232134222984
0.00598100433126092,0.0015613795258104801,-0.01329847052693367,0.011870056390762329,-2.311181095371643e-18,0.006323757581412792
0.006122923921793699,0.0015952906105667353,-0.013920261524617672,0.011601832695305347,-1.5090359312381453e-19,0.006054600700736046
0.006495813839137554,0.0017256829887628555,-0.01355200819671154,0.012048962526023388,-9.852926323508444e-21,0.006240736227482557
0.006254974752664566,0.0017507983138784766,-0.013816109858453274,0.012334318831562996,-6.433256859998916e-22,0.00633162772282958
0.00631971238180995,0.0018752544419839978,-0.013259111903607845,0.012663782574236393,-2.7425981965172883e-24,0.0061917114071547985
0.006087638903409243,0.0018709107534959912,-0.013175006955862045,0.012093213386833668,-1.7907206643465517e-25,0.006095792166888714
0.006486737634986639,0.0018020779825747013,-0.013267047703266144,0.01236159261316061,-1.1692126558636515e-26,0.0060343449003994465
0.007051434833556414,0.0018092795507982373,-0.013867995701730251,0.011404390446841717,-7.634123410113594e-28,0.0059749591164290905
0.0065186661668121815,0.0018175813602283597,-0.013564693741500378,0.011552270501852036,-4.9845366039612776e-29,0.006203757598996162
0.0061935605481266975,0.002060309052467346,-0.0138468649238348,0.012002203613519669,-3.254546634375884e-30,0.0066595724783837795
0.006062636151909828,0.0020003688987344503,-0.012660994194447994,0.011672038584947586,-2.1249862769645207e-31,0.006592578254640102
0.006902763620018959,0.0022169987205415964,-0.013629816472530365,0.012463940307497978,-1.3874641941399657e-32,0.006266868207603693
0.006886755116283894,0.001976087922230363,-0.013211500830948353,0.011888014152646065,-9.059150171058468e-34,0.006137359421700239
0.006491363514214754,0.0018676373874768615,-0.013950941152870655,0.011816311627626419,-5.914977370742361e-35,0.0063601210713386536
0.00618493789806962,0.0018513125833123922,-0.013706384226679802,0.011629616841673851,-3.8620578475411135e-36,0.006546270567923784
0.006720342207700014,0.001858845935203135,-0.013980433344841003,0.011394531466066837,-2.5216475727324686e-37,0.0061908746138215065
0.006720342207700014,0.001858845935203135,-0.013980433344841003,0.011394531466066837,-2.5216475727324686e-37,0.0061908746138215065
0.006966168526560068,0.0018558992305770516,-0.013202645815908909,0.01249364297837019,-1.6464556306584438e-38,0.005987444892525673
0.006703332997858524,0.0021262161899358034,-0.01357784029096365,0.011571194976568222,-1.075017327294498e-39,0.0059654004871845245
0.006526254117488861,0.002164774341508746,-0.013482951559126377,0.011685884557664394,-7.019104007803009e-41,0.006112390197813511
0.006367865949869156,0.0021378076635301113,-0.013275415636599064,0.011814169585704803,-4.5836472768064766e-42,0.006121487822383642
0.006619835272431374,0.0019431931432336569,-0.013304533436894417,0.011664636433124542,-2.9987787136551085e-43,0.006242363713681698
0.006587357725948095,0.0016770075308158994,-0.013210266828536987,0.011856427416205406,-1.961817850054744e-44,0.006143362261354923
0.006563822738826275,0.0016843125922605395,-0.013635934330523014,0.011678969487547874,-1.401298464324817e-45,0.006170501932501793
0.006497260183095932,0.0016739644343033433,-0.0134144751355052,0.012006096541881561,-0.0,0.006280672270804644
0.006464297883212566,0.0017072571208700538,-0.013967194594442844,0.011853843927383423,-0.0,0.0060747768729925156
0.006718008778989315,0.0019605576526373625,-0.012926273047924042,0.011671144515275955,-0.0,0.006341388914734125
0.006697287783026695,0.001717289094813168,-0.01327987015247345,0.011690793558955193,-0.0,0.006648453883826733
0.006719039287418127,0.0013567227870225906,-0.013105811551213264,0.011431599967181683,-0.0,0.006736100185662508
0.006602589972317219,0.0003463610482867807,-0.013726088218390942,0.011795413680374622,-0.0,0.00634493213146925
0.0072807734832167625,0.00041851989226415753,-0.013457371853291988,0.01207084022462368,-0.0,0.006325944326817989
0.006639439146965742,0.000492542632855475,-0.013212651014328003,0.012326951138675213,-0.0,0.006028676871210337
0.006357115693390369,0.0004697594849858433,-0.013352533802390099,0.011863077990710735,-0.0,0.006440044846385717
0.006267172750085592,0.0004215417429804802,-0.013174861669540405,0.012005765922367573,-0.0,0.006413614377379417
0.007094423286616802,0.0002628098300192505,-0.013489026576280594,0.011409115046262741,-0.0,0.006239178590476513
0.007245776709169149,0.00022813293617218733,-0.0137028768658638,0.011755725368857384,-0.0,0.00640004500746727
0.006735009606927633,0.0002912278287112713,-0.013589202426373959,0.012344378978013992,-0.0,0.006606296170502901
0.006234648637473583,0.00027277448680251837,-0.013682321645319462,0.011916481889784336,-0.0,0.006575178354978561
0.0065001980401575565,0.0003017029957845807,-0.0131357591599226,0.01204528659582138,-0.0,0.0058393171057105064
0.0066766394302248955,0.00030231018899939954,-0.013438418507575989,0.01186867244541645,-0.0,0.005936575587838888
0.007252339273691177,0.000279207102721557,-0.012943741865456104,0.011626942083239555,-0.0,0.005940752569586039
0.006577984895557165,0.0002591102384030819,-0.013853875920176506,0.011888128705322742,-0.0,0.006395724602043629
0.006513260304927826,0.00029489173903129995,-0.013506431132555008,0.011957531794905663,-0.0,0.006855790037661791
0.006513260304927826,0.00029489173903129995,-0.013506431132555008,0.011957531794905663,-0.0,0.006855790037661791
0.007097738329321146,0.0002830255834851414,-0.014125674962997437,0.012301072478294373,-0.0,0.00698447972536087
0.00703792367130518,0.00026636107941158116,-0.013521420769393444,0.011646232567727566,-0.0,0.005949523765593767
0.0067444173619151115,0.0002514747029636055,-0.013564126566052437,0.012242298573255539,-0.0,0.005626894533634186
0.006598097272217274,0.00030802120454609394,-0.012968681752681732,0.01214477326720953,-0.0,0.006582007743418217
0.006725011393427849,0.0003199570928700268,-0.013295085169374943,0.011888953857123852,-0.0,0.006796020083129406
0.007107529789209366,0.0003517976147122681,-0.013895591720938683,0.011829364113509655,-0.0,0.006758875213563442
0.007003011181950569,0.0003364992735441774,-0.014273123815655708,0.01128702238202095,-0.0,0.0065669226460158825
0.006953440140932798,0.0003514024429023266,-0.014242555014789104,0.011999976821243763,-0.0,0.006381182000041008
0.006961429491639137,0.00034891432733274996,-0.013245651498436928,0.011896870099008083,-0.0,0.006529554724693298
0.007289915811270475,0.0003617759211920202,-0.013646509498357773,0.011930031701922417,-0.0,0.006744774058461189
0.007431976497173309,0.00035899944487027824,-0.013266786932945251,0.012291188351809978,-0.0,0.006499243900179863
0.006931232754141092,0.0005149419303052127,-0.014056061394512653,0.01146086398512125,-0.0,0.006450172513723373
0.0075373537838459015,0.00048256973968818784,-0.013668479397892952,0.011761138215661049,-0.0,0.006730176508426666
0.006960890255868435,0.0005220113671384752,-0.014044420793652534,0.011292766779661179,-0.0,0.006750163622200489
0.007223953027278185,0.000511003949213773,-0.013986694626510143,0.012042265385389328,-0.0,0.006451399531215429
0.007223953027278185,0.000511003949213773,-0.013986694626510143,0.012042265385389328,-0.0,0.006451399531215429
0.007438038941472769,0.0005076316883787513,-0.013394509442150593,0.01242984738200903,-0.0,0.00675090542063117
0.007611490320414305,0.0006081085884943604,-0.012964796274900436,0.01202898658812046,-0.0,0.006722266785800457
0.0072807143442332745,0.0006436029216274619,-0.013871651142835617,0.012284226715564728,-0.0,0.006689215544611216
0.006953506730496883,0.0006682787206955254,-0.013670112937688828,0.012317502871155739,-0.0,0.006581761408597231
0.007907317019999027,0.0006074840202927589,-0.013798536732792854,0.011639122851192951,-0.0,0.0064783780835568905
0.007434141356498003,0.0006320728571154177,-0.013455995358526707,0.011771468445658684,-0.0,0.006682307459414005
0.007353019434958696,0.0005820135120302439,-0.013687287457287312,0.011531325057148933,-0.0,0.006810266058892012
0.007264961022883654,0.0006306663271971047,-0.013185219839215279,0.011627324856817722,-0.0,0.0068453289568424225
0.007693005260080099,0.0006294939666986465,-0.013002931140363216,0.011772386729717255,-0.0,0.006693006027489901
0.008274929597973824,0.0005944677977822721,-0.013878753408789635,0.012095699086785316,-0.0,0.007404346484690905
0.008274929597973824,0.0005944677977822721,-0.013878753408789635,0.012095699086785316,-0.0,0.007404346484690905
0.007623268757015467,0.0006239008507691324,-0.013664173893630505,0.011545294895768166,-0.0,0.006941637024283409
0.007714847568422556,0.0006465616170316935,-0.013570441864430904,0.011487625539302826,-0.0,0.0069902981631457806
0.0076881586574018,0.0007172604091465473,-0.01328734029084444,0.011958776973187923,-0.0,0.0066710407845675945
0.007769377902150154,0.0007877005846239626,-0.013372981920838356,0.01172665599733591,-0.0,0.00685822032392025
0.006941251922398806,0.0008029065793380141,-0.012745494022965431,0.011965803802013397,-0.0,0.007253881543874741
0.007069020997732878,0.0007905755774118006,-0.013419901952147484,0.011838383972644806,-0.0,0.007425148971378803
0.0082732317969203,0.0007412789273075759,-0.013152232393622398,0.011439783498644829,-0.0,0.007446041330695152
0.007942598313093185,0.0008413471514359117,-0.01374746859073639,0.012101693078875542,-0.0,0.007519498933106661
0.0075410534627735615,0.000949000590480864,-0.013056693598628044,0.011989930644631386,-0.0,0.006981324404478073
0.008103861473500729,0.0009437542757950723,-0.013379462994635105,0.011654133908450603,-0.0,0.006532479543238878
0.00796882901340723,0.0010538693750277162,-0.01317555271089077,0.011669864878058434,-0.0,0.00664990721270442
0.007798294071108103,0.0011078333482146263,-0.013249979354441166,0.01142553985118866,-0.0,0.006826876197010279
0.007529534865170717,0.0010732312221080065,-0.013174102641642094,0.01178827416151762,-0.0,0.007318724412471056
0.008083289489150047,0.0010478036710992455,-0.01282030250877142,0.01175641268491745,-0.0,0.007362053729593754
0.008196130394935608,0.001016781316138804,-0.012910592369735241,0.011907980777323246,-0.0,0.007031511981040239
0.007962987758219242,0.0009983109775930643,-0.013374646194279194,0.01178395189344883,-0.0,0.007176483049988747
0.007842139340937138,0.0009846792090684175,-0.012729085050523281,0.012064997106790543,-0.0,0.007375224027782679
0.008170985616743565,0.0009774586651474237,-0.013271275907754898,0.011802305467426777,-0.0,0.007924632169306278
0.008223925717175007,0.0010052249999716878,-0.012824013829231262,0.011751238256692886,-0.0,0.007886534556746483
0.008223086595535278,0.0009890806395560503,-0.013203432783484459,0.01162403542548418,-0.0,0.007262741215527058
0.008440918289124966,0.0009845781605690718,-0.01322531420737505,0.011677861213684082,-0.0,0.0072619980201125145
0.008204259909689426,0.0012245750986039639,-0.013236834667623043,0.012318446300923824,-0.0,0.007703378796577454
0.007997955195605755,0.0011669436935335398,-0.013360152952373028,0.011656885966658592,-0.0,0.007811244111508131
0.00794213730841875,0.0011246302165091038,-0.012676066718995571,0.012264994904398918,-0.0,0.00783336628228426
0.008213222958147526,0.001090895850211382,-0.012207547202706337,0.011961609125137329,-0.0,0.007063801866024733
0.008213222958147526,0.001090895850211382,-0.012207547202706337,0.011961609125137329,-0.0,0.007063801866024733
0.00782174151390791,0.0010590249439701438,-0.013362064957618713,0.012025507166981697,-0.0,0.007009424734860659
0.008648533374071121,0.001039657974615693,-0.012394641526043415,0.011680376715958118,-0.0,0.007533384021371603
0.008997293189167976,0.0011560468701645732,-0.013272855430841446,0.011588042601943016,-0.0,0.0073242271319031715
0.008997293189167976,0.0011560468701645732,-0.013272855430841446,0.011588042601943016,-0.0,0.0073242271319031715
0.008077903650701046,0.0011145675089210272,-0.013050596229732037,0.01163448952138424,-0.0,0.0072477287612855434
0.0078266691416502,0.0009897209238260984,-0.012865866534411907,0.011405378580093384,-0.0,0.007454514503479004
0.008622248657047749,0.0009761695400811732,-0.012889210134744644,0.011993457563221455,-0.0,0.0075775692239403725
0.00864405371248722,0.0009324090206064284,-0.01261582225561142,0.011718305759131908,-0.0,0.007391694933176041
0.008492990396916866,0.0009292367030866444,-0.01294077467173338,0.012099768966436386,-0.0,0.007392108906060457
0.00854513794183731,0.0010104316752403975,-0.012485702522099018,0.011960390955209732,-0.0,0.007375945337116718
0.009128057397902012,0.0011046050349250436,-0.013090577907860279,0.01136564277112484,-0.0,0.007952346466481686
0.008646286092698574,0.00126430275849998,-0.012325435876846313,0.01148150209337473,-0.0,0.008098570629954338
0.008527347818017006,0.0012451475486159325,-0.013101499527692795,0.011138197965919971,-0.0,0.00814653281122446
0.00847974419593811,0.0013171472819522023,-0.012476352974772453,0.011372455395758152,-0.0,0.007945913821458817
0.008799243718385696,0.0013849432580173016,-0.012820876203477383,0.011061104014515877,-0.0,0.0077644456177949905
0.008706599473953247,0.0012959049781784415,-0.012721031904220581,0.011124084703624249,-0.0,0.007475615944713354
0.00940523762255907,0.001169921481050551,-0.012457793578505516,0.0118815116584301,-0.0,0.00782211683690548
0.00832455325871706,0.0011285220971331,-0.012729078531265259,0.012313474901020527,-0.0,0.008684000000357628
0.008842985145747662,0.001302533783018589,-0.013166281394660473,0.012240209616720676,-0.0,0.007637989241629839
0.009130069985985756,0.0013061331119388342,-0.012794959358870983,0.011918643489480019,-0.0,0.007070256397128105
0.009292850270867348,0.001386756543070078,-0.013118643313646317,0.012313318438827991,-0.0,0.007335342466831207
0.008633362129330635,0.0015823837602511048,-0.013177270069718361,0.01205606758594513,-0.0,0.00788559764623642
0.009314259514212608,0.001502763363532722,-0.01322949305176735,0.012646236456930637,-0.0,0.008214720524847507
0.008775871247053146,0.0014423202956095338,-0.013495353050529957,0.011719901114702225,-0.0,0.007924110628664494
0.008844228461384773,0.0015116569120436907,-0.013311315327882767,0.012096294201910496,-0.0,0.008259797468781471
0.008993782103061676,0.0015579848550260067,-0.013419384136795998,0.012493014335632324,-0.0,0.007784471847116947
0.00913868099451065,0.001637119217775762,-0.012919788248836994,0.012132366187870502,-0.0,0.0079574603587389
0.009033034555613995,0.0015196938766166568,-0.013230254873633385,0.012465675361454487,-0.0,0.008192747831344604
0.00933393556624651,0.0014132002834230661,-0.011662865988910198,0.011687672697007656,-0.0,0.008763400837779045
0.009201916866004467,0.0014555052621290088,-0.014048994518816471,0.011868287809193134,-0.0,0.008114774711430073
0.009059463627636433,0.0014784852974116802,-0.013341485522687435,0.011657011695206165,-0.0,0.008112901821732521
0.009059463627636433,0.0014784852974116802,-0.013341485522687435,0.011657011695206165,-0.0,0.008112901821732521
0.009412248618900776,0.0015170485712587833,-0.013351515866816044,0.011874879710376263,-0.0,0.008421861566603184
0.009498639032244682,0.0015959093580022454,-0.01278742216527462,0.01217200979590416,-0.0,0.00891788024455309
0.009000216610729694,0.001961333677172661,-0.013636221177875996,0.011866654269397259,-0.0,0.008191484026610851
0.00922783650457859,0.0020199113059788942,-0.013348142616450787,0.011941852048039436,-0.0,0.008081543259322643
0.009280456230044365,0.002096739364787936,-0.013568064197897911,0.011656739749014378,-0.0,0.008289660327136517
0.009173312224447727,0.0020350220147520304,-0.013587931171059608,0.011628769338130951,-0.0,0.008214568719267845
0.009144085459411144,0.001738914754241705,-0.013165433891117573,0.01184221263974905,-0.0,0.008372988551855087
0.009557157754898071,0.0017606642795726657,-0.013566168025135994,0.01193639449775219,-0.0,0.008492795750498772
0.009295573458075523,0.0017809950513765216,-0.013210205361247063,0.012291626073420048,-0.0,0.00930898729711771
0.009968806058168411,0.0018568189116194844,-0.013567465357482433,0.011975252069532871,-0.0,0.008631457574665546
0.00981906522065401,0.001921866787597537,-0.013231432996690273,0.012460748665034771,-0.0,0.008543216623365879
0.00951418001204729,0.002176752546802163,-0.01395447738468647,0.012316767126321793,-0.0,0.008846048265695572
0.009527992457151413,0.0021813076455146074,-0.013104800134897232,0.012119430117309093,-0.0,0.008270827122032642
0.009361546486616135,0.0021615850273519754,-0.01352414209395647,0.012199628166854382,-0.0,0.008369009010493755
0.009455138817429543,0.0020141354762017727,-0.013907954096794128,0.011878942139446735,-0.0,0.008364565670490265
0.00932806171476841,0.0019045755034312606,-0.013407244347035885,0.011644067242741585,-0.0,0.008402192033827305
0.010149279609322548,0.001816277508623898,-0.013769480399787426,0.011356323957443237,-0.0,0.008533050306141376
0.009198696352541447,0.0018263529054820538,-0.014135505072772503,0.011571759358048439,-0.0,0.008655570447444916
0.00973148550838232,0.001831280067563057,-0.013496121391654015,0.011344054713845253,-0.0,0.008356302976608276
0.009689425118267536,0.001560986158438027,-0.01329034473747015,0.01186293549835682,-0.0,0.008226503618061543
0.009355928748846054,0.0012842274736613035,-0.013269873335957527,0.011916921474039555,-0.0,0.00882219709455967
0.010355150327086449,0.0011967174941673875,-0.013663752004504204,0.011723306030035019,-0.0,0.008717444725334644
0.009931150823831558,0.0011423809919506311,-0.013185402378439903,0.011710910126566887,-0.0,0.008647814393043518
0.009556742385029793,0.0011206535855308175,-0.013654280453920364,0.011232844553887844,-0.0,0.008631743490695953
0.010179444216191769,0.0010466977255418897,-0.013058297336101532,0.011848662979900837,-0.0,0.00906901340931654
0.009974444285035133,0.0011343637015670538,-0.01359630562365055,0.011958611197769642,-0.0,0.008501124568283558
0.00996970385313034,0.0014209011569619179,-0.013351377099752426,0.011790814809501171,-0.0,0.008450779132544994
0.01035999320447445,0.0015399325639009476,-0.013736526481807232,0.011963221244513988,-0.0,0.00905456393957138
0.00998922623693943,0.0014153685187920928,-0.01299912016838789,0.011616088449954987,-0.0,0.009110958315432072
0.01062980480492115,0.0012890127254649997,-0.013588706962764263,0.012092080898582935,-0.0,0.008878405205905437
0.01013917289674282,0.0012096080463379622,-0.013195828534662724,0.011803114786744118,-0.0,0.009080289863049984
0.009901382029056549,0.0011524494038894773,-0.013605089858174324,0.011858009733259678,-0.0,0.009198692627251148
0.009901382029056549,0.0011524494038894773,-0.013605089858174324,0.011858009733259678,-0.0,0.009198692627251148
0.010147614404559135,0.0011171085061505437,-0.013136453926563263,0.011449729092419147,-0.0,0.009132775478065014
0.010468581691384315,0.001133291982114315,-0.013408103957772255,0.011277234181761742,-0.0,0.009188487194478512
0.009974597953259945,0.0011311279376968741,-0.013576985336840153,0.011826453730463982,-0.0,0.008937177248299122
0.010754557326436043,0.0011244806228205562,-0.01349780336022377,0.011567443609237671,-0.0,0.008657285943627357
0.010778140276670456,0.0013768700882792473,-0.01357927918434143,0.011860051192343235,-0.0,0.008725774474442005
0.009953060187399387,0.0014228965155780315,-0.01305373478680849,0.01222117431461811,-0.0,0.008829371072351933
0.010880785062909126,0.001393709098920226,-0.013742377050220966,0.01215129904448986,-0.0,0.008899670094251633
0.01044578105211258,0.0013263351283967495,-0.013115577399730682,0.012633496895432472,-0.0,0.009103832766413689
0.010175441391766071,0.0011999130947515368,-0.013458361849188805,0.01207673642784357,-0.0,0.009529821574687958
0.010288834571838379,0.0011493157362565398,-0.013253075070679188,0.012708139605820179,-0.0,0.009330257773399353
0.010749484412372112,0.0010521990479901433,-0.013848431408405304,0.012087997049093246,-0.0,0.010019570589065552
0.0100824274122715,0.0010350483935326338,-0.01301515195518732,0.012050256133079529,-0.0,0.009420253336429596
0.01051711943000555,0.0016553980531170964,-0.013460410758852959,0.011182388290762901,-0.0,0.00930545013397932
0.010157142765820026,0.0015123110497370362,-0.013941619545221329,0.011741513386368752,-0.0,0.009723074734210968
0.010737026110291481,0.0014263237826526165,-0.013552691787481308,0.011457902379333973,-0.0,0.009606048464775085
0.01028080377727747,0.001371452584862709,-0.013714945875108242,0.011669921688735485,-0.0,0.009518751874566078
0.010557134635746479,0.0013164329575374722,-0.013485342264175415,0.011864369735121727,-1.2680198778980412e-05,0.009815816767513752
0.010774604044854641,0.0012568279635161161,-0.013491127640008926,0.012125665321946144,-8.2792632838391e-07,0.009857969358563423
0.01006462424993515,0.0012565439101308584,-0.013790423050522804,0.011601025238633156,-5.4057672116414324e-08,0.00958103034645319
0.010901620611548424,0.0012308445293456316,-0.013587594963610172,0.01096829678863287,-3.5295795175471767e-09,0.010478826239705086
0.01094728335738182,0.001494572265073657,-0.013842971995472908,0.011501180939376354,-2.3045632069340627e-10,0.010042202658951283
0.010175032541155815,0.0016323903109878302,-0.013576049357652664,0.011721580289304256,-1.5047151025182615e-11,0.00915911328047514
0.01090982835739851,0.0015292064053937793,-0.014062452130019665,0.011511596851050854,-9.824714826411896e-13,0.009381568990647793
0.011302819475531578,0.0014123425353318453,-0.013234761543571949,0.012180398218333721,-6.414836652320066e-14,0.009760742075741291
0.01057308167219162,0.0014478756347671151,-0.014176459982991219,0.012111703865230083,-4.188430116923219e-15,0.00995883159339428
0.010879622772336006,0.0013430857798084617,-0.013360089622437954,0.012824535369873047,-2.734745661279607e-16,0.009853484109044075
0.011002696119248867,0.0012407742906361818,-0.0137163195759058,0.012088244780898094,-1.7855934292875932e-17,0.009893663227558136
0.011078634299337864,0.001195443794131279,-0.013296926394104958,0.012080330401659012,-1.1658648546767661e-18,0.009736856445670128
0.011078634299337864,0.001195443794131279,-0.013296926394104958,0.012080330401659012,-1.1658648546767661e-18,0.009736856445670128
0.010385421104729176,0.0012897585984319448,-0.013986825942993164,0.012999291531741619,-0.00032700251904316247,0.010577796958386898
0.010038698092103004,0.001536758616566658,-0.013715055771172047,0.012216784991323948,-0.0003955071442760527,0.010125587694346905
0.010869411751627922,0.0014893870102241635,-0.014789712615311146,0.013691619038581848,-0.00038588009192608297,0.009679515846073627
0.010827622376382351,0.0013770302757620811,-0.01389011088758707,0.012121206149458885,-0.0003905311750713736,0.01010629441589117
0.010684781707823277,0.0012529229279607534,-0.014569336548447609,0.012295334599912167,-0.00039310642750933766,0.009949627332389355
0.010806841775774956,0.0011789090931415558,-0.013916580006480217,0.012511787936091423,-0.0004107999266125262,0.009884369559586048
0.010739543475210667,0.001128515345044434,-0.014081106521189213,0.012678472325205803,-0.0004003065696451813,0.010288991965353489
0.01120834145694971,0.0010963038075715303,-0.01395860780030489,0.012173501774668694,-0.0005650529637932777,0.010879362002015114
0.011063151992857456,0.0011049994500353932,-0.014577396214008331,0.01177508756518364,-0.0006178314797580242,0.010748535394668579
0.01087066251784563,0.001183251733891666,-0.014111213386058807,0.012383125722408295,-0.0005670325481332839,0.01061041560024023
0.011083987541496754,0.0013635141076520085,-0.014611910097301006,0.011920164339244366,-0.0005766050308011472,0.010552669875323772
0.011160798370838165,0.001584929064847529,-0.014264743775129318,0.012371821328997612,-0.0005459809326566756,0.010191057808697224
0.010955368168652058,0.0017342218197882175,-0.014832933433353901,0.01253645122051239,-0.0005384048563428223,0.01052015833556652
0.011599860154092312,0.0017832369776442647,-0.013980653136968613,0.012048742733895779,-0.0005305521772243083,0.010182383470237255
0.01173090934753418,0.0014050549361854792,-0.014206165447831154,0.012078444473445415,-0.000504648603964597,0.010146698914468288
0.01216056477278471,0.0014327062526717782,-0.015122083015739918,0.012402941472828388,-0.00046798394760116935,0.009817407466471195
0.011609901674091816,0.001371700898744166,-0.014926075004041195,0.011620319448411465,-0.0004869732656516135,0.009975098073482513
0.011736350134015083,0.0015241249930113554,-0.01532101258635521,0.011915410868823528,-0.0004643214342650026,0.01029620785266161
0.011466694064438343,0.0015453266678377986,-0.014722099527716637,0.011661163531243801,-0.0004286916519049555,0.010132569819688797
0.011508082039654255,0.0015937479911372066,-0.015034621581435204,0.011509216390550137,-0.0004587513394653797,0.010449135676026344
0.011741959489881992,0.0016570078441873193,-0.014361390843987465,0.011835801415145397,-0.0004313458630349487,0.009938709437847137
0.01158373523503542,0.0015156628796830773,-0.015222366899251938,0.011380510404706001,-0.0004464086960069835,0.009893637150526047
0.011914137750864029,0.0014670020900666714,-0.014411728829145432,0.011717235669493675,-0.00043283580453135073,0.01049287710338831
0.011434593237936497,0.001407324569299817,-0.01527203619480133,0.011933449655771255,-0.00040910366806201637,0.010616001673042774
0.01187432836741209,0.0013467828975990415,-0.01477844174951315,0.012146812863647938,-0.00042127919732593,0.010243120603263378
0.011865518987178802,0.0013869274407625198,-0.01547650620341301,0.012610112316906452,-0.0003970559046138078,0.010564860887825489
0.01117092277854681,0.0013030979316681623,-0.014997987076640129,0.0125135388225317,-0.00040101257036440074,0.01005526352673769
0.01149151660501957,0.00137923879083246,-0.01507248543202877,0.012750816531479359,-0.00040334882214665413,0.010515362955629826
0.011261029168963432,0.0014698876766487956,-0.014460520818829536,0.012669747695326805,-0.0003772702475544065,0.011105874553322792
0.011686118319630623,0.0014062597183510661,-0.015008227899670601,0.01260441169142723,-0.00035274922265671194,0.011251471936702728
0.011686118319630623,0.0014062597183510661,-0.015008227899670601,0.01260441169142723,-0.00035274922265671194,0.011251471936702728
0.011845996603369713,0.0015652047004550695,-0.015060602687299252,0.012468361295759678,-0.0003311165201012045,0.010219489224255085
0.011741982772946358,0.0016230379696935415,-0.015192171558737755,0.011522229760885239,-0.00035029309219680727,0.010571528226137161
0.013218414969742298,0.0015585427172482014,-0.014501404017210007,0.011820471845567226,-0.00034319364931434393,0.010838320478796959
0.01299912016838789,0.0016711531206965446,-0.014547286555171013,0.011284111998975277,-0.00032620239653624594,0.010929671116173267
0.013283680193126202,0.0015263408422470093,-0.014740709215402603,0.01161535270512104,-0.0003101886250078678,0.011032880283892155
0.012724064290523529,0.001567539176903665,-0.014521005563437939,0.012202473357319832,-0.00029563161660917103,0.01100325956940651
0.012966960668563843,0.0015697306953370571,-0.014786340296268463,0.012303026393055916,-0.00028237784863449633,0.011534218676388264
0.013030136935412884,0.0014927225420251489,-0.014707330614328384,0.012528370134532452,-0.0002702603815123439,0.011290335096418858
0.013269059360027313,0.001617241883650422,-0.01474542822688818,0.012190058827400208,-0.0002591420488897711,0.011340795084834099
0.013377659022808075,0.0015292963944375515,-0.014704999513924122,0.01281765941530466,-0.00028204225236549973,0.011483188718557358
0.013145738281309605,0.001825322164222598,-0.0150292394682765,0.012915736064314842,-0.00027348834555596113,0.011276726610958576
0.013398670591413975,0.0017344990046694875,-0.014788641594350338,0.012778724543750286,-0.0002636144927237183,0.01172773540019989
0.013725710101425648,0.0017621407750993967,-0.014644332230091095,0.012411089614033699,-0.00024563493207097054,0.011180025525391102
0.013725710101425648,0.0017621407750993967,-0.014644332230091095,0.012411089614033699,-0.00024563493207097054,0.011180025525391102
0.01379423774778843,0.001748299808241427,-0.014471783302724361,0.011976785026490688,-0.00022994355822447687,0.011261709034442902
0.013225779868662357,0.001735913916490972,-0.014372858218848705,0.01236375980079174,-0.0002228261873824522,0.011812694370746613
0.013530938886106014,0.001763047301210463,-0.014482404105365276,0.012074182741343975,-0.00021613705030176789,0.011466101743280888
0.013375873677432537,0.001714395359158516,-0.014804301783442497,0.01192038506269455,-0.0002098369732266292,0.01150605920702219
0.01359530258923769,0.0019265873124822974,-0.014797893352806568,0.012039833702147007,-0.00020389453857205808,0.011806920170783997
0.013269627466797829,0.0020805292297154665,-0.014872506260871887,0.012320027686655521,-0.00019827918731607497,0.011885668151080608
0.013458944857120514,0.0020304264035075903,-0.014553594402968884,0.012325935065746307,-0.00019296465325169265,0.011913648806512356
0.01343544851988554,0.0021126745268702507,-0.01489508431404829,0.01195728499442339,-0.0001879277260741219,0.011449764482676983
0.013498002663254738,0.0020456768106669188,-0.014408376067876816,0.012260781601071358,-0.00018314714543521404,0.01188709121197462
0.01349037978798151,0.002020383719354868,-0.01500500738620758,0.012078337371349335,-0.00017860386287793517,0.012352978810667992
0.013377788476645947,0.0019663518760353327,-0.014322372153401375,0.012078509666025639,-0.00014769397967029363,0.011742228642106056
0.013591528870165348,0.0021848625037819147,-0.015022431500256062,0.012429280206561089,-0.00013957104238215834,0.01215420663356781
0.013591528870165348,0.0021848625037819147,-0.015022431500256062,0.012429280206561089,-0.00013957104238215834,0.01215420663356781
0.013517488725483418,0.0021922478917986155,-0.014301331713795662,0.012138650752604008,-0.00013514752208720893,0.0123019739985466
0.013867944478988647,0.0021542885806411505,-0.014471677131950855,0.012589278630912304,-0.00013119197683408856,0.011978230439126492
0.01375927310436964,0.0019023296190425754,-0.014014383777976036,0.012041768990457058,-0.00012747413711622357,0.011650152504444122
0.014289334416389465,0.0018758084625005722,-0.014949418604373932,0.012104321271181107,-0.00012396255624480546,0.011393547058105469
0.01365883368998766,0.0017352465074509382,-0.014453592710196972,0.012247174978256226,-0.00012063902977388352,0.011933944188058376
0.01397403609007597,0.001959813991561532,-0.014779070392251015,0.012299529276788235,-0.00011748894030461088,0.011750856414437294
0.013484231196343899,0.0018283786484971642,-0.013987187296152115,0.012863232754170895,-0.00011449943121988326,0.011513031087815762
0.013884209096431732,0.0020985964220017195,-0.0145359355956316,0.01254920195788145,-0.00011165813339175656,0.011779379099607468
0.01350446604192257,0.002043210668489337,-0.01440163142979145,0.012839780189096928,-0.00010895461309701204,0.011738517321646214
0.013665487989783287,0.002037329599261284,-0.015022176317870617,0.012462073005735874,-0.00010637883679009974,0.012186069041490555
0.01329902932047844,0.0018090340308845043,-0.014312071725726128,0.012801079079508781,-0.00010392201511422172,0.012038340792059898
0.013567140325903893,0.0018556129653006792,-0.014586982317268848,0.012459865771234035,-0.00010157618089579046,0.012510216794908047
0.01376193854957819,0.0020746204536408186,-0.014616073109209538,0.013421563431620598,-9.718843648442999e-05,0.011987191624939442
0.013356216251850128,0.0019864211790263653,-0.014461567625403404,0.012608214281499386,-9.513369877822697e-05,0.012369292788207531
0.013761715032160282,0.0019775324035435915,-0.015126606449484825,0.012612639926373959,-9.316412615589797e-05,0.011524297297000885
0.014155033975839615,0.001806627376936376,-0.014358638785779476,0.011972139589488506,-9.127440716838464e-05,0.011997595429420471
0.013978126458823681,0.0018149836687371135,-0.014603419229388237,0.012229029089212418,-8.945973968366161e-05,0.012575548142194748
0.014397167600691319,0.0017340376507490873,-0.014057274907827377,0.012425050139427185,-8.771607099333778e-05,0.01260282937437296
0.013939817436039448,0.0019960820209234953,-0.014858928509056568,0.01230254489928484,-9.450595098314807e-05,0.012586874887347221
0.013809588737785816,0.001988688251003623,-0.014483240433037281,0.012415425851941109,-0.00010073885641759261,0.012559170834720135
0.01386512815952301,0.0020018168725073338,-0.01475159265100956,0.012315667234361172,-9.940662130247802e-05,0.01263081468641758
0.014604018069803715,0.0018266356782987714,-0.01436891034245491,0.012750916182994843,-9.764332935446873e-05,0.012414809316396713
0.013991735875606537,0.0018160094041377306,-0.014482812955975533,0.014533448964357376,-9.591108391759917e-05,0.01270940713584423
0.014138671569526196,0.001660201116465032,-0.014259153045713902,0.012551069259643555,-9.4237519078888e-05,0.012415289878845215
0.014030619524419308,0.0016987455310299993,-0.015005141496658325,0.011526079848408699,-9.262115781893954e-05,0.01268702931702137
0.014131211675703526,0.0017270578537136316,-0.014680439606308937,0.012504958547651768,-9.105930803343654e-05,0.012438611127436161
0.014293661341071129,0.0018699269276112318,-0.014998572878539562,0.012925307266414165,-8.954925579018891e-05,0.012465149164199829
0.013203306123614311,0.0018943323520943522,-0.014131310395896435,0.012603148818016052,-8.808845450403169e-05,0.012584899552166462
0.01453297957777977,0.00214595184661448,-0.015183715149760246,0.013191199861466885,-8.667457586852834e-05,0.012769117951393127
0.01453297957777977,0.00214595184661448,-0.015183715149760246,0.013191199861466885,-8.667457586852834e-05,0.012769117951393127
0.014744848012924194,0.001949245692230761,-0.014724710024893284,0.012491632252931595,-8.530532795703039e-05,0.01293362956494093
0.014093385078012943,0.002037160564213991,-0.015362831763923168,0.012619776651263237,-8.397872443310916e-05,0.012861921451985836
0.014549755491316319,0.0018125851638615131,-0.014687888324260712,0.012323925271630287,-8.269268437288702e-05,0.012888405472040176
0.014212762005627155,0.0017569169867783785,-0.014994973316788673,0.012672631070017815,-8.144546154653654e-05,0.012823034077882767
0.014428085647523403,0.001710431301034987,-0.014973605051636696,0.013219945132732391,-8.02353024482727e-05,0.013275757431983948
0.014780706726014614,0.0017941935220733285,-0.015706108883023262,0.012472972273826599,-7.906058453954756e-05,0.013372390531003475
0.015166115015745163,0.0018123537302017212,-0.01515269000083208,0.012858020141720772,-8.431779860984534e-05,0.013590071350336075
0.01482918206602335,0.0019582975655794144,-0.014830515719950199,0.012775040231645107,-8.918315143091604e-05,0.013366416096687317
0.015016352757811546,0.001778261037543416,-0.015386104583740234,0.013332799077033997,-8.832847379380837e-05,0.013165856711566448
0.014891178347170353,0.0017013411270454526,-0.015300353989005089,0.012712161988019943,-8.713263378012925e-05,0.013120518997311592
0.015229595825076103,0.0016986102564260364,-0.015344546176493168,0.012816221453249454,-8.594571409048513e-05,0.012989766895771027
0.015271460637450218,0.0015996235888451338,-0.015297413803637028,0.012503898702561855,-8.478909876430407e-05,0.012884079478681087
0.01505253091454506,0.0018392433412373066,-0.01570165529847145,0.01258408185094595,-8.366305701201782e-05,0.012934237718582153
0.015215927734971046,0.0023035923950374126,-0.015911227092146873,0.012417837977409363,-8.149861969286576e-05,0.013623414561152458
0.015163244679570198,0.0023447279818356037,-0.014770641922950745,0.012634268030524254,-8.045777940424159e-05,0.01406936440616846
0.014900467358529568,0.002277294173836708,-0.015186358243227005,0.012297661043703556,-7.944323442643508e-05,0.013892386108636856
0.015231519937515259,0.0020820468198508024,-0.014231839217245579,0.012570914812386036,-7.845387881388888e-05,0.014164607971906662
0.014843256212770939,0.0020600443240255117,-0.015265468508005142,0.012069971300661564,-7.748894859105349e-05,0.013872308656573296
0.01521620899438858,0.0021290562581270933,-0.015192180871963501,0.012487654574215412,-7.654742512386292e-05,0.013589863665401936
0.015085876919329166,0.0024140342138707638,-0.015582186169922352,0.01235872320830822,-7.562850805697963e-05,0.013135133311152458
0.01578660123050213,0.0023802125360816717,-0.015068610198795795,0.012415356934070587,-7.473146979464218e-05,0.013428938575088978
0.015548021532595158,0.002552018966525793,-0.015289637260138988,0.013040225952863693,-7.385534991044551e-05,0.014211362227797508
0.016039708629250526,0.0023457335773855448,-0.014744638465344906,0.013469738885760307,-7.29995736037381e-05,0.012985127978026867
0.016137918457388878,0.0022289948537945747,-0.015235455706715584,0.01374804601073265,-7.216343510663137e-05,0.013406982645392418
0.01613408699631691,0.002012575976550579,-0.015576598234474659,0.012921486981213093,-7.134618499549106e-05,0.013775155879557133
0.016065843403339386,0.0019727954640984535,-0.015242272056639194,0.013138377107679844,-7.80357004259713e-05,0.0138628538697958
0.01588945835828781,0.002173104090616107,-0.01538888644427061,0.012512698769569397,-7.956358604133129e-05,0.01354152150452137
0.016261547803878784,0.0022019657772034407,-0.015220739878714085,0.01296724658459425,-1.025946949084755e-05,0.01431895513087511
0.016261547803878784,0.0022019657772034407,-0.015220739878714085,0.01296724658459425,-1.025946949084755e-05,0.01431895513087511
0.016021421179175377,0.002565463539212942,-0.01588412933051586,0.01260827574878931,-6.698700190099771e-07,0.014015412889420986
0.016370384022593498,0.002369710011407733,-0.015025240369141102,0.012410619296133518,-4.3737731658666235e-08,0.01434705127030611
0.0160432830452919,0.002422662451863289,-0.015641819685697556,0.012997129932045937,-2.8557614051294422e-09,0.014350483193993568
0.016636427491903305,0.0022204630076885223,-0.014925838448107243,0.013094516471028328,-1.864608190071948e-10,0.013995679095387459
0.016547847539186478,0.002166175050660968,-0.01554541103541851,0.013737949542701244,-1.2174559103905747e-11,0.014033016748726368
0.016469832509756088,0.002365998923778534,-0.015044668689370155,0.013219240121543407,-6.350906915031374e-05,0.014325658790767193
0.01634048856794834,0.00232004770077765,-0.01581655628979206,0.01316900085657835,-6.63131067994982e-05,0.013937803916633129
0.01628933474421501,0.0025361059233546257,-0.015599401667714119,0.012755592353641987,-6.55907642794773e-05,0.013982807286083698
0.01693114824593067,0.0026286179199814796,-0.015412931330502033,0.013284744694828987,-6.466423656092957e-05,0.013957860879600048
0.01674629934132099,0.001929981866851449,-0.015337413176894188,0.013186870142817497,-7.521623774664477e-05,0.014631012454628944
0.016602013260126114,0.0018919006688520312,-0.016102440655231476,0.01283400971442461,-7.43774144211784e-05,0.015565081499516964
0.01685885153710842,0.0020042278338223696,-0.015965329483151436,0.012301066890358925,-7.337956776609644e-05,0.015256885439157486
0.017249085009098053,0.0021869661286473274,-0.01543348841369152,0.012744379229843616,-7.834263669792563e-05,0.015268241055309772
0.017119266092777252,0.002424370963126421,-0.014542439952492714,0.013007483445107937,-8.294577128253877e-05,0.015229491516947746
0.01783832162618637,0.0024163511116057634,-0.015686316415667534,0.013369271531701088,-8.223108306992799e-05,0.015125865116715431
0.017879890277981758,0.002323242835700512,-0.015276466496288776,0.012575286440551281,-8.981168502941728e-05,0.014735901728272438
0.01722586527466774,0.0022173940669745207,-0.01568174920976162,0.012832945212721825,-9.142095950664952e-05,0.01486342865973711
0.016900602728128433,0.002093889284878969,-0.015116922557353973,0.01221785880625248,-9.045202023116872e-05,0.01491952408105135
0.016855601221323013,0.002053135773167014,-0.015696996822953224,0.012396092526614666,-8.934139623306692e-05,0.01557198353111744
0.01777002215385437,0.0022789263166487217,-0.015051511116325855,0.01292989868670702,-0.0002599090803414583,0.015362923964858055
0.01757100224494934,0.0022284607402980328,-0.01584409922361374,0.012637371197342873,-0.0002683409256860614,0.01504249032586813
0.017380278557538986,0.0024209872353821993,-0.015237543731927872,0.01281878724694252,-0.0002547138719819486,0.015098380856215954
0.01758722960948944,0.0021390498150140047,-0.015520223416388035,0.012635570950806141,-0.0002411615423625335,0.015178151428699493
0.01757466234266758,0.002171298023313284,-0.015920491889119148,0.01288116816431284,-0.0002715259324759245,0.015010072849690914
0.01757466234266758,0.002171298023313284,-0.015920491889119148,0.01288116816431284,-0.0002715259324759245,0.015010072849690914
0.01799304597079754,0.001900036120787263,-0.015629811212420464,0.012894690968096256,-0.00026117166271433234,0.014836952090263367
0.018045859411358833,0.0019820190500468016,-0.0163828544318676,0.013727258890867233,-0.00026959189563058317,0.014975749887526035
0.017707673832774162,0.002186312573030591,-0.015422128140926361,0.013290772214531898,-0.0002766302495729178,0.014893104322254658
0.018214916810393333,0.002433812478557229,-0.016101928427815437,0.013687917962670326,-0.00028477731393650174,0.01598346047103405
0.017597828060388565,0.0024471695069223642,-0.01534599345177412,0.013036456890404224,-0.00029068670119158924,0.014538826420903206
0.017986960709095,0.0022535778116434813,-0.015846798196434975,0.012578645721077919,-0.00040569540578871965,0.014697976410388947
0.017903881147503853,0.002224065363407135,-0.015035206452012062,0.013597526587545872,-0.00044654650264419615,0.014870437793433666
0.017549391835927963,0.002013334771618247,-0.016131119802594185,0.012294573709368706,-0.0004299250431358814,0.015322335064411163
0.017821719869971275,0.0021602874621748924,-0.01594383642077446,0.012505320832133293,-0.0003993510326836258,0.01521359384059906
0.018591515719890594,0.0024138225708156824,-0.01656334660947323,0.012875412590801716,-0.00042954663513228297,0.01568789593875408
0.017950784415006638,0.0023896091151982546,-0.01657884009182453,0.013694578781723976,-0.00043383127194829285,0.015487614087760448
0.018210021778941154,0.002740702824667096,-0.015580443665385246,0.013554849661886692,-0.00043385534081608057,0.01516119297593832
0.018449243158102036,0.0025058172177523375,-0.016706669703125954,0.013650731183588505,-0.0005418555811047554,0.014978685416281223
0.01852472499012947,0.0020420632790774107,-0.016978230327367783,0.013940880075097084,-0.0006088687223382294,0.015163710340857506
0.018476828932762146,0.001974279060959816,-0.0157723817974329,0.013800584711134434,-0.000635058619081974,0.015887631103396416
0.018366483971476555,0.0023841415531933308,-0.016113106161355972,0.013779080472886562,-0.0006251817685551941,0.015595290809869766
0.018639037385582924,0.0024487979244440794,-0.016783280298113823,0.01394302025437355,-0.0008853883482515812,0.01534189097583294
0.018539708107709885,0.0026746897492557764,-0.01637304574251175,0.013472247868776321,-0.0009553997660987079,0.01562611013650894
0.018627716228365898,0.0027052471414208412,-0.016176164150238037,0.01320158876478672,-0.0011960661504417658,0.01576802134513855
0.018888723105192184,0.0023542477283626795,-0.015658611431717873,0.012615596875548363,-0.0015077650314196944,0.015765205025672913
0.018537228927016258,0.0022234225180000067,-0.016343005001544952,0.013559582643210888,-0.0017485716380178928,0.015401146374642849
0.01906611956655979,0.002366717206314206,-0.016269369050860405,0.012806301936507225,-0.0022224439308047295,0.015804793685674667
0.019126230850815773,0.0023194896057248116,-0.01651350036263466,0.013297597877681255,-0.0026048028375953436,0.015690959990024567
0.01872655376791954,0.0028212645556777716,-0.01636098325252533,0.01338796317577362,-0.0031344364397227764,0.01567091979086399
0.019248977303504944,0.0027053775265812874,-0.015961123630404472,0.013911504298448563,-0.0031269181054085493,0.015589121729135513
0.019390642642974854,0.0024673761799931526,-0.016141029074788094,0.013661809265613556,-0.002989429049193859,0.015679391101002693
0.019021855667233467,0.002316352678462863,-0.015744438394904137,0.01415118109434843,-0.0030438327230513096,0.015987735241651535
0.019825439900159836,0.0020153243094682693,-0.01644495688378811,0.013583104126155376,-0.0030668932013213634,0.015814125537872314
0.019293177872896194,0.0020502987317740917,-0.015880918130278587,0.01341753639280796,-0.00323815387673676,0.01583612523972988
0.018687430769205093,0.0024564035702496767,-0.01627890020608902,0.01335083693265915,-0.0035653160884976387,0.015651647001504898
0.019244341179728508,0.002451944863423705,-0.015909792855381966,0.013499092310667038,-0.003333186497911811,0.016087030991911888
0.019244341179728508,0.002451944863423705,-0.015909792855381966,0.013499092310667038,-0.003333186497911811,0.016087030991911888
0.019227584823966026,0.0027283704839646816,-0.01594584807753563,0.01338694617152214,-0.003126638475805521,0.015927117317914963
0.01892201229929924,0.0023284130729734898,-0.016359496861696243,0.013252374716103077,-0.0023647306952625513,0.0160985067486763
0.019343165680766106,0.002380908466875553,-0.01609283871948719,0.013276043348014355,-0.001707499148324132,0.016006285324692726
0.01965511590242386,0.002528422512114048,-0.016198046505451202,0.012715816497802734,-0.0012978777522221208,0.016358863562345505
0.019067121669650078,0.0024661619681864977,-0.016012439504265785,0.013350160792469978,-0.0010448495158925653,0.016560254618525505
0.019449293613433838,0.002586542861536145,-0.016291821375489235,0.013047180138528347,-0.0008746653911657631,0.01699969172477722
0.019593993201851845,0.0027663419023156166,-0.015725111588835716,0.013394303619861603,-0.000752331456169486,0.016414785757660866
0.01891775242984295,0.0024346034042537212,-0.01623517833650112,0.013240880332887173,-0.0006601114291697741,0.015907328575849533
0.019578799605369568,0.0022481062915176153,-0.016093986108899117,0.013763105496764183,-0.0005880662938579917,0.016307909041643143
0.0201184693723917,0.0022074044682085514,-0.016475306823849678,0.013410733081400394,-0.00048276662710122764,0.01620400696992874
0.02025712840259075,0.002491819905117154,-0.015654318034648895,0.013548883609473705,-0.00044310971861705184,0.016602393239736557
0.02019493654370308,0.002674663672223687,-0.016506176441907883,0.013612271286547184,-0.0004094769828952849,0.01681067980825901
0.01975565403699875,0.002532815560698509,-0.016018275171518326,0.013533703051507473,-0.0003805968153756112,0.016930287703871727
0.018137630075216293,0.0025391271337866783,-0.016532590612769127,0.013566340319812298,-0.0003555231960490346,0.0165965985506773
0.01994827203452587,0.002322759944945574,-0.0158266332000494,0.01366323884576559,-0.00033355053164996207,0.016990801319479942
0.020382998511195183,0.0024161117617040873,-0.01616150327026844,0.013469505123794079,-0.00031413676333613694,0.016514167189598083
0.01984151266515255,0.0026519200764596462,-0.015882709994912148,0.013950293883681297,-0.0002968610788229853,0.0161844901740551
0.019932841882109642,0.0027843639254570007,-0.01621932163834572,0.013722877949476242,-0.0002813856117427349,0.016688251867890358
0.020354488864541054,0.002665312495082617,-0.016434654593467712,0.013933587819337845,-0.0002674456627573818,0.01681285910308361
0.019924823194742203,0.002621094696223736,-0.015865273773670197,0.013453672640025616,-0.00025482120690867305,0.0170364361256361
0.020338688045740128,0.002526016440242529,-0.0162445567548275,0.013958645053207874,-0.00024333481269422919,0.017229201272130013
0.020440904423594475,0.002308107214048505,-0.015604473650455475,0.013325348496437073,-0.00023284085909835994,0.017213907092809677
0.020201044157147408,0.0022332214284688234,-0.016108348965644836,0.013752716593444347,-0.0002232138649560511,0.017289498820900917
0.019741177558898926,0.0021783453412353992,-0.016018429771065712,0.013119843788444996,-0.00021435169037431479,0.017395680770277977
0.0198354534804821,0.0023353241849690676,-0.01599307730793953,0.013853117823600769,-0.00020616638357751071,0.017557784914970398
0.01983630284667015,0.00261130603030324,-0.015861839056015015,0.013697241432964802,-0.00019858306040987372,0.017421158030629158
0.020374907180666924,0.002691511996090412,-0.015953313559293747,0.013975204899907112,-0.0001915389293571934,0.01746375299990177
0.020374907180666924,0.002691511996090412,-0.015953313559293747,0.013975204899907112,-0.0001915389293571934,0.01746375299990177
0.02101138047873974,0.0027194262947887182,-0.01625879853963852,0.01379584800451994,-0.0001849763502832502,0.017061011865735054
0.020726405084133148,0.00274914619512856,-0.016039060428738594,0.013764855451881886,-0.00017884967382997274,0.016691645607352257
0.02062520943582058,0.002752897096797824,-0.016615331172943115,0.013683130033314228,-0.0001731149823172018,0.01677897199988365
0.020622732117772102,0.0025635934434831142,-0.01572573184967041,0.013846597634255886,-0.00016773724928498268,0.016911614686250687
0.020423617213964462,0.0029031173326075077,-0.01612260565161705,0.015564542263746262,-0.00016268306353595108,0.017239971086382866
0.020627418532967567,0.0030516162514686584,-0.01597040332853794,0.014304770156741142,-0.00015792528574820608,0.01779787428677082
0.02070002071559429,0.002642670413479209,-0.016428526490926743,0.013788696378469467,-0.00015343762061093003,0.017869262024760246
0.021048014983534813,0.002620688173919916,-0.016782131046056747,0.013704127632081509,-0.00014919786190148443,0.01813015528023243
0.020896071568131447,0.002621418097987771,-0.016006361693143845,0.013847744092345238,-0.0001451862190151587,0.017950884997844696
0.02106558531522751,0.0028638483490794897,-0.015968764200806618,0.014121952466666698,-0.00014138450205791742,0.017905903980135918
0.021118467673659325,0.002734155161306262,-0.015627313405275345,0.014210856519639492,-0.00013777712592855096,0.018075766041874886
0.021087022498250008,0.0030163798946887255,-0.01644040271639824,0.0143581572920084,-0.00013434900029096752,0.017902474850416183
0.021098850294947624,0.0026291741523891687,-0.01701589673757553,0.014527479186654091,-0.00012798060197383165,0.01752401515841484
0.021199561655521393,0.002632414922118187,-0.016872094944119453,0.014451409690082073,-0.0001250177010660991,0.017567578703165054
0.02134334295988083,0.002721342956647277,-0.0163835808634758,0.014470494352281094,-0.0001221886050188914,0.01806187443435192
0.0210984256118536,0.0032717417925596237,-0.016808198764920235,0.014229965396225452,-0.00011948483006563038,0.017872871831059456
0.021288283169269562,0.0031775645911693573,-0.01611570082604885,0.014040694572031498,-0.00011689832899719477,0.017900027334690094
0.021439241245388985,0.002813823986798525,-0.016591938212513924,0.013917030766606331,-0.00011442116374382749,0.018248969689011574
0.021347858011722565,0.0025989287532866,-0.01647350937128067,0.013634547591209412,-0.0001120469969464466,0.01808897964656353
0.021467551589012146,0.002314348239451647,-0.01718742959201336,0.014241323806345463,-0.00010976922931149602,0.018497293815016747
0.021668566390872,0.0025161942467093468,-0.016946393996477127,0.014340839348733425,-0.00010758223652374,0.018433546647429466
0.021952029317617416,0.003044223180040717,-0.016326429322361946,0.014708549715578556,-0.00010548087448114529,0.018389500677585602
0.021733665838837624,0.0031678122468292713,-0.017049038782715797,0.014213540591299534,-0.0001034600063576363,0.018395310267806053
0.021900497376918793,0.002834285143762827,-0.016307322308421135,0.014160504564642906,-0.00010151482274523005,0.018508872017264366
0.02149423211812973,0.0025721907150000334,-0.017115822061896324,0.014000331051647663,-9.964167838916183e-05,0.018512114882469177
0.02149423211812973,0.0025721907150000334,-0.017115822061896324,0.014000331051647663,-9.964167838916183e-05,0.018512114882469177
0.022193830460309982,0.0025337734259665012,-0.0169124323874712,0.01433904655277729,-9.783639688976109e-05,0.018382471054792404
0.021878518164157867,0.0027458900585770607,-0.016882648691534996,0.014511240646243095,-9.609528933651745e-05,0.017796235159039497
0.022102879360318184,0.003149742493405938,-0.01734091155230999,0.014579085633158684,-9.441510337637737e-05,0.01827060431241989
0.022244712337851524,0.0029325317591428757,-0.016632424667477608,0.01410745084285736,-9.279263758799061e-05,0.018370917066931725
0.022223226726055145,0.0027547187637537718,-0.018379176035523415,0.01426703017205,-9.122503979597241e-05,0.018122797831892967
0.02254779264330864,0.002661356469616294,-0.0163743756711483,0.0138281574472785,-8.97096106200479e-05,0.018778258934617043
0.022871514782309532,0.002517691347748041,-0.01630166545510292,0.01413050852715969,-8.824354881653562e-05,0.01955569162964821
0.02206285484135151,0.002705502323806286,-0.017547685652971268,0.013739178888499737,-8.682472980581224e-05,0.018936190754175186
0.022729694843292236,0.0028255581855773926,-0.016971854493021965,0.013993237167596817,-8.545078162569553e-05,0.018829308450222015
0.022808726876974106,0.002924347296357155,-0.016784854233264923,0.014179782941937447,-8.411968883592635e-05,0.01814153417944908
0.02308879978954792,0.0027859366964548826,-0.016490202397108078,0.015218609943985939,-8.282941416837275e-05,0.01822008192539215
0.023455176502466202,0.0029279757291078568,-0.017435407266020775,0.014744791202247143,-8.15780513221398e-05,0.018597178161144257
0.022932307794690132,0.003039940958842635,-0.017522865906357765,0.014429586008191109,-8.036403596634045e-05,0.018839281052350998
0.022601893171668053,0.0027673733420670033,-0.017140043899416924,0.01465673465281725,-7.80411864980124e-05,0.01967608742415905
0.023241158574819565,0.002802488161250949,-0.016515012830495834,0.014472569338977337,-7.692940562264994e-05,0.019366249442100525
0.022975105792284012,0.002828690456226468,-0.017407173290848732,0.01536774355918169,-7.584879494970664e-05,0.019151730462908745
0.02249174565076828,0.003217531368136406,-0.017216840758919716,0.014480775222182274,-7.479822670575231e-05,0.019219567999243736
0.023052878677845,0.003184146713465452,-0.017468882724642754,0.014499369077384472,-7.377626752713695e-05,0.0197629202157259
0.024076322093605995,0.003034945111721754,-0.017656873911619186,0.013924541883170605,-7.27819642634131e-05,0.01910361833870411
0.02333594486117363,0.0030969304498285055,-0.016612354665994644,0.014777163043618202,-7.181407272582874e-05,0.01863216795027256
0.02292812243103981,0.00323093612678349,-0.016712436452507973,0.013936568982899189,-7.087154517648742e-05,0.018468117341399193
0.023143528029322624,0.0031819376163184643,-0.016324298456311226,0.01456610020250082,-6.995341391302645e-05,0.020392248407006264
0.02274426817893982,0.003501982195302844,-0.016980137676000595,0.014501543715596199,-6.90588349243626e-05,0.01864572986960411
0.022839654237031937,0.003243987914174795,-0.01720951870083809,0.01495050173252821,-6.81868550600484e-05,0.01873019151389599
0.02337598241865635,0.0029106270521879196,-0.016814343631267548,0.014826139435172081,-6.733655754942447e-05,0.019419290125370026
0.023824691772460938,0.0028223961126059294,-0.01717407815158367,0.01530779805034399,-6.650728755630553e-05,0.02013770118355751
0.02357659675180912,0.002876941580325365,-0.016854526475071907,0.01515949796885252,-6.569812103407457e-05,0.019916493445634842
0.02357659675180912,0.002876941580325365,-0.016854526475071907,0.01515949796885252,-6.569812103407457e-05,0.019916493445634842
0.023714518174529076,0.0034555683378130198,-0.01697666384279728,0.01493343710899353,-6.413750088540837e-05,0.019747139886021614
0.023714518174529076,0.0034555683378130198,-0.01697666384279728,0.01493343710899353,-6.413750088540837e-05,0.019747139886021614
0.024080807343125343,0.0031947612296789885,-0.016754116863012314,0.016243528574705124,-6.338466482702643e-05,0.019657984375953674
0.02347317337989807,0.003224825719371438,-0.01730394922196865,0.014721671119332314,-6.264928379096091e-05,0.01973922736942768
0.023529548197984695,0.003244688967242837,-0.016605278477072716,0.0141561608761549,-6.193085573613644e-05,0.01984754391014576
0.02337527833878994,0.0035189148038625717,-0.017096852883696556,0.014749279245734215,-6.12286530667916e-05,0.019719814881682396
0.023735517635941505,0.0033231524284929037,-0.017288411036133766,0.015301876701414585,-6.054219193174504e-05,0.019736845046281815
0.02343766763806343,0.003178494982421398,-0.016995029523968697,0.015328461304306984,-5.9870937548112124e-05,0.02017081528902054
0.02397029660642147,0.00328737311065197,-0.017217600718140602,0.01501618605107069,-7.712064871157054e-06,0.020272845402359962
0.023774979636073112,0.0029761993791908026,-0.016887471079826355,0.015472879633307457,-5.035427079747024e-07,0.019941134378314018
0.02328445389866829,0.0031141252256929874,-0.017411451786756516,0.01518862321972847,-3.287773964189e-08,0.020257802680134773
0.023860260844230652,0.0033823219127953053,-0.016950566321611404,0.01562519557774067,-2.146681499226588e-09,0.020113708451390266
0.02403292804956436,0.003200631821528077,-0.017249366268515587,0.015158385038375854,-1.401629506903035e-10,0.02004097029566765
0.02355245128273964,0.0034563117660582066,-0.01781475730240345,0.015706907957792282,-9.15163951564768e-12,0.02041873149573803
0.025122148916125298,0.003271692432463169,-0.017283277586102486,0.015002810396254063,-5.975366685825878e-13,0.020749442279338837
0.024561334401369095,0.003154663136228919,-0.017395898699760437,0.015245017595589161,-2.547392931835711e-15,0.02020455338060856
0.024058740586042404,0.003166682319715619,-0.01739516109228134,0.015702562406659126,-1.6632653942662702e-16,0.020627813413739204
0.024317920207977295,0.0030706648249179125,-0.017232779413461685,0.015386142767965794,-1.0859935148200493e-17,0.02064245007932186
0.02451571635901928,0.003264795523136854,-0.016716385260224342,0.015153872780501842,-7.090761782830127e-19,0.02046848088502884
0.02505822665989399,0.0031780763529241085,-0.01762373559176922,0.015012320131063461,-4.6297609077322666e-20,0.020514989271759987
0.025729671120643616,0.0035836761817336082,-0.017476839944720268,0.015494398772716522,-3.0229030738518048e-21,0.020722893998026848
0.02551843598484993,0.0032813248690217733,-0.017548682168126106,0.015674596652388573,-1.973739577411579e-22,0.020643537864089012
0.024831658229231834,0.00347577384673059,-0.017735866829752922,0.01543415430933237,-1.2887108637868181e-23,0.020404478535056114
0.023567790165543556,0.0034933562856167555,-0.01671883650124073,0.01550921518355608,-8.414361179712766e-25,0.02034231275320053
0.02449859492480755,0.0033396671060472727,-0.017607932910323143,0.01494239829480648,-5.493976168390654e-26,0.020658619701862335
0.02523988112807274,0.0034212975297123194,-0.018011199310421944,0.015250878408551216,-4.234660536894808e-06,0.020941268652677536
0.02523988112807274,0.0034212975297123194,-0.018011199310421944,0.015250878408551216,-4.234660536894808e-06,0.020941268652677536
0.02496671862900257,0.0032653487287461758,-0.01806909777224064,0.014963563531637192,-2.7649309686239576e-07,0.02108834497630596
0.02526749297976494,0.003631301922723651,-0.01786293089389801,0.015279263257980347,-1.8053022188269097e-08,0.021289687603712082
0.025770479813218117,0.0034359965939074755,-0.017576679587364197,0.014970382675528526,-1.178733444184843e-09,0.02148212492465973
0.026147685945034027,0.0035143240820616484,-0.018037449568510056,0.015706639736890793,-7.69628666352773e-11,0.020918747410178185
0.02540312148630619,0.003728550160303712,-0.01787414401769638,0.015282640233635902,-5.025125714847034e-12,0.02116982825100422
0.025125497952103615,0.003356493543833494,-0.01714279316365719,0.01519178319722414,-3.2810481219967824e-13,0.021416407078504562
0.024938378483057022,0.0033442089334130287,-0.01758553460240364,0.014338811859488487,-2.1422898109873904e-14,0.021217601373791695
0.02529590018093586,0.0032554445788264275,-0.017886171117424965,0.014967464841902256,-1.3987622570084922e-15,0.0212114155292511
0.026154376566410065,0.003451208584010601,-0.01787763088941574,0.014405790716409683,-9.13291834855472e-17,0.021185284480452538
0.026332402601838112,0.0037556651514023542,-0.018299752846360207,0.014850245788693428,-3.0135413908283226e-05,0.02135377563536167
0.026245638728141785,0.003460572101175785,-0.017457731068134308,0.014590797014534473,-0.00036275223828852177,0.020697498694062233
0.0263923741877079,0.00360739603638649,-0.01786458119750023,0.015187472105026245,-0.00035595850204117596,0.020793721079826355
0.02639993280172348,0.0034245948772877455,-0.018115468323230743,0.015014652162790298,-0.0003311825857963413,0.02184588834643364
0.026453997939825058,0.003428260562941432,-0.0176033116877079,0.015540708787739277,-0.0003618597984313965,0.022320983931422234
0.02634153515100479,0.0036865067668259144,-0.017510663717985153,0.015454061329364777,-0.00034595001488924026,0.02190537191927433
0.02647187002003193,0.0033604351337999105,-0.01791236363351345,0.015020061284303665,-0.0003547043597791344,0.020643213763833046
0.026573922485113144,0.00335505697876215,-0.01790582947432995,0.015202660113573074,-0.00033873607753776014,0.02197069302201271
0.026471275836229324,0.0033779533114284277,-0.01704648695886135,0.01553813274949789,-0.00032163935247808695,0.022549420595169067
0.02672012709081173,0.0034569830168038607,-0.018078334629535675,0.015184652991592884,-0.00033829224412329495,0.021751977503299713
0.026357758790254593,0.0036384540144354105,-0.018060244619846344,0.015561682172119617,-0.0003327893791720271,0.021874744445085526
0.026870355010032654,0.003783182939514518,-0.017585569992661476,0.01476692222058773,-0.0003187173279002309,0.02264840342104435
0.026952605694532394,0.0034539990592747927,-0.01778522878885269,0.01564660668373108,-0.0003451071388553828,0.02350413054227829
0.027168219909071922,0.0035704404581338167,-0.017760248854756355,0.014406834729015827,-0.0003266031271778047,0.02262122370302677
0.027153536677360535,0.003667607204988599,-0.018147911876440048,0.015637289732694626,-0.0003048889630008489,0.02170749381184578
0.026897335425019264,0.0036930995993316174,-0.01793401502072811,0.014136076904833317,-0.00028555848984979093,0.021619834005832672
0.02761263959109783,0.0037513135466724634,-0.017551561817526817,0.014744803309440613,-0.0003149513795506209,0.02244838885962963
0.027620675042271614,0.003340453142300248,-0.018364472314715385,0.01513320580124855,-0.000303590641124174,0.02313505858182907
0.027620675042271614,0.003340453142300248,-0.018364472314715385,0.01513320580124855,-0.000303590641124174,0.02313505858182907
0.02701405994594097,0.0035509115550667048,-0.018124397844076157,0.016107169911265373,-0.00033248437102884054,0.02311292104423046
0.02748480811715126,0.003310381667688489,-0.01747194305062294,0.015287647023797035,-0.0003522094921208918,0.023038282990455627
0.027368085458874702,0.0034057917073369026,-0.018043048679828644,0.015417680144309998,-0.0003466930065769702,0.022907821461558342
0.02735568955540657,0.0035747939255088568,-0.017866939306259155,0.015528973191976547,-0.00046043924521654844,0.022900491952896118
0.027436651289463043,0.003657919354736805,-0.017974836751818657,0.015541259199380875,-0.000505875563248992,0.02263355813920498
0.02767581306397915,0.0035454321186989546,-0.017955394461750984,0.015044212341308594,-0.0005403020768426359,0.022647568956017494
0.028005411848425865,0.003449581563472748,-0.01759176142513752,0.014972650445997715,-0.0005550036439672112,0.022683657705783844
0.027730556204915047,0.003470864612609148,-0.018297763541340828,0.015413920395076275,-0.0005307529354467988,0.02294791117310524
0.027213696390390396,0.0034494369756430387,-0.01780322752892971,0.01545227412134409,-0.0007284640450961888,0.02255035564303398
0.02765251137316227,0.003618112299591303,-0.01783430576324463,0.01592244952917099,-0.0006582530331797898,0.022505300119519234
0.028728943318128586,0.0038980150129646063,-0.017499959096312523,0.015901099890470505,-0.0006108924280852079,0.023196814581751823
0.02837267890572548,0.0034779091365635395,-0.01815134845674038,0.015671616420149803,-0.0005502381245605648,0.023269131779670715
0.025001922622323036,0.003486485220491886,-0.018203789368271828,0.01609942689538002,-0.0005710715777240694,0.023401454091072083
0.028425808995962143,0.0032637296244502068,-0.017567086964845657,0.015814179554581642,-0.0005325065576471388,0.023319900035858154
0.029193012043833733,0.0034649036824703217,-0.018272975459694862,0.0159612987190485,-0.0005568158812820911,0.02295643277466297
0.02813825011253357,0.003681525820866227,-0.018107252195477486,0.01602616347372532,-0.0005173994577489793,0.022734656929969788
0.028343314304947853,0.0037977639585733414,-0.01781957410275936,0.015572946518659592,-0.0005521071725524962,0.02302207425236702
0.029117092490196228,0.003402253147214651,-0.018104836344718933,0.01581927388906479,-0.0005844187689945102,0.02316933311522007
0.028927642852067947,0.0032305510248988867,-0.017988085746765137,0.015351944603025913,-0.0006166218081489205,0.022919872775673866
0.028575802221894264,0.0034227794967591763,-0.01845194585621357,0.015611773356795311,-0.0010823514312505722,0.023084916174411774
0.0278657004237175,0.0036669468972831964,-0.019297203049063683,0.015301784500479698,-0.001077411463484168,0.02280144952237606
0.028799692168831825,0.0035247195046395063,-0.017972780391573906,0.015810949727892876,-0.0009534620912745595,0.023270631209015846
0.02958579547703266,0.0031842656899243593,-0.01855592429637909,0.015702227130532265,-0.0009397760150022805,0.024244779720902443
0.02958579547703266,0.0031842656899243593,-0.01855592429637909,0.015702227130532265,-0.0009397760150022805,0.024244779720902443
0.029256759211421013,0.0035442630760371685,-0.01868492364883423,0.015926120802760124,-0.0008422312675975263,0.024518126621842384
0.029051629826426506,0.0033972817473113537,-0.0176386758685112,0.015599549748003483,-0.0007553051691502333,0.02355542965233326
0.029206709936261177,0.0035181597340852022,-0.018346264958381653,0.015790747478604317,-0.0008313809521496296,0.02262021042406559
0.02933412976562977,0.00364497397094965,-0.019155539572238922,0.015683963894844055,-0.0008438307559117675,0.022482017055153847
0.029216600582003593,0.0037697318475693464,-0.01937495544552803,0.015759391710162163,-0.0008089928887784481,0.023532336577773094
0.029241278767585754,0.0037831789813935757,-0.019039271399378777,0.016336852684617043,-0.0009980741888284683,0.024443194270133972
0.029355507344007492,0.003702670568600297,-0.018682269379496574,0.016285914927721024,-0.0009929880034178495,0.02410440891981125
0.029356220737099648,0.0036511935759335756,-0.01897408440709114,0.016736268997192383,-0.0009802215499803424,0.024302329868078232
0.02965904027223587,0.0033335506450384855,-0.019573193043470383,0.016070125624537468,-0.0009212562581524253,0.02459329180419445
0.02961958572268486,0.0033601955510675907,-0.018977856263518333,0.01574297808110714,-0.0009940153686329722,0.02441474236547947
0.02955586649477482,0.004182920791208744,-0.01882183738052845,0.015470909886062145,-0.0009111797553487122,0.024232981726527214
0.030009448528289795,0.004129473119974136,-0.019679784774780273,0.016172416508197784,-0.0007841123733669519,0.02387407049536705
0.030103018507361412,0.0035662981681525707,-0.018513420596718788,0.016183381900191307,-0.0007903637597337365,0.02375374734401703
0.029856199398636818,0.003466841531917453,-0.01879163086414337,0.015952417626976967,-0.0007082790252752602,0.024370556697249413
0.031206315383315086,0.0035733396653085947,-0.018977511674165726,0.015979070216417313,-0.0006537245353683829,0.0254228413105011
0.03166855871677399,0.003470704425126314,-0.01934492401778698,0.01646742969751358,-0.0006575481384061277,0.02516316808760166
0.03147285431623459,0.0034069539979100227,-0.019534537568688393,0.016300242394208908,-0.000657835800666362,0.024932226166129112
0.0300604235380888,0.0035858056508004665,-0.018903614953160286,0.01675102300941944,-0.00068073341390118,0.024914465844631195
0.030203942209482193,0.0038474833127111197,-0.018979614600539207,0.017067203298211098,-0.0008344880188815296,0.025239698588848114
0.031421955674886703,0.003925394732505083,-0.019341008737683296,0.015662729740142822,-0.000993081252090633,0.02523976005613804
0.031262803822755814,0.003895028494298458,-0.01882968284189701,0.016322260722517967,-0.0010662988061085343,0.02493959106504917
0.031022360548377037,0.0038551304023712873,-0.018686728551983833,0.01635914295911789,-0.0009980160975828767,0.0249396413564682
0.03168381378054619,0.003849695436656475,-0.019139600917696953,0.01660105027258396,-0.0012005281168967485,0.025128569453954697
0.0317494198679924,0.003394117346033454,-0.018937358632683754,0.016283994540572166,-0.0011560431448742747,0.02530132420361042
0.031198378652334213,0.0035385861992836,-0.01920405775308609,0.0163694117218256,-0.001114379963837564,0.02549307607114315
0.031116429716348648,0.00423105712980032,-0.01929633505642414,0.016486067324876785,-0.0010227268794551492,0.025514060631394386
0.03164554387331009,0.0041295988485217094,-0.018908578902482986,0.016628451645374298,-0.0009180388296954334,0.027101285755634308
0.03173162415623665,0.003891104133799672,-0.01923331804573536,0.016315001994371414,-0.0009114218410104513,0.025041168555617332
0.032207686454057693,0.003936755005270243,-0.019237855449318886,0.015967940911650658,-0.0009093315456993878,0.024775628000497818
0.032207686454057693,0.003936755005270243,-0.019237855449318886,0.015967940911650658,-0.0009093315456993878,0.024775628000497818
0.03208433836698532,0.004039184655994177,-0.018884185701608658,0.016728324815630913,-0.0009080036543309689,0.025544028729200363
0.031958796083927155,0.00397114921361208,-0.01910296268761158,0.016768179833889008,-0.0010136637138202786,0.025822492316365242
0.03125560283660889,0.003885548794642091,-0.019503481686115265,0.016686053946614265,-0.0010505311656743288,0.02555832453072071
0.03166229650378227,0.003772494848817587,-0.01896202750504017,0.01666761189699173,-0.0010494613088667393,0.025655632838606834
0.0322280116379261,0.003726828610524535,-0.01914120838046074,0.016597984358668327,-0.0011919623939320445,0.025720050558447838
0.032087910920381546,0.0037163549568504095,-0.019512241706252098,0.016272997483611107,-0.0011617729905992746,0.025802208110690117
0.03254415839910507,0.003678084583953023,-0.01878514140844345,0.01566763035953045,-0.0011164832394570112,0.0258348248898983
0.032783497124910355,0.004004812799394131,-0.01892298460006714,0.01625867374241352,-0.0010833475971594453,0.025716068223118782
0.033107444643974304,0.004140395671129227,-0.019154131412506104,0.016233883798122406,-0.0009629889973439276,0.025579392910003662
0.032311778515577316,0.003860281314700842,-0.0189109705388546,0.016833074390888214,-0.0009192164870910347,0.025655509904026985
0.033168792724609375,0.0036061666905879974,-0.01948312483727932,0.01649085432291031,-0.0009141996852122247,0.025932103395462036
0.03288337588310242,0.00355945504270494,-0.019502367824316025,0.016306797042489052,-0.0009122464107349515,0.025560744106769562
0.03264261782169342,0.0036155988927930593,-0.018815722316503525,0.017001785337924957,-0.0009068140643648803,0.025891227647662163
0.03287677466869354,0.003694429760798812,-0.018933329731225967,0.017248116433620453,-0.0008957626414485276,0.026026522740721703
0.033117130398750305,0.0037182357627898455,-0.019414810463786125,0.017787257209420204,-0.0008298949687741697,0.02637093886733055
0.033208612352609634,0.003794080577790737,-0.01876225881278515,0.0170130617916584,-0.0008264958742074668,0.02699529007077217
0.03339562192559242,0.0038189513143152,-0.01887277141213417,0.016827285289764404,-0.0007585797575302422,0.026479383930563927
0.033448684960603714,0.004270065110176802,-0.01866687834262848,0.01666458137333393,-0.0007046677055768669,0.02549579367041588
0.033506136387586594,0.004067230969667435,-0.019126005470752716,0.016400162130594254,-0.0006293598562479019,0.025617990642786026
0.033886127173900604,0.003925618715584278,-0.019777024164795876,0.016333088278770447,-0.0006338721141219139,0.0263545922935009
0.0340861976146698,0.0037897878792136908,-0.01910383440554142,0.01677483692765236,-0.0005892984918318689,0.026303060352802277
0.03405644744634628,0.0037627778947353363,-0.019557982683181763,0.01739892177283764,-0.0006150793051347136,0.02643181011080742
0.033760130405426025,0.004321732092648745,-0.019386814907193184,0.017349695786833763,-0.0005653172847814858,0.02800789847970009
0.03431904688477516,0.004094074945896864,-0.018505755811929703,0.016933228820562363,-0.0005879278760403395,0.027732089161872864
0.034995585680007935,0.004294592421501875,-0.019602609798312187,0.016297541558742523,-0.0005476908991113305,0.02685725875198841
0.034132421016693115,0.004145788494497538,-0.020313363522291183,0.017806055024266243,-0.0005303986254148185,0.026025358587503433
0.033311549574136734,0.004020980093628168,-0.020096197724342346,0.01808132231235504,-0.0004952674498781562,0.027349384501576424
0.034528929740190506,0.0035361400805413723,-0.019518060609698296,0.017411503940820694,-0.000524499686434865,0.027960743755102158
0.034528929740190506,0.0035361400805413723,-0.019518060609698296,0.017411503940820694,-0.000524499686434865,0.027960743755102158
0.034281689673662186,0.0035971917677670717,-0.0202294010668993,0.017727818340063095,-0.0005269436514936388,0.02788102813065052
0.03478894755244255,0.004209770821034908,-0.02001483179628849,0.017447883263230324,-0.0005197594873607159,0.02692742832005024
0.0353279635310173,0.0041560702957212925,-0.02011147141456604,0.01771407760679722,-0.00048232130939140916,0.027056148275732994
0.0347655788064003,0.004061902407556772,-0.019745951518416405,0.017298344522714615,-0.0005034274072386324,0.027306418865919113
0.03380121663212776,0.003958526998758316,-0.01960626058280468,0.01669159345328808,-0.0004791637184098363,0.027288399636745453
0.03386644646525383,0.003865304868668318,-0.019972890615463257,0.01691068522632122,-0.0005459233070723712,0.026888281106948853
0.03468647971749306,0.003831678768619895,-0.02038452960550785,0.01697484403848648,-0.0005858421209268272,0.026485631242394447
0.033248066902160645,0.0038163200952112675,-0.019586771726608276,0.016220301389694214,-0.0005995132378302515,0.026955654844641685
0.035368286073207855,0.004271524492651224,-0.019478347152471542,0.016409981995821,-0.0005660982569679618,0.02725490927696228
0.03496841713786125,0.00421232171356678,-0.020652752369642258,0.017067216336727142,-0.0005907464073970914,0.027129828929901123
0.034257546067237854,0.003984090872108936,-0.02081112377345562,0.01722966507077217,-0.0008235065033659339,0.027184883132576942
0.03487728536128998,0.004249513614922762,-0.020293155685067177,0.016986696049571037,-0.0007843638304620981,0.026957804337143898
0.03528107702732086,0.0042853448539972305,-0.019973358139395714,0.017303021624684334,-0.0007878724718466401,0.02720942348241806
0.03479146584868431,0.004037981387227774,-0.02011461928486824,0.017093757167458534,-0.0007866100058890879,0.027473142370581627
0.03520652651786804,0.004315963014960289,-0.02028551883995533,0.017478132620453835,-0.0007303801248781383,0.027910903096199036
0.03528118133544922,0.004154921974986792,-0.020323341712355614,0.017621343955397606,-0.0007407544180750847,0.02784762904047966
0.035067543387413025,0.004410686902701855,-0.020529920235276222,0.017104769125580788,-0.0007588576409034431,0.028320850804448128
0.03516637533903122,0.004507491365075111,-0.02054276503622532,0.01727101393043995,-0.0006925718626007438,0.028210492804646492
0.03638621047139168,0.004212411120533943,-0.0203894954174757,0.01764005795121193,-0.0007233801297843456,0.027629025280475616
0.035630106925964355,0.004288275260478258,-0.0209735669195652,0.017688527703285217,-0.0007923779776319861,0.027755558490753174
0.034922391176223755,0.00433357385918498,-0.020701058208942413,0.017061499878764153,-0.0007143340772017837,0.028789738193154335
0.03607140854001045,0.004421643912792206,-0.020537683740258217,0.01774919591844082,-0.0007334279362112284,0.028741035610437393
0.03536335006356239,0.004688753746449947,-0.02082759700715542,0.0174305010586977,-0.0007044303929433227,0.02811092883348465
0.03633737191557884,0.004205713514238596,-0.020938042551279068,0.017455199733376503,-0.000675732851959765,0.02697977051138878
0.03720282018184662,0.004373978357762098,-0.020592330023646355,0.017466086894273758,-0.0006883831229060888,0.027626914903521538
0.03674886375665665,0.004338136408478022,-0.020778387784957886,0.017398027703166008,-0.0006923960172571242,0.02854100987315178
0.03471197187900543,0.004513229243457317,-0.020948372781276703,0.018101520836353302,-0.0007344305631704628,0.02796665020287037
0.03628887981176376,0.004201156552881002,-0.020779946818947792,0.018182730302214622,-0.0007553577306680381,0.028122546151280403
0.03759082034230232,0.004114930983632803,-0.02061723731458187,0.01775122433900833,-0.0007710232748650014,0.029524406418204308
0.03647369518876076,0.004114624112844467,-0.020786941051483154,0.01809663139283657,-0.0009604291408322752,0.028519049286842346
0.03663977235555649,0.004469090607017279,-0.02086762897670269,0.018345622345805168,-0.000947309541516006,0.02851157821714878
0.03663977235555649,0.004469090607017279,-0.02086762897670269,0.018345622345805168,-0.000947309541516006,0.02851157821714878
0.036818623542785645,0.004644503816962242,-0.020916957408189774,0.01889231614768505,-0.0008384809480048716,0.02847573719918728
0.03712773695588112,0.004434497561305761,-0.02093636430799961,0.018453262746334076,-0.000839865009766072,0.028839729726314545
0.03684896603226662,0.004541723523288965,-0.020849507302045822,0.0177322831004858,-0.0007986965356394649,0.029910212382674217
0.03707157447934151,0.00426594540476799,-0.021077420562505722,0.017817214131355286,-0.0007604165584780276,0.029651524499058723
0.03724430128931999,0.0043479073792696,-0.02064734883606434,0.01749562844634056,-0.0006963027408346534,0.02902609296143055
0.03723912313580513,0.0050044371746480465,-0.020937373861670494,0.017373094335198402,-0.0005987512413412333,0.029310349375009537
0.0374346598982811,0.004531552083790302,-0.021074293181300163,0.01788746751844883,-0.0006049423827789724,0.02920096553862095
0.037627868354320526,0.0040228539146482944,-0.020756343379616737,0.018516622483730316,-0.0005650704842992127,0.029044972732663155
0.037191830575466156,0.004363823216408491,-0.02028752490878105,0.018692994490265846,-0.0005864830454811454,0.029312770813703537
0.037352222949266434,0.004463444463908672,-0.021181227639317513,0.018834369257092476,-0.0006029470823705196,0.029807258397340775
0.03649439290165901,0.004350902978330851,-0.02159498631954193,0.018019314855337143,-0.0005732730496674776,0.02974575385451317
0.0381995253264904,0.004837507847696543,-0.021517375484108925,0.018125969916582108,-0.000532085367012769,0.029716314747929573
0.038238946348428726,0.004468810278922319,-0.021334435790777206,0.01847316324710846,-0.0005553411901928484,0.029664790257811546
0.03782869875431061,0.004281251225620508,-0.02146156318485737,0.018839702010154724,-0.0005437301006168127,0.03003678470849991
0.03796361759305,0.004101746715605259,-0.020667465403676033,0.01855398342013359,-0.0005712062120437622,0.030131295323371887
0.03789209946990013,0.004322197753936052,-0.02113388106226921,0.01830100268125534,-0.0005836967611685395,0.030046425759792328
0.03859554976224899,0.004535713233053684,-0.02351164072751999,0.018425865098834038,-0.0006713179755024612,0.030397433787584305
0.03814256936311722,0.004621939267963171,-0.02146167866885662,0.01821102388203144,-0.0007792076794430614,0.03061038814485073
0.03797287866473198,0.0044733756221830845,-0.02052520588040352,0.018261849880218506,-0.0007704614545218647,0.030784446746110916
0.037755053490400314,0.004547299351543188,-0.021501194685697556,0.018634311854839325,-0.0007335852133110166,0.030576735734939575
0.03830791264772415,0.004212166182696819,-0.02293691597878933,0.018961476162075996,-0.0007289873901754618,0.03049815073609352
0.03970450162887573,0.00425330875441432,-0.022427648305892944,0.017578642815351486,-0.0006830356433056295,0.030357183888554573
0.03835877776145935,0.004655985627323389,-0.021095767617225647,0.01785699836909771,-0.0007832343690097332,0.030247947201132774
0.03713441267609596,0.004716183990240097,-0.021916929632425308,0.01800728775560856,-0.0007444670191034675,0.03145180270075798
0.03713441267609596,0.004716183990240097,-0.021916929632425308,0.01800728775560856,-0.0007444670191034675,0.03145180270075798
0.0383247509598732,0.004686853848397732,-0.02152816578745842,0.01831378974020481,-0.0007597222574986517,0.03129415586590767
0.03907611966133118,0.004238227382302284,-0.021729016676545143,0.01769767887890339,-0.0007680814596824348,0.03207561373710632
0.04028654471039772,0.004165773279964924,-0.022074444219470024,0.01776907779276371,-0.0008970389608293772,0.03235440328717232
0.039946746081113815,0.004089637193828821,-0.021950649097561836,0.018296800553798676,-0.000909307214897126,0.03110656887292862
0.03794575855135918,0.004414241295307875,-0.022021664306521416,0.018173789605498314,-0.0008582370937801898,0.03048466145992279
0.037671323865652084,0.004692537244409323,-0.021915774792432785,0.018535960465669632,-0.0008051495533436537,0.030977347865700722
0.03941723331809044,0.004701001103967428,-0.02147928811609745,0.01828484795987606,-0.0008120111306197941,0.03183341771364212
0.03955962508916855,0.0044918907806277275,-0.02180352993309498,0.017983388155698776,-0.0007963280659168959,0.03170571103692055
0.03918745368719101,0.0045085023157298565,-0.02209969237446785,0.0186837837100029,-0.0008153198286890984,0.03264043480157852
0.03953637555241585,0.00437942473217845,-0.021997546777129173,0.01843290589749813,-0.00082668277900666,0.032328806817531586
0.03920174017548561,0.004433255176991224,-0.02205919660627842,0.01835085079073906,-0.0008280806359834969,0.031217819079756737
0.03937217593193054,0.004292132332921028,-0.021799778565764427,0.018864315003156662,-0.0008927073795348406,0.03045731782913208
0.03929376229643822,0.004568708594888449,-0.022015465423464775,0.01880761981010437,-0.0010099599603563547,0.031361665576696396
0.039274848997592926,0.0045448667369782925,-0.02209041640162468,0.018518676981329918,-0.001034982968121767,0.032046396285295486
0.039527617394924164,0.004739989526569843,-0.021466916427016258,0.01851704716682434,-0.0011682354379445314,0.032024018466472626
0.0404060035943985,0.0041753025725483894,-0.021817833185195923,0.018945427611470222,-0.0010048741241917014,0.0319703184068203
0.03944363817572594,0.004318801686167717,-0.022143542766571045,0.019391581416130066,-0.0009803943103179336,0.031295787543058395
0.03839978948235512,0.004222927149385214,-0.02226310223340988,0.019088275730609894,-0.0009603973012417555,0.03168158233165741
0.039299800992012024,0.004929282236844301,-0.02157474309206009,0.01912141591310501,-0.0008725000661797822,0.031968049705028534
0.03931674733757973,0.004882500972598791,-0.021382572129368782,0.01939624361693859,-0.000810700177680701,0.032185398042201996
0.04042060673236847,0.004912414588034153,-0.021524840965867043,0.019516298547387123,-0.0007584658451378345,0.03214455395936966
0.039920173585414886,0.004331117030233145,-0.022063465788960457,0.019480455666780472,-0.000764048658311367,0.032357484102249146
0.038309305906295776,0.004248070064932108,-0.021681159734725952,0.019609928131103516,-0.0007782462053000927,0.03284546732902527
0.03892285376787186,0.004075061064213514,-0.021393315866589546,0.01970025524497032,-0.0007975018816068769,0.031578388065099716
0.040310777723789215,0.004285283386707306,-0.021643303334712982,0.019426247105002403,-0.0008555409731343389,0.032353609800338745
0.04059276357293129,0.004558945540338755,-0.021676551550626755,0.019732899963855743,-0.0007712525548413396,0.03318013623356819
0.03999720513820648,0.004683677107095718,-0.021407822147011757,0.019659386947751045,-0.000781275681219995,0.03289075940847397
0.04047498106956482,0.0045893206261098385,-0.021701686084270477,0.01940768025815487,-0.0007872824207879603,0.03325735032558441
0.04043710231781006,0.0044767283834517,-0.021731067448854446,0.019738681614398956,-0.0009154152357950807,0.033211421221494675
0.04067328944802284,0.004157638177275658,-0.02202814444899559,0.01914048381149769,-0.0009661407675594091,0.03346969559788704
0.04050324857234955,0.00451858201995492,-0.022036580368876457,0.018984736874699593,-0.000976861105300486,0.03243846818804741
0.04050324857234955,0.00451858201995492,-0.022036580368876457,0.018984736874699593,-0.000976861105300486,0.03243846818804741
0.04085830599069595,0.004763878881931305,-0.0225314199924469,0.02009974792599678,-0.0012525995261967182,0.034508153796195984
0.04085830599069595,0.004763878881931305,-0.0225314199924469,0.02009974792599678,-0.0012525995261967182,0.034508153796195984
0.04092850163578987,0.005082485266029835,-0.021655486896634102,0.019337881356477737,-0.0011171638034284115,0.033542465418577194
0.041247256100177765,0.00493359100073576,-0.02166425995528698,0.019682573154568672,-0.001079060835763812,0.0321066789329052
0.041259001940488815,0.00433726143091917,-0.022041108459234238,0.018986249342560768,-0.000957823358476162,0.03273586928844452
0.04171309247612953,0.004326525144279003,-0.022087669000029564,0.018742401152849197,-0.0009437924018129706,0.03318880870938301
0.04144984856247902,0.004606688395142555,-0.02205631695687771,0.019322847947478294,-0.0009367341990582645,0.033313680440187454
0.04157409071922302,0.004762484226375818,-0.02180715650320053,0.020056771114468575,-0.0009237441699951887,0.03476348891854286
0.041841354221105576,0.0049529047682881355,-0.022029133513569832,0.0198822021484375,-0.0008311189012601972,0.03397184610366821
0.041956476867198944,0.004794792737811804,-0.022598443552851677,0.01944972760975361,-0.0007909506093710661,0.03256117179989815
0.04204385727643967,0.004717188887298107,-0.022445742040872574,0.01955791376531124,-0.0008045948343351483,0.033947184681892395
0.04216983541846275,0.0047167702578008175,-0.02133905701339245,0.020161157473921776,-0.0008226161007769406,0.034000884741544724
0.042048078030347824,0.005101549904793501,-0.02135232463479042,0.02014673314988613,-0.0009191766730509698,0.03334479779005051
0.04256218299269676,0.0051088109612464905,-0.02166909910738468,0.01928775943815708,-0.0009549968526698649,0.03450479730963707
0.042224206030368805,0.005394555628299713,-0.02270752750337124,0.018900077790021896,-0.0009309469605796039,0.03445954993367195
0.04201797768473625,0.004977704491466284,-0.022282373160123825,0.019344141706824303,-0.0008958712569437921,0.03414907678961754
0.04344457387924194,0.004682957660406828,-0.021814048290252686,0.01861792989075184,-0.0008436051430180669,0.03391996771097183
0.043125759810209274,0.004465822130441666,-0.02195955440402031,0.019297843798995018,-0.0008066166774369776,0.03379131853580475
0.04102521017193794,0.004600677639245987,-0.0224499199539423,0.020229633897542953,-0.0008885172428563237,0.03420720249414444
0.04249746352434158,0.004774240776896477,-0.022166673094034195,0.019462065771222115,-0.000894681375939399,0.0342770516872406
0.04249746352434158,0.004774240776896477,-0.022166673094034195,0.019462065771222115,-0.000894681375939399,0.0342770516872406
0.04303814098238945,0.004807616584002972,-0.022423265501856804,0.01979229412972927,-0.000955452851485461,0.034435272216796875
0.04303814098238945,0.004807616584002972,-0.022423265501856804,0.01979229412972927,-0.000955452851485461,0.034435272216796875
