davideferrari95/blind_handover_controller/data/Test 164 - [2024-02-08 -- 11-05-33]/joint_states_data.csv
shoulder_pan_joint,shoulder_lift_joint,elbow_joint,wrist_1_joint,wrist_2_joint,wrist_3_joint
-0.0018991235410794616,-0.01423101406544447,7.919473864603788e-05,0.014467600733041763,0.0,-0.0024799504317343235
-0.0019001899054273963,-0.014223000034689903,7.693803490838036e-05,0.014275837689638138,0.0,-0.0026775533333420753
-0.0019001899054273963,-0.014223000034689903,7.693803490838036e-05,0.014275837689638138,0.0,-0.0026775533333420753
-0.001719036023132503,-0.014453944750130177,7.480630301870406e-05,0.013610301539301872,0.0,-0.0032237886916846037
-0.0014075790531933308,-0.013970578089356422,7.278963312273845e-05,0.014004445634782314,0.0,-0.003496194025501609
-0.001426039612852037,-0.014206006191670895,7.087879203027114e-05,0.014320253394544125,0.0,-0.0034298342652618885
-0.0014005978591740131,-0.01409485749900341,6.906565249664709e-05,0.01464204490184784,0.0,-0.003002215176820755
-0.001679099164903164,-0.014461111277341843,6.734310591127723e-05,0.014220282435417175,0.0,-0.0026582081336528063
-0.0016294658416882157,-0.014479526318609715,6.58981007291004e-05,0.014137079007923603,0.0,-0.0025914241559803486
-0.0019864982459694147,-0.01446975115686655,4.9742491682991385e-05,0.013950739987194538,0.0,-0.0024681866634637117
-0.0019864982459694147,-0.01446975115686655,4.9742491682991385e-05,0.013950739987194538,0.0,-0.0024681866634637117
-0.0018562653567641973,-0.013798922300338745,2.5079965780605562e-05,0.014276893809437752,0.0,-0.0025052716955542564
-0.0017446780111640692,-0.014604374766349792,2.3491560568800196e-05,0.013538377359509468,0.0,-0.0024010769557207823
-0.0016862346092239022,-0.014469505287706852,2.288177711307071e-05,0.013493683189153671,0.0,-0.0025023610796779394
-0.001457014586776495,-0.014553830027580261,4.432155765243806e-05,0.013079809956252575,0.0,-0.0023893406614661217
-0.0015231204451993108,-0.013953359797596931,4.35447072959505e-05,0.013278370723128319,0.0,-0.0022427772637456656
-0.002017346676439047,-0.01470248494297266,2.1552097678068094e-05,0.012817149050533772,0.0,-0.002291330136358738
-0.002002392429858446,-0.01406608335673809,2.077334647765383e-05,0.013163372874259949,0.0,-0.0025271836202591658
-0.0020866647828370333,-0.014618922024965286,2.0300980395404622e-05,0.013446921482682228,0.0,-0.002615030389279127
-0.0020290622487664223,-0.014295950531959534,1.9853101548505947e-05,0.014282486401498318,0.0,-0.0028934557922184467
-0.0020013328175991774,-0.014268766157329082,1.9424636775511317e-05,0.01400618627667427,0.0,-0.0026771756820380688
-0.002040987368673086,-0.014518643729388714,1.8620861737872474e-05,0.014047079719603062,0.0,-0.0026238029822707176
-0.001998825464397669,-0.014127780683338642,1.8243408703710884e-05,0.014670990407466888,0.0,-0.002582956338301301
-0.002076291712000966,-0.014730649068951607,1.7880956875160336e-05,0.014724216423928738,0.0,-0.0025189605075865984
-0.0020220906008034945,-0.014116106554865837,1.7532614947413094e-05,0.014652415178716183,0.0,-0.002672326983883977
-0.00213679950684309,-0.014375634491443634,1.719759893603623e-05,0.014144985005259514,0.0,-0.0027423317078500986
-0.002050488954409957,-0.013760454952716827,2.3072774979482347e-07,0.01469305157661438,0.0,-0.002501716138795018
-0.0020061307586729527,-0.014210150577127934,3.095507405959097e-09,0.014239820651710033,0.0,-0.002533760154619813
-0.0019543112721294165,-0.013478151522576809,4.153018207109227e-11,0.014154094271361828,0.0,-0.0026430622674524784
-0.002111484995111823,-0.013799121603369713,5.571803868981151e-13,0.013752269558608532,0.0,-0.002762389136478305
-0.00196638610213995,-0.01348125096410513,7.475285988085487e-15,0.01428292877972126,0.0,-0.0026857415214180946
-0.002224798547104001,-0.013804304413497448,1.0029049428247718e-16,0.014377346262335777,0.0,-0.0027696355246007442
-0.0024047554470598698,-0.013680461794137955,1.3455249682056804e-18,0.01464796345680952,0.0,-0.0028144584503024817
-0.002241595648229122,-0.014221049845218658,0.00014896162610966712,0.014237319119274616,0.0,-0.002737268339842558
-0.0021708232816308737,-0.013430286198854446,4.7673664084868506e-05,0.014331381767988205,0.0,-0.002808132441714406
-0.002069129142910242,-0.013755664229393005,6.396030585165136e-07,0.014067470096051693,0.0,-0.0027412944473326206
-0.0022384074982255697,-0.013521538116037846,8.581091393011775e-09,0.01402448769658804,0.0,-0.002738510025665164
-0.002206074772402644,-0.013666585087776184,1.1512629044529987e-10,0.014296182431280613,0.0,-0.002571174642071128
-0.0021648406982421875,-0.013333660550415516,1.5445660158860952e-12,0.014548301696777344,0.0,-0.0024494421668350697
-0.0023069295566529036,-0.0134870745241642,2.072232393546345e-14,0.01449692714959383,0.0,-0.0021499244030565023
-0.002174296649172902,-0.013619020581245422,2.7801646267025667e-16,0.014524783007800579,0.0,-0.002090869937092066
-0.002174296649172902,-0.013619020581245422,2.7801646267025667e-16,0.014524783007800579,0.0,-0.002090869937092066
-0.0021695278119295835,-0.013303599320352077,3.7299455655909576e-18,0.014109923504292965,0.0,-0.002370099537074566
-0.0020698178559541702,-0.013679229654371738,5.004198106053746e-20,0.01415883470326662,0.0,-0.002534078434109688
-0.0022358265705406666,-0.01343633234500885,6.713770244314735e-22,0.014034915715456009,0.0,-0.002927556401118636
-0.002000609878450632,-0.013903310522437096,9.007380265464514e-24,0.01376514881849289,0.0,-0.0028596939519047737
-0.002095099538564682,-0.013541840948164463,1.2084550346319365e-25,0.01366160437464714,0.0,-0.002830246929079294
-0.002107173204421997,-0.013857798650860786,1.621296553212768e-27,0.013489657081663609,0.0,-0.002643676707521081
-0.0023033572360873222,-0.013079638592898846,2.1751764250892636e-29,0.013554935343563557,0.0,-0.002705916063860059
-0.0021993517875671387,-0.0134868323802948,3.915241074802871e-33,0.012866362929344177,0.0,-0.0026788576506078243
-0.002377250697463751,-0.013605430722236633,5.252795229807762e-35,0.012686247937381268,0.0,-0.002740563126280904
-0.0021537484135478735,-0.013554360717535019,7.047295890827681e-37,0.013363485224545002,0.0,-0.0024332411121577024
-0.00219396292231977,-0.013622015714645386,9.454846603686263e-39,0.01324545033276081,0.0,-0.002242020796984434
-0.0020305525977164507,-0.013465756550431252,1.268483395876111e-40,0.01339887548238039,0.0,-0.0021731448359787464
-0.002193654887378216,-0.013463144190609455,1.701176335690328e-42,0.013758832588791847,0.0,-0.0021776845678687096
-0.002242244314402342,-0.013419108465313911,2.2420775429197073e-44,0.013162183575332165,0.0,-0.0025699317920953035
-0.002147939056158066,-0.013369551859796047,0.0,0.012714367359876633,0.0,-0.003213990479707718
-0.002270265482366085,-0.013362341560423374,-0.0,0.01268803607672453,0.0,-0.0032361403573304415
-0.002180642681196332,-0.013209289871156216,-0.0,0.012688512913882732,0.0,-0.0031284037977457047
-0.002326353918761015,-0.013569832779467106,-0.0,0.012579974718391895,0.0,-0.0029770242981612682
-0.0023018368519842625,-0.013003209605813026,-0.0,0.013705859892070293,0.0,-0.0029133381322026253
-0.0022430759854614735,-0.013225141912698746,-0.0,0.013611581176519394,0.0,-0.0028482167981565
-0.00208250992000103,-0.012892726808786392,-0.0,0.013505104929208755,0.0,-0.0024508079513907433
-0.002045217202976346,-0.013478371314704418,-0.0,0.01288230624049902,0.0,-0.0021876052487641573
-0.0021342451218515635,-0.013170810416340828,-0.0,0.013008356094360352,0.0,-0.0020002261735498905
-0.002147751161828637,-0.013299526646733284,-0.0,0.013076752424240112,0.0,-0.0020367915276437998
-0.002313886769115925,-0.013021077029407024,-0.0,0.012911269441246986,-1.2329653600318125e-06,-0.002239546272903681
-0.002258237451314926,-0.013233652338385582,-0.0,0.012894128449261189,-8.050381694602038e-08,-0.0024213700089603662
-0.002258237451314926,-0.013233652338385582,-0.0,0.012894128449261189,-8.050381694602038e-08,-0.0024213700089603662
-0.002138742944225669,-0.013269679620862007,-0.0,0.012847508303821087,-5.256323820646003e-09,-0.0029501880053430796
-0.0021568513475358486,-0.012866845354437828,-0.0,0.012899298220872879,-3.4320038477808623e-10,-0.0032618411350995302
-0.002061681356281042,-0.01325947791337967,-0.0,0.012517726048827171,-2.2408533362217042e-11,-0.0029725898057222366
-0.001992622157558799,-0.013090654276311398,-0.0,0.012884850613772869,-1.4631170624015977e-12,-0.002757698530331254
-0.0019554703030735254,-0.01332093495875597,-0.0,0.012621128931641579,-9.55310862967712e-14,-0.002695364411920309
-0.002136670285835862,-0.013293779455125332,-0.0,0.012767708860337734,-6.237497260504991e-15,-0.0025380419101566076
-0.002145141363143921,-0.013446195051074028,-0.0,0.012818869203329086,-4.072639760121491e-16,-0.002545059658586979
-0.002131287707015872,-0.012798753567039967,-0.0,0.012896986678242683,-2.659142974566261e-17,-0.002385469852015376
-0.001977029489353299,-0.013201555237174034,-0.0,0.013254573568701744,-1.7362301854625724e-18,-0.0019752581138163805
-0.0017580378334969282,-0.01303946878761053,-0.0,0.01288342010229826,-7.401822147451898e-21,-0.002164136618375778
-0.0018986092181876302,-0.012801775708794594,-0.0,0.0120670972391963,-4.832860789003688e-22,-0.003233410883694887
-0.0017191534861922264,-0.012824621982872486,-0.0001983351685339585,0.012743297964334488,-3.1555127250993446e-23,-0.0033492902293801308
-0.001704646274447441,-0.01264056283980608,-0.00019523555238265544,0.01214696653187275,-2.06032442972044e-24,-0.003101670416072011
-0.0017269590171054006,-0.01238948293030262,-0.0001871880958788097,0.012397687882184982,-1.3452446249329079e-25,-0.0026882532984018326
-0.0015750357415527105,-0.012948708608746529,-0.00017971305351238698,0.012314241379499435,-8.783485467521847e-27,-0.002373793628066778
-0.0016074811574071646,-0.012820154428482056,-0.0001954945910256356,0.011923183687031269,-5.734988447560132e-28,-0.002214229665696621
-0.0015321363462135196,-0.012891201302409172,-0.00019954460731241852,0.012588937766849995,-3.744537442623493e-29,-0.002305703703314066
-0.00160353840328753,-0.012752017006278038,-0.0001925795804709196,0.011925442144274712,-2.444915402252679e-30,-0.002648505149409175
-0.001649098820053041,-0.012695512734353542,-0.00018594968423712999,0.012389246374368668,-1.5963548300056649e-31,-0.0025953827425837517
-0.0015070628141984344,-0.012771019712090492,-0.0001797592849470675,0.012659451924264431,-1.0423055511495436e-32,-0.0025086395908147097
-0.0015210435958579183,-0.012442266568541527,-0.00020256085554137826,0.012070192955434322,-6.80551076876121e-34,-0.002195146167650819
-0.0014392798766493797,-0.01270403154194355,-0.0001966229174286127,0.011976631358265877,-4.443511852085068e-35,-0.0022385690826922655
-0.001451672986149788,-0.012081384658813477,-0.00019067662651650608,0.011676672846078873,-2.901295872582011e-36,-0.002463981742039323
-0.0013982322998344898,-0.012658460065722466,-0.00020244826737325639,0.012079661712050438,-1.8943389390765066e-37,-0.0028359428979456425
-0.0015446578618139029,-0.01218411698937416,-0.00020535623480100185,0.011439517140388489,-1.2368680005732465e-38,-0.003265842329710722
-0.0016364544862881303,-0.012555585242807865,-0.00020039286755491048,0.01182339247316122,-8.075865218704283e-40,-0.00307085202075541
-0.0016364544862881303,-0.012555585242807865,-0.00020039286755491048,0.01182339247316122,-8.075865218704283e-40,-0.00307085202075541
-0.0015318301739171147,-0.01259158831089735,-0.00028384034521877766,0.012191826477646828,-5.272945991407854e-41,-0.0028272676281630993
-0.0015868766931816936,-0.01248481497168541,-0.0002682143240235746,0.011976858600974083,-3.4429903268460755e-42,-0.002704113721847534
-0.0014996062964200974,-0.013177973218262196,-0.00025314177037216723,0.0119122713804245,-2.2420775429197073e-43,-0.0027047707699239254
-0.0013842839980497956,-0.01291564293205738,-0.0002869105082936585,0.011700502596795559,-1.401298464324817e-44,-0.0027527175843715668
-0.0013716570101678371,-0.012730643153190613,-0.00027303711976855993,0.01210596039891243,-1.401298464324817e-45,-0.0026988463941961527
-0.0013194866478443146,-0.012003324925899506,-0.00030144816264510155,0.011932570487260818,-0.0,-0.0024796866346150637
-0.0012592108687385917,-0.012268738821148872,-0.00028927181847393513,0.011920140124857426,-0.0,-0.002516739536076784
-0.0013204532442614436,-0.012295827269554138,-0.0002765928511507809,0.012175295501947403,-0.0,-0.0026442566886544228
-0.0012828322360292077,-0.0117002809420228,-0.00030127030913718045,0.011685906909406185,9.109448728850111e-05,-0.002715327311307192
-0.0009238821221515536,-0.0125435134395957,-0.00036210910184308887,0.011495859362185001,0.00012645414972212166,-0.0028253637719899416
-0.000805617484729737,-0.012508062645792961,-0.0003733028133865446,0.011721117421984673,0.00013408383529167622,-0.002554232021793723
-0.0007142187096178532,-0.012011118233203888,-0.0003902902244590223,0.011950056068599224,0.00014777728938497603,-0.0024575202260166407
-0.0006414524395950139,-0.011951993219554424,-0.00038442108780145645,0.011149047873914242,0.00014947567251510918,-0.0026554639916867018
-0.0006640829378738999,-0.012129262089729309,-0.0003982780035585165,0.011200768873095512,0.000161847157869488,-0.0028854887932538986
-0.0006091894465498626,-0.011628483422100544,-0.00039259204640984535,0.01084353681653738,0.000163124714163132,-0.002928022062405944
-0.00046686799032613635,-0.012428410351276398,-0.0003698027867358178,0.01062982901930809,0.0004364855994936079,-0.0027472872752696276
-0.0004219909606035799,-0.011836466379463673,-0.00039325410034507513,0.010951034724712372,0.0005479653482325375,-0.0027153275441378355
-0.00043609560816548765,-0.012131346389651299,-0.00037814732058905065,0.01086284127086401,0.0005644871853291988,-0.0028355068061500788
-0.0004260169225744903,-0.012009006924927235,-0.00046953599667176604,0.010952312499284744,0.0005546126049011946,-0.003110085381194949
-0.00039516057586297393,-0.011700088158249855,-0.0004386561340652406,0.010949983261525631,0.0005657999427057803,-0.003117868211120367
-0.0003682130773086101,-0.01208240445703268,-0.00039986244519241154,0.010790274478495121,0.0006715304334647954,-0.003031583735719323
-0.0003997757157776505,-0.01144115999341011,-0.00043758226092904806,0.010863791219890118,0.0007611803594045341,-0.0027833289932459593
-0.0003779881517402828,-0.011819667182862759,-0.00045170975499786437,0.010964336805045605,0.0007837513112463057,-0.002780602779239416
-0.00040148996049538255,-0.011684236116707325,-0.0004416429437696934,0.010840014554560184,0.0007979633519425988,-0.002728258026763797
-0.0003856453113257885,-0.011691520921885967,-0.00041297735879197717,0.011422351002693176,0.0007628671592101455,-0.0031075789593160152
-0.00036610965617001057,-0.012361252680420876,-0.00043632008600980043,0.010416396893560886,0.000852814526297152,-0.0032681350130587816
-0.0003748881281353533,-0.012033578008413315,-0.0004197297093924135,0.010693957097828388,0.0008484162972308695,-0.003046802943572402
-0.0003495559503789991,-0.011825059540569782,-0.0004768387007061392,0.01046705711632967,0.0007625504513271153,-0.0029294912237674
-0.0003244007530156523,-0.011515328660607338,-0.0005175746628083289,0.010225480422377586,0.0007657473906874657,-0.002772933803498745
-0.00036058726254850626,-0.011411287821829319,-0.0004733555833809078,0.01026870310306549,0.0006943171028979123,-0.0029479253571480513
-0.00036058726254850626,-0.011411287821829319,-0.0004733555833809078,0.01026870310306549,0.0006943171028979123,-0.0029479253571480513
-0.0003401859139557928,-0.011680575087666512,-0.0005046992446295917,0.01037709042429924,0.0007090353174135089,-0.0029558087699115276
-0.0003200512728653848,-0.011968952603638172,-0.0005136589170433581,0.01015128567814827,0.0006740479730069637,-0.003258554032072425
-0.00030214060097932816,-0.011710512451827526,-0.0004993961774744093,0.010961813852190971,0.0006553377024829388,-0.0031589290592819452
-0.0002861292741727084,-0.011397376656532288,-0.0006169896805658937,0.010388296097517014,0.0006303134141489863,-0.003014496760442853
-0.00027173003763891757,-0.011383526027202606,-0.0005604818579740822,0.009560395032167435,0.0006487220525741577,-0.0031533073633909225
-0.0002587104681879282,-0.012110362760722637,-0.000586101203225553,0.009971502237021923,0.0006609283154830337,-0.003247970947995782
-0.00024688136181794107,-0.01115556713193655,-0.0005968806799501181,0.009457354433834553,0.0006282938993535936,-0.003096268977969885
-0.00025943602668121457,-0.01138447504490614,-0.000597579637542367,0.00941386166960001,0.0008000541129149497,-0.002775474451482296
-0.00025322596775367856,-0.011428184807300568,-0.0005526935565285385,0.009262995794415474,0.0007604769198223948,-0.002925402484834194
-0.00024349555314984173,-0.01163758710026741,-0.0005980547866784036,0.008560950867831707,0.0007529157446697354,-0.002992530819028616
-0.000234435050515458,-0.011442295275628567,-0.0006334281642921269,0.009080820716917515,0.0007015826413407922,-0.0034121470525860786
-0.00022602378157898784,-0.01141866110265255,-0.0006540315225720406,0.009210657328367233,0.0007491495343856514,-0.0032724475022405386
-0.0002181952731916681,-0.01092598494142294,-0.0006019157590344548,0.009180211462080479,0.0007629109895788133,-0.0034778392873704433
-0.0002108910121023655,-0.010819078423082829,-0.0006185261299833655,0.008621403947472572,0.0007365236524492502,-0.003187695052474737
-0.0002040597319137305,-0.011932703666388988,-0.0005775074823759496,0.008538566529750824,0.0007035894668661058,-0.0031860899180173874
-0.00019765763136092573,-0.011420967988669872,-0.0006685975240543485,0.008778487332165241,0.0007138981018215418,-0.0033116873819381
-0.0001916447508847341,-0.011336195282638073,-0.0007000621408224106,0.008376887068152428,0.0007425675285048783,-0.0034292954951524734
-0.00018598686438053846,-0.01114118192344904,-0.0006236933404579759,0.008215764537453651,0.000780938018579036,-0.003451460273936391
-0.00018065380572807044,-0.010857907123863697,-0.0006509310333058238,0.008640407584607601,0.0008609156357124448,-0.0036177958827465773
-0.00017565717280376703,-0.011022903956472874,-0.0006652501178905368,0.00747007317841053,0.0008279124740511179,-0.003360715927556157
-7.171455945353955e-05,-0.01077563688158989,-0.000756963505409658,0.006947045214474201,0.0011819348437711596,-0.003138876985758543
-6.771285552531481e-05,-0.010681557469069958,-0.0007925427635200322,0.007565771229565144,0.0011738657485693693,-0.0031127973925322294
-6.524104537675157e-05,-0.010925260372459888,-0.000770819722674787,0.008221791125833988,0.001142737572081387,-0.00332076707854867
-6.29588175797835e-05,-0.01121995784342289,-0.0007184493006207049,0.008415376767516136,0.001120842876844108,-0.00335687049664557
-6.0831054724985734e-05,-0.010436087846755981,-0.0007335460395552218,0.008018424734473228,0.0010886135278269649,-0.0032196578104048967
-5.8842371799983084e-05,-0.010702199302613735,-0.0009340422111563385,0.00842723436653614,0.0010463882936164737,-0.003382957773283124
-5.697962478734553e-05,-0.009987566620111465,-0.0009685039985924959,0.008118931204080582,0.001024338766001165,-0.003689486300572753
-5.697962478734553e-05,-0.009987566620111465,-0.0009685039985924959,0.008118931204080582,0.001024338766001165,-0.003689486300572753
-5.523126310436055e-05,-0.010481126606464386,-0.000969595042988658,0.008577669970691204,0.0009437739499844611,-0.0034529154654592276
-5.358694397727959e-05,-0.010805387049913406,-0.0010755498660728335,0.0085283312946558,0.0010116328485310078,-0.00349571299739182
-5.203779801377095e-05,-0.010543336160480976,-0.0011232402175664902,0.008703707717359066,0.0010001088958233595,-0.003298299154266715
-5.057558882981539e-05,-0.01071414165198803,-0.0010852606501430273,0.008765365928411484,0.0009340947144664824,-0.0032521001994609833
-4.919335697195493e-05,-0.010367761366069317,-0.0010684900917112827,0.008647107519209385,0.001073009567335248,-0.003248789580538869
-4.788471051142551e-05,-0.010235114023089409,-0.0010597881628200412,0.009315939620137215,0.0009746449068188667,-0.003315106499940157
-4.664381413022056e-05,-0.010750562883913517,-0.0010269623016938567,0.00858263298869133,0.0009583729552105069,-0.0031853429973125458
-4.546561831375584e-05,-0.010300879366695881,-0.0010063117370009422,0.008508196100592613,0.0009419302805326879,-0.003452048171311617
-4.327932037995197e-05,-0.010364227928221226,-0.000883435015566647,0.00784060638397932,0.0008895687060430646,-0.0034412590321153402
-4.226311284583062e-05,-0.010258923284709454,-0.0007869901601225138,0.008108994923532009,0.0008914047502912581,-0.003157674567773938
-4.129352601012215e-05,-0.009798056446015835,-0.0007094090105965734,0.008237913250923157,0.0008925946312956512,-0.003290060441941023
-4.036748214275576e-05,-0.010084155946969986,-0.0006457534618675709,0.008704021573066711,0.0009370772168040276,-0.0035939794033765793
-3.948205630877055e-05,-0.00949598103761673,-0.0005365047254599631,0.008010015822947025,0.0010020665358752012,-0.0037462718319147825
-3.863461097353138e-05,-0.00981223490089178,-0.0005692359409295022,0.007731355726718903,0.0010096512269228697,-0.003524962579831481
-1.96688633877784e-05,-0.009828024543821812,-0.0005181971937417984,0.007589238695800304,0.0009957324946299195,-0.003488412592560053
-1.8532371541368775e-05,-0.00940722692757845,-0.0005483337445184588,0.007099015172570944,0.0010293660452589393,-0.003772939555346966
-1.8148855815525167e-05,-0.00947059690952301,-0.0005544687155634165,0.007135912775993347,0.0010460159974172711,-0.004171051550656557
-1.7789971025194973e-05,-0.009558853693306446,-0.0005361463408917189,0.007361290510743856,0.0010142069077119231,-0.004264316521584988
-1.744513247103896e-05,-0.009127619676291943,-0.0006574491271749139,0.0072036609053611755,0.000980858807452023,-0.004394956864416599
-1.7113425201387145e-05,-0.008678998798131943,-0.0006551709375344217,0.007177752908319235,0.0008887015865184367,-0.00411603320389986
-1.679409615462646e-05,-0.00894338171929121,-0.0006160145858302712,0.0074025532230734825,0.0008190234657377005,-0.003944298252463341
-1.648647230467759e-05,-0.008888974785804749,-0.0006441832520067692,0.006662563420832157,0.0008016320061869919,-0.003842552425339818
-1.618988608242944e-05,-0.008134525269269943,-0.0006656245677731931,0.006378557533025742,0.0007827597437426448,-0.004347257316112518
-5.436843366624089e-06,-0.008539996109902859,-0.0007506530964747071,0.0063631972298026085,0.0007946363766677678,-0.004213003907352686
-7.29421856249246e-08,-0.008498458191752434,-0.0007459121407009661,0.006283704657107592,0.0007631996995769441,-0.004405056592077017
-9.78612524349387e-10,-0.008487911894917488,-0.0007653907523490489,0.006149088032543659,0.0009346018778160214,-0.004120872355997562
-9.78612524349387e-10,-0.008487911894917488,-0.0007653907523490489,0.006149088032543659,0.0009346018778160214,-0.004120872355997562
-1.3129337027295573e-11,-0.007992131635546684,-0.0007807372603565454,0.005694551859050989,0.0009362790733575821,-0.0038858121261000633
-1.7614681685918648e-13,-0.008164843544363976,-0.0007378494483418763,0.005792725365608931,0.0009318618103861809,-0.00385842053219676
-2.363234204817233e-15,-0.008039991371333599,-0.0008319329936057329,0.006223913282155991,0.0009294795454479754,-0.004082488361746073
-3.17058031006555e-17,-0.007379370741546154,-0.0008392790332436562,0.0061355228535830975,0.001180719118565321,-0.004012001678347588
-4.253738042950614e-19,-0.00758281908929348,-0.0008098261314444244,0.005947773810476065,0.001149920397438109,-0.0038821573834866285
-5.706931899608228e-21,-0.007509599905461073,-0.0008201485616154969,0.006354137323796749,0.0010516062611714005,-0.004179272335022688
-7.65657666099203e-23,-0.007289229426532984,-0.0007686884491704404,0.006321168038994074,0.0010200687684118748,-0.004110236186534166
-1.0272275536851846e-24,-0.00814872607588768,-0.0007537793135270476,0.006575284991413355,0.0009280091035179794,-0.003975197672843933
-1.3781567955302227e-26,-0.008526401594281197,-0.0007705098250880837,0.006398377940058708,0.0007820408209227026,-0.004402508027851582
-1.848973274557546e-28,-0.008105520159006119,-0.0007776445127092302,0.006220399867743254,0.0007898926851339638,-0.004195407032966614
-2.4806335033990248e-30,-0.007244860753417015,-0.0007992172613739967,0.005782610271126032,0.0008033804479055107,-0.004317230079323053
-3.3280863485445416e-32,-0.007061784155666828,-0.0008880399400368333,0.0063190883956849575,0.0008143125451169908,-0.004192208405584097
-5.990437665231125e-36,-0.007876264862716198,-0.0007812080439180136,0.0058348155580461025,0.0008976591634564102,-0.004219522699713707
9.73795831669122e-05,-0.007468146272003651,-0.0007917993352748454,0.005391224753111601,0.0008988567860797048,-0.004191009793430567
0.0003104176721535623,-0.007208714261651039,-0.0008038731175474823,0.004973325412720442,0.0008912368211895227,-0.004396616015583277
0.00029315150459297,-0.006940565072000027,-0.0008120359270833433,0.004747034981846809,0.0008852425962686539,-0.004557184875011444
0.0002752570144366473,-0.007140536326915026,-0.0008327106479555368,0.005068039055913687,0.0009275785414502025,-0.004379275720566511
0.00030912860529497266,-0.006784975994378328,-0.0008320963243022561,0.004924663342535496,0.0008916767546907067,-0.004478146322071552
0.0002942716237157583,-0.006656481418758631,-0.0008400473743677139,0.004761158023029566,0.0009206273243762553,-0.0046245944686234
0.000324944470776245,-0.006631743162870407,-0.0009098449954763055,0.0047494517639279366,0.0009546232759021223,-0.00466203922405839
0.00035200902493670583,-0.00659620575606823,-0.0009722667746245861,0.004405462183058262,0.0010286755859851837,-0.004575117491185665
0.0004773660621140152,-0.006784288678318262,-0.0009659443167038262,0.004280726891011,0.0010131032904610038,-0.004432838875800371
0.0005332250730134547,-0.006504318676888943,-0.0010093131568282843,0.0050317770801484585,0.001008791383355856,-0.004221152979880571
0.0005332250730134547,-0.006504318676888943,-0.0010093131568282843,0.0050317770801484585,0.001008791383355856,-0.004221152979880571
0.0004863749200012535,-0.006487873382866383,-0.0010094993049278855,0.004909597337245941,0.0010100107174366713,-0.004381783306598663
0.0005115623353049159,-0.006755170412361622,-0.0009923074394464493,0.004661658778786659,0.0009936318965628743,-0.004419713746756315
0.00048069425974972546,-0.006622553337365389,-0.0009796065278351307,0.004340531304478645,0.0009806342422962189,-0.004216187633574009
0.000507867953274399,-0.006431866437196732,-0.0009708743309602141,0.004326225724071264,0.0009576153242960572,-0.003988745156675577
0.0005621127202175558,-0.006289695855230093,-0.00110253703314811,0.00411585159599781,0.0009609507978893816,-0.00423884904012084
0.0006326210568659008,-0.006570517551153898,-0.0010848806705325842,0.00427432032302022,0.000961971702054143,-0.004343243315815926
0.0005772049771621823,-0.0065506803803145885,-0.0012163042556494474,0.0044423658400774,0.0009557775920256972,-0.004059943836182356
0.0005772049771621823,-0.0065506803803145885,-0.0012163042556494474,0.0044423658400774,0.0009557775920256972,-0.004059943836182356
0.000607229012530297,-0.00603792117908597,-0.001153460587374866,0.0044170222245156765,0.0011324967490509152,-0.0043693059124052525
0.0006308069569058716,-0.006499907933175564,-0.0010954096214845777,0.004049884621053934,0.0011012830073013902,-0.0042010024189949036
0.0008236159337684512,-0.006278450135141611,-0.0010767864296212792,0.00420933635905385,0.001069981255568564,-0.00435780081897974
0.0008618733263574541,-0.007007438223809004,-0.0009606343228369951,0.004171396140009165,0.000992647372186184,-0.004859989043325186
0.000867471273522824,-0.006072147749364376,-0.0009490580414421856,0.004079886712133884,0.000936205149628222,-0.005073441192507744
0.000862646906170994,-0.0058165970258414745,-0.0009415887179784477,0.004321324173361063,0.0009270230075344443,-0.0047357892617583275
0.0009084970224648714,-0.005827822722494602,-0.0009361081174574792,0.004058880265802145,0.0009226319380104542,-0.004451590124517679
0.0009570763795636594,-0.006339528597891331,-0.0011360161006450653,0.0033022710122168064,0.0010565703269094229,-0.004985746927559376
0.0009529960225336254,-0.005971183069050312,-0.001100013731047511,0.0034687716979533434,0.0010590329766273499,-0.0044660503044724464
0.0012594676809385419,-0.006099160294979811,-0.0011103566503152251,0.003679875051602721,0.001046594581566751,-0.004365241155028343
0.0013277598191052675,-0.005721310153603554,-0.0012516231508925557,0.003483847249299288,0.0012100373860448599,-0.004623620305210352
0.0014113602228462696,-0.005943262949585915,-0.0012337147491052747,0.0033330328296869993,0.0012222626246511936,-0.004708484280854464
0.001536988071165979,-0.005630857776850462,-0.0015372216003015637,0.0028092938009649515,0.001192698022350669,-0.0049075777642428875
0.0014731746632605791,-0.005667232442647219,-0.001403719768859446,0.002486311597749591,0.0013228353345766664,-0.004825979936867952
0.0016163428081199527,-0.005678653717041016,-0.0013474839506670833,0.0021368125453591347,0.0013092972803860903,-0.004437070805579424
0.0016104546375572681,-0.0058242157101631165,-0.0012188645778223872,0.0021669967100024223,0.0012410625349730253,-0.004713478498160839
0.0017710006795823574,-0.0061256131157279015,-0.0013307890621945262,0.0019407824147492647,0.0011933703208342195,-0.005153195466846228
0.0018022921867668629,-0.005569095257669687,-0.0012922658352181315,0.0018165978835895658,0.0013027067761868238,-0.005918823182582855
0.002125448314473033,-0.005810375791043043,-0.0015329946763813496,0.0016617357032373548,0.0013021195773035288,-0.005614497233182192
0.0020476013887673616,-0.005319650284945965,-0.001394931343384087,0.001495972741395235,0.0016345396870747209,-0.005725052207708359
0.001979370601475239,-0.005866513587534428,-0.0013173366896808147,0.0015409314073622227,0.0015643088845536113,-0.005166223272681236
0.0018781920662149787,-0.005558839067816734,-0.0013238064711913466,0.001514274044893682,0.0015745720593258739,-0.004857370629906654
0.0019517233595252037,-0.00585488835349679,-0.0013772491365671158,0.0014721722109243274,0.0015396259259432554,-0.005424450151622295
0.001928146812133491,-0.005669663660228252,-0.0015113300178200006,0.0015093315159901977,0.0015691958833485842,-0.005336414556950331
0.0020046087447553873,-0.005532149225473404,-0.0015452282968908548,0.0015157588059082627,0.0014788443222641945,-0.005696130450814962
0.0020046087447553873,-0.005532149225473404,-0.0015452282968908548,0.0015157588059082627,0.0014788443222641945,-0.005696130450814962
0.0019574875477701426,-0.0054839001968503,-0.0014730426482856274,0.0014923751587048173,0.0013547654962167144,-0.005344156175851822
0.0019008158706128597,-0.005718019790947437,-0.0014709861716255546,0.0015762397088110447,0.0012930729426443577,-0.005232154857367277
0.0018839063122868538,-0.005700702778995037,-0.001412105979397893,0.001740147010423243,0.0012797940289601684,-0.005600743927061558
0.0019087546970695257,-0.00623331917449832,-0.001333890249952674,0.0016001805197447538,0.0013190123718231916,-0.005539833102375269
0.0019973628222942352,-0.005590638145804405,-0.0014119837433099747,0.0015322592807933688,0.0016350586665794253,-0.00551781989634037
0.002771868370473385,-0.005964852869510651,-0.0014495677314698696,0.0014506368897855282,0.0016430576797574759,-0.005240851081907749
0.002998530864715576,-0.00564584182575345,-0.0016809593653306365,0.0013916132738813758,0.0016501378268003464,-0.00525119761005044
0.0030532137025147676,-0.005863247439265251,-0.0015728514408692718,0.0013839913299307227,0.0016773222014307976,-0.005007664207369089
0.002751856343820691,-0.005688952282071114,-0.0015021429862827063,0.0012412391370162368,0.001622109324671328,-0.005282693542540073
0.0028347738552838564,-0.005413254257291555,-0.0015186801319941878,0.0011412674793973565,0.0014997109537944198,-0.005475524812936783
0.0034292174968868494,-0.005677645560353994,-0.0017611003713682294,0.0010724575258791447,0.0015017467085272074,-0.0054143802262842655
0.0034712718334048986,-0.00524490000680089,-0.001630129641853273,0.0009294112678617239,0.0015567848458886147,-0.005243838299065828
0.003442983143031597,-0.005232781637459993,-0.0015121609903872013,0.0007948822458274662,0.0015557562001049519,-0.0056493389420211315
0.0036627415101975203,-0.005310148932039738,-0.0015173188876360655,0.000747940328437835,0.0019619599916040897,-0.005587054416537285
0.004194059409201145,-0.005557440221309662,-0.0015793268103152514,0.000712232431396842,0.0018203933723270893,-0.006201136391609907
0.004255208186805248,-0.005304730962961912,-0.001789717236533761,0.00064269540598616,0.0017573668155819178,-0.0060140532441437244
0.004492402542382479,-0.005447873380035162,-0.0017491993494331837,0.0005833200411871076,0.0017325171502307057,-0.005985050927847624
0.00418111402541399,-0.005527371075004339,-0.001574927824549377,0.0005338512128219008,0.0017313287826254964,-0.006183438003063202
0.003974439110606909,-0.005347630009055138,-0.00159188243560493,0.000492110091727227,0.0017570758936926723,-0.006065081804990768
0.004162256605923176,-0.00583833921700716,-0.0015137922018766403,0.0004564312694128603,0.0019117844058200717,-0.00620561558753252
0.004772862419486046,-0.005171987693756819,-0.0015801031840965152,0.0004255766107235104,0.0019114423776045442,-0.005731626879423857
0.005201763939112425,-0.0060533941723406315,-0.0016342665767297149,0.0003986349911428988,0.0019397962605580688,-0.005704107694327831
0.004700766876339912,-0.006008754950016737,-0.0015419690171256661,0.00037489968235604465,0.0019196062348783016,-0.0060331872664391994
0.004525890573859215,-0.0049325162544846535,-0.0016057450557127595,0.00035383374779485166,0.0019096286268904805,-0.005585339851677418
0.004525890573859215,-0.0049325162544846535,-0.0016057450557127595,0.00035383374779485166,0.0019096286268904805,-0.005585339851677418
0.004443515557795763,-0.005222088657319546,-0.0016521969810128212,0.00033501218422316015,0.00181328016333282,-0.005767594091594219
0.004573823884129524,-0.005143208894878626,-0.0017520366236567497,0.0003180908097419888,0.0015973433619365096,-0.006032113917171955
0.004811746999621391,-0.005355664994567633,-0.001626150100491941,0.00030279895872808993,0.001565270242281258,-0.0061375149525702
0.005665145348757505,-0.0056157889775931835,-0.0016530154971405864,0.0002889089228119701,0.0015234649181365967,-0.006248706020414829
0.005344935692846775,-0.0055048479698598385,-0.0014942322159186006,0.0002762389776762575,0.0018256913172081113,-0.005877847317606211
0.004980979021638632,-0.005692694336175919,-0.0014344792580232024,0.00026463167159818113,0.0017708670347929,-0.006257535424083471
0.005084977485239506,-0.00610997574403882,-0.001475818338803947,0.0002539627021178603,0.0021370425820350647,-0.006441006436944008
0.005171285010874271,-0.005465378984808922,-0.0014466881984844804,0.00024412045604549348,0.0019394985865801573,-0.0051757944747805595
0.005781585816293955,-0.005160775501281023,-0.0017015018966048956,0.0002350124850636348,0.0017935436917468905,-0.005178071558475494
0.005405437666922808,-0.005528631620109081,-0.0014686627546325326,0.0002186941565014422,0.0015015531098470092,-0.006695167627185583
0.005290092900395393,-0.005781705025583506,-0.0015506797935813665,8.719765901332721e-05,0.0015347626758739352,-0.00653043482452631
0.0055193970911204815,-0.005412564612925053,-0.0017169011989608407,6.692173337796703e-05,0.0014462912222370505,-0.006108288653194904
0.005844831001013517,-0.0052888114005327225,-0.001837661606259644,6.344780558720231e-05,0.0016409957315772772,-0.0063758958131074905
0.006212135311216116,-0.005107282195240259,-0.0016766879707574844,6.121689511928707e-05,0.0016435154248028994,-0.006290647201240063
0.005686867516487837,-0.005845662206411362,-0.0016079931519925594,5.9198551753070205e-05,0.0020940888207405806,-0.006486321799457073
0.005710610654205084,-0.005665082950145006,-0.0016511424910277128,5.731311466661282e-05,0.002067773137241602,-0.006378913763910532
0.0060343979857862,-0.005124161951243877,-0.001766153029166162,2.9643246307387017e-05,0.0022502231877297163,-0.0056916214525699615
0.007263793610036373,-0.004715749062597752,-0.0017809217097237706,2.7063011657446623e-05,0.002143117832019925,-0.005919423419982195
0.006628722883760929,-0.004715802147984505,-0.0018525425111874938,1.7670213310339022e-06,0.0019377454882487655,-0.006343763787299395
0.006484034471213818,-0.0052204555831849575,-0.0018457102123647928,1.1537387223370388e-07,0.0017810220597311854,-0.006602646317332983
0.006792912259697914,-0.005507723893970251,-0.0021752757020294666,7.533088819400291e-09,0.0017214660765603185,-0.006552800070494413
0.006848938763141632,-0.005297565367072821,-0.0019110291032120585,4.918568885514674e-10,0.0016721542924642563,-0.006325309630483389
0.007049175910651684,-0.005211884621530771,-0.0015814817743375897,3.211474142172932e-11,0.0019390550442039967,-0.00655455281957984
0.006554386578500271,-0.004471220541745424,-0.0016149790026247501,2.0968630477791184e-12,0.002299838699400425,-0.0066737704910337925
0.006360248662531376,-0.004644892178475857,-0.00161891826428473,1.3691017720571241e-13,0.0022401975002139807,-0.0066862390376627445
0.00650287140160799,-0.005133494269102812,-0.001866789418272674,-0.0006820754497312009,0.0022121097426861525,-0.006609541364014149
0.00650287140160799,-0.005133494269102812,-0.001866789418272674,-0.0006820754497312009,0.0022121097426861525,-0.006609541364014149
0.007162746973335743,-0.005263499915599823,-0.002211903687566519,-0.0011882971739396453,0.0021121366880834103,-0.006716535892337561
0.00797651894390583,-0.004633581265807152,-0.0021336893551051617,-0.0012423602165654302,0.0021750135347247124,-0.006488142069429159
0.007170607335865498,-0.004552397411316633,-0.001778841600753367,-0.0016277615213766694,0.0023031753953546286,-0.006622488610446453
0.006546000484377146,-0.0045461650006473064,-0.0017673398833721876,-0.001685448456555605,0.002542859176173806,-0.006813590414822102
0.006901973392814398,-0.005003378726541996,-0.0016043457435443997,-0.0022352661471813917,0.0024347249418497086,-0.007032519672065973
0.00743083655834198,-0.004555016290396452,-0.0015687557170167565,-0.0034138960763812065,0.0021619077306240797,-0.0069887093268334866
0.007592157926410437,-0.0044103660620749,-0.0016022780910134315,-0.004066284280270338,0.0017560255946591496,-0.0066245622001588345
0.008112921379506588,-0.0041238837875425816,-0.0020222982857376337,-0.0044404733926057816,0.001708111958578229,-0.006662307307124138
0.007896321825683117,-0.004048644099384546,-0.0021549337543547153,-0.0050382716581225395,0.0020067747682332993,-0.00692565506324172
0.00780414929613471,-0.0037911750841885805,-0.0019199528032913804,-0.005284467712044716,0.002264268696308136,-0.006758950650691986
0.007674826309084892,-0.0038387884851545095,-0.0017411268781870604,-0.005695262923836708,0.002209787955507636,-0.007248229347169399
0.007709578610956669,-0.003956471104174852,-0.0017340504564344883,-0.006465080194175243,0.0019919390324503183,-0.006726061925292015
0.008148320019245148,-0.003971834201365709,-0.0017285014037042856,-0.00672911899164319,0.0019501574570313096,-0.006856871303170919
0.007736944127827883,-0.00388169614598155,-0.0018148807575926185,-0.00729473726823926,0.0021627710666507483,-0.006991703994572163
0.00786314532160759,-0.00379713112488389,-0.002277728170156479,-0.007692926563322544,0.0024709701538085938,-0.007316069211810827
0.008241605944931507,-0.0037590796127915382,-0.0020919861271977425,-0.008328326046466827,0.0024978918954730034,-0.007253675255924463
0.009021956473588943,-0.003294042544439435,-0.001970672747120261,-0.00872994028031826,0.0025498303584754467,-0.007089081220328808
0.00812520831823349,-0.003293295856565237,-0.0018421438289806247,-0.008392728865146637,0.002232179744169116,-0.006987954024225473
0.007695286069065332,-0.003293675370514393,-0.0019132810411974788,-0.008347689174115658,0.002102913800626993,-0.007355825509876013
0.007976637221872807,-0.0035299621522426605,-0.0023399151396006346,-0.008431077934801579,0.002230360172688961,-0.007148302625864744
0.00811165664345026,-0.003648939775303006,-0.0022942551877349615,-0.008245670236647129,0.0022665606811642647,-0.007178211584687233
0.008320001885294914,-0.003731547622010112,-0.002400623634457588,-0.008430534973740578,0.0027615074068307877,-0.007483368273824453
0.008520386181771755,-0.0033523309975862503,-0.0021504752803593874,-0.0087848249822855,0.0029905850533396006,-0.007965981028974056
0.008296060375869274,-0.0031265083234757185,-0.0022110759746283293,-0.00902868527919054,0.0026475321501493454,-0.00791830476373434
0.00821756012737751,-0.003469581715762615,-0.0024426369927823544,-0.008321241475641727,0.0025674125645309687,-0.007128879427909851
0.009093236178159714,-0.0031802160665392876,-0.0022689637262374163,-0.008025035262107849,0.002326078014448285,-0.00712731946259737
0.008245352655649185,-0.00327857187949121,-0.00215616961941123,-0.008214409463107586,0.0022479421459138393,-0.007362760603427887
0.008245352655649185,-0.00327857187949121,-0.00215616961941123,-0.008214409463107586,0.0022479421459138393,-0.007362760603427887
0.008150088600814342,-0.003272425150498748,-0.0020616089459508657,-0.008350498974323273,0.0023338389582931995,-0.008008474484086037
0.008263608440756798,-0.0031028762459754944,-0.002235364867374301,-0.008442353457212448,0.0023438953794538975,-0.007229318842291832
0.008721703663468361,-0.0030750357545912266,-0.00206381524913013,-0.00888407789170742,0.0025107129476964474,-0.007296652067452669
0.008631481789052486,-0.0032441087532788515,-0.0022124052047729492,-0.00919915921986103,0.002416142961010337,-0.007996585220098495
0.008747335523366928,-0.0030837643425911665,-0.0020498179364949465,-0.009050247259438038,0.0022455898579210043,-0.0077891419641673565
0.008589427918195724,-0.0031814519315958023,-0.002218513749539852,-0.009515147656202316,0.002003636909648776,-0.007485202047973871
0.00695904390886426,-0.003211839357391,-0.002289121737703681,-0.009690952487289906,0.0020237157586961985,-0.007113197818398476
0.005788089707493782,-0.0030506218317896128,-0.0022876833099871874,-0.008993471972644329,0.0025524720549583435,-0.007248004898428917
0.006562358699738979,-0.0031036892905831337,-0.002374135423451662,-0.009077457711100578,0.0028057030867785215,-0.007467952091246843
0.007266586180776358,-0.0032458417117595673,-0.002076918026432395,-0.009143820032477379,0.0025604001712054014,-0.007328766398131847
0.00735823018476367,-0.003064516931772232,-0.002348121488466859,-0.009105270728468895,0.0023704818449914455,-0.007448161020874977
0.0065900227054953575,-0.00293579138815403,-0.0023331046104431152,-0.00966805499047041,0.0022397988941520452,-0.007504966575652361
0.006591860670596361,-0.0028159748762845993,-0.0024492808151990175,-0.010171040892601013,0.0023122234269976616,-0.007406617049127817
0.007293043192476034,-0.00274036661721766,-0.002121580997481942,-0.010257515124976635,0.0022224083077162504,-0.007432818412780762
0.007167113479226828,-0.0029231093358248472,-0.002224558964371681,-0.009890589863061905,0.002336221979930997,-0.007411770988255739
0.00694152619689703,-0.0031808207277208567,-0.0025097134057432413,-0.009669921360909939,0.0023323416244238615,-0.007991213351488113
0.007231223862618208,-0.0030910365749150515,-0.00284177646972239,-0.010716884396970272,0.0021964237093925476,-0.007778225466609001
0.007037318777292967,-0.0029065373819321394,-0.0026804963126778603,-0.010975095443427563,0.002008892595767975,-0.007626678794622421
0.007296530995517969,-0.002538894070312381,-0.0022995290346443653,-0.009064140729606152,0.002019807929173112,-0.007648720405995846
0.007194062694907188,-0.002274158177897334,-0.002149068284779787,-0.011125290766358376,0.0023515489883720875,-0.007878548465669155
0.007327973376959562,-0.0022472080308943987,-0.002196935936808586,-0.011461510322988033,0.002817785134539008,-0.00769501319155097
0.007694831117987633,-0.0025804152246564627,-0.0025749115739017725,-0.010902421548962593,0.003101603826507926,-0.00781457033008337
0.00824884045869112,-0.002508291509002447,-0.002534060273319483,-0.011163032613694668,0.0032433660235255957,-0.008181131444871426
0.00788088422268629,-0.0024053032975643873,-0.0027004554867744446,-0.0105668930336833,0.003061464289203286,-0.008187010884284973
0.007467265240848064,-0.0023606151808053255,-0.0026152837090194225,-0.010262607596814632,0.0030168420635163784,-0.007790087256580591
0.008042910136282444,-0.0024466514587402344,-0.0024461993016302586,-0.010766229592263699,0.002676784759387374,-0.007939985953271389
0.008042910136282444,-0.0024466514587402344,-0.0024461993016302586,-0.010766229592263699,0.002676784759387374,-0.007939985953271389
0.007992575876414776,-0.0023335928563028574,-0.0025033263955265284,-0.010120944119989872,0.0025050772819668055,-0.00802423246204853
0.007795057725161314,-0.0021916679106652737,-0.0025524552911520004,-0.011060473509132862,0.002546612871810794,-0.008130897767841816
0.007795057725161314,-0.0021916679106652737,-0.0025524552911520004,-0.011060473509132862,0.002546612871810794,-0.008130897767841816
0.008228982798755169,-0.00212610000744462,-0.0026037220377475023,-0.011259815655648708,0.002671213820576668,-0.008329281583428383
0.00854632630944252,-0.002056704368442297,-0.0025615778286010027,-0.010678458958864212,0.002903817920014262,-0.008267715573310852
0.008011583238840103,-0.002040192950516939,-0.0024215851444751024,-0.01065377239137888,0.0031443440821021795,-0.008228769525885582
0.008928200230002403,-0.0019431579858064651,-0.0026009813882410526,-0.011294761672616005,0.0029707096982747316,-0.008289940655231476
0.00819309800863266,-0.0019491745624691248,-0.0022928991820663214,-0.01164652593433857,0.0025949147529900074,-0.007920335978269577
0.008264224044978619,-0.0017596323741599917,-0.0023782625794410706,-0.011156123131513596,0.002221584552899003,-0.008050070144236088
0.009034712798893452,-0.0017147136386483908,-0.0028068730607628822,-0.010836193338036537,0.0022840420715510845,-0.00808344129472971
0.008483817800879478,-0.0016733434749767184,-0.002655535703524947,-0.010618404485285282,0.00286425044760108,-0.008476180955767632
0.008615530095994473,-0.001549381180666387,-0.00257255882024765,-0.010691548697650433,0.003062798175960779,-0.008677855134010315
0.008889219723641872,-0.0014347898541018367,-0.002282604807987809,-0.010652617551386356,0.002733284840360284,-0.008339373394846916
0.009266957640647888,-0.0014428034191951156,-0.002366594271734357,-0.010500974021852016,0.0026618652045726776,-0.008548320271074772
0.008992688730359077,-0.0013910254929214716,-0.0026216215919703245,-0.011520621366798878,0.0025980330538004637,-0.008426466956734657
0.008671097457408905,-0.0013023357605561614,-0.002466023899614811,-0.011230739764869213,0.002745058387517929,-0.008261051960289478
0.009450513869524002,-0.001346461707726121,-0.0025229596067219973,-0.010496183298528194,0.0028313114307820797,-0.008199975825846195
0.009143128991127014,-0.0013022893108427525,-0.002281774766743183,-0.01158623956143856,0.0030745193362236023,-0.00823963526636362
0.008774549700319767,-0.0012329071760177612,-0.0022730908822268248,-0.01147499680519104,0.003285415470600128,-0.008166133426129818
0.008973855525255203,-0.0011509080650284886,-0.0027237292379140854,-0.011273587122559547,0.0032395697198808193,-0.008424464613199234
0.009997847490012646,-0.0010778458090499043,-0.0024960783775895834,-0.010982062667608261,0.0032290671952068806,-0.008618648163974285
0.00913725234568119,-0.0009451003861613572,-0.002285664901137352,-0.01120949350297451,0.0030993022955954075,-0.008647402748465538
0.009888900443911552,-0.0009329878375865519,-0.002147459192201495,-0.011312472634017467,0.0028559104539453983,-0.008140547201037407
0.00977370049804449,-0.0009192288853228092,-0.002159042516723275,-0.011039689183235168,0.0028797441627830267,-0.00820709578692913
0.00943480059504509,-0.000826304079964757,-0.002601594664156437,-0.011451393365859985,0.0029506892897188663,-0.008823956362903118
0.010480021126568317,-0.0007281735888682306,-0.0024031500797718763,-0.011685864999890327,0.0029891487210989,-0.00851546972990036
0.009927806444466114,-0.0006267132121138275,-0.0022933681029826403,-0.011478981003165245,0.0030117712449282408,-0.008498064242303371
0.009367447346448898,-0.0006464708130806684,-0.0023490756284445524,-0.012148085050284863,0.0032160377595573664,-0.00894743762910366
0.009875512681901455,-0.0005879282834939659,-0.0023290645331144333,-0.011443865485489368,0.0032574504148215055,-0.008956835605204105
0.009875512681901455,-0.0005879282834939659,-0.0023290645331144333,-0.011443865485489368,0.0032574504148215055,-0.008956835605204105
0.010204101912677288,-0.0006079362356103957,-0.002482374431565404,-0.011702957563102245,0.003021594835445285,-0.008832484483718872
0.009773451834917068,-0.0005632135435007513,-0.002290701027959585,-0.01238609291613102,0.003009435022249818,-0.009319446980953217
0.010127928107976913,-0.000517096952535212,-0.00215048692189157,-0.012477198615670204,0.003305162535980344,-0.009014660492539406
0.0108417309820652,-0.0004778659204021096,-0.002318390877917409,-0.012853466905653477,0.0030898333061486483,-0.008835231885313988
0.010044870898127556,-0.00044416572200134397,-0.002386895241215825,-0.012937571853399277,0.0032777951564639807,-0.00861718412488699
0.010478619486093521,-0.0004670781490858644,-0.002627898007631302,-0.01318680215626955,0.003382675116881728,-0.009086696431040764
0.010150705464184284,-0.0004447808605618775,-0.0026527235750108957,-0.01302221417427063,0.0031867865473031998,-0.009038117714226246
0.010324514470994473,-5.054363100498449e-06,-0.002215462736785412,-0.013463412411510944,0.00324341026134789,-0.009354404173791409
0.010562689043581486,-6.781073835782081e-08,-0.0025543447118252516,-0.014344390481710434,0.003044592682272196,-0.009086108766496181
0.011062662117183208,0.002643199870362878,-0.0031035016290843487,-0.013969884254038334,0.0031528763938695192,-0.009299450553953648
0.010543332435190678,0.0015658547636121511,-0.002852230565622449,-0.014418469741940498,0.0032729499507695436,-0.009459183551371098
0.010632628574967384,0.0007171762408688664,-0.0026315951254218817,-0.014328564517199993,0.003204494481906295,-0.00938578974455595
0.010905195958912373,-0.0003502802283037454,-0.0023143128491938114,-0.014997728168964386,0.0033359681256115437,-0.009613635949790478
0.010955142788589,-2.6289864763384685e-05,-0.0024030653294175863,-0.014530505053699017,0.0031857644207775593,-0.009433158673346043
0.010298023000359535,-3.5271204978926107e-07,-0.0025048591196537018,-0.01486378163099289,0.0029599869158118963,-0.009397296234965324
0.011076554656028748,0.0008373414166271687,-0.002455061301589012,-0.01475922204554081,0.0030434944201260805,-0.009184715338051319
0.011558894999325275,0.0019076329190284014,-0.0026259568985551596,-0.015108734369277954,0.003023231867700815,-0.009946836158633232
0.011171657592058182,0.0012355222133919597,-0.002489173784852028,-0.014697450213134289,0.0029188094194978476,-0.009863914921879768
0.012100392021238804,0.0007844172650948167,-0.002614375436678529,-0.015215729363262653,0.002913588657975197,-0.009804570116102695
0.01141700055450201,0.0006361110135912895,-0.002684379229322076,-0.015100748278200626,0.00297134299762547,-0.009663996286690235
0.011311788111925125,0.00030360236996784806,-0.002454554894939065,-0.015268582850694656,0.0030933439265936613,-0.009128106757998466
0.011420723982155323,0.0004333347314968705,-0.002277123276144266,-0.015038304030895233,0.00300796702504158,-0.009169652126729488
0.010774094611406326,0.0005113751976750791,-0.0025872017722576857,-0.015383729711174965,0.002928653033450246,-0.00901748426258564
0.01120556890964508,0.0010362345492467284,-0.002991670975461602,-0.015633907169103622,0.002894436474889517,-0.009731295518577099
0.011426378041505814,0.0010586027055978775,-0.002694164402782917,-0.015592084266245365,0.0032141152769327164,-0.009696276858448982
0.011426378041505814,0.0010586027055978775,-0.002694164402782917,-0.015592084266245365,0.0032141152769327164,-0.009696276858448982
0.011218616738915443,0.0009015267714858055,-0.0026880810037255287,-0.015547854825854301,0.0035359519533813,-0.009208964183926582
0.011775437742471695,0.0008853321196511388,-0.002657405799254775,-0.015749946236610413,0.0037044109776616096,-0.009416129440069199
0.01162465289235115,0.0007882674690335989,-0.0028583481907844543,-0.016599345952272415,0.0037231585010886192,-0.009374098852276802
0.01158709917217493,0.0007993040489964187,-0.002796787768602371,-0.016360512003302574,0.0036267987452447414,-0.009987346827983856
0.011546033434569836,0.0007929210551083088,-0.0029919331427663565,-0.0168934166431427,0.003528683679178357,-0.009803934022784233
0.01159962173551321,0.0009232803713530302,-0.0028675724752247334,-0.016741594299674034,0.0034460704773664474,-0.00914041604846716
0.012364240363240242,0.001502276980318129,-0.002903721993789077,-0.017156289890408516,0.003323117969557643,-0.009502029977738857
0.011571954004466534,0.001632511499337852,-0.0034870512317866087,-0.017268763855099678,0.0031168549321591854,-0.010320302098989487
0.011997416615486145,0.0012459342833608389,-0.0028591782320290804,-0.017251573503017426,0.002859855070710182,-0.009549989365041256
0.012100249528884888,0.0010247573954984546,-0.00264156237244606,-0.017359264194965363,0.0029270602390170097,-0.009686158038675785
0.012052391655743122,0.0009797743987292051,-0.0025187113787978888,-0.01738976500928402,0.003341039875522256,-0.009542711079120636
0.011738734319806099,0.0010692700743675232,-0.0029985967557877302,-0.017732035368680954,0.0037876409478485584,-0.010388595052063465
0.012275026179850101,0.0014161213766783476,-0.0033573382534086704,-0.017391901463270187,0.00395613256841898,-0.01021545473486185
0.012138217687606812,0.001580802258104086,-0.003094836138188839,-0.017416056245565414,0.0038928401190787554,-0.009726419113576412
0.012401298619806767,0.002385152969509363,-0.0026238365098834038,-0.017406808212399483,0.0034571546129882336,-0.009761608205735683
0.012058471329510212,0.0021776279900223017,-0.0026896593626588583,-0.01797530986368656,0.003437182167544961,-0.010601624846458435
0.01212279498577118,0.0020987039897590876,-0.003176879370585084,-0.018473103642463684,0.00374713446944952,-0.010209274478256702
0.012708448804914951,0.0019174087792634964,-0.003353418316692114,-0.018472328782081604,0.0034512432757765055,-0.010129385627806187
0.011856398545205593,0.0019039768958464265,-0.0028894743882119656,-0.018350321799516678,0.0035619710106402636,-0.010203431360423565
0.01228620670735836,0.0017916373908519745,-0.002661573700606823,-0.01850191131234169,0.0037116154562681913,-0.010037312284111977
0.012144065462052822,0.0022376335691660643,-0.0027241422794759274,-0.018604550510644913,0.003771774936467409,-0.01064246241003275
0.012532816268503666,0.002770244376733899,-0.003355907741934061,-0.01936078816652298,0.003332179971039295,-0.010227730497717857
0.012779215350747108,0.0029847591649740934,-0.00336043955758214,-0.01942075788974762,0.0033457702957093716,-0.01008093822747469
0.011897948570549488,0.0027515862602740526,-0.0035693019162863493,-0.01924179308116436,0.0033798939548432827,-0.010331304743885994
0.012437180615961552,0.0026171745266765356,-0.0033688449766486883,-0.019740760326385498,0.0035280603915452957,-0.010141391307115555
0.012437180615961552,0.0026171745266765356,-0.0033688449766486883,-0.019740760326385498,0.0035280603915452957,-0.010141391307115555
0.012158120982348919,0.0026849827263504267,-0.003415006212890148,-0.01970996893942356,0.003964943345636129,-0.01039385050535202
0.01216202788054943,0.0025711902417242527,-0.0036460403352975845,-0.020077884197235107,0.004130114335566759,-0.010142676532268524
0.012179192155599594,0.0029994237702339888,-0.0033435828518122435,-0.019953005015850067,0.004317853134125471,-0.009820749051868916
0.012109443545341492,0.0030531540978699923,-0.0030349427834153175,-0.019712921231985092,0.00401913421228528,-0.010133960284292698
0.012690732255578041,0.00335537432692945,-0.0028136956971138716,-0.02012057974934578,0.0037880337331444025,-0.010496328584849834
0.012491835281252861,0.003219383303076029,-0.0033168320078402758,-0.020409803837537766,0.003733429592102766,-0.010509667918086052
0.012345187366008759,0.0034835138358175755,-0.0041703470051288605,-0.02108827978372574,0.004106894601136446,-0.010786216706037521
0.01235168520361185,0.0037110529374331236,-0.003060735762119293,-0.019869502633810043,0.004065140150487423,-0.01142008788883686
0.01247288566082716,0.004080739337950945,-0.002877113875001669,-0.020644018426537514,0.003843371756374836,-0.010675527155399323
0.012512698769569397,0.004202823620289564,-0.003963098861277103,-0.021459616720676422,0.0037319152615964413,-0.010583577677607536
0.012640878558158875,0.004045115318149328,-0.004145034588873386,-0.02118932083249092,0.003734145313501358,-0.010190234519541264
0.012824800796806812,0.0043976460583508015,-0.0034285320434719324,-0.02074311301112175,0.003714547259733081,-0.010211246088147163
0.012677310965955257,0.004335335455834866,-0.0031215385533869267,-0.021018894389271736,0.0036880485713481903,-0.010181287303566933
0.012851235456764698,0.0042687454260885715,-0.0030674380250275135,-0.02161245606839657,0.004081144463270903,-0.010693937540054321
0.012463186867535114,0.004385851323604584,-0.0035801376216113567,-0.02200157754123211,0.004158643074333668,-0.010984442196786404
0.013091500848531723,0.0046300641261041164,-0.00382569944486022,-0.02240067720413208,0.0039959256537258625,-0.010908586904406548
0.013038670644164085,0.004997952375560999,-0.0037749994080513716,-0.021782563999295235,0.004218941554427147,-0.010940740816295147
0.012775241397321224,0.00602058507502079,-0.003443838097155094,-0.0214532483369112,0.004197533242404461,-0.011093607172369957
0.0127508994191885,0.005489656701683998,-0.0034299681428819895,-0.021051529794931412,0.004316685721278191,-0.010741042904555798
0.013085799291729927,0.005416125990450382,-0.0036479057744145393,-0.021416639909148216,0.0038131990004330873,-0.010878469794988632
0.012645306997001171,0.0056439358741045,-0.003738581435754895,-0.02207920327782631,0.003495591226965189,-0.010940645821392536
0.01301191933453083,0.006328903138637543,-0.003642369993031025,-0.022492971271276474,0.003558182390406728,-0.01114701759070158
0.013006285764276981,0.005867966916412115,-0.003604171797633171,-0.02189566381275654,0.004267953336238861,-0.011400692164897919
0.013154041953384876,0.005882652476429939,-0.0032972965855151415,-0.021824056282639503,0.004149650689214468,-0.01123465970158577
0.013131537474691868,0.005981776397675276,-0.004005749244242907,-0.02259001135826111,0.004238785710185766,-0.011385397985577583
0.01372621115297079,0.006297093350440264,-0.0043044197373092175,-0.02329489216208458,0.004255862906575203,-0.011742515489459038
0.013341024518013,0.0069096689112484455,-0.004059787839651108,-0.02217390015721321,0.004063773900270462,-0.011571693234145641
0.013617250137031078,0.006342671345919371,-0.0033184965141117573,-0.021206364035606384,0.004336865618824959,-0.011575552634894848
0.01328316144645214,0.006085857283324003,-0.003433086210861802,-0.021806344389915466,0.004482019226998091,-0.010893018916249275
0.013398891314864159,0.006173475179821253,-0.0037432070821523666,-0.022795295342803,0.0043424079194664955,-0.010919271968305111
0.01326778158545494,0.006767124403268099,-0.0044301962479949,-0.02359570376574993,0.004374276380985975,-0.011267484165728092
0.012862068600952625,0.007191558368504047,-0.0037124198861420155,-0.022975409403443336,0.004540490452200174,-0.010963409207761288
0.013677914626896381,0.006945538800209761,-0.0034370250068604946,-0.022689592093229294,0.004670389927923679,-0.011142322793602943
0.013677914626896381,0.006945538800209761,-0.0034370250068604946,-0.022689592093229294,0.004670389927923679,-0.011142322793602943
0.013244488276541233,0.006608868017792702,-0.003077632514759898,-0.02337714470922947,0.004210920538753271,-0.011723310686647892
0.013831780292093754,0.006985269952565432,-0.004168381914496422,-0.02403576485812664,0.004208840429782867,-0.01179709192365408
0.013205116614699364,0.00757377315312624,-0.004172122105956078,-0.023960642516613007,0.004045320209115744,-0.012044238857924938
0.013617770746350288,0.007212062831968069,-0.0038645367603749037,-0.023568162694573402,0.003798512741923332,-0.01290157251060009
0.01389553863555193,0.008232221938669682,-0.003211732255294919,-0.024130068719387054,0.004197411239147186,-0.011380460113286972
0.013643115758895874,0.008501248434185982,-0.0035817523021250963,-0.02482241950929165,0.004626293200999498,-0.011762954294681549
0.014004566706717014,0.00785937998443842,-0.0038029823917895555,-0.025245076045393944,0.004972143564373255,-0.01185421459376812
0.013957973569631577,0.007956942543387413,-0.003511785762384534,-0.025029780343174934,0.004377563484013081,-0.012219423428177834
0.013809123076498508,0.00814588088542223,-0.0034946799278259277,-0.024505658075213432,0.003970121033489704,-0.01183254737406969
0.014053727500140667,0.008338197134435177,-0.0038099170196801424,-0.02553047239780426,0.004132326692342758,-0.0116661936044693
0.014773271977901459,0.00825726892799139,-0.0041026826947927475,-0.02656456269323826,0.004639113321900368,-0.012071977369487286
0.013704244047403336,0.008192343637347221,-0.0036303901579231024,-0.02648552879691124,0.004812467843294144,-0.012009072117507458
0.013827619142830372,0.009064693003892899,-0.003517949255183339,-0.026010654866695404,0.004778109956532717,-0.012057785876095295
0.014232969842851162,0.008637504652142525,-0.0037528835237026215,-0.02535819448530674,0.004755185917019844,-0.01274842582643032
0.014578111469745636,0.008264536038041115,-0.003504029009491205,-0.025587331503629684,0.004509415477514267,-0.012194685637950897
0.014330179430544376,0.008699566125869751,-0.003959177527576685,-0.027049487456679344,0.0040925247594714165,-0.012015682645142078
0.014689384959638119,0.009145093150436878,-0.0041845920495688915,-0.02701726369559765,0.004316710401326418,-0.012591526843607426
0.014375019818544388,0.010097701102495193,-0.0037524730432778597,-0.027227463200688362,0.004590126685798168,-0.012446130625903606
0.014358246698975563,0.008756870403885841,-0.003528239671140909,-0.027583487331867218,0.004577802028506994,-0.012736788019537926
0.014474471099674702,0.009148117154836655,-0.003642349038273096,-0.028309201821684837,0.004890366457402706,-0.012363406829535961
0.014451648108661175,0.009080941788852215,-0.004318219609558582,-0.027520133182406425,0.004705815110355616,-0.01252621691673994
0.014548311941325665,0.009452036581933498,-0.004125302191823721,-0.026419460773468018,0.004371060058474541,-0.012323047034442425
0.014413803815841675,0.010026481933891773,-0.0034379200078547,-0.026724252849817276,0.004544068593531847,-0.012396297417581081
0.0146256098523736,0.009902380406856537,-0.003571817884221673,-0.02810303121805191,0.0047299531288445,-0.012664221227169037
0.014911739155650139,0.010340685024857521,-0.0039326162077486515,-0.028210539370775223,0.005362679250538349,-0.012826419435441494
0.014996219426393509,0.010073035024106503,-0.00403210474178195,-0.028313810005784035,0.005292812362313271,-0.012758427299559116
0.014996219426393509,0.010073035024106503,-0.00403210474178195,-0.028313810005784035,0.005292812362313271,-0.012758427299559116
0.014857036992907524,0.009801487438380718,-0.0038917933125048876,-0.028081700205802917,0.005205162800848484,-0.012924181297421455
0.014801600947976112,0.01006905734539032,-0.003754677250981331,-0.02729729562997818,0.0048486460000276566,-0.012771274894475937
0.015234832651913166,0.010570235550403595,-0.003735325764864683,-0.027208201587200165,0.004668478388339281,-0.012593663297593594
0.015438936650753021,0.00973579566925764,-0.0037458029109984636,-0.027435408905148506,0.004092021845281124,-0.012855907902121544
0.01508669089525938,0.01033173967152834,-0.00367771927267313,-0.027516663074493408,0.004895443562418222,-0.012547343969345093
0.015302582643926144,0.009705743752419949,-0.003227620618417859,-0.027402913197875023,0.005406752694398165,-0.012905254028737545
0.01509054470807314,0.010104257613420486,-0.0032656455878168344,-0.028004344552755356,0.005196545273065567,-0.01303204894065857
0.015539858490228653,0.010443673469126225,-0.0035599428229033947,-0.028768522664904594,0.004855301231145859,-0.013025311753153801
0.015149704180657864,0.009831874631345272,-0.0035865011159330606,-0.027506252750754356,0.004609629046171904,-0.012646962888538837
0.015667524188756943,0.010591242462396622,-0.003409014781937003,-0.027985313907265663,0.004850981757044792,-0.012684808112680912
0.01564084179699421,0.010972742922604084,-0.00308394618332386,-0.028231609612703323,0.004933252930641174,-0.012600015848875046
0.01579352468252182,0.010117566213011742,-0.0034582153894007206,-0.02867221273481846,0.005271176341921091,-0.013077214360237122
0.015762466937303543,0.009920688346028328,-0.004313148092478514,-0.02888680435717106,0.005161548499017954,-0.013191220350563526
0.015657620504498482,0.009565437212586403,-0.004113447852432728,-0.028774552047252655,0.004960636142641306,-0.01278865709900856
0.0157694723457098,0.008832462131977081,-0.0038167880848050117,-0.028254976496100426,0.004717767238616943,-0.012999587692320347
0.015701107680797577,0.009714148938655853,-0.0039003021083772182,-0.02871953882277012,0.004670416936278343,-0.01316561084240675
0.015338247641921043,0.00943444948643446,-0.0035696513950824738,-0.02856346406042576,0.004877944011241198,-0.013205823488533497
0.015338247641921043,0.00943444948643446,-0.0035696513950824738,-0.02856346406042576,0.004877944011241198,-0.013205823488533497
0.016007574275135994,0.009999711997807026,-0.0035643777810037136,-0.02874458022415638,0.005365150980651379,-0.01340238656848669
0.015408125706017017,0.010631278157234192,-0.0041181426495313644,-0.0290622990578413,0.00524442084133625,-0.01319839246571064
0.015408125706017017,0.010631278157234192,-0.0041181426495313644,-0.0290622990578413,0.00524442084133625,-0.01319839246571064
0.016368752345442772,0.009883256629109383,-0.004149768501520157,-0.028796374797821045,0.004734325688332319,-0.013562359847128391
0.01600445806980133,0.009882689453661442,-0.004020837135612965,-0.029164046049118042,0.004373969975858927,-0.013486826792359352
0.016048960387706757,0.009926902130246162,-0.004192806780338287,-0.028567904606461525,0.004830735269933939,-0.013384592719376087
0.0158697497099638,0.010393256321549416,-0.004266643431037664,-0.029671376571059227,0.0048805586993694305,-0.013064592145383358
0.0158697497099638,0.010393256321549416,-0.004266643431037664,-0.029671376571059227,0.0048805586993694305,-0.013064592145383358
0.01597682386636734,0.009829605929553509,-0.004042563959956169,-0.02933860570192337,0.005237482488155365,-0.013094472698867321
0.015890061855316162,0.00950938556343317,-0.0043760077096521854,-0.029401393607258797,0.004855017643421888,-0.013357472606003284
0.01748454011976719,0.009753751568496227,-0.004286645445972681,-0.029643261805176735,0.004733513109385967,-0.01273929513990879
0.017372097820043564,0.00958737451583147,-0.004484101664274931,-0.029623528942465782,0.0048320358619093895,-0.012857652269303799
0.01736358553171158,0.009961657226085663,-0.0042635356076061726,-0.029414404183626175,0.005302906036376953,-0.013034529983997345
0.017616165801882744,0.009750223718583584,-0.004706060979515314,-0.03044207952916622,0.005264944862574339,-0.013150573708117008
0.018291281536221504,0.010516978800296783,-0.00468430295586586,-0.030996384099125862,0.005397055298089981,-0.013048654422163963
0.01772233098745346,0.011464940384030342,-0.004685549531131983,-0.030812527984380722,0.005089417565613985,-0.013084926642477512
0.017713703215122223,0.010077366605401039,-0.00438619265332818,-0.02940060757100582,0.004934239666908979,-0.012716930359601974
0.01773264817893505,0.009903164580464363,-0.0040889158844947815,-0.03025016188621521,0.004957534372806549,-0.013137446716427803
0.017681660130620003,0.010926919057965279,-0.0044389450922608376,-0.03138260543346405,0.005434553138911724,-0.01352622639387846
0.01818007417023182,0.01103760115802288,-0.004987659398466349,-0.031052829697728157,0.006186102516949177,-0.013118548318743706
0.018007153645157814,0.010658763349056244,-0.004322717431932688,-0.031013261526823044,0.00629934947937727,-0.013563023880124092
0.017992723733186722,0.010520259849727154,-0.003828759305179119,-0.031903818249702454,0.005551296751946211,-0.013668413273990154
0.017807304859161377,0.010494912043213844,-0.004231148865073919,-0.03165067359805107,0.004972721450030804,-0.014068664982914925
0.01755858212709427,0.011011975817382336,-0.0044902716763317585,-0.030367275699973106,0.004758952651172876,-0.015371903777122498
0.01832662522792816,0.011131910607218742,-0.0047117918729782104,-0.03126693516969681,0.005073134321719408,-0.013958824798464775
0.018469173461198807,0.010518020018935204,-0.00483113806694746,-0.03181537240743637,0.005224937107414007,-0.013517246581614017
0.01811160147190094,0.010825840756297112,-0.004250001162290573,-0.031921569257974625,0.0053656017407774925,-0.013888315297663212
0.018228452652692795,0.010513355024158955,-0.003924043849110603,-0.03213411569595337,0.005048316437751055,-0.014023025520145893
0.018248742446303368,0.010614126920700073,-0.004344106186181307,-0.032688796520233154,0.004879102576524019,-0.013823469169437885
0.01727263815701008,0.010945831425487995,-0.004642203915864229,-0.03253268450498581,0.005253141280263662,-0.01350987795740366
0.01755744218826294,0.010386205278337002,-0.004696081392467022,-0.0327191986143589,0.005170952063053846,-0.013500593602657318
0.01755744218826294,0.010386205278337002,-0.004696081392467022,-0.0327191986143589,0.005170952063053846,-0.013500593602657318
0.017788786441087723,0.01098771020770073,-0.004628221970051527,-0.03288920596241951,0.005739651154726744,-0.013581129722297192
0.018178796395659447,0.011618632823228836,-0.004415009170770645,-0.03309112414717674,0.005475986283272505,-0.014310991391539574
0.01840643212199211,0.010574882850050926,-0.004532191902399063,-0.03286564722657204,0.005699955392628908,-0.014384274370968342
0.01782885380089283,0.011757011525332928,-0.004536920692771673,-0.033450640738010406,0.005419470369815826,-0.014714562334120274
0.018554093316197395,0.01131468452513218,-0.004597972612828016,-0.03269186615943909,0.005148689262568951,-0.014610225334763527
0.018314769491553307,0.011445494368672371,-0.004582354798913002,-0.03458201885223389,0.00509722949936986,-0.01455244142562151
0.017964178696274757,0.011180870234966278,-0.004771958105266094,-0.03396719694137573,0.005351271480321884,-0.014221807941794395
0.018242334946990013,0.011001070030033588,-0.004844840615987778,-0.03302152454853058,0.005579482764005661,-0.01438592653721571
0.018384404480457306,0.011372724547982216,-0.004763009957969189,-0.03316375985741615,0.0053601437248289585,-0.014549276791512966
0.018797390162944794,0.010988501831889153,-0.004368513356894255,-0.034461650997400284,0.005485710687935352,-0.014431685209274292
0.018583228811621666,0.01197513472288847,-0.004589172080159187,-0.03438369929790497,0.005606901366263628,-0.014804328791797161
0.018609052523970604,0.012017425149679184,-0.004737675655633211,-0.035542286932468414,0.005838317330926657,-0.01423779595643282
0.018800931051373482,0.011823050677776337,-0.0052239298820495605,-0.03597698733210564,0.005633976310491562,-0.014364308677613735
0.018704451620578766,0.011602678336203098,-0.004986402578651905,-0.034185782074928284,0.005678810644894838,-0.014170214533805847
0.01860646717250347,0.011508557014167309,-0.004553461447358131,-0.033719729632139206,0.005323878023773432,-0.014148620888590813
0.018749648705124855,0.012608068063855171,-0.004427920561283827,-0.03511181101202965,0.005204648710787296,-0.014291616156697273
0.01851844973862171,0.01178439799696207,-0.004747331608086824,-0.0353427454829216,0.005299721844494343,-0.014741487801074982
0.018930381163954735,0.01226016040891409,-0.004896462429314852,-0.03561323508620262,0.005529830232262611,-0.01471868809312582
0.018834926187992096,0.01247789990156889,-0.005136811640113592,-0.03636319935321808,0.005332218948751688,-0.014943938702344894
0.018659573048353195,0.011971922591328621,-0.004990436602383852,-0.036119479686021805,0.005206090863794088,-0.01472671888768673
0.01924448274075985,0.012286567129194736,-0.0047915163449943066,-0.03621777519583702,0.005226945038884878,-0.014932403340935707
0.01901749148964882,0.01218785997480154,-0.00468722777441144,-0.03633228689432144,0.0050578648224473,-0.014692078344523907
0.01901749148964882,0.01218785997480154,-0.00468722777441144,-0.03633228689432144,0.0050578648224473,-0.014692078344523907
0.01903926208615303,0.012437855824828148,-0.00491707306355238,-0.03642891347408295,0.005299785174429417,-0.014570151455700397
0.019069213420152664,0.012607812881469727,-0.005255093798041344,-0.03632817044854164,0.005814429372549057,-0.015032514929771423
0.019069213420152664,0.012607812881469727,-0.005255093798041344,-0.03632817044854164,0.005814429372549057,-0.015032514929771423
0.01864667423069477,0.012822628021240234,-0.005572925787419081,-0.03617514297366142,0.005477018188685179,-0.015287774614989758
0.019185863435268402,0.012920544482767582,-0.005302382167428732,-0.0363195575773716,0.005853746086359024,-0.015329630114138126
0.01922168768942356,0.013012368232011795,-0.005185800604522228,-0.03632580116391182,0.005602483171969652,-0.015183973126113415
0.018857892602682114,0.012687869369983673,-0.005068142432719469,-0.03645164519548416,0.005829444620758295,-0.01527117844671011
0.0195043683052063,0.0131757827475667,-0.004934088792651892,-0.03600917011499405,0.005875593516975641,-0.015200521796941757
0.01935059204697609,0.013066289015114307,-0.005221809260547161,-0.03605485334992409,0.005695972125977278,-0.015431646257638931
0.018951652571558952,0.013295275159180164,-0.00565877603366971,-0.03610614314675331,0.005196476820856333,-0.01519793551415205
0.019552309066057205,0.013622199185192585,-0.00492910947650671,-0.0355050154030323,0.005922792013734579,-0.015301346778869629
0.019552309066057205,0.013622199185192585,-0.00492910947650671,-0.0355050154030323,0.005922792013734579,-0.015301346778869629
0.02001417800784111,0.013802670873701572,-0.005573123227804899,-0.03660427778959274,0.005845635198056698,-0.015288149937987328
0.019798563793301582,0.013755068182945251,-0.006154896691441536,-0.03656476363539696,0.00580449728295207,-0.015236763283610344
0.019840044900774956,0.014260255731642246,-0.005595560185611248,-0.03629520535469055,0.005980679765343666,-0.016899961978197098
0.01993042416870594,0.013914652168750763,-0.0052724662236869335,-0.03680599108338356,0.005712778307497501,-0.015263121575117111
0.020324109122157097,0.014274566434323788,-0.005540846381336451,-0.03700004518032074,0.005651721730828285,-0.015240523964166641
0.020220939069986343,0.0138820456340909,-0.005565830506384373,-0.03651408851146698,0.005969252437353134,-0.015579763799905777
0.020114518702030182,0.01454698946326971,-0.005748751573264599,-0.03888096660375595,0.006080495193600655,-0.015905743464827538
0.01995992101728916,0.014101461507380009,-0.006152656394988298,-0.03938153758645058,0.006212188862264156,-0.015758417546749115
0.020081687718629837,0.014543511904776096,-0.005432454869151115,-0.037302013486623764,0.00602580513805151,-0.01596737466752529
0.02000155858695507,0.014535939320921898,-0.005402114242315292,-0.03755578398704529,0.0061455825343728065,-0.015795500949025154
0.020512837916612625,0.014788093976676464,-0.0056011914275586605,-0.03901027515530586,0.005705172661691904,-0.015864184126257896
0.020415255799889565,0.014564881101250648,-0.006081088911741972,-0.03971502184867859,0.005730744451284409,-0.015648363158106804
0.020221835002303123,0.014817362651228905,-0.006169350817799568,-0.04109276831150055,0.00629678089171648,-0.016068415716290474
0.020221835002303123,0.014817362651228905,-0.006169350817799568,-0.04109276831150055,0.00629678089171648,-0.016068415716290474
0.02075655572116375,0.014506316743791103,-0.005965045653283596,-0.03945620730519295,0.006283353082835674,-0.01631581224501133
0.021214276552200317,0.015091076493263245,-0.005419482011348009,-0.0383017398416996,0.006271426100283861,-0.015922732651233673
0.020861154422163963,0.014667171984910965,-0.00538354879245162,-0.0390426404774189,0.005729658994823694,-0.01621527224779129
0.02039323002099991,0.015645919367671013,-0.0056631481274962425,-0.040029771625995636,0.005623429082334042,-0.016206707805395126
0.02082257717847824,0.015263108536601067,-0.0065359072759747505,-0.039951927959918976,0.005565424915403128,-0.01569877192378044
0.02067585662007332,0.015600166283547878,-0.006973999552428722,-0.03974783793091774,0.005847771652042866,-0.015569917857646942
0.02051951177418232,0.014747628010809422,-0.005312036257237196,-0.0413394495844841,0.0064413463696837425,-0.015673108398914337
0.021119773387908936,0.015260240994393826,-0.004967398010194302,-0.03999524191021919,0.006596234627068043,-0.015881391242146492
0.02179732732474804,0.014971754513680935,-0.006086594890803099,-0.03979884833097458,0.00620293477550149,-0.016320446506142616
0.02118878811597824,0.015546657145023346,-0.00696539506316185,-0.04048427194356918,0.006355243269354105,-0.01643865369260311
0.02126157097518444,0.015114763751626015,-0.0063091907650232315,-0.04072738066315651,0.0065052998252213,-0.01657438464462757
0.02161063253879547,0.015898508951067924,-0.005297503899782896,-0.04045984148979187,0.006231414154171944,-0.01640031859278679
0.02213667333126068,0.015408105216920376,-0.006003970745950937,-0.04069240391254425,0.005782749503850937,-0.01628412865102291
0.021885737776756287,0.015663033351302147,-0.006551838014274836,-0.04291967675089836,0.006155190523713827,-0.01682850904762745
0.022119440138339996,0.016279935836791992,-0.005719685461372137,-0.041313111782073975,0.006588793825358152,-0.017223771661520004
0.021997153759002686,0.016755102202296257,-0.005553280469030142,-0.039988379925489426,0.00636335602030158,-0.017320308834314346
0.022144148126244545,0.016187759116292,-0.006080614402890205,-0.041442375630140305,0.006253371015191078,-0.016443615779280663
0.022140104323625565,0.016621572896838188,-0.005985846742987633,-0.04166283831000328,0.006336204707622528,-0.016231663525104523
0.022358646616339684,0.01610076241195202,-0.006401191931217909,-0.043498359620571136,0.006569473072886467,-0.016076603904366493
0.02253776788711548,0.016754571348428726,-0.006115962751209736,-0.04192731902003288,0.006459989119321108,-0.01599705033004284
0.02253887988626957,0.016330191865563393,-0.005492663476616144,-0.04090156778693199,0.006413932889699936,-0.016108082607388496
0.02281777188181877,0.016258936375379562,-0.006290336139500141,-0.04212253913283348,0.006592942867428064,-0.016773689538240433
0.022716082632541656,0.017034178599715233,-0.0059660556726157665,-0.04284026846289635,0.0067434110678732395,-0.01685428060591221
0.022885818034410477,0.016752315685153008,-0.006252198480069637,-0.04286165162920952,0.006728797685354948,-0.016960879787802696
0.023061785846948624,0.01738136075437069,-0.0065154763869941235,-0.04298584535717964,0.006626440212130547,-0.017011817544698715
0.02303318679332733,0.018170999363064766,-0.005735207349061966,-0.041293129324913025,0.006790172774344683,-0.01689974218606949
0.02326021157205105,0.01635126583278179,-0.005974031984806061,-0.04170449823141098,0.006844516843557358,-0.01602909527719021
0.02326021157205105,0.01635126583278179,-0.005974031984806061,-0.04170449823141098,0.006844516843557358,-0.01602909527719021
0.023232584819197655,0.016482925042510033,-0.006344011053442955,-0.04181378334760666,0.006601759232580662,-0.016182497143745422
0.023378100246191025,0.017368609085679054,-0.006278119515627623,-0.04206574335694313,0.006668036337941885,-0.01642385870218277
0.023539314046502113,0.017192265018820763,-0.005918911192566156,-0.04224470257759094,0.006623793859034777,-0.016806088387966156
0.023494800552725792,0.016542265191674232,-0.005809232592582703,-0.041811566799879074,0.006447803694754839,-0.016979116946458817
0.024019699543714523,0.017057936638593674,-0.00586286885663867,-0.04234284535050392,0.006371492054313421,-0.016999319195747375
0.023269079625606537,0.01729765720665455,-0.006185614038258791,-0.04247293248772621,0.006610307842493057,-0.016818510368466377
0.02358148619532585,0.017309071496129036,-0.006172806955873966,-0.04309238865971565,0.0070801060646772385,-0.017116086557507515
0.02381814271211624,0.017292190343141556,-0.006213552784174681,-0.04281368479132652,0.006827768869698048,-0.01727086864411831
0.024383682757616043,0.017033491283655167,-0.00563077162951231,-0.04341612756252289,0.006540740840137005,-0.017187027260661125
0.023874996230006218,0.017526350915431976,-0.006343821994960308,-0.044752087444067,0.006437288131564856,-0.01731170527637005
0.02287583239376545,0.017450185492634773,-0.006479337811470032,-0.044994089752435684,0.007071377243846655,-0.017110580578446388
0.02498817630112171,0.017776919528841972,-0.006213848013430834,-0.04536515846848488,0.006998910568654537,-0.017388420179486275
0.024680214002728462,0.017872562631964684,-0.005620378535240889,-0.04481520503759384,0.006726032588630915,-0.01747766323387623
0.024204252287745476,0.018067220225930214,-0.005708084441721439,-0.04670868441462517,0.0071075186133384705,-0.017827052623033524
0.025236936286091805,0.017861383035779,-0.006194537039846182,-0.046598102897405624,0.0075271218083798885,-0.017830248922109604
0.025203734636306763,0.017523430287837982,-0.006471574772149324,-0.04439965635538101,0.0067467051558196545,-0.01750851795077324
0.025293029844760895,0.017768321558833122,-0.005992876831442118,-0.04452630877494812,0.00636679120361805,-0.017667416483163834
0.024997765198349953,0.017641225829720497,-0.00599672319367528,-0.04567550867795944,0.006696740165352821,-0.01793515868484974
0.024015450850129128,0.017750179395079613,-0.005832355935126543,-0.04652820900082588,0.006913346704095602,-0.01775704137980938
0.023953652009367943,0.018106738105416298,-0.006362585350871086,-0.04747920110821724,0.007403835188597441,-0.01745394803583622
0.024890361353754997,0.017931291833519936,-0.006402732338756323,-0.04520029202103615,0.0068434737622737885,-0.017693156376481056
0.025907091796398163,0.01836269721388817,-0.005890645552426577,-0.045746102929115295,0.006991347298026085,-0.01807471737265587
0.025907091796398163,0.01836269721388817,-0.005890645552426577,-0.045746102929115295,0.006991347298026085,-0.01807471737265587
0.025666888803243637,0.018183642998337746,-0.005603338126093149,-0.04783923923969269,0.007259666454046965,-0.017913322895765305
0.025447184219956398,0.018176931887865067,-0.005582483485341072,-0.04747491702437401,0.007505099754780531,-0.017966579645872116
0.02530481107532978,0.01842389442026615,-0.006323987152427435,-0.04756218194961548,0.006994686089456081,-0.018444271758198738
0.025420155376195908,0.018166571855545044,-0.005893900990486145,-0.047730423510074615,0.006911375559866428,-0.01832752674818039
0.025420155376195908,0.018166571855545044,-0.005893900990486145,-0.047730423510074615,0.006911375559866428,-0.01832752674818039
0.025254761800169945,0.018289953470230103,-0.006102211307734251,-0.04750408977270126,0.006773953326046467,-0.018340343609452248
0.025526512414216995,0.018116727471351624,-0.005701093468815088,-0.04749789461493492,0.006426346022635698,-0.01851225644350052
0.025857672095298767,0.018619846552610397,-0.0061074187979102135,-0.048668090254068375,0.006408730521798134,-0.017493754625320435
0.02604718878865242,0.018989045172929764,-0.006390932947397232,-0.047817058861255646,0.006939932703971863,-0.017726872116327286
0.026020392775535583,0.0179828442633152,-0.006059851497411728,-0.04696399345993996,0.006997482385486364,-0.018223045393824577
0.026353677734732628,0.018549952656030655,-0.0059525188989937305,-0.04902827739715576,0.007129317615181208,-0.01846276968717575
0.026170069351792336,0.018351171165704727,-0.006481960415840149,-0.04920795187354088,0.007343555334955454,-0.018251962959766388
0.025959093123674393,0.01917927712202072,-0.006362162064760923,-0.04749997705221176,0.007365609519183636,-0.018968705087900162
0.025898998603224754,0.019750887528061867,-0.006252226885408163,-0.047940999269485474,0.00745046092197299,-0.01865411177277565
0.02584260329604149,0.019485192373394966,-0.005527568515390158,-0.048726052045822144,0.0075678750872612,-0.018860505893826485
0.026264702901244164,0.019589459523558617,-0.0059602390974760056,-0.046751849353313446,0.007706787902861834,-0.01923959143459797
0.02626653015613556,0.01920163445174694,-0.006228812970221043,-0.04711712524294853,0.007681549992412329,-0.019540471956133842
0.02638665959239006,0.018520725890994072,-0.006306763738393784,-0.04857437685132027,0.007683957926928997,-0.019258875399827957
0.02664676494896412,0.019288478419184685,-0.005987584125250578,-0.049192484468221664,0.0075427331030368805,-0.018997125327587128
0.026928436011075974,0.019304756075143814,-0.0059857494197785854,-0.04901589825749397,0.00757246557623148,-0.01879253424704075
0.02657376416027546,0.019425049424171448,-0.00609575305134058,-0.04927539825439453,0.007592618465423584,-0.019082948565483093
0.026721671223640442,0.01919717900454998,-0.006806341931223869,-0.05008887127041817,0.007112100720405579,-0.019277840852737427
0.026649340987205505,0.019518127664923668,-0.006842253264039755,-0.049128785729408264,0.007173512130975723,-0.019975246861577034
0.026560623198747635,0.01925567537546158,-0.006272582802921534,-0.049105286598205566,0.007692537736147642,-0.019684765487909317
0.02681404910981655,0.02052079327404499,-0.0062966360710561275,-0.049443576484918594,0.007913719862699509,-0.019458908587694168
0.026239385828375816,0.020343836396932602,-0.006746274419128895,-0.05014654994010925,0.007814828306436539,-0.019554710015654564
0.02704021707177162,0.019837837666273117,-0.006757631897926331,-0.05016302317380905,0.008085106499493122,-0.018976300954818726
0.02701827883720398,0.020174678415060043,-0.006444008555263281,-0.049968644976615906,0.007127493154257536,-0.01913243904709816
0.027163714170455933,0.019739467650651932,-0.006216601002961397,-0.05049580708146095,0.007036419119685888,-0.01904858648777008
0.027163714170455933,0.019739467650651932,-0.006216601002961397,-0.05049580708146095,0.007036419119685888,-0.01904858648777008
0.027210714295506477,0.01974434219300747,-0.006486512720584869,-0.05036988481879234,0.007944163866341114,-0.020076850429177284
0.02616393007338047,0.020041577517986298,-0.0072464547120034695,-0.05014403536915779,0.007928023114800453,-0.020030587911605835
0.026642542332410812,0.020558267831802368,-0.006934651173651218,-0.051016926765441895,0.007658462040126324,-0.01931851916015148
0.02780875563621521,0.020284919068217278,-0.006394418887794018,-0.05035286024212837,0.007672456093132496,-0.019832570105791092
0.027605054900050163,0.02025146223604679,-0.006458863150328398,-0.05198132246732712,0.00767421955242753,-0.019698547199368477
0.027299316599965096,0.020869452506303787,-0.006887668278068304,-0.05240290239453316,0.008011181838810444,-0.020186997950077057
0.028407391160726547,0.02103973552584648,-0.007089637685567141,-0.05045429617166519,0.007934344001114368,-0.02001662738621235
0.027674516662955284,0.020526375621557236,-0.006251052487641573,-0.05360424891114235,0.006999434437602758,-0.01913377270102501
0.027459150180220604,0.020837372168898582,-0.006370875984430313,-0.05313969776034355,0.007361376658082008,-0.019450616091489792
0.027258580550551414,0.021037040278315544,-0.006972443778067827,-0.050713684409856796,0.007162385154515505,-0.019987229257822037
0.02761923149228096,0.021095534786581993,-0.006850425619632006,-0.0527275949716568,0.007059987168759108,-0.020233307033777237
0.028174495324492455,0.021075772121548653,-0.0062235938385128975,-0.053131792694330215,0.007383905816823244,-0.020155617967247963
0.027768155559897423,0.021432600915431976,-0.0063840593211352825,-0.05208270251750946,0.007964778691530228,-0.019785696640610695
0.027568360790610313,0.021027281880378723,-0.007260271348059177,-0.052364595234394073,0.007729415316134691,-0.01987255923449993
0.027932483702898026,0.021084830164909363,-0.007493915036320686,-0.053129374980926514,0.0074997832998633385,-0.019989067688584328
0.027805833145976067,0.021468667313456535,-0.007062490563839674,-0.0530381053686142,0.007984858006238937,-0.020313315093517303
0.027970461174845695,0.02202196791768074,-0.007090434432029724,-0.05248546227812767,0.007732278201729059,-0.02069055289030075
0.027939965948462486,0.0218400526791811,-0.0076132952235639095,-0.05262899026274681,0.007863106206059456,-0.020214557647705078
0.027720997110009193,0.021936984732747078,-0.007826611399650574,-0.05227293819189072,0.007618729490786791,-0.02027607150375843
0.027664652094244957,0.022223075851798058,-0.007089977152645588,-0.05220663547515869,0.007431592792272568,-0.020888978615403175
0.028134610503911972,0.02292771451175213,-0.007350233383476734,-0.05246223136782646,0.00784138310700655,-0.02064555324614048
0.027668867260217667,0.022740459069609642,-0.006833410356193781,-0.05413650721311569,0.00819158460944891,-0.020637081936001778
0.028218787163496017,0.022239666432142258,-0.007495843339711428,-0.052343372255563736,0.008429987356066704,-0.020579040050506592
0.02796797640621662,0.022589312866330147,-0.007931347005069256,-0.05385168641805649,0.008126765489578247,-0.0205561313778162
0.028210045769810677,0.023155948147177696,-0.006977783050388098,-0.05298687517642975,0.0077567556872963905,-0.020590122789144516
0.029123226180672646,0.023095687851309776,-0.00674425158649683,-0.05566108971834183,0.008088451810181141,-0.020939640700817108
0.028743311762809753,0.02286510169506073,-0.0074813649989664555,-0.05389139801263809,0.008707975968718529,-0.021585021167993546
0.028066791594028473,0.022290939465165138,-0.007019056472927332,-0.05435734614729881,0.008042584173381329,-0.020044678822159767
0.028471635654568672,0.022714581340551376,-0.006910006050020456,-0.055793799459934235,0.007910177111625671,-0.02005443535745144
0.028471635654568672,0.022714581340551376,-0.006910006050020456,-0.055793799459934235,0.007910177111625671,-0.02005443535745144
0.028496917337179184,0.023313678801059723,-0.007260934449732304,-0.056031595915555954,0.007883379235863686,-0.02098798006772995
0.029775524511933327,0.024494817480444908,-0.007588766980916262,-0.05578344315290451,0.008083141408860683,-0.02163010463118553
0.02939307875931263,0.023807449266314507,-0.007206357549875975,-0.055689867585897446,0.008172199130058289,-0.022173376753926277
0.02945759706199169,0.02314041554927826,-0.007125379517674446,-0.05616523325443268,0.008214231580495834,-0.021741516888141632
0.028024638071656227,0.022502465173602104,-0.006945081055164337,-0.056230563670396805,0.008170471526682377,-0.02070644125342369
0.029301557689905167,0.023028772324323654,-0.008257667534053326,-0.056628212332725525,0.00814967229962349,-0.020493192598223686
0.030077636241912842,0.023736391216516495,-0.007367805112153292,-0.056755293160676956,0.009018165059387684,-0.02064799703657627
0.02960798516869545,0.02335689589381218,-0.00666406424716115,-0.05657297000288963,0.008529741317033768,-0.02167285606265068
0.03080420009791851,0.023564424365758896,-0.007150548510253429,-0.05708937719464302,0.008313272148370743,-0.02158387377858162
0.030908716842532158,0.024472367018461227,-0.007389932405203581,-0.057655736804008484,0.008200407959520817,-0.020937805995345116
0.029978077858686447,0.024028051644563675,-0.007118333596736193,-0.05781794711947441,0.008149621076881886,-0.021129688248038292
0.029992561787366867,0.02437039464712143,-0.0071733975782990456,-0.05870519205927849,0.008051520213484764,-0.022193437442183495
0.03097974881529808,0.02377987839281559,-0.0073882718570530415,-0.05647953972220421,0.00805102288722992,-0.022882310673594475
0.03134222701191902,0.023773014545440674,-0.007389122154563665,-0.05668221786618233,0.008156661875545979,-0.021682746708393097
0.03124736063182354,0.024069415405392647,-0.007186386734247208,-0.05779594928026199,0.00829362403601408,-0.020866064354777336
0.03136017546057701,0.0244703758507967,-0.006966359913349152,-0.059767354279756546,0.008321015164256096,-0.02098274789750576
0.031314916908741,0.024467770010232925,-0.007520478684455156,-0.05680772662162781,0.008765279315412045,-0.021661262959241867
0.03124459832906723,0.024581460282206535,-0.007926181890070438,-0.05745723471045494,0.008720295503735542,-0.022176656872034073
0.029753508046269417,0.02462846040725708,-0.0074278004467487335,-0.05786893889307976,0.008640237152576447,-0.022056203335523605
0.03222343325614929,0.023975757881999016,-0.007217254489660263,-0.05771073326468468,0.008591287769377232,-0.022151002660393715
0.03201187029480934,0.02401929534971714,-0.008122515864670277,-0.05734647437930107,0.00857524573802948,-0.02135441266000271
0.032180801033973694,0.02430127002298832,-0.007753738667815924,-0.05751864239573479,0.008815222419798374,-0.021567774936556816
0.032163623720407486,0.025053439661860466,-0.007631585001945496,-0.05770976096391678,0.008904201909899712,-0.021999821066856384
0.03249236196279526,0.0249542947858572,-0.007782770786434412,-0.057555265724658966,0.008721133694052696,-0.022252991795539856
0.03221831098198891,0.024982161819934845,-0.007857182994484901,-0.058020032942295074,0.00902212131768465,-0.022204840555787086
0.03279685601592064,0.025258850306272507,-0.007501326967030764,-0.0584331639111042,0.008568532764911652,-0.022055422887206078
0.03279685601592064,0.025258850306272507,-0.007501326967030764,-0.0584331639111042,0.008568532764911652,-0.022055422887206078
0.032516226172447205,0.025323621928691864,-0.008029600605368614,-0.05915345251560211,0.008475499227643013,-0.022384775802493095
0.03249561786651611,0.025105765089392662,-0.007880792021751404,-0.05860535055398941,0.008607250638306141,-0.022627195343375206
0.03278686851263046,0.02495986595749855,-0.007990965619683266,-0.06122920662164688,0.008677372708916664,-0.022908911108970642
0.03281049802899361,0.025442760437726974,-0.007732400204986334,-0.05917684733867645,0.008662154898047447,-0.02257384918630123
0.03324449807405472,0.02588077075779438,-0.007441115099936724,-0.05900552123785019,0.009138514287769794,-0.022561922669410706
0.03291861712932587,0.025599418208003044,-0.00739066069945693,-0.0603070966899395,0.008796025067567825,-0.02284923568367958
0.03335094824433327,0.02577822282910347,-0.008031082339584827,-0.06066788733005524,0.008342296816408634,-0.023277970030903816
0.03349798172712326,0.02623271755874157,-0.0078100720420479774,-0.058537568897008896,0.008372918702661991,-0.02337694726884365
0.03364485874772072,0.025975896045565605,-0.00727551756426692,-0.06036112457513809,0.00879067461937666,-0.023261310532689095
0.03381405398249626,0.026164861395955086,-0.008119676262140274,-0.06172727048397064,0.008633789606392384,-0.023441379889845848
0.03426571562886238,0.025756288319826126,-0.008116098120808601,-0.06198559328913689,0.00866603385657072,-0.023184238001704216
0.035188350826501846,0.02533603645861149,-0.007508666254580021,-0.06165887787938118,0.008913843892514706,-0.023104438558220863
0.03495742008090019,0.025967450812458992,-0.008091574534773827,-0.062008801847696304,0.008801668882369995,-0.023088691756129265
0.032803166657686234,0.026297351345419884,-0.008401772938668728,-0.06257141381502151,0.008870751596987247,-0.02362920716404915
0.03492564707994461,0.02647843398153782,-0.008114994503557682,-0.06281562894582748,0.009306604042649269,-0.02247932180762291
0.03506902977824211,0.026482421904802322,-0.007504326291382313,-0.06325861811637878,0.00926224235445261,-0.02321905456483364
0.035214222967624664,0.026516802608966827,-0.008238393813371658,-0.06364038586616516,0.009286152198910713,-0.023964863270521164
0.03586907312273979,0.027175534516572952,-0.008404363878071308,-0.06303277611732483,0.009091936983168125,-0.02419452928006649
0.035932593047618866,0.02792014181613922,-0.007812266703695059,-0.06474101543426514,0.009405097924172878,-0.024216240271925926
0.03477999567985535,0.02795150689780712,-0.007960623130202293,-0.06440448015928268,0.009508446790277958,-0.024193208664655685
0.034872837364673615,0.02731027454137802,-0.009276339784264565,-0.06219663843512535,0.009441337548196316,-0.024211298674345016
0.035714276134967804,0.026300758123397827,-0.008292850106954575,-0.06320054829120636,0.009352266788482666,-0.024225851520895958
0.03581143543124199,0.026221761479973793,-0.00790204294025898,-0.06539495289325714,0.009227917529642582,-0.024512914940714836
0.03597169741988182,0.027761586010456085,-0.00827223714441061,-0.06262608617544174,0.009460325352847576,-0.024609528481960297
0.03577039763331413,0.026828976348042488,-0.008817263878881931,-0.06361482292413712,0.009410831145942211,-0.024695245549082756
0.03546381741762161,0.0272845271974802,-0.007888896390795708,-0.06446405500173569,0.00956563651561737,-0.024426758289337158
0.03546381741762161,0.0272845271974802,-0.007888896390795708,-0.06446405500173569,0.00956563651561737,-0.024426758289337158
0.03568759560585022,0.027729051187634468,-0.007811438757926226,-0.06491006910800934,0.009098179638385773,-0.024280859157443047
0.035383231937885284,0.02758226916193962,-0.008705510757863522,-0.06543940305709839,0.009645411744713783,-0.02447858266532421
0.03506261855363846,0.02700604498386383,-0.008051430806517601,-0.06596176326274872,0.00923887174576521,-0.02437601424753666
0.03506261855363846,0.02700604498386383,-0.008051430806517601,-0.06596176326274872,0.00923887174576521,-0.02437601424753666
0.034983597695827484,0.02761366404592991,-0.008325435221195221,-0.06603606790304184,0.009357181377708912,-0.024409176781773567
0.035706911236047745,0.02837880700826645,-0.00845330860465765,-0.06684155762195587,0.009764809161424637,-0.024877212941646576
0.035840101540088654,0.028154954314231873,-0.008189372718334198,-0.06900908797979355,0.009845884516835213,-0.025182045996189117
0.03449529409408569,0.028356267139315605,-0.008481708355247974,-0.06737328320741653,0.009607206098735332,-0.02543734759092331
0.03580038622021675,0.028264567255973816,-0.008749814704060555,-0.07008007168769836,0.009531802497804165,-0.024126796051859856
0.03688745200634003,0.02871667966246605,-0.009088779799640179,-0.06791810691356659,0.009194865822792053,-0.023265961557626724
0.03694026172161102,0.028681308031082153,-0.008571328595280647,-0.06900544464588165,0.008903504349291325,-0.02452022209763527
0.03519824892282486,0.028805043548345566,-0.008302181027829647,-0.07166951149702072,0.008898293599486351,-0.02529594674706459
0.03517744317650795,0.028833068907260895,-0.009970968589186668,-0.06909256428480148,0.009095274843275547,-0.025813868269324303
0.036383096128702164,0.02919044904410839,-0.00819175224751234,-0.07029077410697937,0.008930373005568981,-0.024928683415055275
0.037133749574422836,0.029211606830358505,-0.009204692207276821,-0.06993523985147476,0.009322565980255604,-0.025789828971028328
0.03672118857502937,0.02934393472969532,-0.009022226557135582,-0.06954047083854675,0.0092025650665164,-0.02534286119043827
0.03608239069581032,0.029476424679160118,-0.009302061051130295,-0.07008581608533859,0.009277965873479843,-0.02485276199877262
0.0357714518904686,0.029157398268580437,-0.0093698650598526,-0.0700458213686943,0.00978004653006792,-0.024486089125275612
0.03625404089689255,0.029648950323462486,-0.010344106703996658,-0.06993816792964935,0.009905337356030941,-0.025046072900295258
0.03682604432106018,0.029913250356912613,-0.008710434660315514,-0.06973089277744293,0.009270071052014828,-0.026377186179161072
0.037044987082481384,0.029526473954319954,-0.008542177267372608,-0.06945139914751053,0.009675989858806133,-0.02656838297843933
0.03676639869809151,0.029534628614783287,-0.00917593203485012,-0.06967107951641083,0.01048371847718954,-0.026042116805911064
0.03637748956680298,0.029634764418005943,-0.009050804190337658,-0.06924901902675629,0.009657680056989193,-0.025503814220428467
0.036709610372781754,0.030846722424030304,-0.009177387692034245,-0.07027757912874222,0.009432955645024776,-0.025103814899921417
0.037138111889362335,0.03123628720641136,-0.009445855394005775,-0.0685400739312172,0.009731029160320759,-0.02541721984744072
0.036980051547288895,0.030526798218488693,-0.009257102385163307,-0.06961672008037567,0.00977529026567936,-0.02610352635383606
0.03693072497844696,0.030078625306487083,-0.008621588349342346,-0.07179363071918488,0.009862353093922138,-0.024771898984909058
