davideferrari95/blind_handover_controller/data/Test 97 - [2024-02-07 -- 16-14-42]/joint_states_data.csv
shoulder_pan_joint,shoulder_lift_joint,elbow_joint,wrist_1_joint,wrist_2_joint,wrist_3_joint
0.005658630281686783,0.008017071522772312,-0.007810983341187239,0.003155331825837493,-0.00011736642045434564,0.006132815033197403
0.005779047962278128,0.008007686585187912,-0.007466527633368969,0.0030860083643347025,-0.0001315016415901482,0.006161426659673452
0.005685720127075911,0.0075582051649689674,-0.008153026923537254,0.0031593861058354378,-0.00013105920515954494,0.0059667788445949554
0.005685720127075911,0.0075582051649689674,-0.008153026923537254,0.0031593861058354378,-0.00013105920515954494,0.0059667788445949554
0.005153384525328875,0.007645684760063887,-0.007874181494116783,0.0033541806042194366,-0.00012853494263254106,0.006250233389437199
0.005143492948263884,0.005772587843239307,-0.007125209551304579,0.0033503712620586157,-0.00012597443128470331,0.006353478413075209
0.005349013954401016,0.00470338761806488,-0.0072400192730128765,0.0035591290798038244,-0.00012350543693173677,0.005617004819214344
0.005541620776057243,0.004679763223975897,-0.007901080884039402,0.003392626065760851,-0.00012113095726817846,0.00579526973888278
0.005222421605139971,0.005214900244027376,-0.007081923075020313,0.003508736612275243,-0.00011884572450071573,0.005728317424654961
0.005191953852772713,0.005552393849939108,-0.00712649105116725,0.003201837185770273,-0.00011664521298371255,0.005738198757171631
0.005414643324911594,0.0054666404612362385,-0.006612283643335104,0.002917069010436535,-0.00011452486796770245,0.005940258968621492
0.00509246252477169,0.0055673918686807156,-0.00706554064527154,0.0029799826443195343,-0.00012038920249324292,0.005937211215496063
0.005278823431581259,0.005606195889413357,-0.00682867644354701,0.0033135171979665756,-0.00012576099834404886,0.00554695026949048
0.00519496388733387,0.005746080074459314,-0.006627240218222141,0.0033606679644435644,-0.00012408192560542375,0.005728730000555515
0.00567173957824707,0.005166323855519295,-0.006732502952218056,0.003201307961717248,-0.00012201105710119009,0.005837808828800917
0.005329465493559837,0.005111974664032459,-0.007522982079535723,0.002889558905735612,-0.00011997994442936033,0.005897016264498234
0.004927434027194977,0.005121155641973019,-0.007230054121464491,0.0027684480883181095,-0.00011801356595242396,0.005649918224662542
0.005204662214964628,0.004861281253397465,-0.006760368123650551,0.002696947893127799,-0.00011611047375481576,0.005760312080383301
0.005210308823734522,0.005449701566249132,-0.006407490465790033,0.002497884212061763,-0.0001295324764214456,0.006039727013558149
0.005733104422688484,0.0051680756732821465,-0.0069000557996332645,0.0025474210269749165,-0.00014017724606674165,0.005489898379892111
0.005394606851041317,0.004360349383205175,-0.007097754627466202,0.002276819432154298,-0.00013687260798178613,0.006595386192202568
0.0049562109634280205,0.004222046118229628,-0.007303816732019186,0.0022283128928393126,-0.00013289293565321714,0.005654377397149801
0.005243068095296621,0.004134516231715679,-0.0067333197221159935,0.002341107465326786,-0.00012908464123029262,0.004972018767148256
0.005178158171474934,0.004325097892433405,-0.006359441671520472,0.002263580681756139,-0.0001254849776159972,0.005208220798522234
0.005684375762939453,0.004677787888795137,-0.007232126779854298,0.0031137524638324976,-0.0001188558671856299,0.005912010092288256
0.005427008960396051,0.0044918605126440525,-0.006974142976105213,0.0031870263628661633,-0.00011579727288335562,0.005833832547068596
0.005272500682622194,0.004194331355392933,-0.006966277025640011,0.0032116505317389965,-0.0001296274713240564,0.005859094206243753
0.005129861179739237,0.004312439821660519,-0.0067741540260612965,0.0031236419454216957,-0.00013177350047044456,0.005699448753148317
0.005737773142755032,0.0045833890326321125,-0.00719956262037158,0.003005432663485408,-0.0001289729552809149,0.005762431770563126
0.005353521555662155,0.004697008989751339,-0.007071471307426691,0.0032007505651563406,-0.0001259863784071058,0.005534490570425987
0.005808177404105663,0.004689870402216911,-0.006431757006794214,0.0032803977373987436,-0.00012311538739595562,0.005698897410184145
0.005808177404105663,0.004689870402216911,-0.006431757006794214,0.0032803977373987436,-0.00012311538739595562,0.005698897410184145
0.005389647092670202,0.004787121899425983,-0.006542686372995377,0.0032222955487668514,-0.0001203709325636737,0.0055616688914597034
0.005847434978932142,0.004836453590542078,-0.006957177072763443,0.003413714934140444,-0.00011774618906201795,0.006175526883453131
0.005550940986722708,0.004822335205972195,-0.006637460086494684,0.0032766673248261213,-0.00013191791367717087,0.006354229059070349
0.005771837197244167,0.0046897041611373425,-0.006348334718495607,0.00309683452360332,-0.00013146561104804277,0.005853577516973019
0.005254543852061033,0.004711950663477182,-0.006648004055023193,0.003058467758819461,-0.00012892541417386383,0.005693776998668909
0.005896827206015587,0.005203792825341225,-0.006840098649263382,0.003115186234936118,-0.00012634950689971447,0.005419944878667593
0.00545174116268754,0.005034861620515585,-0.006748517043888569,0.0034139640629291534,-0.00012386578600853682,0.005600323900580406
0.005519531201571226,0.004837627522647381,-0.006285305600613356,0.0034536069724708796,-0.00013435358414426446,0.005514923948794603
0.005830817855894566,0.004691736772656441,-0.006556745618581772,0.003101704176515341,-0.00013591264723800123,0.005653686821460724
0.005308362655341625,0.004615436308085918,-0.006655724719166756,0.0028223961126059294,-0.00013365714403335005,0.006015768274664879
0.005785717163234949,0.004543979652225971,-0.006542493589222431,0.0027371402829885483,-0.00013123831013217568,0.005655139219015837
0.00553783867508173,0.005130348727107048,-0.0069540711119771,0.002690841443836689,-0.00012889002391602844,0.005934993736445904
0.0058259740471839905,0.005063464865088463,-0.006527347955852747,0.0027834088541567326,-0.00012662331573665142,0.005961786489933729
0.005540789570659399,0.004822679795324802,-0.006056545302271843,0.0028303442522883415,-0.00012443496962077916,0.0057356758043169975
0.0058032451197505,0.004848078824579716,-0.00643059890717268,0.0029685739427804947,-0.00015505545889027417,0.0052619329653680325
0.005416616331785917,0.00475320965051651,-0.0070006102323532104,0.002872518030926585,-0.00015444145537912846,0.005701092071831226
0.005414552986621857,0.0046670944429934025,-0.006859886925667524,0.0027641942724585533,-0.00014961390115786344,0.005400792229920626
0.005404958035796881,0.004399936180561781,-0.006464684382081032,0.0026403688825666904,-0.00014481857942882925,0.00542480917647481
0.005653920583426952,0.004622728563845158,-0.006279314868152142,0.0028687051963061094,-0.0001646532618906349,0.005709350574761629
0.005457612685859203,0.005048670340329409,-0.006149918772280216,0.002905230037868023,-0.00016303158190567046,0.0053235869854688644
0.005729260388761759,0.004925054498016834,-0.0065413000993430614,0.0026336333248764277,-0.00015846577298361808,0.005403277929872274
0.005867525935173035,0.0051139770075678825,-0.006415625102818012,0.0026927876751869917,-0.00016817834693938494,0.005508256610482931
0.005804082378745079,0.004984111990779638,-0.0061957258731126785,0.0028088288381695747,-0.00016951018187683076,0.005512709729373455
0.005681367125362158,0.005361415911465883,-0.006565154064446688,0.0027041095308959484,-0.0001654413208598271,0.005485353991389275
0.00537029467523098,0.005475231446325779,-0.006446489132940769,0.002832762897014618,-0.00016123185923788697,0.00571586424484849
0.005640669260174036,0.005136578343808651,-0.005941967945545912,0.002882608911022544,-0.00017385694081895053,0.0054770843125879765
0.005333653651177883,0.0053062476217746735,-0.006010598503053188,0.0029036039486527443,-0.00017491473408881575,0.00535045750439167
0.0060167089104652405,0.0050828102976083755,-0.006574802100658417,0.0028028676752001047,-0.00017110277258325368,0.0055024707689881325
0.006113909184932709,0.005309528671205044,-0.007126870099455118,0.0026960703544318676,-0.00016715298988856375,0.005242643877863884
0.006113909184932709,0.005309528671205044,-0.007126870099455118,0.0026960703544318676,-0.00016715298988856375,0.005242643877863884
0.006281430367380381,0.005691961385309696,-0.006182077340781689,0.00249332282692194,-0.00016336154658347368,0.005657624453306198
0.005920730531215668,0.004676299635320902,-0.006533442065119743,0.0025564951356500387,-0.0001968279102584347,0.005728241987526417
0.005920730531215668,0.004676299635320902,-0.006533442065119743,0.0025564951356500387,-0.0001968279102584347,0.005728241987526417
0.0056917984038591385,0.005048451945185661,-0.00696518924087286,0.0024596997536718845,-0.00022564423852600157,0.005407362710684538
0.006004666909575462,0.005079297814518213,-0.007203365676105022,0.0023544186260551214,-0.00021727810963056982,0.005029208026826382
0.005513092037290335,0.005309758707880974,-0.0063184392638504505,0.0024553355760872364,-0.00020742567721754313,0.005247966852039099
0.005711303558200598,0.00543725211173296,-0.006422835402190685,0.002644581953063607,-0.00019829421944450587,0.005243839230388403
0.005891858134418726,0.005618003197014332,-0.006640453822910786,0.0025772510562092066,-0.00018992371042259037,0.005110355094075203
0.00571073405444622,0.005364518146961927,-0.0064823320135474205,0.0026193351950496435,-0.00020006349950563163,0.005140469875186682
0.006193138193339109,0.0055876122787594795,-0.006143276579678059,0.002549363300204277,-0.00020894961198791862,0.005105207674205303
0.005994734354317188,0.005586686078459024,-0.006078158505260944,0.002453416585922241,-0.00020221118757035583,0.005229131318628788
0.005775273311883211,0.005281283054500818,-0.0061705512925982475,0.0024422304704785347,-0.00019498009351082146,0.005151397082954645
0.006100029218941927,0.005284157581627369,-0.006643087137490511,0.002269711345434189,-0.00021139599266462028,0.0051294248551130295
0.005423675756901503,0.00537175964564085,-0.006611231714487076,0.0023555452935397625,-0.00021162636403460056,0.005264070816338062
0.006099932361394167,0.0055664884857833385,-0.006240080110728741,0.0023629518691450357,-0.00020521145779639482,0.005083838477730751
0.0061414833180606365,0.005236385390162468,-0.00614192383363843,0.0023473799228668213,-0.00019876747683156282,0.005034910049289465
0.006315786857157946,0.0058264220133423805,-0.006304143462330103,0.002615929814055562,-0.0001926896075019613,0.005540550220757723
0.005755455698817968,0.005455708596855402,-0.0069888317957520485,0.0025574660394340754,-0.00020007652346976101,0.005205732304602861
0.0056905606761574745,0.005381694063544273,-0.006435432005673647,0.002365701599046588,-0.00020663281611632556,0.0053319791331887245
0.006178945768624544,0.00563262403011322,-0.005949507467448711,0.002013286342844367,-0.0002016491343965754,0.005277644377201796
0.006292867008596659,0.005655111279338598,-0.005998395383358002,0.001991524361073971,-0.00019620632519945502,0.005134048871695995
0.006065053399652243,0.005801321938633919,-0.007434315048158169,0.0025013803970068693,-0.00022414168051909655,0.005356599576771259
0.005804363638162613,0.005815713666379452,-0.006452895235270262,0.0025252331979572773,-0.00021419556287582964,0.004873777274042368
0.006370654329657555,0.005331575870513916,-0.0063301618210971355,0.0025312912184745073,-0.00020450596639420837,0.00472754193469882
0.006370654329657555,0.005331575870513916,-0.0063301618210971355,0.0025312912184745073,-0.00020450596639420837,0.00472754193469882
0.006545560900121927,0.005636745132505894,-0.0060220579616725445,0.002317888895049691,-0.00019561679800972342,0.0048473896458745
0.00624431949108839,0.005490053445100784,-0.006081064231693745,0.002373327501118183,-0.00021995985298417509,0.005537606775760651
0.006091471761465073,0.005968241952359676,-0.006613671313971281,0.002307015238329768,-0.00021563444170169532,0.005399942398071289
0.006229323334991932,0.005699921865016222,-0.006555868778377771,0.002189088612794876,-0.0002076331729767844,0.005057350732386112
0.00627313693985343,0.005592798348516226,-0.006329318042844534,0.0020376169122755527,-0.0001999622763833031,0.005038205999881029
0.006538060028105974,0.005221093539148569,-0.006271108984947205,0.0019750730134546757,-0.0002206936478614807,0.005095815751701593
0.006713880691677332,0.00542666669934988,-0.0068376632407307625,0.0020769769325852394,-0.0002169241925003007,0.004864185582846403
0.005670154932886362,0.005498057696968317,-0.0067654503509402275,0.0020332627464085817,-0.00020994468650314957,0.005360150709748268
0.005212694872170687,0.005598790943622589,-0.006045994348824024,0.0022456361912190914,-0.00020318884344305843,0.005348196253180504
0.005695810541510582,0.005287623032927513,-0.006078691221773624,0.002056682715192437,-0.00019684094877447933,0.005245621781796217
0.006316011305898428,0.005515619181096554,-0.006533801555633545,0.0020494703203439713,-0.00019087640976067632,0.0045282128266990185
0.005745887756347656,0.00528612220659852,-0.006678493227809668,0.0018968372605741024,-0.00018526270287111402,0.0044655525125563145
0.005720533896237612,0.0049586049281060696,-0.006631837692111731,0.0019626941066235304,-0.00017997004033531994,0.00442893709987402
0.005188455805182457,0.0051498995162546635,-0.006522359326481819,0.0020375605672597885,-0.00017497145745437592,0.004430227912962437
0.00525335967540741,0.005388363730162382,-0.006326316390186548,0.0022993581369519234,-0.00017024281260091811,0.004972144961357117
0.005696635227650404,0.0050423103384673595,-0.006144071463495493,0.0025815817061811686,-0.00016576299094595015,0.004950547590851784
0.00614964310079813,0.005309284199029207,-0.00664530461654067,0.0023370978888124228,-0.00016151317686308175,0.0050325049087405205
0.005488678812980652,0.0049008880741894245,-0.006955837365239859,0.0022202583495527506,-0.00015747570432722569,0.004938345868140459
0.005242397077381611,0.005385172087699175,-0.006267796270549297,0.002030981006100774,-0.00015363519196398556,0.004778100177645683
0.005545788910239935,0.005248148459941149,-0.006122593767940998,0.001981381792575121,-0.00016586211859248579,0.00445441622287035
0.006219913251698017,0.0050741625018417835,-0.006912802346050739,0.0018734466284513474,-0.00016705547750461847,0.004629768431186676
0.005900657270103693,0.00495891273021698,-0.005680404603481293,0.002211010782048106,-0.00015997573791537434,0.004912284202873707
0.005859336815774441,0.0048720864579081535,-0.006231854669749737,0.0022236593067646027,-0.00015649978013243526,0.004907464608550072
0.005683405790477991,0.005191061645746231,-0.007061799988150597,0.002246769377961755,-0.0001531704474473372,0.004773057997226715
0.006325289607048035,0.00510586379095912,-0.00704010296612978,0.002161059295758605,-0.00014997966354712844,0.004714176990091801
0.006325289607048035,0.00510586379095912,-0.00704010296612978,0.002161059295758605,-0.00014997966354712844,0.004714176990091801
0.005710638593882322,0.005225975997745991,-0.006456516217440367,0.00203318172134459,-0.00014691926480736583,0.004606014583259821
0.005777076352387667,0.004766808822751045,-0.006364365108311176,0.0021227772813290358,-0.00014115827798377723,0.004807193763554096
0.005777076352387667,0.004766808822751045,-0.006364365108311176,0.0021227772813290358,-0.00014115827798377723,0.004807193763554096
0.006216403096914291,0.004950196947902441,-0.0063719130121171474,0.00205390271730721,-0.000135832087835297,0.004618995822966099
0.006216403096914291,0.004950196947902441,-0.0063719130121171474,0.00205390271730721,-0.000135832087835297,0.004618995822966099
0.00564642995595932,0.005028999876230955,-0.0062709348276257515,0.0020826500840485096,-0.00013331693480722606,0.004560587927699089
0.005861454643309116,0.004908828996121883,-0.006731746718287468,0.0022407430224120617,-0.00013089324056636542,0.004359337501227856
0.005849485285580158,0.004694496747106314,-0.006783893331885338,0.002210767939686775,-0.00012235998292453587,0.004404010251164436
0.0061829229816794395,0.004574201535433531,-0.006858556531369686,0.0021258292254060507,-0.00011731687845895067,0.004821717273443937
0.006488247308880091,0.004658697638660669,-0.0062639424577355385,0.002034905133768916,-0.00011421801900723949,0.004875360056757927
0.0061239218339324,0.005149628967046738,-0.00642792321741581,0.0019875685684382915,-0.0001113828329835087,0.004564512055367231
0.0063201654702425,0.004947878420352936,-0.005771241150796413,0.0019844442140311003,-0.00010869182005990297,0.004434830509126186
0.006315615959465504,0.0048906500451266766,-0.007784278132021427,0.001962995156645775,-0.00010612831101752818,0.0048215435817837715
0.006149382330477238,0.004791811108589172,-0.00703785102814436,0.001949515426531434,-0.00010368289076723158,0.004850972443819046
0.006394670344889164,0.004576109349727631,-0.0065206182189285755,0.0019371804082766175,-0.00010134762851521373,0.0046554263681173325
0.007173200603574514,0.0045534479431807995,-0.00656829634681344,0.0020866242703050375,-9.911532106343657e-05,0.004503877367824316
0.0066614276729524136,0.004630634561181068,-0.007007434964179993,0.0021604218054562807,-9.697916539153084e-05,0.004059177357703447
0.005696561187505722,0.004606666509062052,-0.006923495326191187,0.0026000237558037043,-9.49332898017019e-05,0.004600208718329668
0.006598911713808775,0.005191215313971043,-0.006136971991509199,0.002431980101391673,-9.297183714807034e-05,0.004525463562458754
0.0067895869724452496,0.005062357988208532,-0.00636688619852066,0.0023546479642391205,-9.108987433137372e-05,0.004590683151036501
0.006413020193576813,0.00441101286560297,-0.006604834459722042,0.0021276227198541164,-8.928259194362909e-05,0.004398559220135212
0.006597192957997322,0.004203734919428825,-0.006846112664788961,0.0019870672840625048,-0.00010275481326971203,0.004443574231117964
0.006445152219384909,0.004382533486932516,-0.0062452154234051704,0.0019552428275346756,-0.00010110083530889824,0.004470611922442913
0.006305891554802656,0.004975445568561554,-0.006522187031805515,0.0022128380369395018,-9.926001075655222e-05,0.004326762165874243
0.006629917770624161,0.004640758503228426,-0.006579209119081497,0.002192438580095768,-9.746955765876919e-05,0.004493262618780136
0.006600331049412489,0.004506134893745184,-0.007391406688839197,0.002182736760005355,-9.574140858603641e-05,0.004152300301939249
0.006270125973969698,0.004503712989389896,-0.007495889440178871,0.0020092211198061705,-9.407348261447623e-05,0.0039081149734556675
0.006270125973969698,0.004503712989389896,-0.007495889440178871,0.0020092211198061705,-9.407348261447623e-05,0.0039081149734556675
0.006345933768898249,0.0048691644333302975,-0.00664003100246191,0.002111963462084532,-9.836555545916781e-05,0.0039031505584716797
0.006345933768898249,0.0048691644333302975,-0.00664003100246191,0.002111963462084532,-9.836555545916781e-05,0.0039031505584716797
0.006367324385792017,0.004500688519328833,-0.006765724625438452,0.0021678938064724207,-0.00010256983659928665,0.003815507050603628
0.006367324385792017,0.004500688519328833,-0.006765724625438452,0.0021678938064724207,-0.00010256983659928665,0.003815507050603628
0.006722428370267153,0.004903051536530256,-0.0067380135878920555,0.0020880899392068386,-0.00010095619654748589,0.0039522224105894566
0.006955645512789488,0.004858237691223621,-0.007391725666821003,0.0019895590376108885,-9.936586866388097e-05,0.0038214337546378374
0.006771753542125225,0.004465447273105383,-0.007797861006110907,0.001954068895429373,-9.782303095562384e-05,0.0037823969032615423
0.006375565193593502,0.0044046128168702126,-0.007654393557459116,0.00214062980376184,-9.632735600462183e-05,0.0038489094004034996
0.006306890863925219,0.004589257296174765,-0.006968811620026827,0.0019909560214728117,-9.487669012742117e-05,0.0038157105445861816
0.007050047628581524,0.00473013473674655,-0.006313825026154518,0.002143432851880789,-9.34690615395084e-05,0.003749901195988059
0.007181053049862385,0.004965417552739382,-0.006903784815222025,0.002354481490328908,-9.210262214764953e-05,0.0037456031423062086
0.006988515146076679,0.0043595414608716965,-0.0073598837479949,0.0022569424472749233,-9.716422209748998e-05,0.003764715511351824
0.006677565630525351,0.004240121692419052,-0.0070823547430336475,0.0022316710092127323,-0.00010184030543314293,0.003845695871859789
0.006978960242122412,0.004623892717063427,-0.006769527215510607,0.0022046088706701994,-0.00010080949869006872,0.0041418676264584064
0.007174952886998653,0.004744361620396376,-0.007185145281255245,0.0025206084828823805,-9.944297198671848e-05,0.003663801122456789
0.007253737188875675,0.004866689909249544,-0.007729255128651857,0.0025756009854376316,-9.808989852899686e-05,0.0035703813191503286
0.006768400780856609,0.004365071654319763,-0.0071119628846645355,0.0024151408579200506,-9.677164780441672e-05,0.003626441117376089
0.007008966989815235,0.004436024930328131,-0.006678905803710222,0.0023690862581133842,-9.54881907091476e-05,0.003638639347627759
0.007317384704947472,0.0045745279639959335,-0.006981620565056801,0.002237155335023999,-9.423842857358977e-05,0.003598986892029643
0.007158867083489895,0.004189675208181143,-0.00793951191008091,0.002220969879999757,-9.183450310956687e-05,0.0035399009939283133
0.007614376489073038,0.0044121770188212395,-0.006783442106097937,0.002207332057878375,-0.00010392980766482651,0.0034303253050893545
0.007882421836256981,0.004403301514685154,-0.0065991817973554134,0.0024186824448406696,-0.00010345806367695332,0.003455209778621793
0.007821852341294289,0.004929317627102137,-0.007416056003421545,0.0023072659969329834,-0.0001012552747852169,0.003246407024562359
0.007133798208087683,0.004852906800806522,-0.007652463391423225,0.002391765359789133,-9.90350017673336e-05,0.003136205254122615
0.0073591601103544235,0.0043279631063342094,-0.007007792592048645,0.0022750124335289,-9.690279694041237e-05,0.0033203011844307184
0.0073591601103544235,0.0043279631063342094,-0.007007792592048645,0.0022750124335289,-9.690279694041237e-05,0.0033203011844307184
0.008194387890398502,0.004452583845704794,-0.0071608577854931355,0.002228008583188057,-9.486005728831515e-05,0.003058314323425293
0.007938464172184467,0.004410803783684969,-0.008013227954506874,0.0023587767500430346,-9.290166053688154e-05,0.0030872090719640255
0.00751428073272109,0.0041656494140625,-0.007545221131294966,0.0025565405376255512,-9.102246986003593e-05,0.003371543250977993
0.007656948175281286,0.004418785218149424,-0.007025056518614292,0.0025828909128904343,-8.921782864490524e-05,0.003710474818944931
0.007176386192440987,0.004703396465629339,-0.006894614547491074,0.002646875334903598,-8.748327672947198e-05,0.00348196504637599
0.007202459033578634,0.004748116713017225,-0.007904881611466408,0.002400272525846958,-8.581493602832779e-05,0.0034634359180927277
0.00789190735667944,0.004259062930941582,-0.007724514231085777,0.002268844284117222,-9.249697905033827e-05,0.0032070204615592957
0.007962376810610294,0.003954723011702299,-0.0071239895187318325,0.0022800557781010866,-9.863606101134792e-05,0.0030169126112014055
0.00783203262835741,0.004232331179082394,-0.006628381088376045,0.002242842921987176,-9.736877109389752e-05,0.0030308417044579983
0.007938044145703316,0.004579977132380009,-0.007165585644543171,0.0023810190614312887,-9.56769727054052e-05,0.0031852952670305967
0.0071554225869476795,0.004693922586739063,-0.007273384835571051,0.002211419166997075,-9.401340503245592e-05,0.0031256689690053463
0.008005267009139061,0.00473551033064723,-0.007204082794487476,0.002261538989841938,-9.240478539140895e-05,0.003011133521795273
0.007777799386531115,0.004641743376851082,-0.007162927184253931,0.0020973714999854565,-9.085018245968968e-05,0.003008093684911728
0.007540441583842039,0.0046752397902309895,-0.0075943623669445515,0.0021887721959501505,-8.934695506468415e-05,0.0030865026637911797
0.00741234514862299,0.004797758534550667,-0.007329623214900494,0.0023128006141632795,-9.510594827588648e-05,0.0031526456587016582
0.007541500497609377,0.0047892308793962,-0.006920027080923319,0.0023448700085282326,-0.00010041372297564521,0.00336262839846313
0.007814273238182068,0.004548770375549793,-0.00717746838927269,0.0026890600565820932,-9.927699284162372e-05,0.0032188822515308857
0.007444567978382111,0.004891665652394295,-0.00763821741566062,0.0027585153002291918,-9.77655072347261e-05,0.0030638871248811483
0.007198786363005638,0.004831896163523197,-0.007735020015388727,0.0028000727761536837,-9.627336112316698e-05,0.0027783324476331472
0.007858744822442532,0.004720006138086319,-0.007178659550845623,0.002675173804163933,-9.482440509600565e-05,0.0028945531230419874
0.007611071690917015,0.004613825120031834,-0.007090080063790083,0.0026166026946157217,-9.341834811493754e-05,0.002998496638610959
0.007773975376039743,0.004654725547879934,-0.007506207097321749,0.0025057608727365732,-9.072766260942444e-05,0.0037940468173474073
0.007747272029519081,0.004897251725196838,-0.007115991320461035,0.002675733296200633,-8.943962893681601e-05,0.0033881268464028835
0.008158180862665176,0.0048293545842170715,-0.00689304806292057,0.0026249929796904325,-8.818763308227062e-05,0.002898185048252344
0.007782967761158943,0.004741891287267208,-0.008196821436285973,0.0025010635145008564,-8.697023440618068e-05,0.002610723488032818
0.0076208715327084064,0.004721610341221094,-0.007892079651355743,0.0025654800701886415,-8.578596316510811e-05,0.0026054170448333025
0.007685428950935602,0.004395153373479843,-0.007455325219780207,0.0026314454153180122,-9.36136711970903e-05,0.0025558527559041977
0.007685428950935602,0.004395153373479843,-0.007455325219780207,0.0026314454153180122,-9.36136711970903e-05,0.0025558527559041977
0.007917202077805996,0.004551473073661327,-0.006821528077125549,0.003091872902587056,-9.523883636575192e-05,0.0029109057504683733
0.007847161963582039,0.005160597153007984,-0.007176244165748358,0.002946683904156089,-9.418005356565118e-05,0.0029939222149550915
0.007798291277140379,0.005074233282357454,-0.007365981116890907,0.002856744918972254,-9.297607175540179e-05,0.0028877281583845615
0.008154267445206642,0.004831625614315271,-0.007304172497242689,0.0026457265485078096,-9.179153857985511e-05,0.0026982633862644434
0.008237861096858978,0.004593648947775364,-0.007389135658740997,0.0023814106825739145,-9.063610923476517e-05,0.00259093358181417
0.007615996524691582,0.004468913190066814,-0.007604153361171484,0.002427315106615424,-8.95093908184208e-05,0.0026636826805770397
0.007647737395018339,0.004584696143865585,-0.007437225431203842,0.002718107309192419,-8.84103137650527e-05,0.0026895739138126373
0.008401792496442795,0.004722250159829855,-0.007510225288569927,0.002837394829839468,-8.733784488867968e-05,0.002738486509770155
0.008495037443935871,0.005130821373313665,-0.0069597759284079075,0.0030087644699960947,-8.629111107438803e-05,0.0027199634350836277
0.008027097210288048,0.005280934274196625,-0.006940517108887434,0.0029108277522027493,-8.526917372364551e-05,0.002801227383315563
0.008505742996931076,0.004645454231649637,-0.007315012626349926,0.002795384032651782,-9.345298167318106e-05,0.002770759630948305
0.008111233823001385,0.0045199207961559296,-0.0071871522814035416,0.002519425470381975,-0.0001001460914267227,0.002936805598437786
0.008057797327637672,0.004536486696451902,-0.006869777105748653,0.0025237526278942823,-9.852638322627172e-05,0.002855744445696473
0.008737185969948769,0.005020244512706995,-0.007213096600025892,0.002639134880155325,-9.443042654311284e-05,0.0026110848411917686
0.008737185969948769,0.005020244512706995,-0.007213096600025892,0.002639134880155325,-9.443042654311284e-05,0.0026110848411917686
0.008428231813013554,0.005508825182914734,-0.006943236570805311,0.002693190472200513,-9.248963760910556e-05,0.0026481582317501307
0.008055628277361393,0.005123560782521963,-0.006826584227383137,0.002744862576946616,-9.06269415281713e-05,0.0024964213371276855
0.008488594554364681,0.004558081738650799,-0.007248591165989637,0.002740650437772274,-9.757887164596468e-05,0.00256024906411767
0.008509522303938866,0.005098228342831135,-0.00819400791078806,0.0027571285609155893,-0.00010395210847491398,0.002268742537125945
0.007811450865119696,0.004947234410792589,-0.007139491382986307,0.0027560272719711065,-0.0001006419479381293,0.0023408180568367243
0.00848407857120037,0.004896760918200016,-0.006775636691600084,0.0027678010519593954,-9.880288416752592e-05,0.002649353351444006
0.00855046883225441,0.005156159400939941,-0.007158803287893534,0.003016358008608222,-9.702769602881745e-05,0.002865718211978674
0.007937788963317871,0.0050209891051054,-0.007232725154608488,0.003219535341486335,-0.00010912123980233446,0.0028705974109470844
0.008643221110105515,0.004628768190741539,-0.0070469980128109455,0.003088860772550106,-0.00010913630103459582,0.002488089259713888
0.008907007984817028,0.004862294066697359,-0.007135734893381596,0.00271645188331604,-0.00010740019934019074,0.002272372366860509
0.00827078614383936,0.004847864620387554,-0.007616486866027117,0.0027597390580922365,-0.0001056080000125803,0.0020256927236914635
0.008025727234780788,0.0049511948600411415,-0.007356255780905485,0.0027201541233807802,-0.0001038672708091326,0.0020403130911290646
0.008025727234780788,0.0049511948600411415,-0.007356255780905485,0.0027201541233807802,-0.0001038672708091326,0.0020403130911290646
0.008578617125749588,0.004925144836306572,-0.006796054542064667,0.0027374725323170424,-0.00010218270472250879,0.002404377795755863
0.008640727959573269,0.004973399918526411,-0.007022577803581953,0.0027214838191866875,-0.0001005517624435015,0.0023912310134619474
0.008038539439439774,0.004362887237221003,-0.007496585138142109,0.0028245721478015184,-9.897212294163182e-05,0.0023545005824416876
0.0082632414996624,0.004440691787749529,-0.007315886672586203,0.0028360935393720865,-9.744132694322616e-05,0.0021461700089275837
0.009096390567719936,0.004315806087106466,-0.007119244895875454,0.002868963871151209,-9.595715528121218e-05,0.002190221566706896
0.008179767988622189,0.004911397118121386,-0.00695886230096221,0.00323738856241107,-9.451757068745792e-05,0.0021446477621793747
0.007880161516368389,0.004949495196342468,-0.007222047541290522,0.003611407009884715,-9.967355435946956e-05,0.0019654524512588978
0.008408759720623493,0.004808417055755854,-0.007262031547725201,0.0033394405618309975,-0.00010443259088788182,0.0017844397807493806
0.009289992041885853,0.004265777766704559,-0.007200486958026886,0.003109189448878169,-0.00010333885438740253,0.00177571433596313
0.008056256920099258,0.004318343009799719,-0.007351758889853954,0.002873847959563136,-0.00010190269676968455,0.002012974349781871
0.008067998103797436,0.004544280003756285,-0.008256484754383564,0.002859613625332713,-0.00010048232797998935,0.0021068572532385588
0.008415238000452518,0.004704732913523912,-0.007989865727722645,0.0028489551041275263,-9.909940854413435e-05,0.0022701092530041933
0.00896887481212616,0.004407779313623905,-0.007078540977090597,0.0030587550718337297,-9.775396028999239e-05,0.002168636303395033
0.00803911779075861,0.004458999261260033,-0.006566988304257393,0.003243911312893033,-9.644456440582871e-05,0.0020252864342182875
0.008248802274465561,0.004139726050198078,-0.006915933918207884,0.003476853482425213,-0.00011682200420182198,0.0019690636545419693
0.008559080772101879,0.0042066979221999645,-0.007405294571071863,0.003301795804873109,-0.0001339894370175898,0.0019476419547572732
0.00860796868801117,0.004520232789218426,-0.007254158146679401,0.0031230049207806587,-0.00013142470561433583,0.0019355873810127378
0.008656328544020653,0.004188525024801493,-0.006910727825015783,0.00317462719976902,-0.00012778067321050912,0.0021675413008779287
0.008569642901420593,0.004638061858713627,-0.007454602047801018,0.0030045753810554743,-0.00012091901589883491,0.002138329204171896
0.008069955743849277,0.004355585668236017,-0.006978566292673349,0.002718917327001691,-0.00011775473831221461,0.001997967017814517
0.008069955743849277,0.004355585668236017,-0.006978566292673349,0.002718917327001691,-0.00011775473831221461,0.001997967017814517
0.009008889086544514,0.0044709546491503716,-0.006772574968636036,0.002823654329404235,-0.00011189816723344848,0.0019540635403245687
0.008276971988379955,0.004500323440879583,-0.008059454150497913,0.0030914228409528732,-0.00010918295447481796,0.0019108303822577
0.008522174321115017,0.00427209259942174,-0.007899733260273933,0.0034835762344300747,-0.00010659639519872144,0.0018212435534223914
0.009001463651657104,0.003996558487415314,-0.0070547424256801605,0.003370047314092517,-0.00012221781071275473,0.0018444409361109138
0.009001463651657104,0.003996558487415314,-0.0070547424256801605,0.003370047314092517,-0.00012221781071275473,0.0018444409361109138
0.008545473217964172,0.0043276892974972725,-0.006665898486971855,0.003557781456038356,-0.0001219507830683142,0.0018365368014201522
0.008200537413358688,0.004191616550087929,-0.007170608267188072,0.0034017309080809355,-0.00011941666161874309,0.0019091785652562976
0.008996790274977684,0.0043983194045722485,-0.007114247418940067,0.0034521971829235554,-0.00011684330820571631,0.00215076538734138
0.008797280490398407,0.004521024879068136,-0.006993062794208527,0.0036025168374180794,-0.00011436928616603836,0.001983313588425517
0.00899730995297432,0.004502316936850548,-0.006779186427593231,0.00320005533285439,-0.00011199722939636558,0.0018111892277374864
0.00873029138892889,0.004304531030356884,-0.007495660800486803,0.003023517085239291,-0.00010972149902954698,0.0017350888811051846
0.008748180232942104,0.004515802953392267,-0.007127956487238407,0.003396689658984542,-0.0001075364270946011,0.0016520872013643384
0.008607625029981136,0.004590381868183613,-0.006875078193843365,0.0033214567229151726,-0.00010543672397034243,0.0017122909193858504
0.009609179571270943,0.004689463414251804,-0.006887695752084255,0.0035502042155712843,-0.00010341741290176287,0.001704209833405912
0.00910929311066866,0.004692093934863806,-0.007445586379617453,0.004089926835149527,-0.00010147396824322641,0.0017279994208365679
0.008786903694272041,0.00475318543612957,-0.007745913229882717,0.004165523685514927,-9.960229363059625e-05,0.0017464212141931057
0.008421655744314194,0.004438713192939758,-0.006446769926697016,0.0035587733145803213,-9.77983872871846e-05,0.0016465409426018596
0.009344646707177162,0.004334608092904091,-0.007286961656063795,0.0034645739942789078,-9.605865488993004e-05,0.001678289147093892
0.009118085727095604,0.004654908087104559,-0.008086931891739368,0.003243296407163143,-9.437971311854199e-05,0.0015488251810893416
0.00912894681096077,0.004298048559576273,-0.007586059160530567,0.0034321865532547235,-0.00010423356434330344,0.0014867588179185987
0.0090482784435153,0.003987416159361601,-0.00677555613219738,0.003688359633088112,-0.00010613055201247334,0.0014174457173794508
0.0093527901917696,0.004457289818674326,-0.006711661349982023,0.004349032882601023,-0.00010460688645252958,0.0013455095468088984
0.008669924922287464,0.0047181760892271996,-0.007370438892394304,0.0040626791305840015,-0.0001029136692523025,0.0013878551544621587
0.009043078869581223,0.004670783411711454,-0.0075380755588412285,0.0037890425883233547,-0.00010126046981895342,0.0014160715509206057
0.009281340055167675,0.004697684198617935,-0.007173041347414255,0.003907388541847467,-9.965868957806379e-05,0.001424293266609311
0.008914780803024769,0.004612860735505819,-0.007380832452327013,0.003645340446382761,-9.660242358222604e-05,0.0014191356021910906
0.009102974086999893,0.004370004869997501,-0.007615783251821995,0.0035168002359569073,-9.514350676909089e-05,0.0012801799457520247
0.009158332832157612,0.0044573103077709675,-0.008173474110662937,0.004057292826473713,-0.00010367062350269407,0.0012014780659228563
0.008969215676188469,0.004774321336299181,-0.008276690728962421,0.00456286920234561,-0.00010532237502047792,0.0011427601566538215
0.009465949609875679,0.004647715948522091,-0.008187944069504738,0.004763726610690355,-0.00010400788596598431,0.0011397188063710928
0.009465949609875679,0.004647715948522091,-0.008187944069504738,0.004763726610690355,-0.00010400788596598431,0.0011397188063710928
0.009889492765069008,0.004607820417732,-0.008416748605668545,0.0042471205815672874,-0.00010254012886434793,0.0010943695669993758
0.009062961675226688,0.004549803677946329,-0.007795258425176144,0.0038676836993545294,-0.00010110119183082134,0.0011682544136419892
0.009534817188978195,0.004579473752528429,-0.00750157842412591,0.003756634658202529,-9.970126848202199e-05,0.0011684929486364126
0.009451028890907764,0.004190690815448761,-0.008847074583172798,0.003769699251279235,-9.833951480686665e-05,0.0015076627023518085
0.009091546759009361,0.0045082587748765945,-0.008330443874001503,0.0033472871873527765,-9.70144901657477e-05,0.001543631311506033
0.009586573578417301,0.004727719351649284,-0.007695043459534645,0.003380793146789074,-9.57246811594814e-05,0.0013784468173980713
0.009966690093278885,0.004574694205075502,-0.008337384089827538,0.00362497684545815,-9.446869808016345e-05,0.001239184639416635
0.009524283930659294,0.0046657901257276535,-0.008805997669696808,0.0038029393181204796,-9.324528946308419e-05,0.0011631670640781522
0.009623629041016102,0.004758619237691164,-0.00821620598435402,0.0037967823445796967,-9.205313835991547e-05,0.001042647985741496
0.009686294011771679,0.004238097928464413,-0.008218036033213139,0.00410046149045229,-9.089110972126946e-05,0.0009512481628917158
0.00988195464015007,0.004437013529241085,-0.008912276476621628,0.003238249570131302,-9.25087442738004e-05,0.0009316002251580358
0.009820270352065563,0.004498281516134739,-0.009053503163158894,0.0036862462293356657,-9.158893954008818e-05,0.000843381101731211
0.009469234384596348,0.004734219517558813,-0.00845385156571865,0.004094812087714672,-8.982353756437078e-05,0.0006627484108321369
0.009097618982195854,0.0047902874648571014,-0.00895609799772501,0.0045282868668437,-8.806966070551425e-05,0.000680348661262542
0.009946396574378014,0.004456315189599991,-0.009177420288324356,0.004208725411444902,-8.637939754407853e-05,0.0006974479765631258
0.010045201517641544,0.004530088044703007,-0.008761098608374596,0.003830129513517022,-8.475249342154711e-05,0.0007175319478847086
0.00945497490465641,0.0042537907138466835,-0.008982313796877861,0.0041260262951254845,-8.318576874444261e-05,0.0006681244121864438
0.010067841969430447,0.004045674577355385,-0.00929693691432476,0.00422358512878418,-8.167591295205057e-05,0.0007518140482716262
0.010069174692034721,0.004140489734709263,-0.009114286862313747,0.004095126409083605,-8.021988469408825e-05,0.0007762991590425372
0.009909051470458508,0.0048190029338002205,-0.008782826364040375,0.003938267007470131,-7.881482451921329e-05,0.0007409306126646698
0.010096258483827114,0.004825920332223177,-0.009295862168073654,0.0039044131990522146,-7.745819311821833e-05,0.0007068762788549066
0.010263296775519848,0.004851115867495537,-0.009089778177440166,0.003945159260183573,-7.614748028572649e-05,0.0006383858271874487
0.010382404550909996,0.004293613135814667,-0.009410304948687553,0.004031749442219734,-8.825779514154419e-05,0.0005864806589670479
0.00983720924705267,0.004414571449160576,-0.009286770597100258,0.003881582524627447,-8.695395808899775e-05,0.0005582008161582053
0.009265560656785965,0.004671741742640734,-0.008481865748763084,0.004260300192981958,-8.558347326470539e-05,0.0005190602969378233
0.010809773579239845,0.0047684404999017715,-0.008655217476189137,0.00423766952008009,-8.424876432400197e-05,0.0004842071211896837
0.010262306779623032,0.004715424031019211,-0.009435031563043594,0.004471268504858017,-8.295454608742148e-05,0.00045368296559900045
0.009558403864502907,0.004733136855065823,-0.009258847683668137,0.004585284274071455,-8.169945795089006e-05,0.00038345687789842486
0.009970461949706078,0.004225455690175295,-0.009363267570734024,0.004282956011593342,-8.048183372011408e-05,0.00034891237737610936
0.01093542855232954,0.0039030013140290976,-0.009146868251264095,0.004113662987947464,-7.929988350952044e-05,0.0003234960313420743
0.009996948763728142,0.0038039565552026033,-0.008551733568310738,0.003984667360782623,-7.815227581886575e-05,0.0003578962350729853
0.009996948763728142,0.0038039565552026033,-0.008551733568310738,0.003984667360782623,-7.815227581886575e-05,0.0003578962350729853
0.009572979062795639,0.0043114605359733105,-0.008756146766245365,0.004276997875422239,-7.703730807406828e-05,0.00033907382749021053
0.01049816980957985,0.004633774980902672,-0.009250103496015072,0.004437974188476801,-7.595374336233363e-05,0.00031925796065479517
0.009544679895043373,0.004669550806283951,-0.008426368236541748,0.004254733212292194,-7.490023563150316e-05,0.00030144385527819395
0.010253958404064178,0.004724216181784868,-0.008301546797156334,0.0043236687779426575,-7.387556979665533e-05,0.00032668435596860945
0.010010420344769955,0.0042497930116951466,-0.009505284950137138,0.004325252491980791,-7.287853077286854e-05,0.00031593567109666765
0.010677443817257881,0.003942389972507954,-0.008833895437419415,0.004082446452230215,-7.19080853741616e-05,0.0003011967637576163
0.010219690389931202,0.004278130363672972,-0.008874043822288513,0.0042870137840509415,-8.124736632453278e-05,0.00028747241594828665
0.009833032265305519,0.00432411627843976,-0.008742687292397022,0.004443831741809845,-8.161569712683558e-05,0.0002749266568571329
0.010007007047533989,0.004434722010046244,-0.00879022665321827,0.004349008668214083,-8.066350710578263e-05,0.000263428024481982
0.010481140576303005,0.004395634401589632,-0.008601185865700245,0.0044547272846102715,-7.96497697592713e-05,0.0002528532058931887
0.009918826632201672,0.0044937157072126865,-0.008578559383749962,0.004609240684658289,-7.865572115406394e-05,0.00024309559375979006
0.010126052424311638,0.004438239149749279,-0.008990063332021236,0.004745577462017536,-7.768583600409329e-05,0.0002340620558243245
0.010276585817337036,0.004112492315471172,-0.009195425547659397,0.004712590016424656,-7.673956133658066e-05,0.000225676572881639
0.00989275798201561,0.00403713108971715,-0.008364439941942692,0.004770839121192694,-7.581606041640043e-05,0.00021787098376080394
0.010674625635147095,0.004020331427454948,-0.008907591924071312,0.004667998757213354,-7.491451106034219e-05,0.00021058744459878653
0.011189673095941544,0.004448982886970043,-0.009066781960427761,0.004836373496800661,-7.403418567264453e-05,0.00020377500914037228
0.010115869343280792,0.004867115989327431,-0.008637353777885437,0.004977820906788111,-8.094099757727236e-05,0.00019739016715902835
0.010152021422982216,0.004997154697775841,-0.009120902977883816,0.005112429615110159,-8.249221718870103e-05,0.00019139284268021584
0.010079865343868732,0.003999004606157541,-0.008460266515612602,0.004765267483890057,-8.081116538960487e-05,0.00018042890587821603
0.01056443341076374,0.004003162030130625,-0.008822512812912464,0.00466256495565176,-7.991492020664737e-05,0.0001754049735609442
0.010900868102908134,0.004091031849384308,-0.008992142044007778,0.004926432389765978,-2.0307537852204405e-05,0.00017065333668142557
0.010021775960922241,0.00403570057824254,-0.00913240760564804,0.005136136896908283,-1.3259370916784974e-06,0.00016615234198980033
0.010501068085432053,0.0044237361289560795,-0.008314009755849838,0.005358194466680288,-9.113009582506493e-05,0.00016188282461371273
0.010649088770151138,0.004842377733439207,-0.008916107006371021,0.0051208012737333775,-9.643450903240591e-05,0.00015782704576849937
0.012344594113528728,0.004330320283770561,-0.009244379587471485,0.004808904603123665,-9.48754241107963e-05,0.00015396960952784866
0.012465083971619606,0.003913011401891708,-0.008690066635608673,0.004937949124723673,-9.294660412706435e-05,0.00015029628411866724
0.011793619021773338,0.003744282526895404,-0.009039454162120819,0.004985522013157606,-9.106765355682e-05,0.00014705240027979016
0.012442435137927532,0.003961786162108183,-0.009040574543178082,0.0053573246113955975,-9.8043805337511e-05,6.125154322944582e-05
0.011949446983635426,0.003885809099301696,-0.008992951363325119,0.005493284668773413,-0.00010443800420034677,5.4110940254759043e-05
0.011949446983635426,0.003885809099301696,-0.008992951363325119,0.005493284668773413,-0.00010443800420034677,5.4110940254759043e-05
0.012569642625749111,0.003940791357308626,-0.009622745215892792,0.005171636585146189,-0.0001157369333668612,5.070228871772997e-05
0.012569642625749111,0.003940791357308626,-0.009622745215892792,0.005171636585146189,-0.0001157369333668612,5.070228871772997e-05
0.012439287267625332,0.004495940636843443,-0.008439703844487667,0.005153876729309559,-0.00011563504085643217,4.93117404403165e-05
0.012426115572452545,0.004159881267696619,-0.008429632522165775,0.004966719541698694,-0.0001257338881259784,2.5608153009670787e-05
0.012095664627850056,0.00392812117934227,-0.009209297597408295,0.005182842258363962,-0.00012735408381558955,2.3480079107685015e-05
0.012267346493899822,0.003911440260708332,-0.008430307731032372,0.005530406720936298,-0.0002959324629046023,2.2790087314206176e-05
0.01232057437300682,0.003918384667485952,-0.00809074379503727,0.005542371422052383,-0.0003285133570898324,1.1303050996502861e-05
0.012913722544908524,0.004210886545479298,-0.008955894969403744,0.005443091969937086,-0.00030946300830692053,7.380084525721031e-07
0.013028337620198727,0.0042609707452356815,-0.008824947290122509,0.005012174602597952,-0.00034366821637377143,4.818668131179038e-08
0.012797842733561993,0.004463856108486652,-0.008470024913549423,0.005323308520019054,-0.0003529149980749935,3.1462457084074913e-09
0.012618022039532661,0.004356273449957371,-0.008714484982192516,0.005518115591257811,-0.0003575364826247096,2.054273834373177e-10
0.012692376971244812,0.004034373909235001,-0.009182288311421871,0.0055157821625471115,-0.00033985660411417484,1.3412940029489118e-11
0.01339042466133833,0.0038095370400696993,-0.008752521127462387,0.005197182763367891,-0.0003450377844274044,8.757691295248338e-13
0.01264327671378851,0.00401771767064929,-0.009368641301989555,0.005210075061768293,-0.0003342919226270169,3.733541236995664e-15
0.012474793940782547,0.0038336492143571377,-0.008973939344286919,0.005158133804798126,-0.00037500588223338127,-0.0006996561423875391
0.012792411260306835,0.004282924812287092,-0.008996534161269665,0.005191764794290066,-0.0003950471873395145,-0.0008675723220221698
0.012573370710015297,0.00407247943803668,-0.009100550785660744,0.005064864177256823,-0.0004201302072033286,-0.0008323040092363954
0.012573370710015297,0.00407247943803668,-0.009100550785660744,0.005064864177256823,-0.0004201302072033286,-0.0008323040092363954
0.012721422128379345,0.00435685133561492,-0.009325751103460789,0.005170320626348257,-0.0004054733435623348,-0.0007843537605367601
0.013008196838200092,0.004133268725126982,-0.008559728041291237,0.005262920167297125,-0.00040876632556319237,-0.0007736854022368789
0.012751176953315735,0.0035104905255138874,-0.008849458768963814,0.0050665223971009254,-0.00041026563849300146,-0.0007256722892634571
0.012966216541826725,0.003980322740972042,-0.009259807877242565,0.005438046995550394,-0.0004383459163364023,-0.0008011171012185514
0.01299676951020956,0.004245016723871231,-0.008744509890675545,0.005565053783357143,-0.0005953372456133366,-0.0009002639562822878
0.013025309890508652,0.004114340990781784,-0.008872367441654205,0.005590168759226799,-0.000550246040802449,-0.0011421773815527558
0.013100161217153072,0.0039657107554376125,-0.009386399760842323,0.005432425066828728,-0.0004918348276987672,-0.001322061405517161
0.014095115475356579,0.0039013440255075693,-0.00931309163570404,0.005568601191043854,-0.0005082556745037436,-0.001350734499283135
0.0127065135166049,0.004139520227909088,-0.009120108559727669,0.0054549272172153,-0.000482763018226251,-0.0013112617889419198
0.012962128967046738,0.004209307953715324,-0.009832881391048431,0.0059065381065011024,-0.00044431560672819614,-0.0013010690454393625
0.013519388623535633,0.004087650682777166,-0.008939194492995739,0.005511475261300802,-0.0004105884290765971,-0.001310244551859796
0.013151668943464756,0.004001665860414505,-0.008578671142458916,0.00580088933929801,-0.00044068595161661506,-0.0013122231466695666
0.013342778198421001,0.00396324135363102,-0.009138396009802818,0.005423446651548147,-0.00041546617285348475,-0.0014159855199977756
0.013020562939345837,0.0040391660295426846,-0.009026278741657734,0.005353350657969713,-0.00038998640957288444,-0.0015818597748875618
0.013298580422997475,0.0040078009478747845,-0.008808090351521969,0.005603088065981865,-0.00036725777317769825,-0.0017146924510598183
0.013099528849124908,0.004177804104983807,-0.009151286445558071,0.005209295079112053,-0.0003470212977845222,-0.0016276085516437888
0.013591037131845951,0.004117659293115139,-0.009373633190989494,0.005647639743983746,-0.00036355393240228295,-0.0016209990717470646
0.013080005533993244,0.004354975186288357,-0.009072053246200085,0.0055178995244205,-0.0003564223588909954,-0.0015981750329956412
0.013255261816084385,0.004218871705234051,-0.009110959246754646,0.0053234584629535675,-0.0003402837028261274,-0.0015713170869275928
0.013402608223259449,0.004398008342832327,-0.009413784369826317,0.005491925869137049,-0.0003249682777095586,-0.0016317565459758043
0.013668874278664589,0.004338869825005531,-0.00883506890386343,0.006120608653873205,-0.0003109336830675602,-0.0018830240005627275
0.013730358332395554,0.004333192016929388,-0.009605472907423973,0.00585210183635354,-0.000286208582110703,-0.0022165884729474783
0.013572264462709427,0.0043661161325871944,-0.00977821834385395,0.0059452904388308525,-0.0002752644068095833,-0.0022052228450775146
0.013495700433850288,0.004309389740228653,-0.008854771964251995,0.005928534548729658,-0.0002651266404427588,-0.0022007275838404894
0.013702312484383583,0.004349471069872379,-0.009698335081338882,0.006162683479487896,-0.00025570913567207754,-0.002024618908762932
0.013759722001850605,0.00402250699698925,-0.009517927654087543,0.005746646784245968,-0.00024693808518350124,-0.0020698164589703083
0.013759722001850605,0.00402250699698925,-0.009517927654087543,0.005746646784245968,-0.00024693808518350124,-0.0020698164589703083
0.014228223823010921,0.0038886989932507277,-0.009323966689407825,0.005796902347356081,-0.00023874861653894186,-0.00203368510119617
0.013762603513896465,0.004474174231290817,-0.010783442296087742,0.005702557973563671,-0.0002310851850779727,-0.0020533192437142134
0.013862809166312218,0.004730845335870981,-0.009697219356894493,0.0058828056789934635,-0.0002238984452560544,-0.001925282645970583
0.01357342954725027,0.004329719115048647,-0.009317539632320404,0.006162594072520733,-0.000181419265572913,-0.002043632324784994
0.014168381690979004,0.004218284506350756,-0.009959698654711246,0.005911353975534439,-0.00016370958473999053,-0.002475608140230179
0.013778376393020153,0.004009566269814968,-0.01065392792224884,0.005649879574775696,-0.00015726094716228545,-0.0033183929044753313
0.014179084450006485,0.0038689570501446724,-0.010606475174427032,0.005325776990503073,-0.00015190425619948655,-0.0034438648726791143
0.013526116497814655,0.004328216426074505,-0.010368607006967068,0.006185054779052734,-0.00014694016135763377,-0.0030269918497651815
0.014105395413935184,0.004676479380577803,-0.010125645436346531,0.0067630247212946415,-0.00014229328371584415,-0.0028119664639234543
0.013605399057269096,0.0043599409982562065,-0.010322892107069492,0.006492996122688055,-0.00013793128891848028,-0.002659946447238326
0.013960090465843678,0.003994801081717014,-0.011205137707293034,0.006105334032326937,-0.00015879354032222182,-0.0027481825090944767
0.013759477064013481,0.004302981309592724,-0.010326611809432507,0.006196143571287394,-0.00015583868662361056,-0.002859255997464061
0.014202051796019077,0.004166263621300459,-0.010103737935423851,0.006410216446965933,-0.0001515703770564869,-0.003189544193446636
0.01389981061220169,0.003919739741832018,-0.010543892160058022,0.006231279578059912,-0.00014743866631761193,-0.0034071821719408035
0.013666488230228424,0.003986071795225143,-0.010230619460344315,0.00605623796582222,-0.0001435203303117305,-0.003365968819707632
0.013642947189509869,0.004002977628260851,-0.010484579019248486,0.005966302938759327,-0.00013980429503135383,-0.0030837554950267076
0.01428441982716322,0.00390418223105371,-0.010715702548623085,0.005889825522899628,-0.00014743368956260383,-0.002921751467511058
0.014100351370871067,0.0037748718168586493,-0.010858030989766121,0.006423981860280037,-0.00015432036889251322,-0.0027441801503300667
0.014527109451591969,0.004187752492725849,-0.011255117133259773,0.007205519359558821,-0.0001512998715043068,-0.003321873489767313
0.014679528772830963,0.004295562859624624,-0.010031894780695438,0.006371952593326569,-0.00014441012172028422,-0.003788152476772666
0.014073166064918041,0.004247114062309265,-0.01152009516954422,0.006850257981568575,-0.00014117428509052843,-0.0034505948424339294
0.014020301401615143,0.004076468758285046,-0.011026990599930286,0.0073782396502792835,-0.00013807982031721622,-0.003555773524567485
0.013955062255263329,0.004460998810827732,-0.010295683518052101,0.007057004142552614,-0.00014461023965850472,-0.0038460891228169203
0.013955062255263329,0.004460998810827732,-0.010295683518052101,0.007057004142552614,-0.00014461023965850472,-0.0038460891228169203
0.014237945899367332,0.004116822499781847,-0.010439756326377392,0.007340418174862862,-0.0001480275095673278,-0.003542735707014799
0.014318286441266537,0.004116998054087162,-0.010851814411580563,0.00784397218376398,-0.00014508282765746117,-0.0035210526548326015
0.014318286441266537,0.004116998054087162,-0.010851814411580563,0.00784397218376398,-0.00014508282765746117,-0.0035210526548326015
0.014395591802895069,0.00440709525719285,-0.010618292726576328,0.006917163264006376,-0.0001422194909537211,-0.0032236753031611443
0.014408529736101627,0.0044925035908818245,-0.009836770594120026,0.006531630642712116,-0.00015786667063366622,-0.0033324784599244595
0.01392288412898779,0.004685867577791214,-0.01096284482628107,0.006688215304166079,-0.0001696033141342923,-0.0035465052351355553
0.014421513304114342,0.004494781605899334,-0.010553278960287571,0.006865854375064373,-0.00016455665172543377,-0.003627565922215581
0.01479358971118927,0.0040612295269966125,-0.010624983347952366,0.007263534236699343,-0.0001588235900271684,-0.003706095740199089
0.014709586277604103,0.004161245655268431,-0.010939511470496655,0.007027598097920418,-0.00015341320249717683,-0.0036665466614067554
0.014959963969886303,0.0045675355941057205,-0.010842538438737392,0.006819535978138447,-0.00014835521869827062,-0.0036883677821606398
0.014961764216423035,0.004737831652164459,-0.011455212719738483,0.007140127941966057,-0.0001577056827954948,-0.003598366631194949
0.014762393198907375,0.004867973271757364,-0.011314446106553078,0.006952314171940088,-0.00016605709970463067,-0.003624304663389921
0.014607066288590431,0.004723391495645046,-0.01036880910396576,0.007254713214933872,-0.00016193960618693382,-0.0040933797135949135
0.01433477085083723,0.004328610375523567,-0.010927025228738785,0.0068924096412956715,-0.00015727880236227065,-0.004407744389027357
0.014860273338854313,0.004281039349734783,-0.010876188054680824,0.006706023123115301,-0.00017659096920397133,-0.004217469599097967
0.014830381609499454,0.0044481814838945866,-0.010482541285455227,0.007104651536792517,-0.0001732834061840549,-0.00399499386548996
0.015134547837078571,0.004343141335994005,-0.010996583849191666,0.007207444403320551,-0.00016874293214641511,-0.003902693744748831
0.015132743865251541,0.004518340807408094,-0.010862419381737709,0.007338327821344137,-0.00018625149095896631,-0.0035807741805911064
0.015478112734854221,0.004432011861354113,-0.011050858534872532,0.007505966816097498,-0.00018294790061190724,-0.003535251133143902
0.014972873032093048,0.00421518087387085,-0.011039238423109055,0.007856245152652264,-0.00023569253971800208,-0.004106768406927586
0.015343883074820042,0.004305530339479446,-0.010261106304824352,0.007144118193536997,-0.00027537939604371786,-0.004626886453479528
0.015873173251748085,0.0043011619709432125,-0.011350520886480808,0.00677941320464015,-0.00024854246294125915,-0.004371169954538345
0.015577885322272778,0.004628615919500589,-0.010249135084450245,0.007484516128897667,-0.0002794061438180506,-0.004099806305021048
0.015478001907467842,0.00445127347484231,-0.010773812420666218,0.00741147855296731,-0.0002683773636817932,-0.0042448490858078
0.015382697805762291,0.0042632282711565495,-0.010479033924639225,0.007204617373645306,-0.00025584586546756327,-0.0045020184479653835
0.015990398824214935,0.004238611552864313,-0.010450871661305428,0.007061556912958622,-0.00026417578919790685,-0.004628696013242006
0.016084637492895126,0.004461503122001886,-0.010930422693490982,0.007640256080776453,-0.0002712993882596493,-0.004503956064581871
0.016084637492895126,0.004461503122001886,-0.010930422693490982,0.007640256080776453,-0.0002712993882596493,-0.004503956064581871
0.015133718028664589,0.004104523919522762,-0.010506780818104744,0.007391834631562233,-0.0002612565003801137,-0.004499528557062149
0.01593540981411934,0.003898708848282695,-0.01109541766345501,0.0070842173881828785,-0.00025092752184718847,-0.004214196000248194
0.016006266698241234,0.00433608703315258,-0.011066859588027,0.006984121631830931,-0.0002413193287793547,-0.004298194777220488
0.016108054667711258,0.004171569366008043,-0.010641103610396385,0.007231158670037985,-0.0002569740463513881,-0.004570433869957924
0.015651339665055275,0.004353113006800413,-0.011665180325508118,0.007813938893377781,-0.00025560191716067493,-0.004759723320603371
0.0161223616451025,0.00438260193914175,-0.010686817578971386,0.007455105893313885,-0.0002473273780196905,-0.004803972784429789
0.015887631103396416,0.004174383357167244,-0.010584095492959023,0.007258794270455837,-0.00023914419580250978,-0.004561205394566059
0.01631772518157959,0.00393698550760746,-0.011113214306533337,0.007509151939302683,-0.00027254348970018327,-0.004383482038974762
0.01655893586575985,0.004300282336771488,-0.010697016492486,0.00717086112126708,-0.0002629429509397596,-0.0048609268851578236
0.016067449003458023,0.004494572523981333,-0.010831449180841446,0.007210555020719767,-0.0002488131867721677,-0.0050913249142467976
0.01634453982114792,0.004337986931204796,-0.009694141335785389,0.007429935038089752,-0.00027058206615038216,-0.004571838770061731
0.016039827838540077,0.0044702934101223946,-0.011084561236202717,0.007508842274546623,-0.0002680581819731742,-0.004515114240348339
0.01661510579288006,0.004443857818841934,-0.011768592521548271,0.007809570524841547,-0.0002560582652222365,-0.004922471474856138
0.01661684177815914,0.004340849816799164,-0.010998791083693504,0.007603874430060387,-0.00024450759519822896,-0.005138777196407318
0.01674528606235981,0.004400460980832577,-0.011014771647751331,0.007457757834345102,-0.0002702416677493602,-0.005773829761892557
0.016511349007487297,0.004077129531651735,-0.011033893562853336,0.00804050825536251,-0.00026139625697396696,-0.005419075023382902
0.016732502728700638,0.0045003099367022514,-0.010354438796639442,0.008173863403499126,-0.00028456648578867316,-0.004742368124425411
0.016766101121902466,0.004229086916893721,-0.011198141612112522,0.00829206220805645,-0.00027642809436656535,-0.004757982213050127
0.016341635957360268,0.004414980299770832,-0.011445936746895313,0.007967358455061913,-0.0003807942266575992,-0.005350141320377588
0.016576742753386497,0.004780296236276627,-0.011448271572589874,0.007865275256335735,-0.00036507085314951837,-0.005321428179740906
0.016490695998072624,0.0042926594614982605,-0.010874487459659576,0.00795785989612341,-0.0003696368366945535,-0.004987428896129131
0.016375092789530754,0.003939144778996706,-0.011271401308476925,0.008342685177922249,-0.00034775782842189074,-0.00475290697067976
0.01623164489865303,0.0044318740256130695,-0.011216679587960243,0.008212169632315636,-0.0003775132936425507,-0.004581911023706198
0.016676539555191994,0.0046088858507573605,-0.010604947805404663,0.007682749070227146,-0.000384307379135862,-0.005053387954831123
0.01658189482986927,0.004392421338707209,-0.011085160076618195,0.007814274169504642,-0.0003869717475026846,-0.005140266846865416
0.01658189482986927,0.004392421338707209,-0.011085160076618195,0.007814274169504642,-0.0003869717475026846,-0.005140266846865416
0.017162417992949486,0.004479215480387211,-0.010861136950552464,0.00824830774217844,-0.00043331729830242693,-0.005337807349860668
0.01671796292066574,0.004596663638949394,-0.011021683923900127,0.008360281586647034,-0.0004523597890511155,-0.005180770065635443
0.017034733667969704,0.004111154470592737,-0.011765829287469387,0.008138422854244709,-0.00049178785411641,-0.005172917153686285
0.017120765522122383,0.004394025541841984,-0.011194432154297829,0.007079442031681538,-0.0005112826474942267,-0.005369707942008972
0.01704745553433895,0.004703996703028679,-0.011342586018145084,0.008412514813244343,-0.0004891613498330116,-0.0054344069212675095
0.017624787986278534,0.004333904013037682,-0.01107263844460249,0.008915672078728676,-0.0005110937054269016,-0.005374403670430183
0.017055319622159004,0.004224023781716824,-0.010916448198258877,0.008350656367838383,-0.0004859587352257222,-0.005196760408580303
0.017420487478375435,0.00414638314396143,-0.011651459150016308,0.008286315947771072,-0.0006214367458596826,-0.00507835578173399
0.01747247390449047,0.0043807909823954105,-0.011346063576638699,0.00809421855956316,-0.0006535420543514192,-0.005253209732472897
0.01781964860856533,0.004041632171720266,-0.011380513198673725,0.007581302896142006,-0.0006429465138353407,-0.00529380701482296
0.018623054027557373,0.004395127296447754,-0.011303592473268509,0.008011282421648502,-0.0006230024737305939,-0.0059440420009195805
0.01824374310672283,0.004497212823480368,-0.010860750451683998,0.008641316555440426,-0.0006396033568307757,-0.005617578513920307
0.017330603674054146,0.004328995011746883,-0.011648510582745075,0.00858024600893259,-0.0006738537922501564,-0.00562113244086504
0.017956193536520004,0.004409969784319401,-0.011758076958358288,0.007860527373850346,-0.0007160596433095634,-0.005267827771604061
0.017466560006141663,0.00461164815351367,-0.012098816223442554,0.008097656071186066,-0.0006853808299638331,-0.005416278261691332
0.018156446516513824,0.00455072894692421,-0.011879237368702888,0.008630102500319481,-0.0006605108501389623,-0.005664525553584099
0.01834656298160553,0.00433217640966177,-0.01137283630669117,0.00889576319605112,-0.0006376422243192792,-0.006084983702749014
0.018099602311849594,0.004511677194386721,-0.012032891623675823,0.008625570684671402,-0.0005816067568957806,-0.006139283534139395
0.018092390149831772,0.004811542574316263,-0.012364496476948261,0.008921421132981777,-0.0004910373827442527,-0.00602532597258687
0.018115099519491196,0.0049057952128350735,-0.011719447560608387,0.00853358767926693,-0.00045550792128778994,-0.006038315128535032
0.01926092803478241,0.00422654626891017,-0.01152542233467102,0.009142632596194744,-0.0004247745673637837,-0.006128136999905109
0.018801342695951462,0.0032288902439177036,-0.01206838246434927,0.008622306399047375,-0.00039792805910110474,-0.0064375135116279125
0.018283337354660034,0.002948357257992029,-0.011847437359392643,0.008290505968034267,-0.0003742752014659345,-0.006256789900362492
0.019410885870456696,0.003059619339182973,-0.012738073244690895,0.008182934485375881,-0.00035327894147485495,-0.006400367245078087
0.018090398982167244,0.003594229696318507,-0.012549737468361855,0.008477765135467052,-0.0003345128207001835,-0.006429473869502544
0.018090398982167244,0.003594229696318507,-0.012549737468361855,0.008477765135467052,-0.0003345128207001835,-0.006429473869502544
0.01867021434009075,0.004321002867072821,-0.012362233363091946,0.008912923745810986,-0.00035692588426172733,-0.006371588911861181
0.01918931119143963,0.0036744086537510157,-0.012135045602917671,0.008766643702983856,-0.0003451904922258109,-0.006329033058136702
0.01926071010529995,0.003419627668336034,-0.01242348924279213,0.009389407932758331,-0.00032973018824122846,-0.006096068769693375
0.019443893805146217,0.0034394175745546818,-0.01258273608982563,0.009252705611288548,-0.0003153100551571697,-0.006333288736641407
0.019311124458909035,0.0034293332137167454,-0.012121990323066711,0.008042869158089161,-0.00030207925010472536,-0.006545549724251032
0.01893043890595436,0.003524663159623742,-0.012877282686531544,0.008101539686322212,-0.00028991352883167565,-0.006670675706118345
0.019355520606040955,0.003710194956511259,-0.012507729232311249,0.008351814933121204,-0.0002788950514513999,-0.006775426212698221
0.019676055759191513,0.003416525898501277,-0.012565097771584988,0.008337713778018951,-0.00021681285579688847,-0.00624812301248312
0.019383981823921204,0.0036155611742287874,-0.012597025372087955,0.008195430040359497,-0.0002038041566265747,-0.006579659879207611
0.019618982449173927,0.003798534395173192,-0.012322253547608852,0.008354529738426208,-0.00019477226305752993,-0.006824034731835127
0.019722796976566315,0.0038720211014151573,-0.013092929497361183,0.008491402491927147,-0.00018667694530449808,-0.006941529922187328
0.019437095150351524,0.003453895915299654,-0.012593314051628113,0.008741984143853188,-0.0001792391703929752,-0.006862114183604717
0.01981152407824993,0.0035415953025221825,-0.013399013318121433,0.009116210974752903,-0.0001723721215967089,-0.00661803362891078
0.02055084891617298,0.003743535140529275,-0.012739589437842369,0.009490659460425377,-0.00016601203242316842,-0.0066330041736364365
0.02044745162129402,0.003292802022770047,-0.013500354252755642,0.00933301541954279,-0.00016010453691706061,-0.006940082646906376
0.020056258887052536,0.0033643930219113827,-0.012995380908250809,0.009887310676276684,-0.00015460298163816333,-0.007159186061471701
0.020199354737997055,0.0035434069577604532,-0.013376734219491482,0.009717844426631927,-0.00017734170251060277,-0.0070158373564481735
0.02032492868602276,0.0035006836988031864,-0.01335727795958519,0.009366787038743496,-0.0001734622346702963,-0.007573420647531748
0.020482998341321945,0.003512559225782752,-0.01321311667561531,0.008707096800208092,-0.0001681782741798088,-0.007938486523926258
0.02019858919084072,0.0036162876058369875,-0.013347151689231396,0.009706846438348293,-0.00018323688709642738,-0.008122122846543789
0.02017505094408989,0.003939264919608831,-0.013772739097476006,0.009186578914523125,-0.00018425050075165927,-0.008157550357282162
0.02042018622159958,0.003593006869778037,-0.01348732877522707,0.009747504256665707,-0.00019855030404869467,-0.008239148184657097
0.02080882340669632,0.003459602827206254,-0.013866361230611801,0.009555082768201828,-0.0001944028481375426,-0.008060893043875694
0.02039172314107418,0.0032455255277454853,-0.013058731332421303,0.009061593562364578,-0.00024835337535478175,-0.008163699880242348
0.02039172314107418,0.0032455255277454853,-0.013058731332421303,0.009061593562364578,-0.00024835337535478175,-0.008163699880242348
0.020756220445036888,0.004101905971765518,-0.01305700745433569,0.00937634613364935,-0.00030621173209510744,-0.008191438391804695
0.02086721360683441,0.0038520111702382565,-0.013275192119181156,0.009220477193593979,-0.0003344150318298489,-0.007726660463958979
0.02086721360683441,0.0038520111702382565,-0.013275192119181156,0.009220477193593979,-0.0003344150318298489,-0.007726660463958979
0.020569436252117157,0.003953882958739996,-0.012882696464657784,0.009605035185813904,-0.0003300049575045705,-0.007527032867074013
0.02065478265285492,0.0038699719589203596,-0.013654133304953575,0.009550525806844234,-0.0007260487764142454,-0.007411086466163397
0.020893726497888565,0.0036182841286063194,-0.013125911355018616,0.009444424882531166,-0.000771373335737735,-0.007538342382758856
0.02082367241382599,0.0034423971083015203,-0.01418193057179451,0.009898688644170761,-0.0006834435043856502,-0.0069227213971316814
0.020876426249742508,0.0036276280879974365,-0.013395489193499088,0.010209936648607254,-0.0006940022576600313,-0.007248167879879475
0.020788919180631638,0.004012964200228453,-0.013213260099291801,0.009649300016462803,-0.0006356959929689765,-0.006840299349278212
0.021455582231283188,0.004133500624448061,-0.01370428316295147,0.010274811647832394,-0.0006491984240710735,-0.007209374103695154
0.021892769262194633,0.00393309909850359,-0.013745547272264957,0.01012382097542286,-0.0006043746252544224,-0.007438423577696085
0.02128370851278305,0.004350395407527685,-0.014116940088570118,0.009313065558671951,-0.0005581228761002421,-0.007442597299814224
0.021030690521001816,0.00419536093249917,-0.01309678889811039,0.009289753623306751,-0.0005156752886250615,-0.00784500502049923
0.020802853628993034,0.004456620197743177,-0.013741306960582733,0.009548716247081757,-0.00046166570973582566,-0.00789063610136509
0.020871756598353386,0.0042085046879947186,-0.013867838308215141,0.009626097045838833,-0.0004185932339169085,-0.008064520545303822
0.020965592935681343,0.0040346719324588776,-0.014364670030772686,0.00985473021864891,-0.0004489427083171904,-0.007865983992815018
0.021492887288331985,0.003941395785659552,-0.013466172851622105,0.01031720545142889,-0.00042275397572666407,-0.00757251214236021
0.021406684070825577,0.004326449241489172,-0.014154106378555298,0.009710533544421196,-0.0004534162289928645,-0.007966476492583752
0.021110493689775467,0.004241923801600933,-0.013672770000994205,0.010351321659982204,-0.00042669748654589057,-0.008035312406718731
0.02124984934926033,0.004317939281463623,-0.014075623825192451,0.01016534399241209,-0.00044923851964995265,-0.007925482466816902
0.02204062044620514,0.004053928889334202,-0.013694720342755318,0.009992851875722408,-0.0004292107478249818,-0.008084896951913834
0.021433575078845024,0.0037876213900744915,-0.014291767962276936,0.010668565519154072,-0.00040547241223976016,-0.0076368809677660465
0.021154753863811493,0.00422130711376667,-0.01358984224498272,0.010733044706285,-0.00042301235953345895,-0.007997035048902035
0.021110236644744873,0.004146053921431303,-0.01396904606372118,0.010729590430855751,-0.00039961232687346637,-0.008011110126972198
0.021565483883023262,0.004430931527167559,-0.014266371726989746,0.01074137445539236,-0.0004068222770001739,-0.00747413095086813
0.021840078756213188,0.0046182251535356045,-0.013425560668110847,0.010558592155575752,-0.00043812146759591997,-0.00799446552991867
0.021051328629255295,0.004335090517997742,-0.014064827933907509,0.010560238733887672,-0.0004419849719852209,-0.00827776174992323
0.02231897972524166,0.00401082169264555,-0.013930480927228928,0.010374416597187519,-0.0004415177972987294,-0.008364137262105942
0.02208028919994831,0.003794528543949127,-0.014547591097652912,0.010804328136146069,-0.0005767433322034776,-0.008303248323500156
0.02208028919994831,0.003794528543949127,-0.014547591097652912,0.010804328136146069,-0.0005767433322034776,-0.008303248323500156
0.021386267617344856,0.004078933969140053,-0.014121945947408676,0.0103219049051404,-0.0006320487591437995,-0.008158153854310513
0.021341511979699135,0.004050784278661013,-0.014125403948128223,0.010421162471175194,-0.0006551839760504663,-0.008815557695925236
0.02189321629703045,0.004381299484521151,-0.013907415792346,0.01028303150087595,-0.0006456217379309237,-0.008243287913501263
0.02206449769437313,0.00456235883757472,-0.014363029040396214,0.01016851793974638,-0.0006277008214965463,-0.008143037557601929
0.02198209799826145,0.004723278805613518,-0.01402781717479229,0.010305128060281277,-0.0006711094174534082,-0.008282607421278954
0.021847037598490715,0.004467664286494255,-0.013852308504283428,0.010914042592048645,-0.0007257917313836515,-0.008691276423633099
0.02231084741652012,0.004074087832123041,-0.013727454468607903,0.010354576632380486,-0.0006942511536180973,-0.009187878109514713
0.022510040551424026,0.0041913846507668495,-0.013439754024147987,0.010658717714250088,-0.0007142082904465497,-0.008939613588154316
0.022455012425780296,0.0044777351431548595,-0.014058226719498634,0.010861781425774097,-0.0006917522987350821,-0.00849892757833004
0.02230168506503105,0.004721198230981827,-0.013690128922462463,0.010134170763194561,-0.0006680210935883224,-0.008749938569962978
0.02268146350979805,0.0050202105194330215,-0.013910404406487942,0.01027905847877264,-0.0007003581267781556,-0.009125964716076851
0.022487729787826538,0.004478685557842255,-0.013783005997538567,0.010713647119700909,-0.0007261182181537151,-0.009177488274872303
0.02232666127383709,0.004391081165522337,-0.01418868824839592,0.010475018061697483,-0.0006664888351224363,-0.009383667260408401
0.022254934534430504,0.0044341920875012875,-0.013609940186142921,0.010840889066457748,-0.0006801229319535196,-0.009449990466237068
0.022245749831199646,0.004089290741831064,-0.014145232737064362,0.0109056755900383,-0.0006243156967684627,-0.009060758166015148
0.022755391895771027,0.004331126809120178,-0.013681448064744473,0.010293683968484402,-0.0006440745200961828,-0.008821212686598301
0.023033572360873222,0.00480777770280838,-0.014485129155218601,0.011488279327750206,-0.0005969259655103087,-0.009527093730866909
0.022903449833393097,0.004935925826430321,-0.014129783026874065,0.01134650968015194,-0.0005984283634461462,-0.009114441461861134
0.022896628826856613,0.0050141350366175175,-0.014827869832515717,0.010657702572643757,-0.0006104687345214188,-0.00952636357396841
0.022617734968662262,0.004479626193642616,-0.013878850266337395,0.011564740911126137,-0.0005700529436580837,-0.009211423806846142
0.023101288825273514,0.0040169088169932365,-0.014748611487448215,0.011363498866558075,-0.0005969527992419899,-0.009546156041324139
0.023467548191547394,0.0037909692618995905,-0.014323449693620205,0.011325271800160408,-0.0005880934186279774,-0.009707274846732616
0.02347668819129467,0.004101972095668316,-0.014800086617469788,0.01128809992223978,-0.0005758731276728213,-0.009428480640053749
0.02287960611283779,0.00422373553737998,-0.014597891829907894,0.010995675809681416,-0.000573947443626821,-0.009934901259839535
0.023384256288409233,0.0035852263681590557,-0.014379429630935192,0.010739432647824287,-0.000561474182177335,-0.009569057263433933
0.023798616603016853,0.004440700635313988,-0.015330909751355648,0.010901677422225475,-0.0005486352602019906,-0.009425085037946701
0.02383531630039215,0.005134659353643656,-0.01490453165024519,0.011389383114874363,-0.0005725080845877528,-0.009295599535107613
0.024396788328886032,0.004941612482070923,-0.01475683506578207,0.01090932171791792,-0.0005339066265150905,-0.009648862294852734
0.024263570085167885,0.004703013692051172,-0.014764169231057167,0.01126334723085165,-0.0005268595996312797,-0.009894749149680138
0.024263570085167885,0.004703013692051172,-0.014764169231057167,0.01126334723085165,-0.0005268595996312797,-0.009894749149680138
0.023915160447359085,0.004772835876792669,-0.015304499305784702,0.01103624701499939,-0.0005199514562264085,-0.009883137419819832
0.02321486733853817,0.004790935665369034,-0.015400653705000877,0.010795168578624725,-0.00048681895714253187,-0.009922035969793797
0.02404705621302128,0.004965486936271191,-0.015792561694979668,0.011107107624411583,-0.00045609608059749007,-0.009775862097740173
0.02450328692793846,0.004485754296183586,-0.015702489763498306,0.01122582983225584,-0.0004302382003515959,-0.00935380533337593
0.024615438655018806,0.004367571324110031,-0.015284033492207527,0.012534297071397305,-0.00040722344419918954,-0.009300348348915577
0.024052860215306282,0.004975374788045883,-0.015810148790478706,0.012369717471301556,-0.000374361639842391,-0.009748918004333973
0.024325823411345482,0.004992019385099411,-0.01500115729868412,0.011977141723036766,-0.0004098903445992619,-0.01032652985304594
0.02486855909228325,0.004499801900237799,-0.015543772839009762,0.012059374712407589,-0.00043203990207985044,-0.010192181915044785
0.02521955780684948,0.004431882873177528,-0.015179798938333988,0.012348842807114124,-0.000418302312027663,-0.009880983270704746
0.02517683617770672,0.0045571522787213326,-0.015722209587693214,0.012777715921401978,-0.00044172670459374785,-0.009893568232655525
0.024163134396076202,0.0046140411868691444,-0.015192308463156223,0.012162825092673302,-0.0004229932383168489,-0.010101597756147385
0.024229511618614197,0.004248957149684429,-0.014313237741589546,0.012384281493723392,-0.0005592036177404225,-0.009484653361141682
0.025283796712756157,0.004080348648130894,-0.015708280727267265,0.01220939215272665,-0.0005826903507113457,-0.010140850208699703
0.025320464745163918,0.004107602406293154,-0.015818702057003975,0.012094041332602501,-0.0005471676122397184,-0.010060654953122139
0.025057340040802956,0.004038408864289522,-0.015116254799067974,0.012743430212140083,-0.0005382423987612128,-0.010792496614158154
0.025463972240686417,0.004461045376956463,-0.015356947667896748,0.01217818632721901,-0.0005293699214234948,-0.010473609901964664
0.025639111176133156,0.004132593981921673,-0.01587493158876896,0.012279210612177849,-0.0004905117675662041,-0.009985052980482578
0.02559753693640232,0.00414803484454751,-0.01556228194385767,0.012019815854728222,-0.0005156519473530352,-0.010316804051399231
0.025511186569929123,0.004033198580145836,-0.015623546205461025,0.01131901890039444,-0.0004848618700634688,-0.01029159501194954
0.025620466098189354,0.004398114513605833,-0.015347513370215893,0.012063681147992611,-0.00045449796016328037,-0.010476267896592617
0.025758594274520874,0.003934458829462528,-0.015545155853033066,0.012164403684437275,-0.0004573789774440229,-0.011126800440251827
0.025682883337140083,0.004203710239380598,-0.016037169843912125,0.012174472212791443,-0.00045582844177260995,-0.010411548428237438
0.02560700848698616,0.004214935004711151,-0.015481647104024887,0.012188614346086979,-0.0004833536804653704,-0.010766175575554371
0.026000693440437317,0.004449706990271807,-0.015910426154732704,0.012055793777108192,-0.0005047452868893743,-0.010435284115374088
0.026080625131726265,0.004158984869718552,-0.015892278403043747,0.0119769973680377,-0.0004861400229856372,-0.010612060315907001
0.026437098160386086,0.00395272858440876,-0.01587078720331192,0.012336794286966324,-0.00045971048530191183,-0.010637844912707806
0.026437098160386086,0.00395272858440876,-0.01587078720331192,0.012336794286966324,-0.00045971048530191183,-0.010637844912707806
0.02589900977909565,0.003874356858432293,-0.015911299735307693,0.011875798925757408,-0.0005895172944292426,-0.010014437139034271
0.026165371760725975,0.0042265960946679115,-0.015622405335307121,0.012160902842879295,-0.0005833300529047847,-0.01050177775323391
0.026147762313485146,0.0045322636142373085,-0.016109783202409744,0.01215492282062769,-0.0005683173658326268,-0.011007210239768028
0.026216724887490273,0.004222867079079151,-0.015554366633296013,0.012714605778455734,-0.0005584467435255647,-0.01053085457533598
0.02615535445511341,0.004063037224113941,-0.015842895954847336,0.01253858208656311,-0.0005476177320815623,-0.010843269526958466
0.02603612281382084,0.004063592758029699,-0.01556532084941864,0.012404516339302063,-0.000506069278344512,-0.011042275466024876
0.026012355461716652,0.004098051227629185,-0.01629773899912834,0.012195305898785591,-0.0005177330458536744,-0.010814974084496498
0.026169229298830032,0.004066278226673603,-0.015673132613301277,0.012119226157665253,-0.0004972560564056039,-0.010336717590689659
0.02612832933664322,0.004055070225149393,-0.01602000743150711,0.012967159040272236,-0.00048035316285677254,-0.010381761938333511
0.02637239545583725,0.003953814972192049,-0.016399580985307693,0.012447084300220013,-0.0004499765927903354,-0.010460088960826397
0.02751333639025688,0.004385469947010279,-0.016225477680563927,0.013029168359935284,-0.00048622553003951907,-0.010902108624577522
0.02746633067727089,0.00417405366897583,-0.016254467889666557,0.012782013975083828,-0.0005057855159975588,-0.010755524970591068
0.026010563597083092,0.004394950345158577,-0.01579093188047409,0.012758774682879448,-0.0005179010913707316,-0.010838791728019714
0.02559117041528225,0.004176300019025803,-0.01650317572057247,0.013041219674050808,-0.0005164059111848474,-0.011034364812076092
0.028068402782082558,0.004103606101125479,-0.016072500497102737,0.013560713268816471,-0.0008351895958185196,-0.01131792925298214
0.027417482808232307,0.003911319188773632,-0.016508713364601135,0.014411347918212414,-0.0008785354439169168,-0.011388334445655346
0.026664545759558678,0.0037931150291115046,-0.015844937413930893,0.014269904233515263,-0.0008919431129470468,-0.011249917559325695
0.026934947818517685,0.0038132420741021633,-0.015807246789336205,0.014361959882080555,-0.0012159459292888641,-0.010992980562150478
0.027246715500950813,0.003947942052036524,-0.016253340989351273,0.013779984787106514,-0.0010884614894166589,-0.011385306715965271
0.027062267065048218,0.004390890244394541,-0.015926646068692207,0.014226570725440979,-0.0010518379276618361,-0.010132325813174248
0.02607508935034275,0.004211646504700184,-0.01588079333305359,0.01344403438270092,-0.00079485890455544,-0.010947253555059433
0.027070101350545883,0.00434713251888752,-0.01630685105919838,0.013004902750253677,-0.0007056695758365095,-0.010849757120013237
0.02792147919535637,0.004169556777924299,-0.016098083928227425,0.013697386719286442,-0.0006344805005937815,-0.011313245631754398
0.02785167098045349,0.003993029240518808,-0.016506865620613098,0.013482081703841686,-0.0006472666282206774,-0.01097901165485382
0.0275650043040514,0.003945367410778999,-0.016739007085561752,0.01370226126164198,-0.0006026781047694385,-0.010944030247628689
0.0275650043040514,0.003945367410778999,-0.016739007085561752,0.01370226126164198,-0.0006026781047694385,-0.010944030247628689
0.02821119874715805,0.0042545124888420105,-0.016968589276075363,0.014161466620862484,-0.0005167302442714572,-0.01130063459277153
0.028414875268936157,0.004654838237911463,-0.016007637605071068,0.013449574820697308,-0.000482110190205276,-0.011422722600400448
0.028414875268936157,0.004654838237911463,-0.016007637605071068,0.013449574820697308,-0.000482110190205276,-0.011422722600400448
0.027712218463420868,0.004690853878855705,-0.01664554513990879,0.013451118022203445,-0.0004518386849667877,-0.01146902795881033
0.027959071099758148,0.0043794442899525166,-0.016336794942617416,0.01348518393933773,-0.00034033204428851604,-0.011138839647173882
0.028244618326425552,0.003998793661594391,-0.01716366596519947,0.013842007145285606,-0.0003059572190977633,-0.011610349640250206
0.028380541130900383,0.004177950322628021,-0.016771866008639336,0.014590161852538586,-0.00033893922227434814,-0.011515943333506584
0.028595546260476112,0.004233635030686855,-0.016555117443203926,0.013980244286358356,-0.0003221321094315499,-0.011714324355125427
0.028584610670804977,0.004105258267372847,-0.01741063967347145,0.013572371564805508,-0.00030420138500630856,-0.01190175861120224
0.028520872816443443,0.00419503403827548,-0.016869166865944862,0.01339977327734232,-0.0003295241913292557,-0.011448378674685955
0.028693312779068947,0.004519574344158173,-0.017195379361510277,0.01461039949208498,-0.00031854616827331483,-0.011640478856861591
0.028490036725997925,0.0042767212726175785,-0.01709626242518425,0.013335506431758404,-0.0003355784574523568,-0.011874089948832989
0.02884361520409584,0.0043800766579806805,-0.017521824687719345,0.013538414612412453,-0.00033026395249180496,-0.0117958914488554
0.029187288135290146,0.004117568023502827,-0.01794518530368805,0.013279045931994915,-0.00044367549708113074,-0.011863883584737778
0.028940873220562935,0.003524473402649164,-0.017238641157746315,0.014273895882070065,-0.000499730056617409,-0.012167996726930141
0.029342586174607277,0.004211709834635258,-0.017559822648763657,0.014074437320232391,-0.0005349789280444384,-0.012518842704594135
0.029558299109339714,0.004597940947860479,-0.018235141411423683,0.014661061577498913,-0.0005639038281515241,-0.01199548039585352
0.029197243973612785,0.004276537336409092,-0.01808118261396885,0.013682344928383827,-0.0008947834721766412,-0.012065049260854721
0.029303153976798058,0.004278880078345537,-0.018455903977155685,0.014082330279052258,-0.000793791376054287,-0.01237744651734829
0.029605161398649216,0.004091250244528055,-0.0178444292396307,0.013974943198263645,-0.0007934484747238457,-0.012173241935670376
0.02942272648215294,0.004281735513359308,-0.01828712597489357,0.014469649642705917,-0.0007054099114611745,-0.012779761105775833
0.028294669464230537,0.00411152234300971,-0.018359873443841934,0.014017832465469837,-0.0007140617817640305,-0.012206250801682472
0.029569009318947792,0.003958296496421099,-0.017823845148086548,0.01451337244361639,-0.0006522046169266105,-0.011962845921516418
0.030339090153574944,0.004364956170320511,-0.0184085164219141,0.014301040209829807,-0.0005916687659919262,-0.012100727297365665
0.030171286314725876,0.0043428377248346806,-0.01805761829018593,0.014700152911245823,-0.0005688600358553231,-0.012809604406356812
0.02898496203124523,0.004327310714870691,-0.018162623047828674,0.015224329195916653,-0.0004815403663087636,-0.012619398534297943
0.02909901551902294,0.004052485805004835,-0.016389304772019386,0.014674651436507702,-0.0004849785764236003,-0.013037419877946377
0.03037448041141033,0.0034377998672425747,-0.018981879577040672,0.014859631657600403,-0.00046169411507435143,-0.013096611015498638
0.02946157194674015,0.003585192607715726,-0.01980496570467949,0.014312193728983402,-0.0004924422828480601,-0.012614350765943527
0.029470190405845642,0.0039239125326275826,-0.018634986132383347,0.014942950569093227,-0.0005176589475013316,-0.012482970952987671
0.030911235138773918,0.004008280113339424,-0.018206926062703133,0.014611095190048218,-0.0007220729603432119,-0.01283829752355814
0.030911235138773918,0.004008280113339424,-0.018206926062703133,0.014611095190048218,-0.0007220729603432119,-0.01283829752355814
0.02992735244333744,0.004330149851739407,-0.019019266590476036,0.015128180384635925,-0.0008174862014129758,-0.012557074427604675
0.029627317562699318,0.003941236529499292,-0.01820853166282177,0.014276951551437378,-0.0008411214221268892,-0.01250393595546484
0.029627317562699318,0.003941236529499292,-0.01820853166282177,0.014276951551437378,-0.0008411214221268892,-0.01250393595546484
0.02999003604054451,0.004055744968354702,-0.019207730889320374,0.013512920588254929,-0.0009320102399215102,-0.013002672232687473
0.030600840225815773,0.00393433403223753,-0.01936114951968193,0.014087429270148277,-0.0009445768082514405,-0.01319678220897913
0.03039299137890339,0.0037592751905322075,-0.019172998145222664,0.014556150883436203,-0.0009040634031407535,-0.013124886900186539
0.030129972845315933,0.003735093167051673,-0.019455475732684135,0.015524378046393394,-0.0008435830823145807,-0.013102472759783268
0.030665332451462746,0.003894613590091467,-0.018962983042001724,0.015281137079000473,-0.0007984649855643511,-0.013021238148212433
0.03078039549291134,0.004322976339608431,-0.019191427156329155,0.01569872722029686,-0.000760000548325479,-0.013447515666484833
0.03063819371163845,0.004601072054356337,-0.019062208011746407,0.015492085367441177,-0.0006943364278413355,-0.014707431197166443
0.0310676172375679,0.004141181241720915,-0.018487783148884773,0.015622698701918125,-0.0006126438966020942,-0.012964165769517422
0.03043850138783455,0.003883914789184928,-0.018980100750923157,0.015255725011229515,-0.0005915196379646659,-0.01275708433240652
0.030666181817650795,0.0034001313615590334,-0.019764143973588943,0.015168530866503716,-0.0005746717215515673,-0.0131248589605093
0.030428843572735786,0.003615456400439143,-0.019507452845573425,0.015748251229524612,-0.0005970061756670475,-0.013283981941640377
0.03057992085814476,0.0037867268547415733,-0.019117824733257294,0.015717845410108566,-0.0006129094981588423,-0.013421385549008846
0.030464166775345802,0.0043514082208275795,-0.019374454393982887,0.015807760879397392,-0.0005819947109557688,-0.013736876659095287
0.03028922900557518,0.00420004827901721,-0.018649447709321976,0.015429005958139896,-0.0006243483512662351,-0.013687700033187866
0.031417421996593475,0.00401968602091074,-0.01901313289999962,0.016195885837078094,-0.0006580034387297928,-0.013884589076042175
0.03031085431575775,0.00348269403912127,-0.01914774626493454,0.015997540205717087,-0.0007064114324748516,-0.013770714402198792
0.030052050948143005,0.0035256973933428526,-0.019347455352544785,0.01566574163734913,-0.0007971229497343302,-0.013585761189460754
0.030407121405005455,0.00372238433919847,-0.01929578185081482,0.015478633344173431,-0.0008722185157239437,-0.013737843371927738
0.0319407619535923,0.003848223714157939,-0.018759479746222496,0.015603874810039997,-0.0009145565563812852,-0.013529738411307335
0.03189479187130928,0.0038799182511866093,-0.019090935587882996,0.015530792064964771,-0.0011607937049120665,-0.013858376070857048
0.03043108619749546,0.004369587637484074,-0.01924186944961548,0.015793055295944214,-0.0014122544089332223,-0.014003387652337551
0.03043108619749546,0.004369587637484074,-0.01924186944961548,0.015793055295944214,-0.0014122544089332223,-0.014003387652337551
0.030187956988811493,0.004100445192307234,-0.01920326240360737,0.01571008563041687,-0.0013999425573274493,-0.01392806600779295
0.03084511123597622,0.003832421498373151,-0.019728977233171463,0.016492726281285286,-0.0014390499563887715,-0.013769879005849361
0.030877118930220604,0.004101932980120182,-0.02013065479695797,0.016512060537934303,-0.001290524611249566,-0.0141293378546834
0.03125086799263954,0.004223993048071861,-0.01963801123201847,0.01637948863208294,-0.00108119857031852,-0.013750012964010239
0.03177114948630333,0.00410253182053566,-0.01913800835609436,0.016082001850008965,-0.0009028331842273474,-0.014020129106938839
0.03189781308174133,0.003964773844927549,-0.019051147624850273,0.016097180545330048,-0.0008345238748006523,-0.0139936413615942
0.03130953013896942,0.0038789771497249603,-0.019012682139873505,0.015972686931490898,-0.000784435193054378,-0.014165670610964298
0.03124314919114113,0.004341071005910635,-0.01945534721016884,0.01576048694550991,-0.0007006076048128307,-0.01372604351490736
0.03226103261113167,0.004583471454679966,-0.02017420344054699,0.016285976395010948,-0.0006306000286713243,-0.013698763214051723
0.0328967459499836,0.004571820143610239,-0.019896410405635834,0.0160598773509264,-0.0005731653654947877,-0.014024781994521618
0.0327795185148716,0.004133971408009529,-0.019377250224351883,0.01654803939163685,-0.0005253204726614058,-0.01406586542725563
0.03285767883062363,0.004391401074826717,-0.020094526931643486,0.016515275463461876,-0.0005357078625820577,-0.013616262003779411
0.0324677899479866,0.00422690762206912,-0.020192699506878853,0.016597092151641846,-0.0005132892983965576,-0.01383991539478302
0.032366085797548294,0.00443857628852129,-0.01977529749274254,0.016839943826198578,-0.0004800794122274965,-0.014375568367540836
0.031058574095368385,0.00497423717752099,-0.01986924186348915,0.016811616718769073,-0.00045011797919869423,-0.014676999300718307
0.03335213288664818,0.004905587062239647,-0.02033553086221218,0.017207268625497818,-0.00042362583917565644,-0.01443065982311964
0.033249884843826294,0.00430388655513525,-0.020040050148963928,0.015911487862467766,-0.00040007728966884315,-0.014374812133610249
0.03365379571914673,0.004221614450216293,-0.02015984244644642,0.01630859263241291,-0.000379009114112705,-0.014343969523906708
0.03324778005480766,0.004260384943336248,-0.020645514130592346,0.015313736163079739,-0.0002548046177253127,-0.014581176452338696
0.033259306102991104,0.004925386048853397,-0.019852107390761375,0.015291979536414146,-0.00022993594757281244,-0.014499370008707047
0.03411277011036873,0.004708991385996342,-0.020426882430911064,0.016156887635588646,-0.00021801648836117238,-0.014407660812139511
0.033729955554008484,0.00499945180490613,-0.02073718048632145,0.016628168523311615,-0.00024662158102728426,-0.014748374931514263
0.0342242456972599,0.004878336098045111,-0.02017461694777012,0.015908271074295044,-0.00023826048709452152,-0.014998422004282475
0.034028492867946625,0.004802179988473654,-0.02058997005224228,0.015184476040303707,-0.0002469609025865793,-0.014319037087261677
0.033874429762363434,0.0043973252177238464,-0.021160567179322243,0.014902696013450623,-0.00025433817063458264,-0.014423361048102379
0.033874429762363434,0.0043973252177238464,-0.021160567179322243,0.014902696013450623,-0.00025433817063458264,-0.014423361048102379
0.03433144837617874,0.004443512298166752,-0.02131221629679203,0.01570708490908146,-0.0002455574576742947,-0.01508208829909563
0.03476961702108383,0.0050795371644198895,-0.020701857283711433,0.01559271477162838,-0.00023641507141292095,-0.014811554923653603
0.03477011248469353,0.0045572323724627495,-0.020730450749397278,0.016374832019209862,-0.00022786794579587877,-0.014802631922066212
0.03495611622929573,0.004562241490930319,-0.020755605772137642,0.01576348766684532,-0.0002492033818271011,-0.014789746142923832
0.03503162041306496,0.0045179203152656555,-0.02030007913708687,0.01575511135160923,-0.00024271185975521803,-0.015044361352920532
0.03434529900550842,0.004808647092431784,-0.02071954309940338,0.015977198258042336,-0.0003418966953177005,-0.014744056388735771
0.03528786078095436,0.004772396292537451,-0.02122901752591133,0.015549421310424805,-0.00038987299194559455,-0.014875057153403759
0.03621392697095871,0.004435570444911718,-0.021151646971702576,0.015097036957740784,-0.00040203784010373056,-0.014551445841789246
0.035997424274683,0.004613873548805714,-0.0204251017421484,0.014798355288803577,-0.00040445823105983436,-0.01485741138458252
0.03349033370614052,0.004620027728378773,-0.020969480276107788,0.015772707760334015,-0.0003817875112872571,-0.01519856508821249
0.03549935668706894,0.004503713455051184,-0.021569842472672462,0.01619771495461464,-0.0004045747045893222,-0.015749745070934296
0.03644710034132004,0.004653567913919687,-0.021177683025598526,0.015854492783546448,-0.0003888151841238141,-0.015470129437744617
0.03571449965238571,0.004666821099817753,-0.02075422927737236,0.01676914282143116,-0.0004703390586655587,-0.015380391851067543
0.03631094843149185,0.004730227403342724,-0.02125892974436283,0.01728162169456482,-0.0005116823012940586,-0.015369155444204807
0.03657069802284241,0.005066352896392345,-0.021513676270842552,0.017610827460885048,-0.0005513148498721421,-0.01566021516919136
0.03503565862774849,0.004459282383322716,-0.02140159346163273,0.017424199730157852,-0.0005056838854216039,-0.015512621961534023
0.035505980253219604,0.004030670039355755,-0.02119182050228119,0.01762557215988636,-0.000519233348313719,-0.015716349706053734
0.03660036623477936,0.004338832106441259,-0.02114168554544449,0.017321188002824783,-0.0004958620411343873,-0.015783322975039482
0.0365808829665184,0.004559042397886515,-0.02130107767879963,0.01752438023686409,-0.0004926460678689182,-0.016090864315629005
0.03635667636990547,0.00471921730786562,-0.02083618752658367,0.01792542263865471,-0.0004885027301497757,-0.01627393811941147
0.03658648207783699,0.004387762863188982,-0.02109367586672306,0.017955956980586052,-0.00047196028754115105,-0.01580069586634636
0.03670648857951164,0.004010430537164211,-0.02097952924668789,0.017428189516067505,-0.00044080696534365416,-0.015990257263183594
0.03656948730349541,0.004337929654866457,-0.020359840244054794,0.01738888956606388,-0.00047705514589324594,-0.015566686168313026
0.03628939762711525,0.0042242128401994705,-0.02100435271859169,0.017353596165776253,-0.0004428444372024387,-0.015387555584311485
0.036267608404159546,0.004244194366037846,-0.02105695568025112,0.016867460682988167,-0.00047299297875724733,-0.015802521258592606
0.036526430398225784,0.004124869126826525,-0.020458046346902847,0.017634417861700058,-0.0004986051935702562,-0.01576646789908409
0.03697463870048523,0.0044656796380877495,-0.02055373601615429,0.017387429252266884,-0.0006364695145748556,-0.016167189925909042
0.03697463870048523,0.0044656796380877495,-0.02055373601615429,0.017387429252266884,-0.0006364695145748556,-0.016167189925909042
0.03632903844118118,0.004727144725620747,-0.02174815535545349,0.017195262014865875,-0.0007775669218972325,-0.015818588435649872
0.034679412841796875,0.004422460217028856,-0.021441368386149406,0.01750045269727707,-0.0008401208906434476,-0.015290114097297192
0.03777085989713669,0.004504365846514702,-0.020792437717318535,0.017334427684545517,-0.001148885814473033,-0.01689186505973339
0.038457389920949936,0.00420586671680212,-0.02129869908094406,0.017617281526327133,-0.0011939200339838862,-0.015554283745586872
0.03710530698299408,0.0043720887042582035,-0.021651092916727066,0.017523957416415215,-0.0010819850722327828,-0.015899788588285446
0.03611939027905464,0.0046129231341183186,-0.02118780091404915,0.017531679943203926,-0.0009827051544561982,-0.016225432977080345
0.037378616631031036,0.004674259573221207,-0.01964627206325531,0.01775578409433365,-0.0008537776884622872,-0.016054565086960793
0.03750729188323021,0.004731567110866308,-0.022171076387166977,0.0175371915102005,-0.0008513745851814747,-0.015445610508322716
0.038023099303245544,0.004547520540654659,-0.02187826670706272,0.01765788346529007,-0.0007681350689381361,-0.0153586957603693
0.03814047947525978,0.004518067929893732,-0.022303253412246704,0.017661049962043762,-0.0006087415385991335,-0.014788346365094185
0.03752530738711357,0.0047091469168663025,-0.02202746644616127,0.01716563105583191,-0.0005327957333065569,-0.015207581222057343
0.03704795613884926,0.004439053125679493,-0.022052891552448273,0.01764642633497715,-0.0005643315962515771,-0.015732644125819206
0.03793971985578537,0.0045084645971655846,-0.02193261869251728,0.01800604909658432,-0.0005575752002187073,-0.01612459123134613
0.037793394178152084,0.004514532629400492,-0.02199190855026245,0.018547743558883667,-0.0005470147589221597,-0.016240788623690605
0.03780573979020119,0.004301341250538826,-0.021905910223722458,0.019109364598989487,-0.0005726893432438374,-0.015925489366054535
0.03819592669606209,0.004367103800177574,-0.022225623950362206,0.01866486482322216,-0.0005346765392459929,-0.015600445680320263
0.037508875131607056,0.004067383240908384,-0.02195599675178528,0.018650539219379425,-0.0005657209549099207,-0.01523919589817524
0.037667226046323776,0.004288271069526672,-0.02265753224492073,0.01860024966299534,-0.0005130438948981464,-0.015554413199424744
0.038400594145059586,0.004340890794992447,-0.02236207388341427,0.017988745123147964,-0.0005055383662693202,-0.015790963545441628
0.03828737512230873,0.004558360204100609,-0.022955697029829025,0.01838989555835724,-0.0004988219006918371,-0.016449932008981705
0.03805071860551834,0.004315393511205912,-0.022822324186563492,0.018490325659513474,-0.0005151164950802922,-0.016571423038840294
0.03873354196548462,0.0043980698101222515,-0.022677572444081306,0.01831006072461605,-0.0005441468092612922,-0.01631207950413227
0.03872090205550194,0.004088472109287977,-0.02201947569847107,0.01780216582119465,-0.0006658288766629994,-0.01630551554262638
0.03889566287398338,0.00430650170892477,-0.022402161732316017,0.01792009174823761,-0.0006694354815408587,-0.01702352799475193
0.03832228481769562,0.00428725965321064,-0.02295870892703533,0.01832372322678566,-0.0006917900172993541,-0.016550133004784584
0.038449231535196304,0.004521741531789303,-0.023150496184825897,0.01838066056370735,-0.0006706187850795686,-0.016634855419397354
0.03925247862935066,0.0044488683342933655,-0.022752398625016212,0.01868695765733719,-0.0008361113723367453,-0.016477860510349274
0.03925247862935066,0.0044488683342933655,-0.022752398625016212,0.01868695765733719,-0.0008361113723367453,-0.016477860510349274
0.03908434510231018,0.004316913429647684,-0.02192952111363411,0.018885396420955658,-0.0008716760203242302,-0.01632864959537983
0.03913653641939163,0.003996533341705799,-0.022170746698975563,0.01779256947338581,-0.0008772115688771009,-0.016104619950056076
0.039434898644685745,0.004240707028657198,-0.02296900562942028,0.018198860809206963,-0.0008800398791208863,-0.01610626094043255
0.03946178779006004,0.004081090912222862,-0.022473517805337906,0.018286308273673058,-0.0009277071803808212,-0.01683562807738781
0.03964925557374954,0.004470414482057095,-0.022519560530781746,0.01870851032435894,-0.0009256824268959463,-0.016741905361413956
0.03911474719643593,0.0045355274342000484,-0.022367512807250023,0.0196145661175251,-0.0008068452007137239,-0.01721363514661789
