davideferrari95/blind_handover_controller/data/Test 185 - [2024-02-08 -- 11-25-36]/joint_states_data.csv
shoulder_pan_joint,shoulder_lift_joint,elbow_joint,wrist_1_joint,wrist_2_joint,wrist_3_joint
0.0034322640858590603,-0.006207894999533892,-0.01568855531513691,0.02173592336475849,0.0,0.0047760410234332085
0.0031828887294977903,-0.005839618854224682,-0.016053156927227974,0.021993355825543404,0.0,0.004652796313166618
0.0031828887294977903,-0.005839618854224682,-0.016053156927227974,0.021993355825543404,0.0,0.004652796313166618
0.003262793645262718,-0.0061577800661325455,-0.015294128097593784,0.02188219130039215,0.0,0.004451924469321966
0.003485744586214423,-0.0066369338892400265,-0.015485869720578194,0.022306518629193306,0.0,0.004540659487247467
0.0032155003864318132,-0.006435646675527096,-0.016345228999853134,0.02248685248196125,0.0,0.0045210737735033035
0.0031399140134453773,-0.006355748511850834,-0.015916718170046806,0.021557331085205078,0.0,0.003666568547487259
0.0031704448629170656,-0.006176230497658253,-0.015959052368998528,0.02217577025294304,0.0,0.0033969152718782425
0.0034243508707731962,-0.006441429723054171,-0.01615462824702263,0.0216814037412405,0.0,0.004219747614115477
0.003648490644991398,-0.006714720744639635,-0.01560133509337902,0.021325603127479553,0.0,0.004671925213187933
0.0033431260380893946,-0.005995030980557203,-0.016116028651595116,0.02178848907351494,0.0,0.004745891317725182
0.0036274248268455267,-0.0060137356631457806,-0.015924440696835518,0.022421294823288918,0.0,0.004157860763370991
0.0033927285112440586,-0.006617885548621416,-0.016197538003325462,0.022533807903528214,0.0,0.003753620432689786
0.0036107609048485756,-0.006769226863980293,-0.015416938811540604,0.022368695586919785,0.0,0.003706210060045123
0.0036674076691269875,-0.00662958575412631,-0.015662794932723045,0.021727992221713066,0.0,0.0038750600069761276
0.0032611547503620386,-0.0061860112473368645,-0.01564778760075569,0.022002005949616432,0.0,0.004256956744939089
0.0032199970446527004,-0.0067365835420787334,-0.016250982880592346,0.02181592397391796,0.0,0.004298212938010693
0.0032572676427662373,-0.007048363797366619,-0.01632608473300934,0.0216499175876379,0.0,0.004099998157471418
0.0034936151932924986,-0.006917948368936777,-0.016230735927820206,0.021429739892482758,0.0,0.0040666828863322735
0.003409306053072214,-0.006283543538302183,-0.01599707268178463,0.02175511233508587,0.0,0.0035857483744621277
0.003451367374509573,-0.00631885789334774,-0.015423962846398354,0.021790461614727974,0.0,0.0035897651687264442
0.0036574136465787888,-0.006752535235136747,-0.016108732670545578,0.02261572703719139,0.0,0.00368141895160079
0.0038977463264018297,-0.006831172853708267,-0.015134699642658234,0.02201559953391552,0.0,0.004130881745368242
0.0034193771425634623,-0.007195410784333944,-0.016224365681409836,0.021356292068958282,0.0,0.004274960141628981
0.0031349335331469774,-0.0063524069264531136,-0.01575068011879921,0.02114398404955864,0.0,0.004062529653310776
0.0031349335331469774,-0.0063524069264531136,-0.01575068011879921,0.02114398404955864,0.0,0.004062529653310776
0.003092491999268532,-0.00657811900600791,-0.015922021120786667,0.021366411820054054,0.0,0.003872812492772937
0.0032133436761796474,-0.006889817770570517,-0.015818655490875244,0.021368345245718956,0.0,0.004189814440906048
0.003520087106153369,-0.007338325493037701,-0.01567264273762703,0.02137632854282856,0.0,0.0041620172560215
0.003329144325107336,-0.0068479254841804504,-0.015864292159676552,0.021742235869169235,0.0,0.0039536296389997005
0.0037646174896508455,-0.007656817324459553,-0.016405198723077774,0.021504048258066177,0.0,0.003941201139241457
0.0034993377048522234,-0.006881824228912592,-0.015358738601207733,0.02181900106370449,0.0,0.003750129137188196
0.003528556087985635,-0.006778441835194826,-0.015800628811120987,0.021970078349113464,0.0,0.003577887313440442
0.0032709960360080004,-0.006819119676947594,-0.01519019529223442,0.021696532145142555,0.0,0.0037760958075523376
0.003236856311559677,-0.00687993410974741,-0.01607206091284752,0.021183252334594727,0.0,0.004049601498991251
0.0033445553854107857,-0.007269449532032013,-0.015506978146731853,0.02094382978975773,0.0,0.004077053163200617
0.0033859775867313147,-0.007013804744929075,-0.016025763005018234,0.020765341818332672,0.0,0.004249220248311758
0.0035000524949282408,-0.007455781567841768,-0.016045674681663513,0.020905155688524246,0.0,0.003991957753896713
0.003321443684399128,-0.006830390077084303,-0.015473822131752968,0.02090650424361229,0.0,0.003412605030462146
0.0034305097069591284,-0.006621460895985365,-0.015830162912607193,0.021064357832074165,0.0,0.003381983144208789
0.0037111316341906786,-0.0067905946634709835,-0.015689721331000328,0.021108705550432205,0.0,0.0036899654660373926
0.003764596302062273,-0.006904141511768103,-0.015813536942005157,0.020855553448200226,0.0,0.004336936865001917
0.0037189729046076536,-0.006787543185055256,-0.015133342705667019,0.020686442032456398,0.0,0.0045002722181379795
0.00362511002458632,-0.007181757595390081,-0.015238037332892418,0.02100505866110325,0.0,0.004315896425396204
0.0032495029736310244,-0.007489596493542194,-0.014436226338148117,0.021159544587135315,0.0,0.00399065064266324
0.0030328668653964996,-0.006621127016842365,-0.01534838043153286,0.021281398832798004,0.0,0.003811278846114874
0.0031538079492747784,-0.0066128442995250225,-0.015039374120533466,0.021042868494987488,0.0,0.003754913806915283
0.003472675569355488,-0.007001875434070826,-0.015321017242968082,0.021149903535842896,0.0,0.003991204313933849
0.003741597291082144,-0.006997024640440941,-0.015229440294206142,0.021311132237315178,0.0,0.004201186820864677
0.0037316661328077316,-0.006595899350941181,-0.015527439303696156,0.02125355787575245,0.0,0.004269796889275312
0.0035740432795137167,-0.006312372162938118,-0.015172970481216908,0.021188735961914062,0.0,0.004170144442468882
0.003520069643855095,-0.006827875971794128,-0.015549525618553162,0.021137069910764694,0.0,0.004031006712466478
0.003520069643855095,-0.006827875971794128,-0.015549525618553162,0.021137069910764694,0.0,0.004031006712466478
0.003619441296905279,-0.006705937907099724,-0.015302091836929321,0.021458478644490242,0.0,0.004147793632000685
0.0033714845776557922,-0.006362378131598234,-0.015165240503847599,0.022132378071546555,0.0,0.004025450441986322
0.0035453340969979763,-0.006527567747980356,-0.01478596217930317,0.022409869357943535,0.0,0.003954720217734575
0.003729927586391568,-0.006734571885317564,-0.015898464247584343,0.02150276117026806,0.0,0.0042315139435231686
0.003915705718100071,-0.006821753922849894,-0.015542516484856606,0.020272592082619667,0.0,0.004266794770956039
0.003957923036068678,-0.006740538869053125,-0.015698492527008057,0.020359568297863007,0.0,0.004400385543704033
0.003557441756129265,-0.006443399004638195,-0.014862669631838799,0.020874101668596268,0.0,0.0042527541518211365
0.0035516005009412766,-0.007300559896975756,-0.0152550358325243,0.020810382440686226,0.0,0.003968419507145882
0.003629610175266862,-0.006863647140562534,-0.014625562354922295,0.020627206191420555,0.0,0.0034597618505358696
0.0037682726979255676,-0.00684057641774416,-0.015528829768300056,0.020988544449210167,0.0,0.0034556319005787373
0.0037682726979255676,-0.00684057641774416,-0.015528829768300056,0.020988544449210167,0.0,0.0034556319005787373
0.003447307739406824,-0.007040489464998245,-0.015771575272083282,0.021520666778087616,0.0,0.004347607493400574
0.004316454753279686,-0.007045151200145483,-0.015458723530173302,0.021339019760489464,0.0,0.004075826611369848
0.004210805986076593,-0.007166770286858082,-0.01522524282336235,0.021351808682084084,0.0,0.003968684934079647
0.004027171526104212,-0.0063622454181313515,-0.015344686806201935,0.020366782322525978,0.0,0.004072637762874365
0.0034471354447305202,-0.006347907241433859,-0.015621908009052277,0.01938682422041893,0.0,0.003902402939274907
0.0034617804922163486,-0.006956242024898529,-0.0159726832062006,0.02006364054977894,0.0,0.003682389622554183
0.0036171285901218653,-0.007362381089478731,-0.01563805341720581,0.02093030884861946,0.0,0.003477144055068493
0.0037377099506556988,-0.006887112744152546,-0.015884993597865105,0.02105342596769333,0.0,0.0038719018921256065
0.004214935004711151,-0.005788673646748066,-0.015010347589850426,0.020968148484826088,0.0,0.004152263514697552
0.004020505119115114,-0.006344304885715246,-0.01549814734607935,0.020883427932858467,0.0,0.004297599196434021
0.0038794095162302256,-0.0067200795747339725,-0.01510664727538824,0.020611172541975975,0.0,0.0036915207747370005
0.003968221601098776,-0.00673288106918335,-0.016310935840010643,0.02003684639930725,0.0,0.003492838703095913
0.003963944502174854,-0.0061658043414354324,-0.015910783782601357,0.020287485793232918,0.0,0.0035353372804820538
0.0042386180721223354,-0.006438771728426218,-0.016209645196795464,0.020520908758044243,0.0,0.0035692749079316854
0.004236132837831974,-0.006258127745240927,-0.015737036243081093,0.020636998116970062,0.0,0.003574598580598831
0.004087081179022789,-0.006615594960749149,-0.015545726753771305,0.020114624872803688,0.0,0.003617130219936371
0.004085224121809006,-0.006709675770252943,-0.01621874049305916,0.02063347026705742,0.0,0.003714801976457238
0.004081949591636658,-0.006567072588950396,-0.015344827435910702,0.02020101808011532,0.0,0.0037399129942059517
0.003960968926548958,-0.006835497450083494,-0.015853973105549812,0.01955251395702362,0.0,0.0038041926454752684
0.004443657118827105,-0.006636406295001507,-0.015828661620616913,0.020280160009860992,0.0,0.004281441681087017
0.004443657118827105,-0.006636406295001507,-0.015828661620616913,0.020280160009860992,0.0,0.004281441681087017
0.004443657118827105,-0.006636406295001507,-0.015828661620616913,0.020280160009860992,0.0,0.004281441681087017
0.003821949241682887,-0.005032008979469538,-0.015484659001231194,0.02028292417526245,0.0,0.0034302761778235435
0.003964488860219717,-0.004047349561005831,-0.015621461905539036,0.020103713497519493,0.0,0.003662076313048601
0.003964488860219717,-0.004047349561005831,-0.015621461905539036,0.020103713497519493,0.0,0.003662076313048601
0.004321431275457144,-0.004268685355782509,-0.015635913237929344,0.020171450451016426,0.0,0.003806062275543809
0.004578665364533663,-0.004514484666287899,-0.01531702559441328,0.02026791125535965,0.0,0.0038540028035640717
0.004553961101919413,-0.00481811398640275,-0.015670472756028175,0.01961885765194893,0.0,0.004247194621711969
0.0043517122976481915,-0.004649902228266001,-0.015277570113539696,0.0196753591299057,0.0,0.0037140066269785166
0.004024372436106205,-0.004257557913661003,-0.01572454161942005,0.02048005536198616,0.0,0.003482497064396739
0.004179485607892275,-0.004448962863534689,-0.015308727510273457,0.020972544327378273,0.0,0.0035562438424676657
0.004649927839636803,-0.004553378093987703,-0.015844890847802162,0.02023572102189064,0.0,0.004205606412142515
0.004633314907550812,-0.00475918548181653,-0.015050657093524933,0.020179715007543564,0.0,0.00409303093329072
0.004337160848081112,-0.004724756348878145,-0.015462715178728104,0.019937975332140923,0.0,0.004287471063435078
0.004506697878241539,-0.00419076019898057,-0.01459096185863018,0.01975753903388977,0.0,0.004191533662378788
0.004363182466477156,-0.004308412782847881,-0.014981711283326149,0.019796298816800117,0.0,0.004033912438899279
0.004235005471855402,-0.004135745577514172,-0.01510746218264103,0.020379219204187393,1.4843650433249422e-06,0.0039683012291789055
0.004430422559380531,-0.004106486216187477,-0.01556030847132206,0.020370393991470337,9.691842706160969e-08,0.0035024150274693966
0.004702788311988115,-0.004093818832188845,-0.014806283637881279,0.020131217315793037,6.3280811701815765e-09,0.0035835066810250282
0.004345073830336332,-0.004526276607066393,-0.014467520639300346,0.02073783613741398,4.1317849142075147e-10,0.004068153444677591
0.004494284745305777,-0.004688006825745106,-0.014293674379587173,0.021289557218551636,2.697760244363412e-11,0.004262047354131937
0.004525959957391024,-0.004358953330665827,-0.014873490668833256,0.021018296480178833,1.7614447227198848e-12,0.004020409192889929
0.004246304742991924,-0.004009322728961706,-0.014793933369219303,0.020278209820389748,1.1500976765995569e-13,0.0038302286993712187
0.004451162647455931,-0.003944771829992533,-0.014627162367105484,0.020670000463724136,0.00043143672519363463,0.0037062133196741343
0.004660858307033777,-0.003906366880983114,-0.014315314590930939,0.01976332999765873,0.0005856912466697395,0.0037034538108855486
0.004409774672240019,-0.0043547791428864,-0.014062624424695969,0.018915094435214996,0.0005568696651607752,0.0038298845756798983
0.004466442856937647,-0.004390586167573929,-0.013554360717535019,0.01963125914335251,0.000579367158934474,0.004031138028949499
0.004521631170064211,-0.004265923053026199,-0.014248847961425781,0.019725102931261063,0.0005397075437940657,0.004017717204988003
0.004694588016718626,-0.004378441255539656,-0.01433431264013052,0.019346458837389946,0.0004976922646164894,0.003895727451890707
0.004690843168646097,-0.0045712594874203205,-0.01398980151861906,0.01956740953028202,0.0004932228475809097,0.004188322927802801
0.004785736091434956,-0.004224227741360664,-0.01355256699025631,0.019734278321266174,0.0004889616393484175,0.004256691783666611
0.004411379341036081,-0.0041399430483579636,-0.013783003203570843,0.019579201936721802,0.00045236581354402006,0.0035788335371762514
0.004411379341036081,-0.0041399430483579636,-0.013783003203570843,0.019579201936721802,0.00045236581354402006,0.0035788335371762514
0.0046196808107197285,-0.004262687638401985,-0.014285982586443424,0.019500214606523514,0.00043085592915304005,0.0032996051013469696
0.004766752012073994,-0.004591126460582018,-0.013491307385265827,0.019273271784186363,0.0003944791678804904,0.004114171955734491
0.0049512870609760284,-0.0046176244504749775,-0.014284300617873669,0.019499503076076508,0.0004301403241697699,0.004626654088497162
0.0044561997056007385,-0.004565397743135691,-0.013536404818296432,0.019358517602086067,0.00040246685966849327,0.004297979176044464
0.004562786780297756,-0.004207185469567776,-0.01379578560590744,0.018787726759910583,0.00037480227183550596,0.0038797412998974323
0.004942735191434622,-0.004289134871214628,-0.013341140002012253,0.01928773522377014,0.0004048146365676075,0.0037136338651180267
0.004853856284171343,-0.004698244389146566,-0.014191684313118458,0.01921777054667473,0.0003836944233626127,0.003722957568243146
0.004680436570197344,-0.004784815013408661,-0.013667512685060501,0.01892518252134323,0.00039997417479753494,0.0037632437888532877
0.004781719762831926,-0.004466076847165823,-0.014339708723127842,0.018902750685811043,0.00039022747660055757,0.0033784720581024885
0.004711706656962633,-0.004550668876618147,-0.013662436045706272,0.01857605390250683,0.00037139933556318283,0.0031495909206569195
0.004908411297947168,-0.004383893217891455,-0.014180253259837627,0.01882551982998848,0.000401756027713418,0.0036882723215967417
0.004969263449311256,-0.004215184599161148,-0.013779210858047009,0.019167136400938034,0.00037263642298057675,0.004199473187327385
0.005037116352468729,-0.004403816070407629,-0.014173918403685093,0.018856041133403778,0.0004038059851154685,0.004114692565053701
0.004871179815381765,-0.004607198294252157,-0.013651972636580467,0.01881391368806362,0.00038325306377373636,0.0039042187854647636
0.004732370842248201,-0.004627957474440336,-0.014383712783455849,0.019302833825349808,0.00035833666333928704,0.004201795905828476
0.005136916413903236,-0.0044481768272817135,-0.014069686643779278,0.019045870751142502,0.0003881688171532005,0.003909304738044739
0.00511554628610611,-0.004517595283687115,-0.014150801114737988,0.018827321007847786,0.0003688350843731314,0.0035535015631467104
0.004870684817433357,-0.004457525908946991,-0.014163989573717117,0.019189581274986267,0.00039173293043859303,0.003608930157497525
0.0047591011971235275,-0.00451173959299922,-0.01450338214635849,0.018995586782693863,0.00037712062476202846,0.004158499650657177
0.004855366423726082,-0.004606206435710192,-0.01442729588598013,0.018581572920084,0.0004303178284317255,0.004191884770989418
0.004956617020070553,-0.004268547985702753,-0.014439485967159271,0.01913810521364212,0.000415358372265473,0.004005007445812225
0.005118000786751509,-0.004333556164056063,-0.014257109723985195,0.019125904887914658,0.00041863808291964233,0.003909490071237087
0.004953064490109682,-0.004511715844273567,-0.013579453341662884,0.01940036192536354,0.0004197614034637809,0.003932070452719927
0.005136527121067047,-0.0044945585541427135,-0.014150677248835564,0.018892789259552956,0.0004231819184496999,0.0039741103537380695
0.00500748585909605,-0.0043861716985702515,-0.014927428215742111,0.017963938415050507,0.00042383617255836725,0.0039115529507398605
0.005341179668903351,-0.004551686346530914,-0.01468471810221672,0.018040718510746956,0.00039889701292850077,0.0038795028813183308
0.0049759517423808575,-0.00426096748560667,-0.015041532926261425,0.018341394141316414,0.0004216090892441571,0.004106237553060055
0.00470096105709672,-0.004451632499694824,-0.014573480933904648,0.018500884994864464,0.0003831691574305296,0.00390640227124095
0.004852426704019308,-0.00425470108166337,-0.014573023654520512,0.018597759306430817,0.0004144808917772025,0.0038025332614779472
0.004852426704019308,-0.00425470108166337,-0.014573023654520512,0.018597759306430817,0.0004144808917772025,0.0038025332614779472
0.005293155089020729,-0.0044928682036697865,-0.014493346214294434,0.018017468973994255,0.0003960974281653762,0.004175789654254913
0.004990489687770605,-0.0044844793155789375,-0.013750756159424782,0.018343837931752205,0.0003651232400443405,0.0040344553999602795
0.004869904834777117,-0.004317472688853741,-0.01415430661290884,0.017986005172133446,0.00040055738645605743,0.0036293589510023594
0.005060997791588306,-0.004059933125972748,-0.014269824139773846,0.017518531531095505,0.00037670062738470733,0.003506799228489399
0.005371040664613247,-0.0042105792090296745,-0.014463243074715137,0.017901601269841194,0.0003523739578668028,0.004154386930167675
0.0052382731810212135,-0.004612008109688759,-0.014220996759831905,0.01750762388110161,0.00038209298509173095,0.00454598618671298
0.005291522014886141,-0.004256249871104956,-0.014371827244758606,0.017338251695036888,0.00036339089274406433,0.004420410841703415
0.005106005817651749,-0.004473566543310881,-0.01411667000502348,0.01713663339614868,0.00037998371408320963,0.0044314246624708176
0.004862275440245867,-0.004754350986331701,-0.014176543802022934,0.01707237958908081,0.00037172104930505157,0.004208583850413561
0.0053377035073935986,-0.0043323165737092495,-0.01428073737770319,0.01767154037952423,0.0003541743499226868,0.0036514850798994303
0.0052506327629089355,-0.00416116276755929,-0.013864015229046345,0.017835602164268494,0.0003807507164310664,0.003527425229549408
0.005118325352668762,-0.004181669559329748,-0.014725984074175358,0.017811987549066544,0.0003650108410511166,0.003647975390776992
0.00513486098498106,-0.004415699280798435,-0.014442725107073784,0.017703311517834663,0.0003882644232362509,0.0037265389692038298
0.005267604719847441,-0.004076652228832245,-0.014242200180888176,0.017267581075429916,0.000376691430574283,0.004203648306429386
0.005625891033560038,-0.004259625915437937,-0.01366135012358427,0.01669285073876381,0.0003816713287960738,0.004193055909126997
0.00529527198523283,-0.004289472475647926,-0.014556496404111385,0.015998998656868935,0.00038471780135296285,0.003966351505368948
0.004900036379694939,-0.00451026763767004,-0.014052744954824448,0.016878260299563408,0.0003895433619618416,0.003790069604292512
0.005415441934019327,-0.00438427459448576,-0.01416915562003851,0.01719614304602146,0.0003918482398148626,0.0036928753834217787
0.005418500863015652,-0.004164356272667646,-0.013965119607746601,0.017143769189715385,0.0003748972958419472,0.0036969282664358616
0.005615804344415665,-0.004444359336048365,-0.014210413210093975,0.017186712473630905,0.00046822879812680185,0.00373038649559021
0.005248929373919964,-0.004214701242744923,-0.014276770874857903,0.01685238629579544,0.00043195433681830764,0.0039393119513988495
0.004755656700581312,-0.004409467335790396,-0.014311949722468853,0.017252394929528236,0.0004678853729274124,0.004001169931143522
0.0054244715720415115,-0.004173595923930407,-0.013813821598887444,0.016847282648086548,0.00048822694225236773,0.003955158870667219
0.005602170713245869,-0.004384549334645271,-0.014088422991335392,0.0173955075442791,0.00046870819642208517,0.0038241674192249775
0.005629564169794321,-0.004377814009785652,-0.013667698949575424,0.017106514424085617,0.0004912225995212793,0.0037011676467955112
0.005975551903247833,-0.004372779279947281,-0.013471752405166626,0.01733257807791233,0.0005468137678690255,0.004133493639528751
0.005955166183412075,-0.0040803756564855576,-0.014078387059271336,0.016219301149249077,0.0005030663451179862,0.004007799085229635
0.005955166183412075,-0.0040803756564855576,-0.014078387059271336,0.016219301149249077,0.0005030663451179862,0.004007799085229635
0.005926202051341534,-0.0038619490806013346,-0.013761728070676327,0.01633378118276596,0.0005375634063966572,0.003939164336770773
0.005312054883688688,-0.004373333416879177,-0.014408042654395103,0.016466697677969933,0.0004939163918606937,0.0039885388687253
0.005177667364478111,-0.004142747726291418,-0.013681633397936821,0.017030024901032448,0.0005178878782317042,0.004322374239563942
0.005536794196814299,-0.004367466550320387,-0.013988918624818325,0.01608695462346077,0.0004867283278144896,0.0043174708262085915
0.005582964513450861,-0.004091798793524504,-0.013421207666397095,0.017060764133930206,0.0005081416456960142,0.004059609025716782
0.005379078909754753,-0.004224154632538557,-0.013856746256351471,0.017105307430028915,0.00048419469385407865,0.004298102576285601
0.00603895029053092,-0.004574212711304426,-0.013464887626469135,0.01679634116590023,0.0005653536063618958,0.0042085470631718636
0.005760929547250271,-0.004209902137517929,-0.014023932628333569,0.016520408913493156,0.0005574394017457962,0.003970854915678501
0.0057921623811125755,-0.004005870781838894,-0.013381747528910637,0.016792306676506996,0.0005812039016745985,0.00404205359518528
0.0053131491877138615,-0.0044076102785766125,-0.01374042872339487,0.01644948124885559,0.0005787755362689495,0.004316806327551603
0.00574058061465621,-0.004586757626384497,-0.013551073148846626,0.017171798273921013,0.0005677832523360848,0.004414133727550507
0.005991687066853046,-0.004259014967828989,-0.013745338656008244,0.01665329746901989,0.0007250471389852464,0.004036660306155682
0.005944470874965191,-0.004177492577582598,-0.013352163136005402,0.0165331419557333,0.0007464615046046674,0.004112821538001299
0.0060552312061190605,-0.003940599039196968,-0.013166137039661407,0.01662168651819229,0.000737318187020719,0.004237013403326273
0.005914078094065189,-0.003806601744145155,-0.013349282555282116,0.016575954854488373,0.0007052206201478839,0.004070086870342493
0.006197088398039341,-0.004336959682404995,-0.01328140776604414,0.01646987721323967,0.0007154527120292187,0.00401776609942317
0.006607578601688147,-0.0046133664436638355,-0.01346803642809391,0.016016274690628052,0.0007567913853563368,0.004014846868813038
0.006135090719908476,-0.004365230444818735,-0.013142400421202183,0.016370108351111412,0.0007795865531079471,0.0043979426845908165
0.0063470820896327496,-0.004061520099639893,-0.013740794733166695,0.016058266162872314,0.0007094376487657428,0.004558183718472719
0.005716581363230944,-0.0034808344207704067,-0.013037987053394318,0.016326460987329483,0.0007187870214693248,0.004218212328851223
0.006001300178468227,-0.0035359314642846584,-0.013398329727351665,0.01619073376059532,0.0006561392801813781,0.00392000749707222
0.006930785719305277,-0.004028583411127329,-0.013204412534832954,0.016017083078622818,0.0006737738731317222,0.003808419918641448
0.00635760510340333,-0.003636513603851199,-0.013958056457340717,0.016228660941123962,0.000663344981148839,0.0041901362128555775
0.005977030843496323,-0.0036006008740514517,-0.013515847735106945,0.015915673226118088,0.0006784300203435123,0.004567015450447798
0.005906480830162764,-0.0036196005530655384,-0.013615787960588932,0.01623084768652916,0.0006519856979139149,0.004691931884735823
0.005866453051567078,-0.0036736889742314816,-0.013234801590442657,0.015746140852570534,0.0006687234854325652,0.004429034888744354
0.0063643320463597775,-0.0037298889365047216,-0.013461155816912651,0.01618923246860504,0.0006573529681190848,0.004104349762201309
0.005774725694209337,-0.003419643035158515,-0.013337302953004837,0.016259469091892242,0.0006988594541326165,0.00425275694578886
0.00600387854501605,-0.003308139741420746,-0.01345130242407322,0.01632164791226387,0.0007321021403186023,0.004227242898195982
0.00600387854501605,-0.003308139741420746,-0.01345130242407322,0.01632164791226387,0.0007321021403186023,0.004227242898195982
0.005671118851751089,-0.0033101460430771112,-0.013649413362145424,0.016331812366843224,0.0006717363721691072,0.004480637609958649
0.00618745619431138,-0.0033672922290861607,-0.014098170213401318,0.01630893163383007,0.0006916545098647475,0.0047013405710458755
0.006680828519165516,-0.0035594506189227104,-0.013416750356554985,0.015499314293265343,0.0007060498464852571,0.0043540229089558125
0.00598944490775466,-0.0036572732497006655,-0.013779977336525917,0.015873391181230545,0.0007253658259287477,0.004318039398640394
0.005976338405162096,-0.0036800734233111143,-0.012969342060387135,0.01594708301126957,0.0007563417893834412,0.00458561023697257
0.006388056557625532,-0.0037241526879370213,-0.01357927918434143,0.01590191386640072,0.0007760220905765891,0.0043284157291054726
0.006530740298330784,-0.003398594679310918,-0.01327818725258112,0.015740785747766495,0.0007398807210847735,0.0043837097473442554
0.0062385727651417255,-0.003473565448075533,-0.01409795694053173,0.01573609746992588,0.0007533926982432604,0.004126436077058315
0.0060274493880569935,-0.0037236767821013927,-0.013323426246643066,0.015756292268633842,0.0008614519028924406,0.004293540492653847
0.006433961447328329,-0.003378767753019929,-0.013883913867175579,0.015552488155663013,0.0008573755039833486,0.004356138873845339
0.006533225532621145,-0.0035216696560382843,-0.013535507023334503,0.015662726014852524,0.0008307976531796157,0.0040903217159211636
0.006597412750124931,-0.003252205206081271,-0.013573882170021534,0.015000686049461365,0.0007835617288947105,0.004174221307039261
0.006482540164142847,-0.003181745996698737,-0.013268220238387585,0.015317576006054878,0.0007927461992949247,0.004150979686528444
0.006371460389345884,-0.0031973884906619787,-0.01423230953514576,0.015244568698108196,0.0007602439727634192,0.004291920457035303
0.006455126218497753,-0.0034143689554184675,-0.01403051521629095,0.015472440049052238,0.0007516086916439235,0.004571740981191397
0.006761488970369101,-0.0037226302083581686,-0.014043916948139668,0.014814799651503563,0.0007124481489881873,0.004487648606300354
0.006870338227599859,-0.003405717434361577,-0.014949554577469826,0.014872883446514606,0.0007233390933834016,0.004079907666891813
0.006558371242135763,-0.003575000911951065,-0.014700561761856079,0.01418211217969656,0.0007411558763124049,0.003835183335468173
0.006416507065296173,-0.0033174888230860233,-0.013892929069697857,0.014815004542469978,0.0008068002061918378,0.004148633684962988
0.006614521611481905,-0.0035474312026053667,-0.014150054194033146,0.014668670482933521,0.0009721839451231062,0.004216217901557684
0.006671866402029991,-0.0032323782797902822,-0.01610683649778366,0.015484482049942017,0.0009808577597141266,0.004367283545434475
0.006929249968379736,-0.0033297580666840076,-0.01378288958221674,0.014637300744652748,0.0009579001925885677,0.004496241454035044
0.006504211109131575,-0.003409839468076825,-0.013600941747426987,0.014684922993183136,0.0008895661449059844,0.004494909662753344
0.006504211109131575,-0.003409839468076825,-0.013600941747426987,0.014684922993183136,0.0008895661449059844,0.004494909662753344
0.006839394569396973,-0.003562985686585307,-0.014710426330566406,0.015019817277789116,0.000980761949904263,0.004349938128143549
0.007001850754022598,-0.003321672324091196,-0.014155933633446693,0.013966057449579239,0.0010283857118338346,0.003991199191659689
0.0067415195517241955,-0.0031065787188708782,-0.014224011451005936,0.014771332032978535,0.0009746465948410332,0.003590442705899477
0.006721758749336004,-0.002926865126937628,-0.013904102146625519,0.014478374272584915,0.0010310678044334054,0.004314824007451534
0.007320649456232786,-0.0029569698963314295,-0.014438369311392307,0.014929532073438168,0.0010139232035726309,0.004495189990848303
0.007038038689643145,-0.0031921586487442255,-0.01418465469032526,0.01498343050479889,0.0009978944435715675,0.0041360738687217236
0.006678283680230379,-0.0031018645968288183,-0.014553464017808437,0.015134560875594616,0.001005685655400157,0.0038404264487326145
0.006651891861110926,-0.0029899512883275747,-0.014160810969769955,0.015129226259887218,0.0010437617311254144,0.004235113505274057
0.006774893496185541,-0.0026861769147217274,-0.0144728384912014,0.01518959179520607,0.0009853888768702745,0.004168854560703039
0.0070525226183235645,-0.0025925389491021633,-0.014519348740577698,0.014958051033318043,0.0009708060533739626,0.004531723912805319
0.007062545977532864,-0.002380026737228036,-0.014595159329473972,0.014844889752566814,0.0009078410803340375,0.004178858362138271
0.006857079919427633,-0.0021372016053646803,-0.01425148919224739,0.015143795870244503,0.0008821575902402401,0.004294590558856726
0.006503575015813112,-0.0018136210273951292,-0.014572259038686752,0.014904585666954517,0.0008832348394207656,0.00458426121622324
0.0069652884267270565,-0.0015294936019927263,-0.014104120433330536,0.014756141230463982,0.0008853384642861784,0.004699430428445339
0.006919150240719318,-0.0012225690297782421,-0.014300853945314884,0.014432434923946857,0.0008794422028586268,0.0045863003470003605
0.0069521572440862656,-0.0013257547980174422,-0.013885493390262127,0.014635566622018814,0.0008951442432589829,0.00424253661185503
0.007004593964666128,-0.0019273700891062617,-0.014232566580176353,0.014032166451215744,0.0008951040217652917,0.004358518403023481
0.00757828913629055,-0.001807880005799234,-0.01408722996711731,0.014292065054178238,0.000862566230352968,0.004607177805155516
0.00709156459197402,-0.002150909509509802,-0.014213673770427704,0.014389925636351109,0.0008097392856143415,0.0051109082996845245
0.006763498764485121,-0.0018895113607868552,-0.013680514879524708,0.01456473395228386,0.000816185143776238,0.005144584458321333
0.006656230892986059,-0.0015242013614624739,-0.01394274178892374,0.014348910190165043,0.0008356518228538334,0.004984281957149506
0.006656230892986059,-0.0015242013614624739,-0.01394274178892374,0.014348910190165043,0.0008356518228538334,0.004984281957149506
0.007171105593442917,-0.001366214593872428,-0.013551081530749798,0.014132851734757423,0.0008545503369532526,0.004779593087732792
0.007041065022349358,-0.0014978901017457247,-0.013748225755989552,0.01406470499932766,0.0008773697772994637,0.004989965353161097
0.007041065022349358,-0.0014978901017457247,-0.013748225755989552,0.01406470499932766,0.0008773697772994637,0.004989965353161097
0.007122139912098646,-0.0015659905038774014,-0.013845263980329037,0.013998650014400482,0.0010469499975442886,0.005483541171997786
0.007384085562080145,-0.0015541680622845888,-0.013323422521352768,0.01388294156640768,0.000956428237259388,0.0054671503603458405
0.007299584802240133,-0.001474822754971683,-0.013436303474009037,0.013803398236632347,0.0009291016613133252,0.004846624564379454
0.007104556541889906,-0.001309968763962388,-0.013727367855608463,0.013990637846291065,0.0008377885678783059,0.004645486827939749
0.007454722188413143,-0.0012807522434741259,-0.014212433248758316,0.013640007935464382,0.0007753798854537308,0.004703322425484657
0.007454722188413143,-0.0012807522434741259,-0.014212433248758316,0.013640007935464382,0.0007753798854537308,0.004703322425484657
0.007712135091423988,-0.0012773822527378798,-0.01385563425719738,0.013266854919493198,0.0007829666719771922,0.004764206241816282
0.007221418432891369,-0.0013406366342678666,-0.01354922167956829,0.013396065682172775,0.0009008463239297271,0.004668990150094032
0.007221418432891369,-0.0013406366342678666,-0.01354922167956829,0.013396065682172775,0.0009008463239297271,0.004668990150094032
0.00775297312065959,-0.0013185590505599976,-0.014019343070685863,0.013489793986082077,0.0009207127732224762,0.0046324958093464375
0.007582599762827158,-0.0014271052787080407,-0.013973524793982506,0.013071431778371334,0.0009188157855533063,0.004676498472690582
0.00720745837315917,-0.0013447102392092347,-0.013902083039283752,0.013203349895775318,0.0009163566282950342,0.004787981044501066
0.007348848972469568,-0.001257017720490694,-0.013762274757027626,0.012896706350147724,0.0009569434332661331,0.004984812345355749
0.0074685923755168915,-0.0011888423468917608,-0.013197969645261765,0.013193851336836815,0.0009617404430173337,0.004806355573236942
0.007802246604114771,-0.0011410863371565938,-0.013854279182851315,0.013153685256838799,0.0010184148559346795,0.004677566699683666
0.007496579084545374,-0.00110392807982862,-0.013653181493282318,0.013217921368777752,0.0010871601989492774,0.00423017330467701
0.007423236966133118,-0.001121630659326911,-0.013506314717233181,0.013551336713135242,0.001155775971710682,0.004377285018563271
0.0076660034246742725,-0.0011216308921575546,-0.01279385481029749,0.012903682887554169,0.0011279418831691146,0.004902058746665716
0.007607017643749714,-0.0010993489995598793,-0.013556331396102905,0.01309907529503107,0.0010938667692244053,0.005089886020869017
0.008158172480762005,-0.0011473408667370677,-0.01334079448133707,0.012804560363292694,0.0010517003247514367,0.005293908528983593
0.0086630554869771,-0.0011204204056411982,-0.014042964205145836,0.013096943497657776,0.0010313241509720683,0.005061829462647438
0.00804024189710617,-0.0010825151111930609,-0.013189941644668579,0.012904776260256767,0.0010102838277816772,0.004768633749336004
0.00804024189710617,-0.0010825151111930609,-0.013189941644668579,0.012904776260256767,0.0010102838277816772,0.004768633749336004
0.007642272859811783,-0.0010517765767872334,-0.013688117265701294,0.013306846842169762,0.0009697206551209092,0.0046283528208732605
0.007925144396722317,-0.0009767080191522837,-0.013417812995612621,0.012842047028243542,0.0008897005463950336,0.004600732121616602
0.007851066067814827,-0.0010432640556246042,-0.013213606551289558,0.012816483154892921,0.0008101019775494933,0.004755603615194559
0.008212066255509853,-0.0009676361223682761,-0.013689410872757435,0.012428914196789265,0.0008214593981392682,0.004679880104959011
0.007889843545854092,-0.001141417189501226,-0.013609598390758038,0.012758273631334305,0.0008234159904532135,0.004629270639270544
0.00823095254600048,-0.0011141560971736908,-0.013575579039752483,0.012161756865680218,0.000858744082506746,0.0046413009986281395
0.008374487049877644,-0.0010398417944088578,-0.013365576043725014,0.012555875815451145,0.0008859796798788011,0.0046752276830375195
0.008142044767737389,-0.0009444504394195974,-0.01294948160648346,0.012166282162070274,0.0009600448538549244,0.004587323870509863
0.008905816823244095,-0.0008651192183606327,-0.013519065454602242,0.012318320572376251,0.0010740967700257897,0.0053075160831213
0.008144245482981205,-0.0008337394683621824,-0.013175301253795624,0.011933808214962482,0.001177274389192462,0.005381072871387005
0.008008582517504692,-0.0008427092107012868,-0.013803190551698208,0.011840914376080036,0.0011471009347587824,0.00498975720256567
0.008896321058273315,-0.0008752106805332005,-0.013024167157709599,0.012685606256127357,0.0011138978879898787,0.004739225376397371
0.00863981619477272,-0.000948309141676873,-0.0135261295363307,0.011925888247787952,0.0011809177231043577,0.004782141651958227
0.008387505076825619,-0.0010072070872411132,-0.012923408299684525,0.012167775072157383,0.0011339528718963265,0.004807658493518829
0.008212214335799217,-0.0009910787921398878,-0.01342613622546196,0.012330076657235622,0.0011328934924677014,0.0051233721897006035
0.008851594291627407,-0.0009686896810308099,-0.013329125940799713,0.012379089370369911,0.00112361297942698,0.004860054235905409
0.008978540077805519,-0.0008654507109895349,-0.013696558773517609,0.012415657751262188,0.0012012782972306013,0.00464752409607172
0.008598534390330315,-0.0008302385685965419,-0.013592849485576153,0.012444909662008286,0.001196317607536912,0.004720055032521486
0.008614358492195606,-0.0008332894649356604,-0.014044311828911304,0.01279490813612938,0.0012334052007645369,0.005204312968999147
0.00861397385597229,-0.0008143598097376525,-0.013586217537522316,0.01181264128535986,0.0012017361586913466,0.005186400841921568
0.00861397385597229,-0.0008143598097376525,-0.013586217537522316,0.01181264128535986,0.0012017361586913466,0.005186400841921568
0.008960122242569923,-0.0007543435203842819,-0.013630732893943787,0.012373293749988079,0.0012386445887386799,0.005066682584583759
0.008469819091260433,-0.000768935598898679,-0.014026748947799206,0.01215682178735733,0.0012208522530272603,0.0051894402131438255
0.009350508451461792,-0.0008144460734911263,-0.013208352960646152,0.011543575674295425,0.0011468870798125863,0.00554087245836854
0.008554991334676743,-0.0007206621812656522,-0.012868699617683887,0.011347590945661068,0.0011076027294620872,0.005403341259807348
0.008448814041912556,-0.0007373325643129647,-0.013781298883259296,0.012340137735009193,0.0010338958818465471,0.0051022679544985294
0.009012318216264248,-0.0006636469624936581,-0.01433467771857977,0.011871850118041039,0.0010174864437431097,0.005256412085145712
0.00919443741440773,-0.0006004190654493868,-0.013554218225181103,0.012066899798810482,0.0009987576631829143,0.005115473177284002
0.008958897553384304,-0.0006169819971546531,-0.012992911040782928,0.012509272433817387,0.001001508324407041,0.005247646477073431
0.009108902886509895,-0.0005761798238381743,-0.014001250267028809,0.011709434911608696,0.00117422454059124,0.005605349317193031
0.00921790674328804,-0.0005273916176520288,-0.01330553088337183,0.01166589930653572,0.0011935073416680098,0.005594155751168728
0.008772007189691067,-0.00047041111974976957,-0.013767974451184273,0.010818613693118095,0.0011935703223571181,0.005563565995544195
0.008961336687207222,-0.0005073982756584883,-0.013769402168691158,0.01119102444499731,0.0014166561886668205,0.00539399916306138
0.009315148927271366,-0.0005175042897462845,-0.013748928904533386,0.01161145232617855,0.0013500074855983257,0.005631028208881617
0.009741020388901234,-0.0005009134765714407,-0.013503878377377987,0.011205034330487251,0.001304500736296177,0.005778292194008827
0.009747490286827087,-0.00046431951341219246,-0.013472783379256725,0.011466667987406254,0.0013150394661352038,0.005827047396451235
0.009704702533781528,-0.00043244275730103254,-0.013494566082954407,0.011114097200334072,0.0013611873146146536,0.005314235109835863
0.009018009528517723,-0.00046163974911905825,-0.013610432855784893,0.010743310675024986,0.0013484266819432378,0.005588918458670378
0.00951311644166708,-0.0004345412307884544,-0.01366716343909502,0.010761702433228493,0.0014565404271706939,0.005583436693996191
0.009986591525375843,-0.0004098167992196977,-0.013342428021132946,0.010311303660273552,0.0014037068467587233,0.005888675805181265
0.009492175653576851,-0.0003877420967910439,-0.01332955900579691,0.010750265792012215,0.0012858721893280745,0.005689552519470453
0.009530658833682537,-0.00036792829632759094,-0.012675333768129349,0.01081964559853077,0.0012455638498067856,0.005771521478891373
0.010731399990618229,-0.00035123847192153335,-0.013118467293679714,0.009969335980713367,0.0012753462651744485,0.005609838292002678
0.009291693568229675,-0.00033947007614187896,-0.013010086491703987,0.010622421279549599,0.0012621321948245168,0.005746297538280487
0.009701570495963097,-0.0003158366889692843,-0.01364877913147211,0.010894682258367538,0.0014280753675848246,0.00524915661662817
0.009937704540789127,-0.0002951214846689254,-0.012887690216302872,0.010710121132433414,0.0016239611431956291,0.005164640955626965
0.009568840265274048,-0.0003131977282464504,-0.013189178891479969,0.011044452898204327,0.0017569242045283318,0.0053777797147631645
0.009820562787353992,-0.0003128180396743119,-0.013189936988055706,0.010397056117653847,0.0016740374267101288,0.005623099859803915
0.01047404482960701,-0.00029591485508717597,-0.013116171583533287,0.010533388704061508,0.0016015380388125777,0.00575252203270793
0.01047404482960701,-0.00029591485508717597,-0.013116171583533287,0.010533388704061508,0.0016015380388125777,0.00575252203270793
0.00946203526109457,-0.00029589334735646844,-0.013061014004051685,0.01059148833155632,0.0012112508993595839,0.0053796120919287205
0.00946203526109457,-0.00029589334735646844,-0.013061014004051685,0.01059148833155632,0.0012112508993595839,0.0053796120919287205
0.009844726882874966,-0.0002831546007655561,-0.012372405268251896,0.010258559137582779,0.001240223296917975,0.0052187503315508366
0.010853326879441738,-0.000270982418442145,-0.013166943565011024,0.009233137592673302,0.0012260344810783863,0.005791091825813055
0.010169954970479012,-0.00025980619830079377,-0.012394764460623264,0.009107166901230812,0.0013648286694660783,0.005973767023533583
0.009702960960566998,-0.00024951694649644196,-0.013208857737481594,0.009512932039797306,0.0013713273219764233,0.006216319277882576
0.0100379204377532,-0.00024001099518500268,-0.012818191200494766,0.009046679362654686,0.0013129317667335272,0.006299186032265425
0.010369318537414074,-0.00023120187688618898,-0.013036683201789856,0.008907687850296497,0.0013948667328804731,0.005576553754508495
0.009761665016412735,-0.00022301741410046816,-0.012760285288095474,0.00935810524970293,0.0013603288680315018,0.005997040309011936
0.009860790334641933,-0.00021539274894166738,-0.012635746039450169,0.009067063219845295,0.0013083190424367785,0.005907763727009296
0.010759512893855572,-0.0002082717401208356,-0.01283982489258051,0.008409264497458935,0.0013877220917493105,0.005745656788349152
0.01003352366387844,-0.00020160696294624358,-0.012404397130012512,0.008498487062752247,0.0014251144602894783,0.005722394213080406
0.009896084666252136,-0.00019535524188540876,-0.012511434964835644,0.008975954726338387,0.0014822218799963593,0.006120780948549509
0.009974400512874126,-0.00018947984790429473,-0.012395385652780533,0.00816404726356268,0.001516181044280529,0.005812964867800474
0.010715934447944164,-0.00018394719518255442,-0.012687169946730137,0.008107270114123821,0.0014712066622450948,0.005981780588626862
0.01022330205887556,-0.0002039092214545235,-0.012598481960594654,0.00881241261959076,0.0015134839341044426,0.006111337337642908
0.009978299029171467,-0.0001986217830562964,-0.012012230232357979,0.008857620880007744,0.0015327765140682459,0.005988715682178736
0.010186059400439262,-0.00019329400674905628,-0.012249976396560669,0.00854415912181139,0.0016977397026494145,0.006171806715428829
0.010196251794695854,-0.0001882409123936668,-0.01201525330543518,0.009030221961438656,0.0017730622785165906,0.005805019289255142
0.009938993491232395,-0.00018344441195949912,-0.012748957611620426,0.00889884028583765,0.0018980895401909947,0.0059366910718381405
0.010369350202381611,-0.00017888697038870305,-0.01225563045591116,0.008141322061419487,0.0017661373130977154,0.005641669500619173
0.010145668871700764,-0.0001745501213008538,-0.01193691324442625,0.008576608262956142,0.0017154685920104384,0.005871982779353857
0.00971498154103756,-0.00017041883256752044,-0.01183511596173048,0.008784802630543709,0.001701531233265996,0.00642333272844553
0.010617397725582123,-0.00016647840675432235,-0.01161603070795536,0.0089182797819376,0.0015977878356352448,0.006222812458872795
0.010003438219428062,-0.00016271599452011287,-0.012407325208187103,0.008567520417273045,0.0014326130039989948,0.005976202432066202
0.009720672853291035,-0.00015912047820165753,-0.01181032881140709,0.008332635276019573,0.0014933326747268438,0.00554176839068532
0.010190659202635288,-0.00015567966329399496,-0.011859063059091568,0.008252693340182304,0.0014109995681792498,0.005737324710935354
0.009597694501280785,-0.00014922670379746705,-0.012359477579593658,0.008630442433059216,0.001431367127224803,0.006735206115990877
0.010193449445068836,-0.00013417273294180632,-0.012640316039323807,0.008283132687211037,0.0014687097864225507,0.0062340255826711655
0.010193449445068836,-0.00013417273294180632,-0.012640316039323807,0.008283132687211037,0.0014687097864225507,0.0062340255826711655
0.01036504190415144,-0.00012546021025627851,-0.011925864964723587,0.008112766779959202,0.0014295700239017606,0.006111235823482275
0.01002433616667986,-0.0001229311601491645,-0.012663298286497593,0.007891401648521423,0.0014745040098205209,0.005815616808831692
0.010099821723997593,-0.00012057730054948479,-0.012254342436790466,0.008819159120321274,0.0015593020943924785,0.005815314594656229
0.010322649031877518,-0.00011831284791696817,-0.012931903824210167,0.008124307729303837,0.00151596509385854,0.006338856182992458
0.00960105936974287,-0.00011613205424509943,-0.012566112913191319,0.007883548736572266,0.001400813809596002,0.006301389541476965
0.009981147944927216,-0.00011403012467781082,-0.012156590819358826,0.007744666188955307,0.0013677385868504643,0.006388561334460974
0.009884577244520187,-0.00011200302105862647,-0.012251080013811588,0.007975785993039608,0.0013288530753925443,0.006371886935085058
0.010269157588481903,-0.00011004658153979108,-0.011901933699846268,0.007617266848683357,0.0014650163939222693,0.006126022431999445
0.012472943402826786,-0.00010815732821356505,-0.012946155853569508,0.007429538294672966,0.0016650678589940071,0.005791384261101484
0.011857094243168831,-0.00010633192141540349,-0.01254685316234827,0.00807991810142994,0.002113546244800091,0.00594630092382431
0.012051939032971859,-0.00010456705786054954,-0.012982899323105812,0.008276036009192467,0.0021245365496724844,0.006255148444324732
0.011852514930069447,-0.0001028597544063814,-0.012915386818349361,0.007994924671947956,0.001837727497331798,0.006362452171742916
0.011904082261025906,-0.0001012074135360308,-0.01284100767225027,0.00772435124963522,0.001722506363876164,0.006376745644956827
0.012142006307840347,-9.960739407688379e-05,-0.012405307963490486,0.007612105458974838,0.001542424550279975,0.006262617651373148
0.011669909581542015,-9.805706940824166e-05,-0.012342365458607674,0.007879011332988739,0.0013245653826743364,0.006133446469902992
0.012162857688963413,-9.655427129473537e-05,-0.013038687407970428,0.007539483718574047,0.0012142369523644447,0.0064432681538164616
0.012260242365300655,-9.509691153652966e-05,-0.013022325932979584,0.007935338653624058,0.001286935992538929,0.0061649433337152
0.012154611758887768,-3.5169345210306346e-05,-0.013319692574441433,0.007859948091208935,0.0017738965107128024,0.0061479960568249226
0.012128795497119427,-3.2189451303565875e-05,-0.012570262886583805,0.007512751966714859,0.0017915499629452825,0.006420208606868982
0.011689495295286179,-3.159292464260943e-05,-0.012832610867917538,0.007422495633363724,0.0021599119063466787,0.006360611878335476
0.012188585475087166,-3.104755887761712e-05,-0.012831502594053745,0.007461002096533775,0.002287955954670906,0.006346095819026232
0.011925171129405499,-3.052114334423095e-05,-0.012527584098279476,0.007636586669832468,0.0022507417015731335,0.0062916516326367855
0.012267745099961758,-1.6758867786847986e-05,-0.012903492897748947,0.007475800812244415,0.002139626769348979,0.00694989925250411
0.012019523419439793,-3.0165367981282998e-09,-0.012895191088318825,0.006710777059197426,0.0017513015773147345,0.006294564809650183
0.012214681133627892,-4.047068929979858e-11,-0.012474085204303265,0.006696551572531462,0.0015585471410304308,0.006506180390715599
0.011642729863524437,-5.429659001056353e-13,-0.013087095692753792,0.006964268162846565,0.001600374118424952,0.006337200757116079
0.012320111505687237,-7.284580755175917e-15,-0.014193132519721985,0.006986255291849375,0.0017015261109918356,0.006484975107014179
0.012320111505687237,-7.284580755175917e-15,-0.014193132519721985,0.006986255291849375,0.0017015261109918356,0.006484975107014179
0.0123360650613904,-9.773195185595676e-17,-0.012684658169746399,0.0067333620972931385,0.0017939165700227022,0.006267810706049204
0.012260017916560173,-1.311198833941108e-18,-0.012012514285743237,0.007168732117861509,0.0021941533777862787,0.006332838907837868
0.012205459177494049,-1.7591404517920888e-20,-0.012301072478294373,0.007399650290608406,0.0020513744093477726,0.006181114818900824
0.011902375146746635,-2.3601112794498367e-22,-0.013067737221717834,0.0074075753800570965,0.0020040017552673817,0.00641979556530714
0.01205416489392519,-3.1663908408810255e-24,-0.012140078470110893,0.006275258958339691,0.0018125660717487335,0.006622106768190861
0.011896003969013691,0.00028457771986722946,-0.01255233958363533,0.006317758467048407,0.0016441760817542672,0.006460502743721008
0.012086765840649605,0.0004231200146023184,-0.012473596259951591,0.00716495793312788,0.0016614089254289865,0.006354412063956261
0.012110238894820213,0.00038878608029335737,-0.012918133288621902,0.006944541819393635,0.0017795980675145984,0.0065031396225094795
0.012318811379373074,0.0003578858741093427,-0.012105376459658146,0.006587154697626829,0.0018897702684625983,0.006029775366187096
0.012323182076215744,0.00039504870073869824,-0.011906544677913189,0.006282638758420944,0.001938508008606732,0.006187787279486656
0.012012496590614319,0.0003704777918756008,-0.01234633382409811,0.006616502534598112,0.0020284843631088734,0.006530946586281061
0.012766797095537186,0.0003975899890065193,-0.011983874253928661,0.006745927967131138,0.002031822921708226,0.006695325952023268
0.011992551386356354,0.00038000670610927045,-0.012483234517276287,0.0063254572451114655,0.0019864903297275305,0.006481651216745377
0.011973362416028976,0.0004089476424269378,-0.01197074819356203,0.006139899138361216,0.0018580207834020257,0.006619952619075775
0.012454553507268429,0.0003876106929965317,-0.012317445129156113,0.005948033649474382,0.0018960083834826946,0.0066622840240597725
0.012388275004923344,0.00044760300079360604,-0.012499037198722363,0.0059523689560592175,0.0019999616779386997,0.006880614906549454
0.012894873507320881,0.0004890055279247463,-0.012200504541397095,0.005929315462708473,0.0020275614224374294,0.006918864790350199
0.01217962522059679,0.0005174324032850564,-0.01254356186836958,0.00604681670665741,0.002177413320168853,0.007199907209724188
0.01217962522059679,0.0005174324032850564,-0.01254356186836958,0.00604681670665741,0.002177413320168853,0.007199907209724188
0.012785779312252998,0.0005311499699018896,-0.012029514648020267,0.006146531086415052,0.002016655635088682,0.0066708531230688095
0.012325751595199108,0.0005154862883500755,-0.012603173963725567,0.006306847557425499,0.0018636436434462667,0.006438041105866432
0.012587056495249271,0.0007653575739823282,-0.012622724287211895,0.006916606333106756,0.0018075754633173347,0.006748927291482687
0.012372634373605251,0.0007837324519641697,-0.012259252369403839,0.006414807867258787,0.001659092609770596,0.006808076053857803
0.013346163555979729,0.0007120990776456892,-0.01243583019822836,0.005666946526616812,0.001936985761858523,0.00675966078415513
0.01285643596202135,0.0007302614976651967,-0.012695140205323696,0.005877455696463585,0.002047289628535509,0.00692932540550828
0.013204988092184067,0.0007602368132211268,-0.012212160974740982,0.006439404096454382,0.002368495101109147,0.006934878882020712
0.013204988092184067,0.0007602368132211268,-0.012212160974740982,0.006439404096454382,0.002368495101109147,0.006934878882020712
0.013336929492652416,0.0007983534596860409,-0.012359359301626682,0.006042744033038616,0.0020864675752818584,0.006851783487945795
0.01296933088451624,0.0008097661775536835,-0.012508179992437363,0.005390158388763666,0.002173840766772628,0.00712856138125062
0.013198564760386944,0.0010489047272130847,-0.012582836672663689,0.005887685809284449,0.00210565491579473,0.007488328497856855
0.012938806787133217,0.001032466534525156,-0.012226546183228493,0.006161506287753582,0.0021647613029927015,0.007556661497801542
0.012828906998038292,0.0010434897849336267,-0.01267070323228836,0.0059563759714365005,0.0021949263755232096,0.006970299407839775
0.012991844676434994,0.0010698025580495596,-0.012571791186928749,0.006047033239156008,0.002396782860159874,0.007126369047909975
0.01292173657566309,0.0010890780249610543,-0.0127788744866848,0.005950369406491518,0.0024289865978062153,0.006825879216194153
0.013132661581039429,0.00105752213858068,-0.01269820611923933,0.006430758163332939,0.002274232916533947,0.007339502219110727
0.012981184758245945,0.0010474319569766521,-0.012594732455909252,0.006671087350696325,0.0022328048944473267,0.007354273460805416
0.013392471708357334,0.001279080519452691,-0.012354820035398006,0.00624264357611537,0.002056177007034421,0.006849425844848156
0.013362589292228222,0.0013817102881148458,-0.01185233611613512,0.005533323623239994,0.0018968108342960477,0.006633440963923931
0.013064151629805565,0.0016939749475568533,-0.012434658594429493,0.0057702637277543545,0.0017149342456832528,0.007223753724247217
0.013190469704568386,0.0017575169913470745,-0.012797660194337368,0.005560906138271093,0.001673904713243246,0.007412491366267204
0.01366103533655405,0.0016418624436482787,-0.01266793068498373,0.0057720039039850235,0.0016737524420022964,0.007057815324515104
0.013547251932322979,0.0016736730467528105,-0.012132556177675724,0.0053070238791406155,0.001854821341112256,0.0072667584754526615
0.01342353131622076,0.0015691373264417052,-0.012251879088580608,0.005264962557703257,0.002166427206248045,0.007644712459295988
0.01378106139600277,0.0017651693196967244,-0.012342122383415699,0.005541185382753611,0.00232524867169559,0.007773870136588812
0.013702663592994213,0.0016709540504962206,-0.012050744146108627,0.0051824115216732025,0.0022045173682272434,0.007507992908358574
0.013845933601260185,0.002075043972581625,-0.012758038006722927,0.005774992052465677,0.0020038692746311426,0.006993070710450411
0.013669714331626892,0.002132002729922533,-0.012205815874040127,0.005478241480886936,0.0019487952813506126,0.006549965124577284
0.013669714331626892,0.002132002729922533,-0.012205815874040127,0.005478241480886936,0.0019487952813506126,0.006549965124577284
0.014116769656538963,0.0021305237896740437,-0.012682706117630005,0.004894324112683535,0.0019636936485767365,0.007192145101726055
0.013632437214255333,0.0023021723609417677,-0.012355812825262547,0.0048027741722762585,0.0020245681516826153,0.007387002930045128
0.013642444275319576,0.0022400454618036747,-0.01227899082005024,0.004885042551904917,0.002466360805556178,0.007346241734921932
0.014045597054064274,0.002365975407883525,-0.011968518607318401,0.00555575592443347,0.002042515203356743,0.007314642425626516
0.013796244747936726,0.0025125760585069656,-0.012674253433942795,0.005148690659552813,0.0018823338905349374,0.006720989476889372
0.014268893748521805,0.002727653132751584,-0.01202266477048397,0.004535143729299307,0.002013469347730279,0.006825671531260014
0.013573634438216686,0.002844889648258686,-0.012365005910396576,0.004585205111652613,0.0020782663486897945,0.006697169505059719
0.014103954657912254,0.0033725928515195847,-0.012219294905662537,0.004617857281118631,0.0020503858104348183,0.0076380567625164986
0.013939221389591694,0.0031212002504616976,-0.012662743218243122,0.0044522397220134735,0.002015252597630024,0.007829895243048668
0.014317646622657776,0.003265881212428212,-0.012522268109023571,0.004862623754888773,0.0019876109436154366,0.007073272485285997
0.013725899159908295,0.0033092345111072063,-0.012009103782474995,0.005284233950078487,0.0020437694620341063,0.006630706135183573
0.014090476557612419,0.0033346598502248526,-0.012560708448290825,0.0049842544831335545,0.0020184165332466364,0.006978174205869436
0.01374379824846983,0.003420985536649823,-0.01256407517939806,0.004483021330088377,0.002049017930403352,0.00731005659326911
0.01455988734960556,0.003638052148744464,-0.013114947825670242,0.004405030980706215,0.0020159718114882708,0.007534324657171965
0.014476664364337921,0.0037752254866063595,-0.012755551375448704,0.004152981098741293,0.0023376557510346174,0.007937606424093246
0.014447186142206192,0.003857601899653673,-0.012710681185126305,0.004399328492581844,0.0025834250263869762,0.008189219050109386
0.014231367968022823,0.0034312813077121973,-0.012741091661155224,0.004687786102294922,0.0025703189894557,0.007618263363838196
0.014571841806173325,0.0035618513356894255,-0.012386348098516464,0.004774515051394701,0.002570230746641755,0.007544200401753187
0.014195962809026241,0.00374196982011199,-0.013028841465711594,0.0049052671529352665,0.002260677283629775,0.007189573720097542
0.014667012728750706,0.004202913027256727,-0.012746171094477177,0.004320422653108835,0.0022830080706626177,0.007781303022056818
0.014393669553101063,0.0042552463710308075,-0.01314547285437584,0.0036097930278629065,0.0022470992989838123,0.007548242341727018
0.014560725539922714,0.0040960474871098995,-0.012683744542300701,0.0034035388380289078,0.002153076697140932,0.007298610173165798
0.01426753867417574,0.003659820184111595,-0.012880882248282433,0.004085201770067215,0.0020612156949937344,0.007197337690740824
0.014916447922587395,0.00354482838883996,-0.012877503409981728,0.004171157255768776,0.001999517669901252,0.006340517196804285
0.014210125431418419,0.004222983028739691,-0.013032753020524979,0.004474426154047251,0.0021455707028508186,0.007236219942569733
0.014695237390697002,0.004517883062362671,-0.01312459260225296,0.004130723420530558,0.0025474033318459988,0.00785873457789421
0.014695237390697002,0.004517883062362671,-0.01312459260225296,0.004130723420530558,0.0025474033318459988,0.00785873457789421
0.014687305316329002,0.004452591296285391,-0.012998014688491821,0.003954788204282522,0.0025143723469227552,0.007674244232475758
0.015517610125243664,0.005018629599362612,-0.012964870780706406,0.0039006208535283804,0.0025128114502876997,0.007604551967233419
0.014763050712645054,0.0050449795089662075,-0.013267388567328453,0.003537583164870739,0.0022857587318867445,0.007273660972714424
0.014881991781294346,0.005047219805419445,-0.012383694760501385,0.0037037881556898355,0.002398994518443942,0.007576704025268555
0.014932985417544842,0.005524596199393272,-0.01397999282926321,0.0033874670043587685,0.0023983691353350878,0.008000961504876614
0.015637129545211792,0.005135918501764536,-0.01312553882598877,0.003385887946933508,0.002634891774505377,0.007361851166933775
0.015796612948179245,0.0052642738446593285,-0.012960566207766533,0.0032809085678309202,0.0025312756188213825,0.007226431742310524
0.01510178204625845,0.005221629980951548,-0.012700497172772884,0.0030614633578807116,0.002322288230061531,0.007370366714894772
0.01540515199303627,0.0057132793590426445,-0.013035964220762253,0.003013087436556816,0.002033256459981203,0.007986137643456459
0.015033535659313202,0.0057350704446434975,-0.013457908295094967,0.003353879554197192,0.001961039612069726,0.00745909521356225
0.014880748465657234,0.0057257190346717834,-0.013033523224294186,0.0032780843321233988,0.0021305428817868233,0.007470874581485987
0.015106717124581337,0.005603544879704714,-0.013734010979533195,0.003209357149899006,0.0022038649767637253,0.007736865431070328
0.016124019399285316,0.006049999967217445,-0.011950117535889149,0.00319062196649611,0.0024447166360914707,0.00775628536939621
0.015715552493929863,0.005959405098110437,-0.012433004565536976,0.003540207166224718,0.0026168900076299906,0.0075868661515414715
0.015252339653670788,0.006051542237401009,-0.012334502302110195,0.0034212092868983746,0.002506846794858575,0.007523864973336458
0.01570383831858635,0.006597036030143499,-0.013172171078622341,0.0031484090723097324,0.0025508864782750607,0.008062908425927162
0.015510034747421741,0.006160964258015156,-0.012861729599535465,0.0028106537647545338,0.0025747553445398808,0.008052541874349117
0.016159547492861748,0.005899521987885237,-0.012967837043106556,0.0025080677587538958,0.0027195008005946875,0.007868634536862373
0.01577593758702278,0.0061426833271980286,-0.013588516972959042,0.0025363191962242126,0.0026413602754473686,0.007387944962829351
0.016222741454839706,0.006252889521420002,-0.012201500125229359,0.0025309412740170956,0.0027287460397928953,0.007558367680758238
0.016034098342061043,0.0065639326348900795,-0.012214343063533306,0.002847722265869379,0.002627639565616846,0.007941294461488724
0.015905871987342834,0.006675804033875465,-0.012378202751278877,0.002657781820744276,0.0024967880453914404,0.008144590072333813
0.015882041305303574,0.0064293560571968555,-0.013617973774671555,0.0024120723828673363,0.002485941629856825,0.007751441095024347
0.01507754810154438,0.007190715987235308,-0.012013232335448265,0.0020967544987797737,0.00256810593418777,0.008088020607829094
0.015906251966953278,0.0068620615638792515,-0.01244131289422512,0.0020092728082090616,0.0024204098153859377,0.007765956223011017
0.015906251966953278,0.0068620615638792515,-0.01244131289422512,0.0020092728082090616,0.0024204098153859377,0.007765956223011017
0.01566508039832115,0.006777492351830006,-0.012228651903569698,0.002004300942644477,0.0023033239413052797,0.007527058012783527
0.016167422756552696,0.006829498335719109,-0.012428836897015572,0.002531146164983511,0.0022333278320729733,0.008171722292900085
0.016167422756552696,0.006829498335719109,-0.012428836897015572,0.002531146164983511,0.0022333278320729733,0.008171722292900085
0.016088806092739105,0.00721593527123332,-0.01219683513045311,0.002759781898930669,0.002141426783055067,0.007770600728690624
0.015999967232346535,0.007260330952703953,-0.012426679953932762,0.0021051703952252865,0.002255259081721306,0.007635828107595444
0.016220074146986008,0.007456722669303417,-0.012669125571846962,0.0019720387645065784,0.002159544499590993,0.0081082908436656
0.015906071290373802,0.0071067833341658115,-0.012362852692604065,0.0019428151426836848,0.002026035450398922,0.007869304157793522
0.016104787588119507,0.00724265119060874,-0.012468249537050724,0.0018650107085704803,0.0020688222721219063,0.007858405821025372
0.015827829018235207,0.007269726134836674,-0.012886282056570053,0.00209450745023787,0.0023550670593976974,0.007971403189003468
0.016774803400039673,0.0072449008002877235,-0.012272185645997524,0.001949168974533677,0.002512597246095538,0.00829208642244339
0.01675659604370594,0.008069091476500034,-0.012691925279796124,0.0019626549910753965,0.0024277979973703623,0.008353293873369694
0.01666392758488655,0.007778192404657602,-0.012286655604839325,0.0017866067355498672,0.0024210549890995026,0.008287477307021618
0.01652146317064762,0.007022361736744642,-0.01251429133117199,0.0016857648734003305,0.002591775730252266,0.007916438393294811
0.016492754220962524,0.007437325548380613,-0.012440653517842293,0.0015620526392012835,0.002622571075335145,0.008047718554735184
0.016970057040452957,0.007626145146787167,-0.012714720331132412,0.001454537152312696,0.002645061817020178,0.008185145445168018
0.016694530844688416,0.008084534667432308,-0.012479659169912338,0.0012400101404637098,0.0022827417124062777,0.00789878610521555
0.016697511076927185,0.007766833994537592,-0.012141549959778786,0.001258497592061758,0.002310746582224965,0.008125473745167255
0.016727518290281296,0.00766773521900177,-0.01254973653703928,0.001240522600710392,0.002583766356110573,0.007966069504618645
0.017027081921696663,0.007673401851207018,-0.012228040024638176,0.0012563958298414946,0.0027783659752458334,0.008195115253329277
0.01688653789460659,0.0074660093523561954,-0.012477432377636433,0.001343757496215403,0.0026846835389733315,0.008793854154646397
0.01641087792813778,0.007345064077526331,-0.01234830729663372,0.0012951295357197523,0.0025980137288570404,0.008541812188923359
0.01707695797085762,0.007283084560185671,-0.012536363676190376,0.0013668047031387687,0.002658366458490491,0.008471706882119179
0.016738828271627426,0.007543207611888647,-0.012073923833668232,0.0013383610639721155,0.0026111595798283815,0.00847939494997263
0.01719781756401062,0.007673714309930801,-0.011555936187505722,0.0012848669430240989,0.0026356789749115705,0.008818195201456547
0.017168892547488213,0.007396475411951542,-0.012225588783621788,0.001203698804602027,0.0023022813256829977,0.0085058081895113
0.017168892547488213,0.007396475411951542,-0.012225588783621788,0.001203698804602027,0.0023022813256829977,0.0085058081895113
0.01673765666782856,0.007343493402004242,-0.01182120107114315,0.0011524285655468702,0.0023332200944423676,0.008313886821269989
0.01731637865304947,0.007694711908698082,-0.012417045421898365,0.00104609748814255,0.0023183904122561216,0.008949998766183853
0.016984939575195312,0.007605796214193106,-0.01171460747718811,0.000889415037818253,0.0025734109804034233,0.008480898104608059
0.017412809655070305,0.008150237612426281,-0.011825704015791416,0.0008365204557776451,0.0028021028265357018,0.008876724168658257
0.0170072503387928,0.008447451516985893,-0.011523092165589333,0.0007248766487464309,0.0029277801513671875,0.008851686492562294
0.017813466489315033,0.00781426765024662,-0.012013453990221024,0.0006081832107156515,0.002945444080978632,0.008907354436814785
0.017614265903830528,0.00729347812011838,-0.012000856921076775,0.0005345307872630656,0.0032010225113481283,0.008556297048926353
0.017844360321760178,0.00532551808282733,-0.012118635699152946,0.000547343457583338,0.0032024336978793144,0.00887012854218483
0.018129410222172737,0.005029936786741018,-0.011957314796745777,0.0005163705791346729,0.0028370460495352745,0.008511322550475597
0.017449669539928436,0.005476225633174181,-0.011613359674811363,0.00047254166565835476,0.0025464973878115416,0.008811772800981998
0.017668467015028,0.00557450857013464,-0.01235651969909668,0.0004970373120158911,0.002621111925691366,0.009262611158192158
0.01773546263575554,0.005956083070486784,-0.011850654147565365,0.00046856424887664616,0.0031034250278025866,0.008921370841562748
0.01807577535510063,0.0065081436187028885,-0.01209475751966238,0.0004366246284916997,0.003329524537548423,0.008779787458479404
0.01806958205997944,0.006660898681730032,-0.012126966379582882,0.00040834498940967023,0.0031581325456500053,0.009120752103626728
0.01798149198293686,0.006096323486417532,-0.011322627775371075,0.00038347719237208366,0.0029116496443748474,0.008399521000683308
0.018222801387310028,0.006260211113840342,-0.011927789077162743,0.00036146468482911587,0.0029088594019412994,0.008872168138623238
0.0186171792447567,0.006756349466741085,-0.011304817162454128,0.0003418447740841657,0.003269094042479992,0.00905127264559269
0.017831753939390182,0.006349528208374977,-0.012230034917593002,0.00032424507662653923,0.0032362830825150013,0.00915800966322422
0.018946586176753044,0.006375790107995272,-0.01237892359495163,0.0003083685296587646,0.0030827783048152924,0.00889936089515686
0.018623005598783493,0.006263353396207094,-0.011860750615596771,0.000293975870590657,0.0028450454119592905,0.008806801401078701
0.018383653834462166,0.005927582737058401,-0.011936928145587444,0.0002808662538882345,0.00286814640276134,0.009180939756333828
0.018935836851596832,0.0064034899696707726,-0.01169323455542326,0.0002688764070626348,0.002875472651794553,0.009129421785473824
0.01873837411403656,0.0063464026898145676,-0.012765764258801937,0.00025786887272261083,0.002618571976199746,0.008641080930829048
0.018676310777664185,0.007095946464687586,-0.012017585337162018,0.0002477272355463356,0.00264068809337914,0.009127835743129253
0.018534574657678604,0.00648941146209836,-0.012212005443871021,0.0002383529645157978,0.0027010904159396887,0.008732437156140804
0.017844179645180702,0.006352072115987539,-0.01229808572679758,0.00022966269170865417,0.0028688954189419746,0.008374141529202461
0.018536854535341263,0.006915051024407148,-0.011716781184077263,0.00022158412321005017,0.0032710109371691942,0.008431702852249146
0.01905907690525055,0.007581963203847408,-0.012511505745351315,9.593449794920161e-05,0.0032477134373039007,0.008981564082205296
0.01905907690525055,0.007581963203847408,-0.012511505745351315,9.593449794920161e-05,0.0032477134373039007,0.008981564082205296
0.018716836348176003,0.006415668874979019,-0.01222461648285389,7.588641892652959e-05,0.003235282376408577,0.008923045359551907
0.018788550049066544,0.0068599809892475605,-0.012345758266746998,6.89895314280875e-05,0.00314484559930861,0.009412839077413082
0.01874660700559616,0.007397400680929422,-0.011947431601583958,6.643803499173373e-05,0.003218221478164196,0.009357239119708538
0.019836485385894775,0.007346226368099451,-0.012525293044745922,6.407260661944747e-05,0.003391881939023733,0.009116479195654392
0.019159015268087387,0.007088791579008102,-0.011773343198001385,3.302675031591207e-05,0.003034357912838459,0.009162748232483864
0.018697693943977356,0.0071196239441633224,-0.01258875336498022,3.0043516744626686e-05,0.00286203739233315,0.008986486122012138
0.01967819221317768,0.0075372494757175446,-0.012247389182448387,2.8953923902008682e-05,0.0026766457594931126,0.009244890883564949
0.019374672323465347,0.007693163119256496,-0.012749478220939636,7.279677902261028e-06,0.0031090558040887117,0.010005547665059566
0.01918056234717369,0.007359206210821867,-0.012094493955373764,4.7531094082842174e-07,0.003607439575716853,0.009315227158367634
0.019207144156098366,0.007554277312010527,-0.01215924508869648,3.1034407044217005e-08,0.0037521065678447485,0.009430262260138988
0.019520293921232224,0.008303305134177208,-0.012526242062449455,2.026325107706839e-09,0.0032478298526257277,0.00954724382609129
0.019676199182868004,0.008645465597510338,-0.012098163366317749,1.323045561996139e-10,0.0030909504275768995,0.009662461467087269
0.019607193768024445,0.008280870504677296,-0.013031465001404285,8.638542138561522e-12,0.003023395547643304,0.009570028632879257
0.01964745856821537,0.008149622939527035,-0.01212611049413681,5.640350925033288e-13,0.0029503738041967154,0.00940260011702776
0.019202880561351776,0.008555696345865726,-0.012425525113940239,-0.0009566507069393992,0.002793329767882824,0.009707167744636536
0.019235190004110336,0.008424526080489159,-0.01242391113191843,-0.0012051175581291318,0.0028562615625560284,0.009573019109666348
0.019497599452733994,0.008018933236598969,-0.012535703368484974,-0.0011821497464552522,0.003272431902587414,0.009369328618049622
0.019288422539830208,0.007908749394118786,-0.012679558247327805,-0.001239761128090322,0.0037645166739821434,0.009595689363777637
0.01958293840289116,0.008819978684186935,-0.012190068140625954,-0.0012850824277848005,0.003476344747468829,0.009110401384532452
0.01943037286400795,0.007795808371156454,-0.012703324668109417,-0.0012854046653956175,0.003167343558743596,0.009344913996756077
0.019536394625902176,0.008031949400901794,-0.012103359214961529,-0.0014108805917203426,0.0029634053353220224,0.009136984124779701
0.019258160144090652,0.008393801748752594,-0.012509399093687534,-0.0015093955444172025,0.003071378916501999,0.009391136467456818
0.019367970526218414,0.008242920972406864,-0.012416877783834934,-0.0021156752482056618,0.003421179484575987,0.008903056383132935
0.01915222965180874,0.007993585430085659,-0.012514128349721432,-0.0025062740314751863,0.0034321206621825695,0.009107235819101334
0.019425123929977417,0.00839060079306364,-0.012465163134038448,-0.002542190020903945,0.0035654481034725904,0.009600294753909111
0.019425123929977417,0.00839060079306364,-0.012465163134038448,-0.002542190020903945,0.0035654481034725904,0.009600294753909111
0.01946459338068962,0.008730022236704826,-0.0117466039955616,-0.002749475883319974,0.003347293473780155,0.009842743165791035
0.019080447033047676,0.008426433429121971,-0.012826627120375633,-0.0028448658995330334,0.003304853802546859,0.010515911504626274
0.019466975703835487,0.007935412228107452,-0.012043065391480923,-0.002879498526453972,0.003313623135909438,0.010076232254505157
0.018434599041938782,0.008667673915624619,-0.01222237292677164,-0.0031827823258936405,0.003299461677670479,0.009984214790165424
0.02004603110253811,0.00879586674273014,-0.011913998052477837,-0.0037904162891209126,0.0034443193580955267,0.00977498572319746
0.020734095945954323,0.008646853268146515,-0.012062955647706985,-0.003931925632059574,0.0034024189226329327,0.009582397527992725
0.019930461421608925,0.00867745652794838,-0.011969724670052528,-0.003832949325442314,0.0030586100183427334,0.010135790333151817
0.01976599544286728,0.0083739859983325,-0.01239033043384552,-0.004240388050675392,0.0032853882294148207,0.009837181307375431
0.02007390931248665,0.008277096785604954,-0.012554959394037724,-0.004645191598683596,0.003241157392039895,0.009594829753041267
0.02018343284726143,0.008474503643810749,-0.013212489895522594,-0.004715055227279663,0.003390554804354906,0.010112868621945381
0.020355507731437683,0.00878558773547411,-0.01182708889245987,-0.004724640399217606,0.0036192643456161022,0.009782702662050724
0.020283740013837814,0.009181154891848564,-0.010652470402419567,-0.004900192376226187,0.003344267373904586,0.009724840521812439
0.02124330960214138,0.008876821957528591,-0.012080560438334942,-0.004929395858198404,0.0034325257875025272,0.009923676028847694
0.021896079182624817,0.009827486239373684,-0.012264733202755451,-0.004733814857900143,0.003480765502899885,0.009603695943951607
0.020961256697773933,0.009412001818418503,-0.012190090492367744,-0.005335723981261253,0.0032995373476296663,0.009495869278907776
0.021166499704122543,0.009373844601213932,-0.011971713043749332,-0.005531571805477142,0.0030368452426046133,0.009978251531720161
0.020590346306562424,0.00955723226070404,-0.011451978236436844,-0.005181564949452877,0.003433732083067298,0.009931727312505245
0.020471420139074326,0.009202436544001102,-0.011801212094724178,-0.005131131503731012,0.003335786983370781,0.010083477944135666
0.021167324855923653,0.00927045289427042,-0.011524129658937454,-0.004674544557929039,0.003543781116604805,0.010103237815201283
0.02151656150817871,0.009366163052618504,-0.012032845057547092,-0.004990126006305218,0.0036555826663970947,0.00975274108350277
0.021537164226174355,0.00935814157128334,-0.012387854978442192,-0.005380968097597361,0.0037545000668615103,0.010426297783851624
0.021181361749768257,0.0089346868917346,-0.011561847291886806,-0.0055515156127512455,0.0033216446172446012,0.010812787339091301
0.021330920979380608,0.00949033536016941,-0.01134707685559988,-0.0056993099860847,0.003165663219988346,0.010266792960464954
0.021955259144306183,0.009340100921690464,-0.010989722795784473,-0.00529877096414566,0.0030261443462222815,0.010621335357427597
0.022075407207012177,0.009670715779066086,-0.011545578949153423,-0.005286262836307287,0.003301647724583745,0.010528184473514557
0.021732311695814133,0.00977652333676815,-0.011635220609605312,-0.005146669689565897,0.003271331312134862,0.010533133521676064
0.021379195153713226,0.009316050447523594,-0.011389940045773983,-0.005398834124207497,0.003529390785843134,0.010453011840581894
0.021730447188019753,0.010141575708985329,-0.010950740426778793,-0.005938822869211435,0.0037654454354196787,0.009782448410987854
0.021730447188019753,0.010141575708985329,-0.010950740426778793,-0.005938822869211435,0.0037654454354196787,0.009782448410987854
0.022232050076127052,0.00946170836687088,-0.01139074470847845,-0.005721522029489279,0.0034312789794057608,0.010455626994371414
0.022092467173933983,0.009171610698103905,-0.011321082711219788,-0.005619618110358715,0.003423630027100444,0.010159241035580635
0.02248493954539299,0.009988797828555107,-0.010809380561113358,-0.005946809891611338,0.0035465010441839695,0.009863532148301601
0.022777214646339417,0.00974104180932045,-0.011553450487554073,-0.006429008208215237,0.0035707433708012104,0.009928773157298565
0.02247557044029236,0.01052117720246315,-0.01131073571741581,-0.006114650517702103,0.003492250805720687,0.010701894760131836
0.022158456966280937,0.010365303605794907,-0.010784448124468327,-0.005440260283648968,0.0035042886156588793,0.01062409020960331
0.02242923527956009,0.009815913625061512,-0.011526284739375114,-0.005810212343931198,0.003630350111052394,0.01016600988805294
0.022709865123033524,0.009751406498253345,-0.010984543710947037,-0.0070192995481193066,0.0036676195450127125,0.00986727885901928
0.02289840579032898,0.010588388890028,-0.011820284649729729,-0.0068422602489590645,0.003697826759889722,0.010472878813743591
0.022570883855223656,0.009872459806501865,-0.011546152643859386,-0.0068244109861552715,0.0036684200167655945,0.010263958014547825
0.023895174264907837,0.009667434729635715,-0.011212462559342384,-0.006405413616448641,0.0036357103381305933,0.010297206230461597
0.02317124977707863,0.01021522842347622,-0.011691977269947529,-0.006468048319220543,0.0036737893242388964,0.010012643411755562
0.02324678935110569,0.010379398241639137,-0.011518455110490322,-0.0073819090612232685,0.0036670940462499857,0.010181833989918232
0.023729512467980385,0.009877950884401798,-0.012097698636353016,-0.007828294299542904,0.0037687732838094234,0.010735836811363697
0.023590687662363052,0.01051068864762783,-0.011768939904868603,-0.007127478718757629,0.003858580719679594,0.011301026679575443
0.02362116239964962,0.010001257993280888,-0.01153403427451849,-0.006906779482960701,0.003917400725185871,0.0103909308090806
0.023437801748514175,0.010177556425333023,-0.011965703219175339,-0.0075286212377250195,0.0039198510348796844,0.009965542703866959
0.02368565835058689,0.010562957264482975,-0.011748778633773327,-0.00813311617821455,0.0035172125790268183,0.010690140537917614
0.024441204965114594,0.01102931797504425,-0.01210201345384121,-0.00818975456058979,0.0034841487649828196,0.010223268531262875
0.024379413574934006,0.01170123927295208,-0.011954992078244686,-0.008083757013082504,0.003758934559300542,0.010614581406116486
0.02376977540552616,0.010594788938760757,-0.012378878891468048,-0.008233853615820408,0.003946675453335047,0.010999856516718864
0.024002641439437866,0.010438023135066032,-0.011961182579398155,-0.008114738389849663,0.004075903911143541,0.010907256044447422
0.024429893121123314,0.010685033164918423,-0.011606075800955296,-0.00744986766949296,0.00404570484533906,0.01106167584657669
0.023794719949364662,0.010567025281488895,-0.012613988481462002,-0.007937860675156116,0.004000692628324032,0.011318622156977654
0.02450154535472393,0.010466869920492172,-0.01179240457713604,-0.008528955280780792,0.004193518776446581,0.010539366863667965
0.02450154535472393,0.010466869920492172,-0.01179240457713604,-0.008528955280780792,0.004193518776446581,0.010539366863667965
0.024859676137566566,0.010782502591609955,-0.012307980097830296,-0.009002035483717918,0.004275658633559942,0.01076452061533928
0.02414461225271225,0.010212103836238384,-0.012364963069558144,-0.007863695733249187,0.0035952141042798758,0.010915744118392467
0.02418380230665207,0.01058789249509573,-0.01216313149780035,-0.007371523417532444,0.0035292617976665497,0.010494373738765717
0.02461746707558632,0.010971691459417343,-0.012492945417761803,-0.008032433688640594,0.0032749890815466642,0.010758869349956512
0.0246888380497694,0.010506448335945606,-0.011709494516253471,-0.007595663424581289,0.003825519932433963,0.010907364077866077
0.02503185160458088,0.010996760800480843,-0.012747959233820438,-0.007984964177012444,0.004446312785148621,0.010877342894673347
0.024950815364718437,0.010281233116984367,-0.012505361810326576,-0.008101224899291992,0.004266637843102217,0.010385393165051937
0.02518683671951294,0.01089164987206459,-0.012425881810486317,-0.007887056097388268,0.003975726664066315,0.010790595784783363
0.02556953765451908,0.011732729151844978,-0.011759228073060513,-0.007520708721131086,0.004067427013069391,0.01106597762554884
0.025956470519304276,0.010539545677602291,-0.012178503908216953,-0.007874884642660618,0.003921906463801861,0.011073851026594639
0.02621629647910595,0.010768052190542221,-0.01225884910672903,-0.008247154764831066,0.0035740057937800884,0.010158440098166466
0.02575763314962387,0.010689815506339073,-0.012255052104592323,-0.008347815833985806,0.0035911526065319777,0.011504551395773888
0.023268599063158035,0.009359573014080524,-0.011852044612169266,-0.008423290215432644,0.0040477910079061985,0.01192698534578085
0.026294078677892685,0.011842786334455013,-0.012343754991889,-0.008768151514232159,0.004170508123934269,0.01164174359291792
0.026791077107191086,0.01176062785089016,-0.011990581639111042,-0.008649468421936035,0.004296249710023403,0.011083158664405346
0.026377590373158455,0.01069304347038269,-0.011617117561399937,-0.008896628394722939,0.004066753666847944,0.01125459372997284
0.025853220373392105,0.010511997155845165,-0.012514596804976463,-0.008853740990161896,0.003932707477360964,0.011131925508379936
0.026662010699510574,0.01068238727748394,-0.01158550102263689,-0.008586368523538113,0.0034628130961209536,0.010838964954018593
0.027437621727585793,0.011043728329241276,-0.011657900176942348,-0.008506923913955688,0.0033151977695524693,0.011135007254779339
0.026443805545568466,0.010387089103460312,-0.011618473567068577,-0.008764374069869518,0.0035209732595831156,0.011306244879961014
0.02560427598655224,0.010718226432800293,-0.011445267125964165,-0.008415858261287212,0.0038182297721505165,0.011296332813799381
0.025622058659791946,0.011078066192567348,-0.01199115626513958,-0.008207671344280243,0.0044280001893639565,0.011118018068373203
0.025946924462914467,0.010599636472761631,-0.011385776102542877,-0.009058176539838314,0.004785899072885513,0.010928486473858356
0.026155434548854828,0.010895755141973495,-0.011898210272192955,-0.008700314909219742,0.0042004953138530254,0.011334285140037537
0.026125086471438408,0.010779807344079018,-0.01210346631705761,-0.008145323023200035,0.003776424564421177,0.011356264352798462
0.025830650702118874,0.010485930368304253,-0.011216758750379086,-0.008234192617237568,0.0036677978932857513,0.011099772527813911
0.026358453556895256,0.011065175756812096,-0.011619302444159985,-0.008687309920787811,0.0040252008475363255,0.011841030791401863
0.026407338678836823,0.010728821158409119,-0.011351645924150944,-0.008891618810594082,0.004244139883667231,0.011469182558357716
0.026407338678836823,0.010728821158409119,-0.011351645924150944,-0.008891618810594082,0.004244139883667231,0.011469182558357716
0.02611582912504673,0.010317310690879822,-0.012001894414424896,-0.00829092413187027,0.004038976971060038,0.011587684974074364
0.026278186589479446,0.010658485814929008,-0.01172176469117403,-0.008483854122459888,0.0042856186628341675,0.01159290038049221
0.026343388482928276,0.010375071316957474,-0.01086642686277628,-0.008877906017005444,0.004207929130643606,0.011438501067459583
0.026019994169473648,0.010786023922264576,-0.011658319272100925,-0.008666575886309147,0.0041586244478821754,0.011420711874961853
0.025722626596689224,0.010801349766552448,-0.01132644060999155,-0.008992895483970642,0.0037528695538640022,0.01145350094884634
0.026217522099614143,0.011167392134666443,-0.011586077511310577,-0.009326978586614132,0.003406202420592308,0.011469624005258083
0.026400338858366013,0.011168906465172768,-0.011508424766361713,-0.009843765757977962,0.0038770786486566067,0.01146212313324213
0.026181017979979515,0.011203747242689133,-0.012107976712286472,-0.009833655320107937,0.004604962654411793,0.011769013479351997
0.026609119027853012,0.011080378666520119,-0.0110954400151968,-0.009281139820814133,0.004740807693451643,0.01160462386906147
0.02639373205602169,0.0103659862652421,-0.011252867989242077,-0.00886428914964199,0.00420104805380106,0.01163510512560606
0.026502901688218117,0.010680482722818851,-0.011333554983139038,-0.009469134733080864,0.003878305433318019,0.011789083480834961
0.02594572864472866,0.010616621002554893,-0.011356158182024956,-0.009914923459291458,0.003769425442442298,0.012129435315728188
0.027185339480638504,0.01079302467405796,-0.01161107700318098,-0.009022808633744717,0.0042089601047337055,0.012338912114501
0.02744974009692669,0.01112012006342411,-0.011569556780159473,-0.008822056464850903,0.004140924196690321,0.011852038092911243
0.027230441570281982,0.010978772304952145,-0.011624573729932308,-0.008943953551352024,0.004265244118869305,0.0117014916613698
0.026583267375826836,0.010875120759010315,-0.011192051693797112,-0.009128350764513016,0.004204509314149618,0.011717142537236214
0.026045404374599457,0.010847053490579128,-0.010736132971942425,-0.009137770161032677,0.004330482333898544,0.011793863959610462
0.026273833587765694,0.010801593773066998,-0.011624560691416264,-0.00984636228531599,0.004429790191352367,0.01177297718822956
0.027318978682160378,0.011409737169742584,-0.01138980221003294,-0.009236401878297329,0.004313277080655098,0.012379929423332214
0.026873432099819183,0.011450163088738918,-0.011586080305278301,-0.00971127301454544,0.0044623673893511295,0.012438194826245308
0.026892293244600296,0.011556282639503479,-0.011841503903269768,-0.009725673124194145,0.004262453876435757,0.011948805302381516
0.02783278003334999,0.012342332862317562,-0.011322821490466595,-0.009393040090799332,0.00400936882942915,0.012208651751279831
0.02748040482401848,0.011541012674570084,-0.011559823527932167,-0.010002043098211288,0.0041256071999669075,0.011865583248436451
0.027417093515396118,0.011522633023560047,-0.011320522055029869,-0.010813391767442226,0.004204891622066498,0.011697681620717049
0.026519494131207466,0.0112355537712574,-0.010969119146466255,-0.010010243393480778,0.0044012912549078465,0.011496110819280148
0.0267220176756382,0.011100871488451958,-0.01120919268578291,-0.009840575978159904,0.004413758870214224,0.01236150786280632
0.027557499706745148,0.011797808110713959,-0.01073093619197607,-0.009942836128175259,0.004326075781136751,0.012959599494934082
0.027557499706745148,0.011797808110713959,-0.01073093619197607,-0.009942836128175259,0.004326075781136751,0.012959599494934082
0.02759147249162197,0.011643331497907639,-0.011229395866394043,-0.009627296589314938,0.004031062591820955,0.012210267595946789
0.02727487124502659,0.012087327428162098,-0.01113069150596857,-0.009749939665198326,0.00421507703140378,0.011919123120605946
0.027098409831523895,0.011546414345502853,-0.010889084078371525,-0.010099097155034542,0.004187738988548517,0.012203291058540344
0.026932310312986374,0.011666161939501762,-0.011038639582693577,-0.011009683832526207,0.004556326195597649,0.01276443526148796
0.026979882270097733,0.011639499105513096,-0.010871878825128078,-0.010511367581784725,0.004227675963193178,0.01237312238663435
0.027042431756854057,0.01244326587766409,-0.011557619087398052,-0.010131148621439934,0.00431374367326498,0.01257205381989479
0.026631325483322144,0.011909710243344307,-0.011302409693598747,-0.010735325515270233,0.004244010429829359,0.012343069538474083
0.02679051086306572,0.012158971279859543,-0.011471272446215153,-0.010722986422479153,0.003968584816902876,0.01227890606969595
0.027339564636349678,0.012252790853381157,-0.011123649775981903,-0.010563661344349384,0.004119060467928648,0.012412906624376774
0.027358287945389748,0.011782558634877205,-0.011065625585615635,-0.010979446582496166,0.004236298147588968,0.011927610263228416
0.02771255373954773,0.012755490839481354,-0.011206882074475288,-0.010529382154345512,0.004498001653701067,0.012486145831644535
0.02763080596923828,0.012238916009664536,-0.010813347063958645,-0.010340236127376556,0.004605166148394346,0.012538498267531395
0.02728792279958725,0.01244865171611309,-0.011245123110711575,-0.010780222713947296,0.004605267196893692,0.012865163385868073
0.02820401079952717,0.01228716503828764,-0.01139740739017725,-0.010325970128178596,0.00457676500082016,0.012710417620837688
0.027848748490214348,0.011950843036174774,-0.01083951536566019,-0.010734169743955135,0.004218640737235546,0.01277538575232029
0.02765657939016819,0.012518550269305706,-0.011617915704846382,-0.010929879732429981,0.004058730322867632,0.012549709528684616
0.027697289362549782,0.012138694524765015,-0.011236941441893578,-0.010711568407714367,0.004361473023891449,0.012368437834084034
0.02800583653151989,0.012635994702577591,-0.012149801477789879,-0.011259127408266068,0.004529178608208895,0.012463949620723724
0.027944697067141533,0.012369155883789062,-0.011664360761642456,-0.011163474060595036,0.004577800165861845,0.012594876810908318
0.02830941416323185,0.012165690772235394,-0.01079353503882885,-0.0111158462241292,0.004726499319076538,0.012988121248781681
0.028234226629137993,0.012672278098762035,-0.011322371661663055,-0.01202320121228695,0.004657210782170296,0.01315379235893488
0.02846543863415718,0.011988080106675625,-0.01125832088291645,-0.011371258646249771,0.004647761583328247,0.012838998809456825
0.028117038309574127,0.012741083279252052,-0.01156547013670206,-0.01207188330590725,0.004498009569942951,0.012607911601662636
0.028115712106227875,0.012441661208868027,-0.011108225211501122,-0.011683948338031769,0.004385410342365503,0.01291903667151928
0.028210116550326347,0.013307119719684124,-0.010786307044327259,-0.011622855439782143,0.004120263736695051,0.012800032272934914
0.02853686735033989,0.012754668481647968,-0.011539340950548649,-0.011900684796273708,0.00396379642188549,0.0123551981523633
0.02832736074924469,0.013340388424694538,-0.011606763117015362,-0.011685465462505817,0.004332594573497772,0.012817621231079102
0.028203433379530907,0.013072934933006763,-0.011113131418824196,-0.011887392029166222,0.004424556158483028,0.01270483247935772
0.028203433379530907,0.013072934933006763,-0.011113131418824196,-0.011887392029166222,0.004424556158483028,0.01270483247935772
0.028225772082805634,0.0131467804312706,-0.01168194878846407,-0.011458256281912327,0.0042236000299453735,0.013053216971457005
0.028670096769928932,0.013269446790218353,-0.011381808668375015,-0.011740883812308311,0.004387729335576296,0.01313804555684328
0.02957700937986374,0.013117102906107903,-0.012047942727804184,-0.01134546473622322,0.004739086609333754,0.013449938036501408
0.02877139113843441,0.012838592752814293,-0.011612151749432087,-0.012390830554068089,0.004458593670278788,0.013610136695206165
0.028092846274375916,0.013643939979374409,-0.011548761278390884,-0.012468677945435047,0.004531214013695717,0.013199156150221825
0.029201937839388847,0.013272016309201717,-0.011324718594551086,-0.012814083136618137,0.004796297289431095,0.01308646984398365
0.029908139258623123,0.014084197580814362,-0.01206075120717287,-0.012692609801888466,0.004529430065304041,0.011999995447695255
0.02945306897163391,0.013145829550921917,-0.012273143045604229,-0.012967732734978199,0.0045798891223967075,0.013029700145125389
0.030396021902561188,0.013477400876581669,-0.011595593765377998,-0.013528170995414257,0.004716296214610338,0.014154840260744095
0.030645042657852173,0.013385581783950329,-0.01198312547057867,-0.01318302471190691,0.0047883628867566586,0.01349300891160965
0.02991415560245514,0.013852199539542198,-0.0117564145475626,-0.013986103236675262,0.004806962795555592,0.013342699036002159
0.02949386090040207,0.013685951009392738,-0.012423643842339516,-0.013726725243031979,0.00480630062520504,0.012669946067035198
0.029444396495819092,0.013612237758934498,-0.011893365532159805,-0.013781093060970306,0.004318118095397949,0.012925886549055576
0.030396468937397003,0.013770152814686298,-0.011585197411477566,-0.01267825998365879,0.004369770176708698,0.013111745938658714
0.030549250543117523,0.013938851654529572,-0.012173131108283997,-0.013190897181630135,0.0045587169006466866,0.013196217827498913
0.029840940609574318,0.014070709235966206,-0.011876720003783703,-0.013067474588751793,0.004809539765119553,0.013407316990196705
0.03127691149711609,0.01402696780860424,-0.012331312522292137,-0.012776367366313934,0.004741336219012737,0.013057336211204529
0.03083169087767601,0.014120817184448242,-0.011912371031939983,-0.013062951155006886,0.004688240587711334,0.01328207366168499
0.03030545637011528,0.013520030304789543,-0.012248788960278034,-0.01306646317243576,0.00463114446029067,0.01299951784312725
0.030433274805545807,0.014123939909040928,-0.012158314697444439,-0.013574601151049137,0.004685297142714262,0.013045795261859894
0.031028294935822487,0.013758103363215923,-0.012062068097293377,-0.013631188310682774,0.004846049472689629,0.013187387958168983
0.03063970059156418,0.01446683332324028,-0.012065096758306026,-0.013635886833071709,0.004419232718646526,0.013671698048710823
0.030740700662136078,0.013896696269512177,-0.011718211695551872,-0.013242010958492756,0.004527545999735594,0.01345966849476099
0.031096220016479492,0.014453296549618244,-0.012462451122701168,-0.01379500050097704,0.004935377277433872,0.013686851598322392
0.031389642506837845,0.01388965267688036,-0.011808421462774277,-0.013326233252882957,0.0050703599117696285,0.013400141149759293
0.031189247965812683,0.014538675546646118,-0.01157869677990675,-0.013895322568714619,0.004845712333917618,0.013859406113624573
0.031503453850746155,0.0142200393602252,-0.012173350900411606,-0.013731828890740871,0.004873431753367186,0.013904367573559284
0.03158573806285858,0.014747602865099907,-0.0117040378972888,-0.014486569911241531,0.0049462346360087395,0.013857552781701088
0.0329272523522377,0.014206886291503906,-0.012168719433248043,-0.014134719036519527,0.004927428439259529,0.013637950643897057
0.03242473304271698,0.014886617660522461,-0.011773764155805111,-0.014805951155722141,0.004973811097443104,0.01370684802532196
0.03242473304271698,0.014886617660522461,-0.011773764155805111,-0.014805951155722141,0.004973811097443104,0.01370684802532196
0.030559098348021507,0.01437442097812891,-0.012286558747291565,-0.014011187478899956,0.005321076605468988,0.013833328150212765
0.03263120353221893,0.014196952804923058,-0.011590817011892796,-0.014391527511179447,0.004738433752208948,0.013626223430037498
0.03263120353221893,0.014196952804923058,-0.011590817011892796,-0.014391527511179447,0.004738433752208948,0.013626223430037498
0.03308369219303131,0.014524370431900024,-0.011639389209449291,-0.014116385951638222,0.005251261871308088,0.01377590000629425
0.03349638357758522,0.015178759582340717,-0.011977605521678925,-0.014850351959466934,0.0053831906989216805,0.013858496211469173
0.03348354622721672,0.015236140228807926,-0.011777753010392189,-0.014613410457968712,0.004959492478519678,0.014002601616084576
0.03136301040649414,0.015200117602944374,-0.011557850055396557,-0.015107609331607819,0.004915694706141949,0.01413611602038145
0.032027631998062134,0.01492979284375906,-0.011769364587962627,-0.014496560208499432,0.00514303520321846,0.014134399592876434
0.033351246267557144,0.015138199552893639,-0.01154449861496687,-0.015047330409288406,0.005252813454717398,0.01383974775671959
0.03277892246842384,0.015130081214010715,-0.012273037806153297,-0.014847466722130775,0.005267003551125526,0.01382632926106453
0.03224772587418556,0.015024111606180668,-0.01186423934996128,-0.01539281290024519,0.005046849139034748,0.013891494832932949
0.03322256729006767,0.0157912764698267,-0.011545497924089432,-0.015273716300725937,0.004933696705847979,0.014211628586053848
0.03297143802046776,0.01569543033838272,-0.011999828740954399,-0.015486033633351326,0.005172537174075842,0.013511637225747108
0.033236242830753326,0.015203065238893032,-0.011823688633739948,-0.015541168861091137,0.004926159046590328,0.015229987911880016
0.03272029757499695,0.015612597577273846,-0.012256070971488953,-0.015669405460357666,0.005083446390926838,0.014647377654910088
0.03289852663874626,0.015944913029670715,-0.011861011385917664,-0.015824362635612488,0.005323975346982479,0.014504142105579376
0.03285348415374756,0.01521172747015953,-0.011805156245827675,-0.015508720651268959,0.00529771763831377,0.013975358568131924
0.03327222540974617,0.015733567997813225,-0.011960062198340893,-0.01583917625248432,0.0053327507339417934,0.013931255787611008
0.03380729630589485,0.01541063841432333,-0.011559940874576569,-0.015562810935080051,0.004991421476006508,0.013735244981944561
0.03349785879254341,0.01641000807285309,-0.012155701406300068,-0.016162486746907234,0.0045898063108325005,0.014245797879993916
0.0333947017788887,0.015853751450777054,-0.011615343391895294,-0.01613771729171276,0.0050411531701684,0.014223448932170868
0.033655088394880295,0.015834426507353783,-0.012151635251939297,-0.016715023666620255,0.005350789986550808,0.015016830526292324
0.03301066905260086,0.015888959169387817,-0.012302020564675331,-0.016318587586283684,0.005050628911703825,0.014966906979680061
0.03203697130084038,0.015521667897701263,-0.01178920641541481,-0.01636975072324276,0.005010505672544241,0.014746283181011677
0.033979009836912155,0.01598912850022316,-0.01203913427889347,-0.01659630425274372,0.005225398577749729,0.01406380906701088
0.033979009836912155,0.01598912850022316,-0.01203913427889347,-0.01659630425274372,0.005225398577749729,0.01406380906701088
0.03412025421857834,0.015419019386172295,-0.011503096669912338,-0.016642959788441658,0.005002365447580814,0.014533285982906818
0.03299080207943916,0.01582096517086029,-0.011904221028089523,-0.016863388940691948,0.005330617073923349,0.014532025903463364
0.032700199633836746,0.016426552087068558,-0.01157961506396532,-0.016972176730632782,0.005084538832306862,0.0150480717420578
0.033218275755643845,0.016047628596425056,-0.011977938935160637,-0.017209064215421677,0.0051994905807077885,0.01457516010850668
0.032820723950862885,0.01620911806821823,-0.011427408084273338,-0.01699129119515419,0.005094348918646574,0.014310753904283047
0.033173784613609314,0.01633273810148239,-0.012509982101619244,-0.017424875870347023,0.004857602529227734,0.014680413529276848
0.03322000429034233,0.016113324090838432,-0.011393691413104534,-0.01711118593811989,0.0051896218210458755,0.014394533820450306
0.032759539783000946,0.016552507877349854,-0.011278491467237473,-0.017390727996826172,0.0053376429714262486,0.014431516639888287
0.03272458165884018,0.016010934486985207,-0.011698635295033455,-0.017422396689653397,0.005666885059326887,0.014518648386001587
0.03234322741627693,0.016396865248680115,-0.011194952763617039,-0.017437757924199104,0.005626038648188114,0.01478423923254013
0.03372068330645561,0.016263991594314575,-0.012011898681521416,-0.018125614151358604,0.005598670337349176,0.01524066086858511
0.034151092171669006,0.016548680141568184,-0.011680399999022484,-0.017603477463126183,0.0052636791951954365,0.01530268881469965
0.03243587166070938,0.01643557846546173,-0.011343981139361858,-0.017514867708086967,0.004938057623803616,0.015108148567378521
0.032237011939287186,0.01663048006594181,-0.011570415459573269,-0.018028534948825836,0.005137087311595678,0.014787983149290085
0.033042214810848236,0.016900571063160896,-0.011057105846703053,-0.017625387758016586,0.005767658818513155,0.014958018437027931
0.032666102051734924,0.016202609986066818,-0.011450323276221752,-0.018534861505031586,0.0058786398731172085,0.014869803562760353
0.03300825133919716,0.01661737635731697,-0.011511493474245071,-0.017676547169685364,0.005438493564724922,0.014967464841902256
0.03425050899386406,0.01641486957669258,-0.010863831266760826,-0.017271889373660088,0.005765865556895733,0.014837418682873249
0.03378137946128845,0.01684086211025715,-0.01176130399107933,-0.01762118935585022,0.005589253734797239,0.015032587572932243
0.031995855271816254,0.016979364678263664,-0.011368784122169018,-0.016624780371785164,0.005913458298891783,0.014786654151976109
0.032588787376880646,0.016562283039093018,-0.012017877772450447,-0.017384905368089676,0.005595454014837742,0.013850577175617218
0.033664073795080185,0.017049770802259445,-0.011272007599473,-0.017544295638799667,0.005351578816771507,0.015328851528465748
0.03335976228117943,0.01642012409865856,-0.010618514381349087,-0.018077272921800613,0.005179248750209808,0.015707485377788544
0.03317257761955261,0.0168015006929636,-0.011828387156128883,-0.018252847716212273,0.005061496514827013,0.015313885174691677
0.03359455615282059,0.016531921923160553,-0.01184618379920721,-0.017809707671403885,0.0058030071668326855,0.015053506940603256
0.033686187118291855,0.01648755371570587,-0.011575792916119099,-0.017984237521886826,0.005612765904515982,0.014545178972184658
0.03334636613726616,0.01685348153114319,-0.011242385022342205,-0.01815587840974331,0.005355981178581715,0.01474789809435606
