davideferrari95/blind_handover_controller/data/Test 267 - [2024-02-08 -- 12-51-53]/joint_states_data.csv
shoulder_pan_joint,shoulder_lift_joint,elbow_joint,wrist_1_joint,wrist_2_joint,wrist_3_joint
0.008700133301317692,0.0035133888013660908,-0.012158769182860851,0.01114269532263279,0.0,0.008664998225867748
0.008700133301317692,0.0035133888013660908,-0.012158769182860851,0.01114269532263279,0.0,0.008664998225867748
0.008804977871477604,0.004267366137355566,-0.011861065402626991,0.010916117578744888,0.0,0.009037070907652378
0.008666299283504486,0.004180954769253731,-0.012126823887228966,0.01085491944104433,0.0,0.008661764673888683
0.00841483660042286,0.004110860638320446,-0.01223643310368061,0.010549129918217659,0.0,0.008255790919065475
0.00857571605592966,0.003909208346158266,-0.01232136320322752,0.010858857072889805,0.0,0.00814238004386425
0.008572065271437168,0.003557199379429221,-0.011888437904417515,0.010792359709739685,0.0,0.008356115780770779
0.008388347923755646,0.0035293432883918285,-0.012415478937327862,0.010563229210674763,0.0,0.008294852450489998
0.008196412585675716,0.0036774808540940285,-0.011969205923378468,0.010678182356059551,0.0,0.00788136851042509
0.008196412585675716,0.0036774808540940285,-0.011969205923378468,0.010678182356059551,0.0,0.00788136851042509
0.009294477291405201,0.0040937019512057304,-0.012228681705892086,0.010217366740107536,0.0,0.008487316779792309
0.009294477291405201,0.0040937019512057304,-0.012228681705892086,0.010217366740107536,0.0,0.008487316779792309
0.008363179862499237,0.0038873825687915087,-0.011926872655749321,0.009969035163521767,0.0,0.00843551754951477
0.008225885219871998,0.0036722717341035604,-0.012163586914539337,0.009607150219380856,0.0,0.007955554872751236
0.00873466394841671,0.0036167444195598364,-0.01160349976271391,0.010491972789168358,0.0,0.008608123287558556
0.008535466156899929,0.003587570274248719,-0.012195910327136517,0.010464053601026535,0.0,0.008415505290031433
0.008303670212626457,0.0035449927672743797,-0.01226985827088356,0.009970195591449738,0.0,0.008396021090447903
0.008493402041494846,0.0035323258489370346,-0.011827414855360985,0.010309708304703236,0.0,0.008897116407752037
0.009534316137433052,0.003596037393435836,-0.012395678088068962,0.009826278313994408,0.0,0.009037205949425697
0.008205284364521503,0.003700785106047988,-0.012101891450583935,0.009605057537555695,0.0,0.00910625047981739
0.008583900518715382,0.0036806652788072824,-0.012353244237601757,0.00997378583997488,0.0,0.008556130342185497
0.009279698133468628,0.0035633191000670195,-0.011921773664653301,0.010018529370427132,0.0,0.007796155288815498
0.008727180771529675,0.003426035400480032,-0.01197613961994648,0.009696598164737225,0.0,0.008099015802145004
0.008352641016244888,0.003582637757062912,-0.012087615206837654,0.010229009203612804,0.0,0.008336189202964306
0.008988823741674423,0.0037707576993852854,-0.011747173964977264,0.010348638519644737,0.0,0.00840709637850523
0.008695078082382679,0.0035110304597765207,-0.012605266645550728,0.010553373023867607,0.0,0.008860785514116287
0.009013651870191097,0.0034106376115232706,-0.011938215233385563,0.01018595602363348,0.0,0.008723432198166847
0.008739194832742214,0.003633701242506504,-0.012345674447715282,0.009869805537164211,0.0,0.008340641856193542
0.00884290412068367,0.003912110347300768,-0.012051157653331757,0.009441159665584564,0.0,0.008684644475579262
0.008627025410532951,0.003449151059612632,-0.013075841590762138,0.009487733244895935,0.0,0.008156551979482174
0.008553984574973583,0.003552957670763135,-0.01133193913847208,0.00933991651982069,0.0,0.008518713526427746
0.009142734110355377,0.003698734100908041,-0.01190726738423109,0.009630016051232815,0.0,0.008547991514205933
0.00873867329210043,0.0037939820904284716,-0.011901983059942722,0.010083850473165512,0.0,0.008496526628732681
0.00873867329210043,0.0037939820904284716,-0.011901983059942722,0.010083850473165512,0.0,0.008496526628732681
0.009991474449634552,0.003330856328830123,-0.011942921206355095,0.01060477364808321,0.0,0.008554014377295971
0.009991474449634552,0.003330856328830123,-0.011942921206355095,0.01060477364808321,0.0,0.008554014377295971
0.008498313836753368,0.0035564680583775043,-0.011742204427719116,0.010113842785358429,0.0,0.008676249533891678
0.007998776622116566,0.003618104849010706,-0.011465237475931644,0.009928558953106403,0.0,0.008110628463327885
0.008732914924621582,0.003447506111115217,-0.012140442617237568,0.010615513660013676,0.0,0.008252582512795925
0.008909355849027634,0.0035353791899979115,-0.012667922303080559,0.010256445966660976,0.0,0.008854644373059273
0.008314201608300209,0.0037176180630922318,-0.011912784539163113,0.010412000119686127,0.0,0.008668613620102406
0.008908901363611221,0.0038472400046885014,-0.01174735277891159,0.010147389024496078,0.0,0.00833200290799141
0.008597970008850098,0.003602113574743271,-0.012454663403332233,0.009770835749804974,0.0,0.008794156834483147
0.007768767885863781,0.0034641590900719166,-0.011826900765299797,0.009792801924049854,0.0,0.008661983534693718
0.008324271067976952,0.003649876220151782,-0.012426516972482204,0.0100046806037426,0.0,0.00851199310272932
0.008753034286201,0.0034432464744895697,-0.012093989178538322,0.00994607713073492,0.0,0.008086046203970909
0.00855482928454876,0.003513139672577381,-0.012247836217284203,0.010212999768555164,0.0,0.00855979137122631
0.007912763394415379,0.0036139986477792263,-0.012124660424888134,0.009928734041750431,0.0,0.008685297332704067
0.008369453251361847,0.00368468277156353,-0.011835390701889992,0.009681019000709057,0.0,0.008549492806196213
0.00881484616547823,0.0037263878621160984,-0.012435617856681347,0.01010887697339058,0.0,0.008799266070127487
0.00843675434589386,0.003363615833222866,-0.01186768151819706,0.010455090552568436,0.0,0.008389636874198914
0.008029835298657417,0.003295696573331952,-0.01261986792087555,0.009353955276310444,0.0,0.008390545845031738
0.008538348600268364,0.0033753225579857826,-0.011842465959489346,0.009832043200731277,0.0,0.00893245916813612
0.008169849403202534,0.0036187153309583664,-0.012048974633216858,0.0094384104013443,0.0,0.00812191516160965
0.008744755759835243,0.0038740334566682577,-0.01177226286381483,0.009701861999928951,0.0,0.00818540807813406
0.009177333675324917,0.003817540593445301,-0.012325780466198921,0.010370409116148949,0.0,0.008720900863409042
0.008326439186930656,0.003545901272445917,-0.012124922126531601,0.009741920977830887,0.0,0.00862039253115654
0.008586390875279903,0.0036348493304103613,-0.012353304773569107,0.0099587207660079,0.0,0.008469155058264732
0.008907048963010311,0.0038217755500227213,-0.011769131757318974,0.010127889923751354,0.0,0.008689017035067081
0.008884145878255367,0.003900077659636736,-0.011190620250999928,0.009530876763164997,0.0,0.00791179109364748
0.00857878290116787,0.003880381816998124,-0.012082904577255249,0.009744713082909584,0.0,0.008061254397034645
0.008574587292969227,0.004077316727489233,-0.012120516039431095,0.010202565230429173,0.0,0.008332867175340652
0.008701705373823643,0.003844918916001916,-0.011928672902286053,0.00916584674268961,0.0,0.008712569251656532
0.008701705373823643,0.003844918916001916,-0.011928672902286053,0.00916584674268961,0.0,0.008712569251656532
0.008421122096478939,0.0035898059140890837,-0.011829080991446972,0.009613278321921825,0.0,0.008329769596457481
0.008526838384568691,0.003437732346355915,-0.0115253496915102,0.009783752262592316,0.0,0.00825532153248787
0.00888353306800127,0.0037725239526480436,-0.012221292592585087,0.00916844792664051,0.0,0.009025408886373043
0.008463607169687748,0.00399585859850049,-0.011385388672351837,0.00943191908299923,0.0,0.00891905277967453
0.008339296095073223,0.0038143410347402096,-0.011757582426071167,0.009822200052440166,0.0,0.008727289736270905
0.008614948019385338,0.0036625936627388,-0.0117736691609025,0.009593340568244457,0.0,0.008457696065306664
0.008522872813045979,0.003710332792252302,-0.011365286074578762,0.009680780582129955,0.0,0.008258454501628876
0.008484051562845707,0.0037687947042286396,-0.012084385380148888,0.010284777730703354,0.0,0.008234753273427486
0.008438203483819962,0.004329090006649494,-0.011453725397586823,0.009535428136587143,0.0,0.008892327547073364
0.008503278717398643,0.0037000603042542934,-0.01163589395582676,0.009237882681190968,0.0,0.009099336341023445
0.008784784004092216,0.0025535663589835167,-0.011645711027085781,0.00928416009992361,0.0,0.008461833000183105
0.008477842435240746,0.002017121994867921,-0.011209188029170036,0.00918174535036087,0.0,0.008153537288308144
0.008504590019583702,0.0017370807472616434,-0.011781658045947552,0.009322961792349815,0.0,0.008271600119769573
0.008906085044145584,0.0012910879449918866,-0.011473012156784534,0.010140572674572468,0.0,0.008605417795479298
0.008600845001637936,0.0014223528560250998,-0.011878964491188526,0.009876083582639694,0.0,0.008390355855226517
0.008723936043679714,0.0025976498145610094,-0.01169716939330101,0.009814709424972534,0.0,0.008577109314501286
0.00877151358872652,0.0032913959585130215,-0.01175127923488617,0.01027359813451767,0.0,0.008481364697217941
0.008374730125069618,0.002625795779749751,-0.011663949117064476,0.009732247330248356,0.0,0.008398073725402355
0.008925446309149265,0.0021180463954806328,-0.01145738922059536,0.009256355464458466,0.0,0.0083156768232584
0.008701972663402557,0.0016869829269126058,-0.011633125133812428,0.009781498461961746,0.0,0.009057756513357162
0.008803046308457851,0.001628796337172389,-0.01157187670469284,0.009633922018110752,0.0,0.008619104512035847
0.008718600496649742,0.002278523985296488,-0.011843148618936539,0.010579369030892849,0.0,0.008235882967710495
0.008789542131125927,0.0027995684649795294,-0.011436039581894875,0.009921564720571041,0.0,0.008330251090228558
0.008643410168588161,0.0023582330904901028,-0.012100531719624996,0.009351225569844246,0.0,0.008374759927392006
0.00900107529014349,0.0020150598138570786,-0.011736958287656307,0.009641841053962708,0.0,0.008710239082574844
0.008972871117293835,0.0018947384087368846,-0.011578388512134552,0.009156608954071999,0.0,0.008513900451362133
0.008748886175453663,0.001738863531500101,-0.01174019556492567,0.009023616090416908,0.0,0.008540631271898746
0.009072246961295605,0.0017522668931633234,-0.011099661700427532,0.009501607157289982,0.0,0.008148900233209133
0.00914714578539133,0.0021042146254330873,-0.012499500997364521,0.009177818894386292,0.0,0.008269106037914753
0.00914714578539133,0.0021042146254330873,-0.012499500997364521,0.009177818894386292,0.0,0.008269106037914753
0.008955907076597214,0.0021180263720452785,-0.0120697608217597,0.0087594510987401,0.0,0.008922670036554337
0.0087513979524374,0.0023409880232065916,-0.011595850810408592,0.009443136863410473,0.0,0.009241175837814808
0.009750369936227798,0.0020342820789664984,-0.012099704705178738,0.009844550862908363,0.0,0.008455486968159676
0.009023555554449558,0.001792360213585198,-0.011491820216178894,0.009561259299516678,0.0,0.008565354160964489
0.008958285674452782,0.0017913368064910173,-0.011983627453446388,0.00995240081101656,0.0,0.009333898313343525
0.00914017390459776,0.002025607507675886,-0.011747093871235847,0.00977255403995514,0.0,0.008559174835681915
0.00975219625979662,0.0022620337549597025,-0.011870235204696655,0.00938733946532011,0.0,0.008591227233409882
0.009347870945930481,0.002571691991761327,-0.011993861757218838,0.009553514420986176,0.0,0.008578679524362087
0.009368381462991238,0.002670375630259514,-0.011274240911006927,0.009317561984062195,0.0,0.00859052874147892
0.009277875535190105,0.0023056496866047382,-0.011806723661720753,0.009092513471841812,0.0,0.0086752874776721
0.009034010581672192,0.00212098378688097,-0.01173471100628376,0.009145167656242847,0.0,0.009078459814190865
0.009720493108034134,0.0019587452989071608,-0.012272795662283897,0.009034192189574242,0.0,0.008644871413707733
0.009522443637251854,0.0022277235984802246,-0.012023992836475372,0.009296166710555553,0.0,0.008375931531190872
0.009745556861162186,0.0027272840961813927,-0.0114430021494627,0.009197725914418697,0.0,0.00880003534257412
0.009394308552145958,0.0027796935755759478,-0.011694837361574173,0.009231751784682274,0.0,0.0083744116127491
0.008805111050605774,0.0026037772186100483,-0.012156783603131771,0.009148720651865005,0.0,0.00826453510671854
0.009540773928165436,0.002242117188870907,-0.012223673053085804,0.009433630853891373,0.0,0.008598128333687782
0.00951520074158907,0.0023105493746697903,-0.012194217182695866,0.009258915670216084,0.0,0.008809340186417103
0.008939115330576897,0.002420576987788081,-0.012483013793826103,0.009009962901473045,0.0,0.008570515550673008
0.009684802033007145,0.002601504558697343,-0.01205428782850504,0.009326992556452751,0.0,0.008668920025229454
0.00995562318712473,0.002757938113063574,-0.012169494293630123,0.009245947003364563,0.0,0.008921798318624496
0.009596490301191807,0.0030661048367619514,-0.01248690951615572,0.008904633112251759,0.0,0.008959094993770123
0.009243959560990334,0.0028076600283384323,-0.01246106531471014,0.009079773910343647,0.0,0.008765957318246365
0.009328129701316357,0.0026444653049111366,-0.012358002364635468,0.009113837964832783,0.0,0.009440213441848755
0.00999747309833765,0.0026863592211157084,-0.012731710448861122,0.009198682382702827,0.0,0.009420634247362614
0.00999747309833765,0.0026863592211157084,-0.012731710448861122,0.009198682382702827,0.0,0.009420634247362614
0.008881974965333939,0.002811120357364416,-0.012979578226804733,0.00933277141302824,0.0,0.009255308657884598
0.009988650679588318,0.0028858270961791277,-0.012013004161417484,0.009287356398999691,0.0,0.009078490547835827
0.008969279937446117,0.0027087179478257895,-0.012801279313862324,0.009231681935489178,0.0,0.008860306814312935
0.009089886210858822,0.002799554029479623,-0.01243298314511776,0.010009996592998505,0.0,0.00846022553741932
0.00917064305394888,0.002875776030123234,-0.01235719583928585,0.009640620090067387,0.0,0.00826239213347435
0.009996612556278706,0.002959588775411248,-0.012304983101785183,0.00909464806318283,0.0,0.008853849954903126
0.009059742093086243,0.002859763102605939,-0.012082193978130817,0.00894919317215681,0.0,0.00879889726638794
0.009726068004965782,0.0030998741276562214,-0.012503417208790779,0.009875654242932796,0.0,0.008843258023262024
0.009699524380266666,0.0032584972213953733,-0.012142231687903404,0.009542333893477917,0.0,0.009026484563946724
0.009474347345530987,0.0031183273531496525,-0.012420274317264557,0.009131637401878834,0.0,0.008633166551589966
0.009564276784658432,0.0030730583239346743,-0.012391466647386551,0.009846088476479053,0.0,0.008868926204741001
0.009618118405342102,0.0034074517898261547,-0.012678835541009903,0.00920394528657198,0.0,0.008875428698956966
0.009453152306377888,0.0030297928024083376,-0.011825932189822197,0.009507372975349426,0.0,0.008710475638508797
0.009831316769123077,0.0030220120679587126,-0.011475080624222755,0.009757268242537975,0.0,0.009097598493099213
0.010177898220717907,0.002705138176679611,-0.012220101431012154,0.009425397962331772,0.0,0.008718808181583881
0.009315424598753452,0.003041560063138604,-0.012494136579334736,0.009121868759393692,0.0,0.009205271489918232
0.009708947502076626,0.002887137932702899,-0.01253217738121748,0.009895680472254753,0.0,0.008837390691041946
0.009249560534954071,0.003346877172589302,-0.011545693501830101,0.009542823769152164,0.0,0.008863594383001328
0.009733821265399456,0.0032119511160999537,-0.012386251240968704,0.009494012221693993,0.0,0.008665326051414013
0.010111591778695583,0.0033360878005623817,-0.012411868199706078,0.008970696479082108,0.0,0.009367020800709724
0.009439930319786072,0.0031824042089283466,-0.012512718327343464,0.008549698628485203,0.0,0.00916067324578762
0.009608622640371323,0.003539907978847623,-0.01231592707335949,0.009015453048050404,0.0,0.009535998106002808
0.010076544247567654,0.003166021080687642,-0.012088638730347157,0.009489578194916248,0.0,0.009114942513406277
0.009418724104762077,0.00313077331520617,-0.01162860170006752,0.009769704192876816,0.0,0.009597689844667912
0.010031310841441154,0.002967632142826915,-0.011210429482161999,0.00991895142942667,0.0,0.00895271822810173
0.008994540199637413,0.003287381725385785,-0.012088051065802574,0.009844908490777016,1.6652089698254713e-06,0.009067061357200146
0.008994540199637413,0.003287381725385785,-0.012088051065802574,0.009844908490777016,1.6652089698254713e-06,0.009067061357200146
0.009305058978497982,0.0032211903017014265,-0.012227770872414112,0.009553764946758747,1.0872624756075311e-07,0.009113851003348827
0.010252264328300953,0.003048868151381612,-0.012155619449913502,0.009655872359871864,7.099046683833876e-09,0.009716244414448738
0.009920995682477951,0.00310476403683424,-0.011884847655892372,0.00934118963778019,4.6351703031355385e-10,0.009533416479825974
0.009943671524524689,0.003253497648984194,-0.01133783534169197,0.008626415394246578,3.026435005382133e-11,0.009309212677180767
0.00996618065983057,0.0035417545586824417,-0.012251759879291058,0.009310122579336166,1.9760460628903687e-12,0.00903861504048109
0.010019411332905293,0.0033358854707330465,-0.011213636957108974,0.00975921843200922,1.2902168482903376e-13,0.00951320119202137
0.009510372765362263,0.0031242959666997194,-0.01188582368195057,0.008837050758302212,8.424194129004903e-15,0.009232287295162678
0.010782684199512005,0.00287445355206728,-0.012010045349597931,0.008953005075454712,5.500396378430971e-16,0.009534650482237339
0.009951385669410229,0.0029367993120104074,-0.01228050421923399,0.00966043770313263,3.59136609505454e-17,0.0094189727678895
0.009300691075623035,0.0032582655549049377,-0.012418107129633427,0.00946791097521782,2.3449056625357363e-18,0.009112438187003136
0.010699664242565632,0.003433897392824292,-0.01198470126837492,0.009296590462327003,1.5310557376382483e-19,0.009537123143672943
0.010047385469079018,0.00332620064727962,-0.012142807245254517,0.009823706932365894,9.996700653727817e-21,0.009421470575034618
0.009397167712450027,0.0034208307042717934,-0.011604228988289833,0.009714568965137005,6.527131560155706e-22,0.00991805549710989
0.01050623320043087,0.003649346064776182,-0.011651952750980854,0.00963603425770998,4.2617500429750464e-23,0.009425435215234756
0.009923094883561134,0.0038109414745122194,-0.012713680043816566,0.00996880792081356,2.7826180963152818e-24,0.00938587635755539
0.009299496188759804,0.0035002296790480614,-0.011885032057762146,0.009298745542764664,1.8168506957558662e-25,0.009041059762239456
0.010548176243901253,0.0034266135189682245,-0.012300794944167137,0.00893488246947527,1.1862736218318025e-26,0.009528080001473427
0.01000270526856184,0.0031715258955955505,-0.012183493934571743,0.009185777977108955,7.745518716614466e-28,0.00960712693631649
0.009387511759996414,0.003239232115447521,-0.011742539703845978,0.009246770292520523,5.057269950164169e-29,0.009677611291408539
0.01025889441370964,0.003518911777064204,-0.011313240975141525,0.009022258222103119,2.155993466950511e-31,0.00897388905286789
0.009818993508815765,0.0034811864607036114,-0.012186638079583645,0.00883434433490038,1.407709586407384e-32,0.00921675469726324
0.010028277523815632,0.003610336221754551,-0.011844951659440994,0.008396752178668976,9.19133818422828e-34,0.00963803194463253
0.010170131921768188,0.003785985056310892,-0.012148009613156319,0.00876208208501339,6.001287239890896e-35,0.010155807249248028
0.009202391840517521,0.003429184202104807,-0.01263736467808485,0.009394320659339428,3.9184114800682814e-36,0.009192399680614471
0.009895101189613342,0.0035492819733917713,-0.011575814336538315,0.008914847858250141,2.558442307289324e-37,0.009582092054188251
0.010374941863119602,0.003267189022153616,-0.011844717897474766,0.008901715278625488,1.6704800520502142e-38,0.009679189883172512
0.00971586536616087,0.0031216454226523638,-0.011359982192516327,0.009303562343120575,1.09070346230415e-39,0.009489577263593674
0.010005307383835316,0.0030880605336278677,-0.012019108980894089,0.009129133075475693,7.121538925545153e-41,0.010253684595227242
0.010005307383835316,0.0030880605336278677,-0.012019108980894089,0.009129133075475693,7.121538925545153e-41,0.010253684595227242
0.009476996026933193,0.003485223511233926,-0.012077496387064457,0.009082767181098461,3.040817667584853e-43,0.00979840662330389
0.009476996026933193,0.003485223511233926,-0.012077496387064457,0.009082767181098461,3.040817667584853e-43,0.00979840662330389
0.010283928364515305,0.0035514342598617077,-0.012213964015245438,0.009134778752923012,1.961817850054744e-44,0.0098540298640728
0.010172720067203045,0.003508012741804123,-0.011793595738708973,0.00921525526791811,1.401298464324817e-45,0.009822006337344646
0.009959502145648003,0.0033268423285335302,-0.011818506754934788,0.009417617693543434,0.0,0.009485169313848019
0.010580808855593204,0.0033902539871633053,-0.011672547087073326,0.009060988202691078,0.0,0.009327384643256664
0.009739503264427185,0.003628944978117943,-0.011653857305645943,0.00895623303949833,0.0,0.009049275889992714
0.009621980600059032,0.003824587445706129,-0.012222136370837688,0.008990711532533169,0.0,0.009312925860285759
0.010354682803153992,0.003332938067615032,-0.012208652682602406,0.008990831673145294,0.0,0.00908727664500475
0.00933048315346241,0.003302384400740266,-0.012722165323793888,0.008628728799521923,0.0,0.009320350363850594
0.009640985168516636,0.00349795026704669,-0.011743385344743729,0.008854059502482414,0.0,0.009110559709370136
0.010701552033424377,0.003489862894639373,-0.012422129511833191,0.00928361527621746,0.0,0.00972126703709364
0.009977777488529682,0.003570862812921405,-0.012247448787093163,0.009161261841654778,0.0,0.009901006706058979
0.009599975310266018,0.002966321539133787,-0.011569601483643055,0.009043327532708645,0.0,0.009471843019127846
0.009995657950639725,0.002557194558903575,-0.011957992799580097,0.008665326051414013,0.0,0.00919409841299057
0.009959282353520393,0.00207486841827631,-0.011838224716484547,0.008698990568518639,0.0,0.009548446163535118
0.00996110588312149,0.002063917461782694,-0.012452182359993458,0.008655713871121407,0.0,0.009660443291068077
0.010289647616446018,0.002429418731480837,-0.012102163396775723,0.008766015991568565,0.0,0.009429424069821835
0.00979284942150116,0.002887166105210781,-0.011774638667702675,0.00938602164387703,0.0,0.00958387553691864
0.010117588564753532,0.0027840083930641413,-0.011513586156070232,0.009649191051721573,0.0,0.009241631254553795
0.009391171857714653,0.0028276334051042795,-0.012086156755685806,0.009712198749184608,0.0,0.00983413215726614
0.009680535644292831,0.002475726418197155,-0.012303603813052177,0.00939871184527874,0.0,0.010563913732767105
0.010219458490610123,0.002361961407586932,-0.012467176653444767,0.009297688491642475,0.0,0.009928477928042412
0.009685098193585873,0.0024662590585649014,-0.012745182029902935,0.00937732495367527,0.0,0.009746246039867401
0.010394514538347721,0.0025901400949805975,-0.01206426601856947,0.009434100240468979,0.0,0.00982940848916769
0.010018912144005299,0.002589601092040539,-0.013015265576541424,0.009298753924667835,0.0,0.00971312541514635
0.009656433947384357,0.002784754615277052,-0.011787177063524723,0.009844871237874031,0.0,0.009941144846379757
0.010028751567006111,0.0025101976934820414,-0.012431145645678043,0.009594368748366833,0.0,0.010016287676990032
0.010869569145143032,0.0022938228212296963,-0.01279605831950903,0.009250962175428867,0.0,0.009790558367967606
0.010869569145143032,0.0022938228212296963,-0.01279605831950903,0.009250962175428867,0.0,0.009790558367967606
0.009767032228410244,0.002315542194992304,-0.012915126048028469,0.0090797645971179,0.0,0.010083064436912537
0.009455407969653606,0.0025555752217769623,-0.012760858982801437,0.00936056487262249,0.0,0.010039298795163631
0.0096751619130373,0.00254336791113019,-0.012339162640273571,0.008870194666087627,0.0,0.010249897837638855
0.009848772548139095,0.0029035035986453295,-0.012709034606814384,0.009528246708214283,0.0,0.010075214318931103
0.010285832919180393,0.0029388717375695705,-0.011647243052721024,0.009765648283064365,0.0,0.009918611496686935
0.010025449097156525,0.0028857924044132233,-0.012516018003225327,0.009187482297420502,0.0,0.010017642751336098
0.009654330089688301,0.00255248392932117,-0.012299923226237297,0.009263763204216957,0.0,0.010561659000813961
0.01063053123652935,0.002570709679275751,-0.012957064434885979,0.008915460668504238,0.0,0.010284666903316975
0.010124421678483486,0.0027681530918926,-0.012893819250166416,0.008697311393916607,0.0,0.010289735160768032
0.009936554357409477,0.0026885727420449257,-0.012462244369089603,0.009326670318841934,0.0,0.010327228344976902
0.010174695402383804,0.0029168236069381237,-0.012758003547787666,0.010284512303769588,0.0,0.009958417154848576
0.01039697416126728,0.00262875366024673,-0.012121717445552349,0.009388190694153309,0.0,0.010359352454543114
0.009994183667004108,0.0024818743113428354,-0.012393159791827202,0.009560973383486271,0.0,0.01030792947858572
0.01006561890244484,0.002659549005329609,-0.01208049152046442,0.009069791063666344,0.0,0.010528059676289558
0.010394614189863205,0.0032783306669443846,-0.012848411686718464,0.008840912021696568,0.0,0.010085144080221653
0.009671206586062908,0.0033143216278403997,-0.012787704356014729,0.008558315224945545,0.0,0.010013415478169918
0.009858534671366215,0.002876156708225608,-0.012864142656326294,0.009204373694956303,0.0,0.010737588629126549
0.009602701291441917,0.0027888177428394556,-0.012325076386332512,0.009007319808006287,0.0,0.009704756550490856
0.010546961799263954,0.002879068488255143,-0.012440892867743969,0.00969780795276165,0.0,0.009638345800340176
0.010161829181015491,0.0030504860915243626,-0.011798998340964317,0.00972658209502697,0.0,0.010512066073715687
0.009834243915975094,0.002870618598535657,-0.012336140498518944,0.009769026190042496,0.0,0.011012029834091663
0.0102875716984272,0.0028712896164506674,-0.012384445406496525,0.010162679478526115,0.0,0.01023251935839653
0.009706851094961166,0.00270570395514369,-0.012546070851385593,0.010458738543093204,0.0,0.010298436507582664
0.009835388511419296,0.0027800779789686203,-0.012260286137461662,0.00931531097739935,0.0,0.010365482419729233
0.009835388511419296,0.0027800779789686203,-0.012260286137461662,0.00931531097739935,0.0,0.010365482419729233
0.01029760017991066,0.0029002369847148657,-0.011972370557487011,0.009633522480726242,-0.00014422180538531393,0.010129508562386036
0.010829856619238853,0.0028896071016788483,-0.011003272607922554,0.00885157659649849,-0.000167042002431117,0.010857746936380863
0.010829856619238853,0.0028896071016788483,-0.011003272607922554,0.00885157659649849,-0.000167042002431117,0.010857746936380863
0.011197386309504509,0.0028071964625269175,-0.011215174570679665,0.009133209474384785,-0.00016119604697450995,0.010209890082478523
0.01015219371765852,0.0030933052767068148,-0.011557663790881634,0.008939812891185284,-0.00018262794765178114,0.010238361544907093
0.011918717063963413,0.0028871886897832155,-0.011821756139397621,0.008245437406003475,-0.00018024317978415638,0.010362973436713219
0.011373338289558887,0.0030941683799028397,-0.01268530823290348,0.008775624446570873,-0.00017465547716710716,0.010199825279414654
0.011087235063314438,0.003369704820215702,-0.011889615096151829,0.009356457740068436,-0.00016919811605475843,0.010617329739034176
0.011609770357608795,0.003212427254766226,-0.01212019007652998,0.009128640405833721,-0.00018430640920996666,0.010229327715933323
0.011148250661790371,0.003076704451814294,-0.012063203379511833,0.009182191453874111,-0.00018529420776758343,0.010233203880488873
0.011427456513047218,0.0027927346527576447,-0.012264211662113667,0.010024304501712322,-0.0001804065832402557,0.010601144284009933
0.011585818603634834,0.003025708720088005,-0.012404153123497963,0.009209409356117249,-0.0001987862924579531,0.010596247389912605
0.011019503697752953,0.0030462900176644325,-0.01218197401612997,0.009412948042154312,-0.00019493038416840136,0.01078418456017971
0.011657480150461197,0.003135727485641837,-0.012791713699698448,0.00991352740675211,-0.00018988885858561844,0.010249079205095768
0.01135515607893467,0.0032954392954707146,-0.01215713657438755,0.009550532326102257,-0.00018501569866202772,0.010513314045965672
0.012046972289681435,0.003021341748535633,-0.012494724243879318,0.00979255698621273,-0.00018038049165625125,0.010900542140007019
0.011961370706558228,0.003168585943058133,-0.012160476297140121,0.01071549765765667,-0.0002626423956826329,0.011269786395132542
0.011717362329363823,0.003331721993163228,-0.012007963843643665,0.009535253047943115,-0.0002599834988359362,0.010551674291491508
0.011906454339623451,0.0031545108649879694,-0.012674649246037006,0.009340150281786919,-0.00024655499146319926,0.010889017954468727
0.011516011320054531,0.0030535270925611258,-0.012274794280529022,0.009707150049507618,-0.0002337943878956139,0.010999856516718864
0.011989239603281021,0.003043424105271697,-0.012759626843035221,0.00943820271641016,-0.00022224673011805862,0.0111251100897789
0.01199872326105833,0.0030832216143608093,-0.012172252871096134,0.008977089077234268,-0.00021178432507440448,0.011574112810194492
0.01206083782017231,0.0030301904771476984,-0.011686875484883785,0.009352938272058964,-0.0001935607724590227,0.01123034954071045
0.012040382251143456,0.0030669919215142727,-0.011628142558038235,0.009022241458296776,-0.000185576849617064,0.010967882350087166
0.011935127899050713,0.0032758195884525776,-0.012236304581165314,0.010128013789653778,-0.00017822573136072606,0.010965014807879925
0.012098005041480064,0.003605953184887767,-0.012110237963497639,0.009970567189157009,-0.00017143439617939293,0.011173970997333527
0.012098005041480064,0.003605953184887767,-0.012110237963497639,0.009970567189157009,-0.00017143439617939293,0.011173970997333527
0.011960241943597794,0.0031730621121823788,-0.01267196424305439,0.009203566238284111,-0.0001895726309157908,0.010999448597431183
0.012280468828976154,0.003105135867372155,-0.012682763859629631,0.010616566985845566,-0.00019059295300394297,0.011062737554311752
0.01183742843568325,0.003115610685199499,-0.01193690299987793,0.010245106182992458,-0.0001845816004788503,0.010924335569143295
0.011828918009996414,0.0028757979162037373,-0.011796290054917336,0.009558537974953651,-0.0001785118947736919,0.01100619975477457
0.012017191387712955,0.0027821711264550686,-0.011905837804079056,0.009907598607242107,-0.00017280105384998024,0.01155391801148653
0.01241512130945921,0.002865704009309411,-0.012427594512701035,0.009704599156975746,-0.00016744247113820165,0.011417141184210777
0.012340230867266655,0.0031721428968012333,-0.011944832280278206,0.009537988342344761,-0.0001756870187819004,0.01123428251594305
0.012038283981382847,0.0032618443947285414,-0.012748334556818008,0.010036546736955643,-0.00018304094555787742,0.011140214279294014
0.012456807307898998,0.0033894807565957308,-0.012138891965150833,0.009768287651240826,-0.0001786638458725065,0.01098189689218998
0.011886000633239746,0.0036171574611216784,-0.011898251250386238,0.009411857463419437,-0.00017378809570800513,0.011213725432753563
0.012354345992207527,0.0032736000139266253,-0.01218697614967823,0.009563221596181393,-0.0001691262295935303,0.01119025144726038
0.012313304468989372,0.002995858434587717,-0.01176189910620451,0.009660298004746437,-0.00016470426635351032,0.011067424900829792
0.012320972047746181,0.0029492320027202368,-0.01221473142504692,0.009505239315330982,-0.00016050807607825845,0.011258472688496113
0.012287436984479427,0.0031509660184383392,-0.01215649489313364,0.009636995382606983,-0.00015651994908694178,0.011187699623405933
0.012136406265199184,0.0031387994531542063,-0.012394784949719906,0.009428444318473339,-0.00017308347742073238,0.012241911143064499
0.012364288792014122,0.0029604327864944935,-0.012574377469718456,0.009874382056295872,-0.00017031673633027822,0.011139711365103722
0.012476066127419472,0.0028723347932100296,-0.011863178573548794,0.009939427487552166,-0.00016646551375743002,0.010989658534526825
0.012474970892071724,0.002910501789301634,-0.012681481428444386,0.009691467508673668,-0.00016270906780846417,0.01138533465564251
0.012224473990499973,0.0031260382384061813,-0.012411801144480705,0.009472106583416462,-0.00015911375521682203,0.011120928451418877
0.0126001862809062,0.00328268576413393,-0.012858583591878414,0.009794279932975769,-0.00014333773287944496,0.01099636871367693
0.0126001862809062,0.00328268576413393,-0.012858583591878414,0.009794279932975769,-0.00014333773287944496,0.01099636871367693
0.012455306015908718,0.002815415384247899,-0.012398701161146164,0.009676973335444927,-0.00013425688666757196,0.011456497013568878
0.012115070596337318,0.0028463767375797033,-0.012406590394675732,0.00947057455778122,-0.00013036488962825388,0.011511635035276413
0.012115070596337318,0.0028463767375797033,-0.012406590394675732,0.00947057455778122,-0.00013036488962825388,0.011511635035276413
0.012429323978722095,0.0028765688184648752,-0.012931239791214466,0.00893799215555191,-0.0001503307867096737,0.011575467884540558
0.012609393335878849,0.0028691845946013927,-0.011295977048575878,0.010012499056756496,-0.0001477584446547553,0.011567994020879269
0.012333998456597328,0.0028711301274597645,-0.013639255426824093,0.009495952166616917,-0.00014392101729754359,0.011441998183727264
0.012770683504641056,0.0028932897839695215,-0.013024219311773777,0.009426336735486984,-0.00015166746743489057,0.011714366264641285
0.012665584683418274,0.002833485836163163,-0.012851796112954617,0.009641606360673904,-0.00015864160377532244,0.011509538628160954
0.01310643833130598,0.0027315381448715925,-0.012646693736314774,0.009685489349067211,-0.00015543220797553658,0.011659069918096066
0.012229504063725471,0.0026852646842598915,-0.013508209027349949,0.009066905826330185,-0.00015173469728324562,0.011631228029727936
0.012590277008712292,0.002909962786361575,-0.012931888923048973,0.008844816125929356,-0.00016655269428156316,0.011571676470339298
0.01233592163771391,0.0031877090223133564,-0.013546351343393326,0.00982795748859644,-0.00016526323452126235,0.011471720412373543
0.012615145184099674,0.003076690249145031,-0.013380678370594978,0.009313331916928291,-0.0001617643574718386,0.011639389209449291
0.012671872042119503,0.0026437959168106318,-0.012814408168196678,0.009447755292057991,-0.00028992287116125226,0.011673524044454098
0.012775192968547344,0.00263240747153759,-0.013247224502265453,0.009802044369280338,-0.00030828238232061267,0.011615837924182415
0.012736908160150051,0.0027104681357741356,-0.012426008470356464,0.009717247448861599,-0.0003160466148983687,0.01150695513933897
0.012451129034161568,0.002936585107818246,-0.013088906183838844,0.00932358019053936,-0.0003370563790667802,0.011704440228641033
0.01301876362413168,0.0027606538496911526,-0.012840578332543373,0.009698977693915367,-0.00033100819564424455,0.011598595418035984
0.012614569626748562,0.0027978881262242794,-0.01337884459644556,0.01004834659397602,-0.0003541987098287791,0.01175418309867382
0.013124835677444935,0.0027949402574449778,-0.01296693179756403,0.010218024253845215,-0.0003427258925512433,0.011670867912471294
0.012928438372910023,0.002790733240544796,-0.012970120646059513,0.009982187300920486,-0.0005413411417976022,0.011685403995215893
0.012700092978775501,0.0026968184392899275,-0.012938883155584335,0.009793639183044434,-0.0005114336381666362,0.011797480285167694
0.012735176831483841,0.002852422185242176,-0.01291600987315178,0.009831811301410198,-0.0004610462056007236,0.012099278159439564
0.012872077524662018,0.002841673791408539,-0.012312483973801136,0.009315978735685349,-0.0004577382351271808,0.012752672657370567
0.012872077524662018,0.002841673791408539,-0.012312483973801136,0.009315978735685349,-0.0004577382351271808,0.012752672657370567
0.013072185218334198,0.002879581181332469,-0.013220538385212421,0.010153996758162975,-0.00044045827235095203,0.012174530886113644
0.013038937002420425,0.0029328567907214165,-0.013310817070305347,0.009961310774087906,-0.00042564046452753246,0.012162602506577969
0.013010889291763306,0.002923717489466071,-0.012963030487298965,0.009461775422096252,-0.0003996084560640156,0.012347972020506859
0.012783232145011425,0.0027723631355911493,-0.013377700932323933,0.010094303637742996,-0.0004019583866465837,0.012898718938231468
0.013319135643541813,0.0029174608644098043,-0.012765503488481045,0.009733788669109344,-0.0004035283636767417,0.012332270853221416
0.013264474458992481,0.0029089325107634068,-0.012482373043894768,0.009164475835859776,-0.0003835985262412578,0.012269381433725357
0.013264474458992481,0.0029089325107634068,-0.012482373043894768,0.009164475835859776,-0.0003835985262412578,0.012269381433725357
0.013253247365355492,0.0033005133736878633,-0.01314285397529602,0.00985242985188961,-0.00035737926373258233,0.012215822003781796
0.013983046635985374,0.003188390051946044,-0.012906643562018871,0.010029994882643223,-0.0003300267271697521,0.012440672144293785
0.013655844144523144,0.002875527599826455,-0.013238308019936085,0.010099022649228573,-0.00033725250978022814,0.011975063942372799
0.013466318137943745,0.0029984377324581146,-0.012525203637778759,0.010862340219318867,-0.0003432022058404982,0.012190993875265121
0.013092410750687122,0.003018964547663927,-0.013327259570360184,0.010284900665283203,-0.00032437292975373566,0.013183617033064365
0.013798345811665058,0.0030140001326799393,-0.012613432481884956,0.009966987185180187,-0.0003502285690046847,0.012217424809932709
0.013154130429029465,0.0029537598602473736,-0.013113429769873619,0.010450894013047218,-0.0003610472776927054,0.01184365525841713
0.013668752275407314,0.002943837782368064,-0.012830957770347595,0.010089253075420856,-0.00036492105573415756,0.012099996209144592
0.013500915840268135,0.0031229157466441393,-0.012990517541766167,0.009321154095232487,-0.0004789672384504229,0.012998231686651707
0.013591788709163666,0.003105554496869445,-0.013109199702739716,0.00956545490771532,-0.00047234533121809363,0.01291307620704174
0.013668626546859741,0.0030604354105889797,-0.012870892882347107,0.009698422625660896,-0.0005041082040406764,0.012638925574719906
0.013836238533258438,0.003383851842954755,-0.013345862738788128,0.009663057513535023,-0.00047040454228408635,0.012511266395449638
0.013361616060137749,0.003090247279033065,-0.0129640968516469,0.009892246685922146,-0.00048629165394231677,0.012355084531009197
0.013771362602710724,0.0030396836809813976,-0.013453599065542221,0.009592057205736637,-0.0004667270404752344,0.01268231961876154
0.013472888618707657,0.002896964317187667,-0.01264473982155323,0.009541615843772888,-0.0004812785191461444,0.012625562958419323
0.013909406028687954,0.0029238462448120117,-0.01331572700291872,0.009910781867802143,-0.0004645393346436322,0.013084744103252888
0.014159356243908405,0.0028228051960468292,-0.01316510234028101,0.010304783470928669,-0.0005260326433926821,0.012893499806523323
0.013914303854107857,0.0029834716115146875,-0.013440349139273167,0.010088672861456871,-0.00048419935046695173,0.013026478700339794
0.013913648203015327,0.0031899702735245228,-0.01319416519254446,0.010514714755117893,-0.0004379793826956302,0.012864219024777412
0.014305568300187588,0.0030810581520199776,-0.013133903965353966,0.010081358253955841,-0.0004679267876781523,0.013130160048604012
0.014302227646112442,0.002959366887807846,-0.012622878886759281,0.010532586835324764,-0.0004697115218732506,0.013227878138422966
0.014208512380719185,0.0029720321763306856,-0.013227105140686035,0.010286557488143444,-0.0004715676768682897,0.013393652625381947
0.0140645457431674,0.0031406159978359938,-0.012935692444443703,0.010095462203025818,-0.0004691527283284813,0.01290742214769125
0.0140645457431674,0.0031406159978359938,-0.012935692444443703,0.010095462203025818,-0.0004691527283284813,0.01290742214769125
0.014811042696237564,0.002786669647321105,-0.013319059275090694,0.010592291131615639,-0.00050286331679672,0.01318596862256527
0.0146699920296669,0.0026855834294110537,-0.013109895400702953,0.010137590579688549,-0.0005174228572286665,0.012854857370257378
0.014769571833312511,0.002832036465406418,-0.013652483001351357,0.010608130134642124,-0.0005108232144266367,0.012724602594971657
0.014681064523756504,0.0031565383542329073,-0.013036888092756271,0.010722014121711254,-0.00046918311272747815,0.01274231355637312
0.01481121126562357,0.003012000350281596,-0.013400365598499775,0.01019984669983387,-0.00046665541594848037,0.01318520400673151
0.014976616948843002,0.0028439429588615894,-0.012965366244316101,0.01029880903661251,-0.0004640372353605926,0.013535172678530216
0.014953422360122204,0.0026515864301472902,-0.013235016725957394,0.010639207437634468,-0.0004642521671485156,0.013752363622188568
0.015010022558271885,0.002876581158488989,-0.013584405183792114,0.010437275283038616,-0.0004622055566869676,0.013447508215904236
0.014958815649151802,0.0030914410017430782,-0.01302728708833456,0.010800528340041637,-0.00043602235382422805,0.012915346771478653
0.015064666979014874,0.0029820986092090607,-0.013147787190973759,0.010146478191018105,-0.0004113531904295087,0.01291599590331316
0.014746333472430706,0.0027853779029101133,-0.012698041275143623,0.010419814847409725,-0.0004271659709047526,0.012962308712303638
0.015217731706798077,0.0027363586705178022,-0.013594445772469044,0.010618386790156364,-0.00039339810609817505,0.01355214137583971
0.0149746835231781,0.002729539293795824,-0.012670460157096386,0.01016007550060749,-0.0004292152589187026,0.013131927698850632
0.015624736435711384,0.00285877357237041,-0.013169916346669197,0.010120823979377747,-0.0004016724124085158,0.013688595034182072
0.014922465197741985,0.0028371699154376984,-0.012962219305336475,0.010422888211905956,-0.0003741164109669626,0.013998571783304214
0.015623383224010468,0.0030091225635260344,-0.013704477809369564,0.009791182354092598,-0.0004041207430418581,0.013458291999995708
0.015349088236689568,0.002923112129792571,-0.013479026034474373,0.010372611694037914,-0.00038307736394926906,0.013313104398548603
0.015535671263933182,0.003183018183335662,-0.013823376037180424,0.01039071287959814,-0.0003613294393289834,0.014066427014768124
0.015241716988384724,0.0031245241407305002,-0.013170203194022179,0.010504273697733879,-0.0003417367406655103,0.013035831041634083
0.01579287275671959,0.002988393884152174,-0.013562149368226528,0.011135696433484554,-0.00032414766610600054,0.01241056527942419
0.015338280238211155,0.0029635850805789232,-0.013766265474259853,0.010367283597588539,-0.00030828092712908983,0.012768369168043137
0.015515796840190887,0.002848435193300247,-0.013485446572303772,0.009749211370944977,-0.0002938950783573091,0.013315616175532341
0.015532216988503933,0.002898643258959055,-0.013704015873372555,0.010014084167778492,-0.0002807934652082622,0.01374679896980524
0.015376584604382515,0.0032133162021636963,-0.013283968903124332,0.009843436069786549,-0.00026880946825258434,0.013916607946157455
0.015564503148198128,0.0030728366691619158,-0.013300277292728424,0.010526944883167744,-0.0002828876895364374,0.014017850160598755
0.01600872166454792,0.002933475887402892,-0.014129032380878925,0.00994692463427782,-0.00027233234141021967,0.014175296761095524
0.015618547797203064,0.002971324836835265,-0.01353338174521923,0.010472833178937435,-0.00026241480372846127,0.013849846087396145
0.016084177419543266,0.0029710663948208094,-0.014018156565725803,0.010497627779841423,-0.0002531860664021224,0.0139992730692029
0.0158956591039896,0.0030041467398405075,-0.013609650544822216,0.010138671845197678,-0.00023189884086605161,0.013833992183208466
0.01638289913535118,0.0031125214882194996,-0.014491508714854717,0.009942376054823399,-0.00021714284957852215,0.014199873432517052
0.01615610532462597,0.003043157048523426,-0.014108332805335522,0.010215534828603268,-0.00020692167163360864,0.013844468630850315
0.016397273167967796,0.0029672631062567234,-0.014813552610576153,0.009660910815000534,-0.00019780911679845303,0.013849593698978424
0.01623399183154106,0.002922062762081623,-0.014261113479733467,0.010308511555194855,-0.00018947708304040134,0.013661124743521214
0.01595032960176468,0.0029313175473362207,-0.0150883374735713,0.010706542991101742,-0.00020869912987109274,0.014103755354881287
0.01595032960176468,0.0029313175473362207,-0.0150883374735713,0.010706542991101742,-0.00020869912987109274,0.014103755354881287
0.016432730481028557,0.0031240927055478096,-0.014334579929709435,0.010044957511126995,-0.00020908997976221144,0.01404554769396782
0.016798552125692368,0.0030878428369760513,-0.014936553314328194,0.009933271445333958,-0.00020182748266961426,0.014641308225691319
0.01744868792593479,0.0030826502479612827,-0.013665909878909588,0.009992268867790699,-0.00019458950555417687,0.014318925328552723
0.01668551191687584,0.002857498126104474,-0.014580619521439075,0.009991410188376904,-0.00020316331938374788,0.014326924458146095
0.01612396351993084,0.0030399938113987446,-0.01417052187025547,0.01028708927333355,-0.00021071828086860478,0.014360993169248104
0.016451241448521614,0.0026782371569424868,-0.014909123070538044,0.010610328055918217,-0.00020480560488067567,0.014784231781959534
0.016279514878988266,0.002624267479404807,-0.014273209497332573,0.010175236500799656,-0.00019841577159240842,0.014551210217177868
0.01674327813088894,0.0026488900184631348,-0.014996434561908245,0.010356537066400051,-0.00021270963770803064,0.015033287927508354
0.01631295122206211,0.0027496065013110638,-0.014258679002523422,0.01200595311820507,-0.00021286158880684525,0.014779364690184593
0.01707424782216549,0.0028097212780267,-0.014801082201302052,0.010519650764763355,-0.00020715712162200361,0.01462726853787899
0.017087774351239204,0.0027183142956346273,-0.013840974308550358,0.010451678186655045,-0.00020160403801128268,0.014345499686896801
0.016296440735459328,0.0028358804993331432,-0.014578845351934433,0.010245774872601032,-0.000253616482950747,0.014721235260367393
0.016686923801898956,0.0028254378121346235,-0.01420831773430109,0.010811859741806984,-0.00024400788242928684,0.01448427140712738
0.016810405999422073,0.0028642560355365276,-0.014909463003277779,0.010470862500369549,-0.0002718305622693151,0.014601579867303371
0.017847739160060883,0.0027861210983246565,-0.014240680262446404,0.009800444357097149,-0.00026404677191749215,0.01446436159312725
0.01719876006245613,0.002908399561420083,-0.014462379738688469,0.010399045422673225,-0.00025207875296473503,0.015092143788933754
0.017323847860097885,0.0028740728739649057,-0.014070148579776287,0.010863766074180603,-0.00027825412689708173,0.016514547169208527
0.017582811415195465,0.0032864026725292206,-0.01493491418659687,0.010160727426409721,-0.0002972138172481209,0.014873943291604519
0.016433365643024445,0.0031979954801499844,-0.013821587897837162,0.01049127895385027,-0.0002941695274785161,0.014114155434072018
0.017476243898272514,0.0027566917706280947,-0.014112680219113827,0.010331252589821815,-0.0004309898358769715,0.014815038070082664
0.01775670237839222,0.002753449836745858,-0.01496119238436222,0.010943606495857239,-0.0004144914273638278,0.015439982526004314
0.01803620718419552,0.0026191077195107937,-0.014216489158570766,0.011044408194720745,-0.00041774482815526426,0.014998799189925194
0.017503179609775543,0.0028472761623561382,-0.014692597091197968,0.010640611872076988,-0.0004189231258351356,0.014893443323671818
0.01835007034242153,0.003181056585162878,-0.013680740259587765,0.01129477471113205,-0.0003907901409547776,0.01481049694120884
0.018064375966787338,0.003152573946863413,-0.014365755952894688,0.010480946861207485,-0.00039405087591148913,0.015144231729209423
0.017861872911453247,0.003374634310603142,-0.01446292083710432,0.010614069178700447,-0.00039635365828871727,0.015320952981710434
0.01826380006968975,0.0031697647646069527,-0.01483711414039135,0.01075757946819067,-0.00040061757317744195,0.015289629809558392
0.018283642828464508,0.0030319413635879755,-0.01431594043970108,0.01118843350559473,-0.0003825600433629006,0.015276053920388222
0.018283642828464508,0.0030319413635879755,-0.01431594043970108,0.01118843350559473,-0.0003825600433629006,0.015276053920388222
0.01817009411752224,0.0030214539729058743,-0.014297393150627613,0.011507735587656498,-0.00041210834751836956,0.01547606848180294
0.01817009411752224,0.0030214539729058743,-0.014297393150627613,0.011507735587656498,-0.00041210834751836956,0.01547606848180294
0.01772056519985199,0.0030040964484214783,-0.014826139435172081,0.01152096875011921,-0.000384978367947042,0.015402577817440033
0.018395353108644485,0.0028800482396036386,-0.014361764304339886,0.011127692647278309,-0.00035510738962329924,0.015496325679123402
0.018527545034885406,0.0029459164943546057,-0.01463676430284977,0.01027938723564148,-0.00037751279887743294,0.015489802695810795
0.018153894692659378,0.0031699128448963165,-0.014334834180772305,0.010639452375471592,-0.0003669007564894855,0.0155078349635005
0.018463293090462685,0.0031777292024344206,-0.014744028449058533,0.01088635716587305,-0.000344469299307093,0.01509934850037098
0.018047615885734558,0.0030663178768008947,-0.014538269490003586,0.010618722066283226,-0.0003238643112126738,0.015493374317884445
0.018182998523116112,0.002792964456602931,-0.01484983041882515,0.011186216957867146,-0.0003055368724744767,0.015261325053870678
0.018733177334070206,0.002912737661972642,-0.014296699315309525,0.011262612417340279,-0.00033403700217604637,0.01544005423784256
0.018390260636806488,0.002995076822116971,-0.014619888737797737,0.010696111246943474,-0.0003199924831278622,0.015389850363135338
0.018207542598247528,0.003439234336838126,-0.014605602249503136,0.010930745862424374,-0.0003368344041518867,0.015618504025042057
0.01847589761018753,0.003277366515249014,-0.014826170168817043,0.01061040535569191,-0.0003314312198199332,0.015500067733228207
0.01820131577551365,0.002940010279417038,-0.014581375755369663,0.01096571795642376,-0.0003174759622197598,0.015394172631204128
0.01861647516489029,0.00295428978279233,-0.014936205931007862,0.010831343941390514,-0.00030472734943032265,0.015407033264636993
0.01850319653749466,0.002996396040543914,-0.0144264604896307,0.010506943799555302,-0.0003065128403250128,0.0154879754409194
0.017947597429156303,0.003495441284030676,-0.014044779352843761,0.011147454380989075,-0.0002883402048610151,0.015509680844843388
0.018643589690327644,0.0032911167945712805,-0.013702308759093285,0.011277878656983376,-0.0002710602420847863,0.015406530350446701
0.01846010610461235,0.003077037865296006,-0.014084230177104473,0.01116095669567585,-0.00029989267932251096,0.015789169818162918
0.018548348918557167,0.003082533832639456,-0.013785569928586483,0.011201190762221813,-0.000289843010250479,0.01584150828421116
0.018915506079792976,0.0032293940894305706,-0.01392257958650589,0.01052012573927641,-0.0002754499146249145,0.015278062783181667
0.018698127940297127,0.003289829706773162,-0.01351751945912838,0.011441167443990707,-0.0002834315237123519,0.015442066825926304
0.01913490705192089,0.0031612927559763193,-0.014622334390878677,0.010868271812796593,-0.0002786281402222812,0.016439717262983322
0.018666110932826996,0.0029432764276862144,-0.01467117015272379,0.011522545479238033,-0.00029994844226166606,0.016272278502583504
0.018693462014198303,0.0031853439286351204,-0.014279664494097233,0.011638452298939228,-0.0002923083084169775,0.016790682449936867
0.018698984757065773,0.0032837733160704374,-0.014895892702043056,0.011690965853631496,-0.00028118776390329003,0.016453390941023827
0.01870150864124298,0.0034621222876012325,-0.0143500417470932,0.011786382645368576,-0.00033859163522720337,0.016689565032720566
0.01870150864124298,0.0034621222876012325,-0.0143500417470932,0.011786382645368576,-0.00033859163522720337,0.016689565032720566
0.019280359148979187,0.0032734102569520473,-0.014709009788930416,0.011231125332415104,-0.00032449763966724277,0.016420520842075348
0.019640764221549034,0.0031377675477415323,-0.014644027687609196,0.011615687049925327,-0.0003557063464540988,0.015881381928920746
0.018906813114881516,0.0034069111570715904,-0.014782772399485111,0.01111784391105175,-0.00038230654899962246,0.015726467594504356
0.018961114808917046,0.0036962146405130625,-0.014555724337697029,0.011009660549461842,-0.0003731890465132892,0.016030389815568924
0.01876000314950943,0.003318958915770054,-0.01527855172753334,0.011667595244944096,-0.00039033996290527284,0.016925182193517685
0.01876026950776577,0.003268319880589843,-0.015071313828229904,0.01115870475769043,-0.00038136474904604256,0.01706579700112343
0.019316375255584717,0.0033095392864197493,-0.015079104341566563,0.011185015551745892,-0.000470029772259295,0.016964398324489594
0.01909114047884941,0.003468920011073351,-0.015786098316311836,0.011187718249857426,-0.0005663114716298878,0.016530841588974
0.0192429032176733,0.0033426275476813316,-0.015323198400437832,0.01126811746507883,-0.0005591390654444695,0.017391232773661613
0.01878909394145012,0.003366603748872876,-0.01574014313519001,0.012063398957252502,-0.0005506809102371335,0.01724782958626747
0.01903819665312767,0.0031859169248491526,-0.014852982014417648,0.011568766087293625,-0.0005406709969975054,0.01746007800102234
0.019387783482670784,0.003473717486485839,-0.015603987500071526,0.01221319381147623,-0.0005618186551146209,0.01758751831948757
0.02003641426563263,0.0032079308293759823,-0.01513207983225584,0.011879144236445427,-0.0005290695116855204,0.016949648037552834
0.01942264288663864,0.0033035557717084885,-0.015627669170498848,0.011660121381282806,-0.0006020101718604565,0.016751259565353394
0.019088134169578552,0.003379229921847582,-0.014912756159901619,0.011905200779438019,-0.0005468298913910985,0.016448907554149628
0.019151290878653526,0.0034142069052904844,-0.01569749414920807,0.011322684586048126,-0.0005354904569685459,0.016809755936264992
0.01880550943315029,0.003600512398406863,-0.014984010718762875,0.01129155419766903,-0.0005255328142084181,0.01724129542708397
0.019137797877192497,0.003367282450199127,-0.015905005857348442,0.011094817891716957,-0.000520173052791506,0.017236391082406044
0.019317910075187683,0.00357921258546412,-0.01563161239027977,0.011023802682757378,-0.0005131137440912426,0.01783759519457817
0.01953449659049511,0.003448300529271364,-0.015446419827640057,0.011386532336473465,-0.00047659006668254733,0.018154840916395187
0.019252821803092957,0.003441269975155592,-0.01575653627514839,0.011143351905047894,-0.0004739254654850811,0.017252640798687935
0.020087474957108498,0.0036386712454259396,-0.015645571053028107,0.011824161745607853,-0.00047107800492085516,0.01690077781677246
0.01980309933423996,0.003789146663621068,-0.016058769077062607,0.011981651186943054,-0.0004533163155429065,0.016683802008628845
0.019535141065716743,0.0038697270210832357,-0.016038857400417328,0.011355683207511902,-0.00042268139077350497,0.017366066575050354
0.019448362290859222,0.0038988778833299875,-0.016245972365140915,0.011445311829447746,-0.0003870737855322659,0.017973408102989197
0.019482601433992386,0.0038154690992087126,-0.016000375151634216,0.011268590576946735,-0.0003302596742287278,0.017623823136091232
0.01964537240564823,0.0037887203507125378,-0.015280326828360558,0.011523832567036152,-0.00030766340205445886,0.01727706380188465
0.020047923550009727,0.003820005338639021,-0.015725795179605484,0.010786434635519981,-0.00028796374681405723,0.01793729141354561
0.02012382075190544,0.003436304861679673,-0.015535656362771988,0.011605191975831985,-0.00032100247335620224,0.018115209415555
0.02012382075190544,0.003436304861679673,-0.015535656362771988,0.011605191975831985,-0.00032100247335620224,0.018115209415555
0.019971245899796486,0.003398693399503827,-0.015965983271598816,0.011632706969976425,-0.00030608740053139627,0.01780446618795395
0.020111823454499245,0.0035726292990148067,-0.016118956729769707,0.011583082377910614,-0.000289864867227152,0.01800602860748768
0.02039969712495804,0.0042993430979549885,-0.01581798493862152,0.011666961014270782,-0.00027510698419064283,0.017656562849879265
0.020157521590590477,0.003658176399767399,-0.01582867093384266,0.011290314607322216,-0.00028306961758062243,0.017419777810573578
0.020127056166529655,0.003394660074263811,-0.015543404035270214,0.012476576492190361,-0.00028981416835449636,0.01768271066248417
0.020063282921910286,0.003292287001386285,-0.015848398208618164,0.011398831382393837,-0.0002783023228403181,0.01771235279738903
0.019919786602258682,0.0034064266365021467,-0.01539646741002798,0.011173580773174763,-0.0002947507309727371,0.018103059381246567
0.019987965002655983,0.003624764969572425,-0.01605025678873062,0.011674356646835804,-0.00029167707543820143,0.018047388643026352
0.020197462290525436,0.0037091646809130907,-0.015493362210690975,0.011336625553667545,-0.0002808776334859431,0.0178056713193655
0.02004401944577694,0.0036710852291435003,-0.015860212966799736,0.011856692843139172,-0.0002703657955862582,0.017620017752051353
0.019991854205727577,0.0032735930290073156,-0.015638098120689392,0.011753368191421032,-0.0002501786802895367,0.017581161111593246
0.02051016315817833,0.003378521418198943,-0.015757618471980095,0.011739146895706654,-0.00023614366364199668,0.01799885742366314
0.02043089084327221,0.003236201824620366,-0.01656460575759411,0.01186785101890564,-0.0002243097551399842,0.018601467832922935
0.0201883465051651,0.003574274480342865,-0.01580294594168663,0.011318052187561989,-0.000250660115852952,0.018297722563147545
0.020186780020594597,0.003328637918457389,-0.01620684191584587,0.0122024305164814,-0.00024438570835627615,0.018201066181063652
0.02097199857234955,0.0033256225287914276,-0.015581117011606693,0.011922068893909454,-0.00027047935873270035,0.017877710983157158
0.0208127498626709,0.003352565225213766,-0.016193078830838203,0.012265762314200401,-0.0002616375277284533,0.017410846427083015
0.0207184087485075,0.0033976477570831776,-0.01570899598300457,0.01208918634802103,-0.0002689262037165463,0.01886153779923916
0.02118583209812641,0.0031789306085556746,-0.016129020601511,0.011873342096805573,-0.0002750527928583324,0.017981382086873055
0.021200327202677727,0.003411391982808709,-0.015384266152977943,0.011996472254395485,-0.00041566096479073167,0.01826929859817028
0.02055693231523037,0.0036672453861683607,-0.015808505937457085,0.011491633951663971,-0.0004252059734426439,0.018600082024931908
0.020753363147377968,0.0037581983488053083,-0.01630965992808342,0.011874835938215256,-0.0004488012637011707,0.017980167642235756
0.021336402744054794,0.0034763854928314686,-0.016243062913417816,0.011774909682571888,-0.0004309364885557443,0.01862204819917679
0.021616240963339806,0.00341002712957561,-0.016323652118444443,0.011507143266499043,-0.00045773948659189045,0.01906535215675831
0.021708190441131592,0.003173600882291794,-0.015351864509284496,0.01190030574798584,-0.00043411116348579526,0.01983710005879402
0.021571148186922073,0.0033010770566761494,-0.016237027943134308,0.011772779747843742,-0.00040659558726474643,0.019225815311074257
0.021332986652851105,0.003496761666610837,-0.016126856207847595,0.01213658694177866,-0.0004110884328838438,0.018877340480685234
0.02105715312063694,0.003442364279180765,-0.015953321009874344,0.012143738567829132,-0.00043178920168429613,0.0186223816126585
0.021750889718532562,0.0035392276477068663,-0.016016386449337006,0.012424339540302753,-0.00043285678839311004,0.018919654190540314
0.02248598076403141,0.0037026393692940474,-0.016021113842725754,0.012374954298138618,-0.0003973956045228988,0.019047217443585396
0.02248598076403141,0.0037026393692940474,-0.016021113842725754,0.012374954298138618,-0.0003973956045228988,0.019047217443585396
0.022106928750872612,0.003814720781520009,-0.016029655933380127,0.012434558011591434,-0.0004331597883719951,0.01997050642967224
0.021556537598371506,0.003804408712312579,-0.01608997955918312,0.012278292328119278,-0.00040508396341465414,0.019891250878572464
0.02227519452571869,0.0034414909314364195,-0.015918945893645287,0.012278087437152863,-0.00043135040323249996,0.0195483211427927
0.022491294890642166,0.0035054595209658146,-0.01639080047607422,0.012524847872555256,-0.0004106467531528324,0.01928420178592205
0.022570893168449402,0.0036888718605041504,-0.01647678017616272,0.012567653320729733,-0.0004265678580850363,0.019180411472916603
0.022114641964435577,0.0039047368336468935,-0.01681705005466938,0.012848650105297565,-0.00041471049189567566,0.019159216433763504
0.021598683670163155,0.003498230129480362,-0.016394909471273422,0.012595398351550102,-0.0003929059603251517,0.019669601693749428
0.021660681813955307,0.0035753739066421986,-0.016275819391012192,0.012651103548705578,-0.0004370326059870422,0.019619449973106384
0.021912716329097748,0.0036294558085501194,-0.016447855159640312,0.01222431380301714,-0.00046762771671637893,0.0190602857619524
0.022998904809355736,0.00363326957449317,-0.015890255570411682,0.012510839849710464,-0.00044798143790103495,0.019293036311864853
0.02279703877866268,0.0036143006291240454,-0.01687595807015896,0.012273533269762993,-0.000465570657979697,0.01941080018877983
0.02269052527844906,0.003612541127949953,-0.01686950773000717,0.011996613815426826,-0.00044827768579125404,0.019144395366311073
0.022865721955895424,0.003684865077957511,-0.017332648858428,0.012433541007339954,-0.0004194531647954136,0.019299378618597984
0.02283063717186451,0.003407655982300639,-0.017149174585938454,0.012405467219650745,-0.00039332039887085557,0.020979207009077072
0.022855451330542564,0.0034145384561270475,-0.016149010509252548,0.01285461150109768,-0.00041941768722608685,0.018841655924916267
0.02262304350733757,0.003556563751772046,-0.016879839822649956,0.012342902831733227,-0.0003993572317995131,0.018801935017108917
0.02276102639734745,0.004207630176097155,-0.01667632907629013,0.012612909078598022,-0.0004509504360612482,0.019375041127204895
0.022900404408574104,0.0036393655464053154,-0.017759257927536964,0.012545299716293812,-0.000461134419310838,0.0195632167160511
0.023031454533338547,0.0034227778669446707,-0.016559386625885963,0.01238470058888197,-0.0004594299534801394,0.019970370456576347
0.022798165678977966,0.0033221119083464146,-0.016502471640706062,0.01251235418021679,-0.00046002466115169227,0.019879279658198357
0.023144427686929703,0.00322327041067183,-0.017150655388832092,0.012280173599720001,-0.00045870436588302255,0.01957857236266136
0.023553520441055298,0.0034729030448943377,-0.01657482609152794,0.012313786894083023,-0.0004570320888888091,0.019553368911147118
0.023136397823691368,0.0036904073785990477,-0.01627121865749359,0.01247810572385788,-0.0005051579792052507,0.0196507778018713
0.023100947961211205,0.003828480141237378,-0.016795331612229347,0.012574122287333012,-0.0005176945705898106,0.019709745422005653
0.023181164637207985,0.0035594271030277014,-0.017553608864545822,0.012441598810255527,-0.0005553163355216384,0.020090915262699127
0.023171359673142433,0.0034716143272817135,-0.016952181234955788,0.012611784972250462,-0.0005498502869158983,0.020443156361579895
0.02388313226401806,0.003610010724514723,-0.017090419307351112,0.012384586967527866,-0.0005400990485213697,0.020101547241210938
0.02388313226401806,0.003610010724514723,-0.017090419307351112,0.012384586967527866,-0.0005400990485213697,0.020101547241210938
0.02421012707054615,0.0037158806808292866,-0.016212699934840202,0.012922251597046852,-0.0005342598888091743,0.020058225840330124
0.02375384420156479,0.0037246709689497948,-0.016617508605122566,0.012526684440672398,-0.0005268356180749834,0.020190512761473656
0.023407740518450737,0.003221970284357667,-0.01663951575756073,0.012915549799799919,-0.0004928329144604504,0.020124830305576324
0.023535853251814842,0.003274698741734028,-0.016883132979273796,0.01246822439134121,-0.0005248942761681974,0.020072603598237038
0.02366000786423683,0.003378363559022546,-0.016897553578019142,0.012493198737502098,-0.0005378648638725281,0.020307030528783798
0.02421158365905285,0.0035263688769191504,-0.016613703221082687,0.012558110989630222,-0.0005290661938488483,0.02020871266722679
0.02355036325752735,0.0037398014683276415,-0.017028171569108963,0.012564457021653652,-0.0005436075152829289,0.02011631242930889
0.02389640174806118,0.0038342864718288183,-0.016576504334807396,0.012900219298899174,-0.0005532618379220366,0.02048633061349392
0.024572249501943588,0.003443086752668023,-0.01682308316230774,0.01254515815526247,-0.0005452061304822564,0.020691348239779472
0.02394113875925541,0.0035215443931519985,-0.017019031569361687,0.013070394285023212,-0.0006442244630306959,0.02049926295876503
0.02430841326713562,0.003279587719589472,-0.016658343374729156,0.013265340588986874,-0.0006050197989679873,0.02076008729636669
0.023834558203816414,0.003463693195953965,-0.017130570486187935,0.013876945711672306,-0.0006140472833067179,0.02104860171675682
0.023594576865434647,0.003729394404217601,-0.016386639326810837,0.01322376448661089,-0.0005729084368795156,0.02229171060025692
0.025083119049668312,0.003810032270848751,-0.016736607998609543,0.013357946649193764,-0.0005193203105591238,0.02040984109044075
0.0245922040194273,0.003351176157593727,-0.016643807291984558,0.013087555766105652,-0.0005316612659953535,0.020022748038172722
0.023554783314466476,0.00340053578838706,-0.01676296815276146,0.012963064014911652,-0.0005067678284831345,0.020167071372270584
0.02448178455233574,0.003541039302945137,-0.016912231221795082,0.01290798932313919,-0.00047010101843625307,0.020175466313958168
0.024926070123910904,0.003548742737621069,-0.016493674367666245,0.012547721154987812,-0.00048346255789510906,0.020828332751989365
0.02506157010793686,0.003382570343092084,-0.017132943496108055,0.013052670285105705,-0.00046644589747302234,0.021384021267294884
0.024975530803203583,0.0034982990473508835,-0.016724681481719017,0.012329722754657269,-0.00043893494876101613,0.021175161004066467
0.02391044609248638,0.003820054931566119,-0.016916679218411446,0.013093503192067146,-0.0003992317651864141,0.0210892241448164
0.02376995049417019,0.003523328108713031,-0.0169964786618948,0.013019951060414314,-0.0003658971982076764,0.020306313410401344
0.024537554010748863,0.0032616101671010256,-0.01650877296924591,0.013204350136220455,-0.0003880031581502408,0.02046995796263218
0.025184039026498795,0.0036993378307670355,-0.016523392871022224,0.01270715519785881,-0.0003960699832532555,0.02095082774758339
0.02506515383720398,0.003958911169320345,-0.017047645524144173,0.013135180808603764,-0.0003854020906146616,0.021108971908688545
0.025035910308361053,0.003918240778148174,-0.016876954585313797,0.01278600376099348,-0.0004023354849778116,0.02097402699291706
0.024951579049229622,0.003392097307369113,-0.01671547070145607,0.013692949898540974,-0.00039245164953172207,0.021358130499720573
0.02502734400331974,0.0032419462222605944,-0.01705641858279705,0.013425695709884167,-0.0004982537939213216,0.021809479221701622
0.025083966553211212,0.0033711635041981936,-0.016864709556102753,0.013316619209945202,-0.000546266557648778,0.022135484963655472
0.025006456300616264,0.0036247503012418747,-0.017259951680898666,0.012698182836174965,-0.0005479247774928808,0.021498272195458412
0.025551965460181236,0.003518987912684679,-0.016785863786935806,0.013228449039161205,-0.0005387713317759335,0.020847957581281662
0.025551965460181236,0.003518987912684679,-0.016785863786935806,0.013228449039161205,-0.0005387713317759335,0.020847957581281662
0.02540520392358303,0.003558460623025894,-0.016589662060141563,0.012625194154679775,-0.0005600413423962891,0.02076401747763157
0.025573376566171646,0.003753364784643054,-0.016801845282316208,0.012870388105511665,-0.0005305627710185945,0.021146025508642197
0.025806056335568428,0.003955591004341841,-0.016815297305583954,0.012860714457929134,-0.0006542372284457088,0.021447613835334778
0.02567853406071663,0.003927829675376415,-0.017202958464622498,0.013097349554300308,-0.0006827262113802135,0.021650560200214386
0.025252031162381172,0.0034424166660755873,-0.016600478440523148,0.01331853773444891,-0.0006187714752741158,0.021774299442768097
0.02568000927567482,0.0034928058739751577,-0.017033353447914124,0.013191976584494114,-0.0006355993100441992,0.02161688543856144
0.025473518297076225,0.003718349616974592,-0.017155712470412254,0.013839206658303738,-0.0006276846979744732,0.02140558883547783
0.025454886257648468,0.003846373874694109,-0.016733461990952492,0.013306600973010063,-0.0006116953445598483,0.021289099007844925
0.02570333518087864,0.003386589465662837,-0.017369022592902184,0.013848266564309597,-0.0005713566788472235,0.022720903158187866
0.02617727592587471,0.0031165149994194508,-0.016660524532198906,0.013488760218024254,-0.000565017806366086,0.021232808008790016
0.025667313486337662,0.0032497928477823734,-0.01714617945253849,0.013793222606182098,-0.0005795394536107779,0.021036094054579735
0.025718212127685547,0.0036077641416341066,-0.017258919775485992,0.013399743475019932,-0.0005877856747247279,0.021358957514166832
0.026475967839360237,0.004265741910785437,-0.017021993175148964,0.014196936041116714,-0.0005750542040914297,0.021501384675502777
0.0259418785572052,0.00362730142660439,-0.018126852810382843,0.013750872574746609,-0.0005848504370078444,0.02164333127439022
0.025620002299547195,0.0034169203136116266,-0.016984455287456512,0.013984276913106441,-0.000556939106900245,0.021629847586154938
0.026022877544164658,0.0033702400978654623,-0.017505023628473282,0.013781493529677391,-0.0006228665006347001,0.022032836452126503
0.025653718039393425,0.003527529537677765,-0.0176325011998415,0.013711266219615936,-0.0006168144755065441,0.021954216063022614
0.025672459974884987,0.0034957837779074907,-0.016974451020359993,0.013351320289075375,-0.0005976412794552743,0.022053170949220657
0.024508517235517502,0.0035979629028588533,-0.01717226579785347,0.01379697397351265,-0.0006068622460588813,0.022062795236706734
0.026263494044542313,0.003816891461610794,-0.01654014177620411,0.01369807031005621,-0.0005722013884223998,0.02194637432694435
0.026612477377057076,0.0038532118778675795,-0.01719658263027668,0.01359605323523283,-0.0005521007697097957,0.022327102720737457
0.026653572916984558,0.0036259163171052933,-0.01698826625943184,0.013847103342413902,-0.0005702220951206982,0.022157739847898483
0.026156378909945488,0.0034423228353261948,-0.017718391492962837,0.013912050053477287,-0.0005251144175417721,0.022115064784884453
0.025253109633922577,0.003532598726451397,-0.016990622505545616,0.013817697763442993,-0.000552512938156724,0.02247324027121067
0.025253109633922577,0.003532598726451397,-0.016990622505545616,0.013817697763442993,-0.000552512938156724,0.02247324027121067
0.025988154113292694,0.0037215331103652716,-0.017854219302535057,0.013778544962406158,-0.0005523890722543001,0.022812655195593834
0.026569493114948273,0.0038657761178910732,-0.01774596981704235,0.013591120019555092,-0.0005427079740911722,0.022524984553456306
0.025579974055290222,0.003906603436917067,-0.017451860010623932,0.014197529293596745,-0.0005545614403672516,0.02203245460987091
0.026344526559114456,0.0038868142291903496,-0.01820923015475273,0.013573848642408848,-0.0005301976343616843,0.021451879292726517
0.027186889201402664,0.0037842565216124058,-0.017306402325630188,0.013669452629983425,-0.0005494268261827528,0.021454155445098877
0.026533901691436768,0.003789259120821953,-0.019253015518188477,0.013089720159769058,-0.0006159482873044908,0.021908381953835487
0.026599213480949402,0.003833332797512412,-0.01755090057849884,0.013832949101924896,-0.0006481580203399062,0.022949066013097763
0.026320243254303932,0.003824318293482065,-0.01720162108540535,0.013892021961510181,-0.0006089291418902576,0.022498060017824173
0.02591422200202942,0.003906264901161194,-0.01794089935719967,0.01429999154061079,-0.0006304467096924782,0.02219889871776104
0.026906901970505714,0.0034624224063009024,-0.01739981397986412,0.014017919078469276,-0.0007829067762941122,0.022409657016396523
0.027001595124602318,0.00355288153514266,-0.017662713304162025,0.01424870640039444,-0.0007259689155034721,0.022935984656214714
0.026452690362930298,0.004218580201268196,-0.018213948234915733,0.013379250653088093,-0.0007451300625689328,0.022079793736338615
0.02639329619705677,0.004209909588098526,-0.017538171261548996,0.013644715771079063,-0.0007143781986087561,0.02173691615462303
0.026893094182014465,0.004002732690423727,-0.017714394256472588,0.01401662826538086,-0.0006842381553724408,0.021623115986585617
0.026807954534888268,0.0038768111262470484,-0.017308074980974197,0.014127271249890327,-0.0007021314813755453,0.02207617647945881
0.026590583845973015,0.0033754073083400726,-0.017465025186538696,0.013673730194568634,-0.0006447640480473638,0.021375780925154686
0.026543637737631798,0.003531654831022024,-0.018002992495894432,0.013608823530375957,-0.0005920557305216789,0.02244523912668228
0.02702116034924984,0.003783653024584055,-0.01751706935465336,0.013802723959088326,-0.0005470553296618164,0.02299559861421585
0.026510417461395264,0.0034091691486537457,-0.01820928417146206,0.013977971859276295,-0.0004862479108851403,0.022884132340550423
0.026877386495471,0.00390228652395308,-0.01821492239832878,0.014369024895131588,-0.00043762766290456057,0.022731760516762733
0.02697012387216091,0.004218967165797949,-0.017806176096200943,0.014186776243150234,-0.00045713590225204825,0.022529516369104385
0.026713185012340546,0.004120614379644394,-0.018000097945332527,0.013978075236082077,-0.000438084767665714,0.022927936166524887
0.025543127208948135,0.0035172223579138517,-0.01802656054496765,0.014170195907354355,-0.00040848544449545443,0.023176293820142746
0.027631450444459915,0.0035721957683563232,-0.018289832398295403,0.014317449182271957,-0.0004099283250980079,0.023078743368387222
0.02739587612450123,0.0042381808161735535,-0.01786712184548378,0.014160549268126488,-0.0004272804653737694,0.023220621049404144
0.0272746030241251,0.004181321244686842,-0.018441682681441307,0.014611726626753807,-0.0004154510097578168,0.02319691888988018
0.026980001479387283,0.004018428269773722,-0.01809878647327423,0.014783479273319244,-0.00042786329868249595,0.023663902655243874
0.027024991810321808,0.004013861529529095,-0.017597215250134468,0.014978148974478245,-0.0004218592948745936,0.023466411978006363
0.026943815872073174,0.004004335030913353,-0.01805027574300766,0.014838733710348606,-0.00045975836110301316,0.023567993193864822
0.028094448149204254,0.0043771411292254925,-0.017575664445757866,0.014399242587387562,-0.00048054111539386213,0.023773953318595886
0.028094448149204254,0.0043771411292254925,-0.017575664445757866,0.014399242587387562,-0.00048054111539386213,0.023773953318595886
0.0277246106415987,0.004161070566624403,-0.01799430511891842,0.013969442807137966,-0.000461873656604439,0.0237681083381176
0.0277246106415987,0.004161070566624403,-0.01799430511891842,0.013969442807137966,-0.000461873656604439,0.0237681083381176
0.0277246106415987,0.004161070566624403,-0.01799430511891842,0.013969442807137966,-0.000461873656604439,0.0237681083381176
0.0277246106415987,0.004161070566624403,-0.01799430511891842,0.013969442807137966,-0.000461873656604439,0.0237681083381176
0.02816673554480076,0.003498269710689783,-0.01842433027923107,0.013912249356508255,-0.0004886286915279925,0.02367883361876011
0.027618829160928726,0.00381654966622591,-0.01733669638633728,0.014827923849225044,-0.0006843378650955856,0.023809555917978287
0.028556955978274345,0.0041640340350568295,-0.017943380400538445,0.014637219719588757,-0.0006493101245723665,0.023766761645674706
0.028556955978274345,0.0041640340350568295,-0.017943380400538445,0.014637219719588757,-0.0006493101245723665,0.023766761645674706
0.028556955978274345,0.0041640340350568295,-0.017943380400538445,0.014637219719588757,-0.0006493101245723665,0.023766761645674706
0.028556955978274345,0.0041640340350568295,-0.017943380400538445,0.014637219719588757,-0.0006493101245723665,0.023766761645674706
0.028556955978274345,0.0041640340350568295,-0.017943380400538445,0.014637219719588757,-0.0006493101245723665,0.023766761645674706
0.02824881114065647,0.004135376773774624,-0.018178146332502365,0.01566433161497116,-0.0007503810338675976,0.024051500484347343
0.02824881114065647,0.004135376773774624,-0.018178146332502365,0.01566433161497116,-0.0007503810338675976,0.024051500484347343
0.029050545766949654,0.0041168248280882835,-0.01842919923365116,0.015449323691427708,-0.0006999991601333022,0.02417360432446003
0.028950901702046394,0.0042864312417805195,-0.018380194902420044,0.015064042061567307,-0.0006579136825166643,0.02423410303890705
0.02896515652537346,0.004370237234979868,-0.018079809844493866,0.015542237088084221,-0.0006298953667283058,0.024552052840590477
0.028777919709682465,0.0039622588083148,-0.018013594672083855,0.014375117607414722,-0.0006077901925891638,0.024177057668566704
0.029035761952400208,0.0038217920809984207,-0.018574554473161697,0.014603178016841412,-0.0005931858322583139,0.024485593661665916
0.02791448123753071,0.0038828705437481403,-0.018455974757671356,0.014610318467020988,-0.0005785616231150925,0.02499210461974144
0.029279332607984543,0.004019957035779953,-0.01813158206641674,0.01520625688135624,-0.0005690359394066036,0.023990841582417488
0.029425818473100662,0.00351134454831481,-0.018514810130000114,0.014847403392195702,-0.0005584864411503077,0.02347990870475769
0.029216092079877853,0.004205341450870037,-0.01832081750035286,0.015152259729802608,-0.0005220086313784122,0.024546386674046516
0.029416311532258987,0.004614066332578659,-0.019510190933942795,0.01481288019567728,-0.0005396693595685065,0.02567695453763008
0.029238006100058556,0.004317613784223795,-0.018877163529396057,0.015282949432730675,-0.0005100327543914318,0.02503889426589012
0.029407085850834846,0.003508118912577629,-0.019195711240172386,0.01544023398309946,-0.0005004268023185432,0.023751894012093544
0.0297682024538517,0.0037271492183208466,-0.01876983977854252,0.015149081125855446,-0.0005263647763058543,0.02523687481880188
0.02930452860891819,0.003885919228196144,-0.01839071698486805,0.014957292005419731,-0.0005902437842451036,0.025121288374066353
0.02930452860891819,0.003885919228196144,-0.01839071698486805,0.014957292005419731,-0.0005902437842451036,0.025121288374066353
0.030102187767624855,0.0034552114084362984,-0.019559310749173164,0.014572488144040108,-0.0006403804291039705,0.0247550867497921
0.029649460688233376,0.004173687659204006,-0.01868297904729843,0.014536102302372456,-0.0006458875723183155,0.0261735450476408
0.029896074905991554,0.003993758000433445,-0.018721574917435646,0.014893409796059132,-0.000605519104283303,0.02538563869893551
0.029896074905991554,0.003993758000433445,-0.018721574917435646,0.014893409796059132,-0.000605519104283303,0.02538563869893551
0.030234549194574356,0.0037505130749195814,-0.0185328908264637,0.015122279524803162,-0.0006218445487320423,0.024249732494354248
0.030137883499264717,0.0032958011142909527,-0.018298115581274033,0.015031162649393082,-0.0005809918511658907,0.024059129878878593
0.03037923574447632,0.003263476537540555,-0.018968552350997925,0.014665348455309868,-0.0006146901869215071,0.025036120787262917
0.030536500737071037,0.003442463232204318,-0.019126171246170998,0.014811898581683636,-0.0005531584029085934,0.02575520984828472
0.0310226958245039,0.003588354215025902,-0.01878073811531067,0.01492282934486866,-0.0005407184362411499,0.025883806869387627
0.0309177003800869,0.00350359408184886,-0.019180862233042717,0.015037170611321926,-0.0005301440833136439,0.02563399448990822
0.03067224659025669,0.003403369104489684,-0.01874607801437378,0.015602624043822289,-0.00048525299644097686,0.02500830590724945
0.030911607667803764,0.0037477577570825815,-0.018427858129143715,0.015220150351524353,-0.0005093834479339421,0.02482442557811737
0.032084062695503235,0.0038727198261767626,-0.01893455721437931,0.01542071532458067,-0.00047932477900758386,0.02514604479074478
0.03165232762694359,0.0036013664212077856,-0.01875968649983406,0.015061751008033752,-0.0005051800981163979,0.024961818009614944
0.02859295904636383,0.0035161389969289303,-0.01913347840309143,0.015558542683720589,-0.0004756897978950292,0.025563599541783333
0.030958354473114014,0.003275701543316245,-0.019118769094347954,0.014803600497543812,-0.00046490368549712,0.025496304035186768
0.03170092776417732,0.0034564039669930935,-0.01856967993080616,0.015192827209830284,-0.0004287014016881585,0.025214657187461853
0.030667563900351524,0.0036775716580450535,-0.01911236345767975,0.014918888919055462,-0.00045940926065668464,0.02555841952562332
0.031215762719511986,0.0037702671252191067,-0.01882670633494854,0.015593979507684708,-0.00043186492985114455,0.025559360161423683
0.032558951526880264,0.004141062963753939,-0.01914159208536148,0.0153912752866745,-0.00043433476821519434,0.025541843846440315
0.03087335079908371,0.003662670496851206,-0.019617900252342224,0.015163990668952465,-0.0004608516755979508,0.025504544377326965
0.031091591343283653,0.0034912689588963985,-0.01844361238181591,0.015231146477162838,-0.0004366149369161576,0.025329124182462692
0.03234340623021126,0.0036233728751540184,-0.018731772899627686,0.015196646563708782,-0.0005256902659311891,0.025729259476065636
0.032081685960292816,0.0037346044555306435,-0.018755024299025536,0.015465271659195423,-0.00047892058501020074,0.025755122303962708
0.03176164627075195,0.003742251079529524,-0.018213406205177307,0.015199687331914902,-0.0004751146479975432,0.025727592408657074
0.03216332569718361,0.0037155780009925365,-0.01861944980919361,0.015010839328169823,-0.00047139532398432493,0.0256104227155447
0.03190268203616142,0.004168852232396603,-0.018504740670323372,0.01519841980189085,-0.000435802765423432,0.02544749528169632
0.03231310099363327,0.0041531589813530445,-0.01870892010629177,0.015097850933670998,-0.0004359839658718556,0.025863368064165115
0.03220793604850769,0.003963034134358168,-0.01911884918808937,0.015566599555313587,-0.000435628870036453,0.026194987818598747
0.03220793604850769,0.003963034134358168,-0.01911884918808937,0.015566599555313587,-0.000435628870036453,0.026194987818598747
0.032364364713430405,0.0038088075816631317,-0.018699197098612785,0.015224589966237545,-0.00040927043301053345,0.026087388396263123
0.03210296481847763,0.0036932784132659435,-0.018439793959259987,0.015670452266931534,-0.0004111346206627786,0.02536408230662346
0.03248659521341324,0.0037267496809363365,-0.01884770393371582,0.015269213356077671,-0.0004122187092434615,0.02486838959157467
0.032138507813215256,0.003780696541070938,-0.018381386995315552,0.01589014194905758,-0.00041338009759783745,0.025616461411118507
0.03231430426239967,0.0036775434855371714,-0.018439268693327904,0.015512067824602127,-0.00043897322029806674,0.02647917903959751
0.032124973833560944,0.003586801467463374,-0.01912504993379116,0.015932142734527588,-0.0004565199778880924,0.026286285370588303
0.03224089741706848,0.003938575275242329,-0.018837405368685722,0.015793858096003532,-0.0004558370274025947,0.026571236550807953
0.03163378685712814,0.004076371900737286,-0.018804160878062248,0.016043493524193764,-0.000483798939967528,0.026809612289071083
0.033394891768693924,0.004342413507401943,-0.018791470676660538,0.015807081013917923,-0.00046015458065085113,0.026554083451628685
0.03414684161543846,0.004128465428948402,-0.01877772994339466,0.015914911404252052,-0.0006663264939561486,0.025853822007775307
0.03279761224985123,0.003959461115300655,-0.019249241799116135,0.016329903155565262,-0.000698466319590807,0.025308920070528984
0.03109903633594513,0.00393691286444664,-0.019933082163333893,0.016440175473690033,-0.0006316577782854438,0.0256545040756464
0.03192881867289543,0.00395536283031106,-0.018751945346593857,0.01699640043079853,-0.0006537978770211339,0.02682953141629696
0.033030666410923004,0.0038897590711712837,-0.019421888515353203,0.01648338884115219,-0.0005974990781396627,0.026963720098137856
0.03372522443532944,0.0038741680327802896,-0.018477685749530792,0.01602260023355484,-0.0005738834734074771,0.026307161897420883
0.033593758940696716,0.004423203412443399,-0.018887776881456375,0.015473559498786926,-0.0005580183933489025,0.026518041267991066
0.03340514749288559,0.004179586656391621,-0.01982889324426651,0.015709517523646355,-0.0005881477263756096,0.02695884369313717
0.03232276439666748,0.003546089166775346,-0.019451064988970757,0.015596154145896435,-0.0006189611740410328,0.027091847732663155
0.0325494259595871,0.0035342785995453596,-0.018967168405652046,0.016354819759726524,-0.000644588959403336,0.026774054393172264
0.033197272568941116,0.004360836930572987,-0.01969563402235508,0.018061362206935883,-0.0007682329160161316,0.027063271030783653
0.033721838146448135,0.0041546570137143135,-0.019094837829470634,0.01680034212768078,-0.0008647573413327336,0.027155578136444092
0.03369689732789993,0.00433554919436574,-0.019653797149658203,0.01611274480819702,-0.0008105889428406954,0.027478821575641632
0.03369689732789993,0.00433554919436574,-0.019653797149658203,0.01611274480819702,-0.0008105889428406954,0.027478821575641632
0.03334049507975578,0.004160640761256218,-0.019560158252716064,0.016217224299907684,-0.0008102048886939883,0.027227016165852547
0.032793305814266205,0.0035525585990399122,-0.019200371578335762,0.01596689410507679,-0.0007802126929163933,0.02833482064306736
0.033199284225702286,0.003615554654970765,-0.018930556252598763,0.01610671356320381,-0.0007450556149706244,0.02695159614086151
0.033335525542497635,0.003782806918025017,-0.019103100523352623,0.016359830275177956,-0.0007139621302485466,0.02694128453731537
0.03376832231879234,0.004309286363422871,-0.019049108028411865,0.015494531020522118,-0.0007309615612030029,0.027526892721652985
0.034001246094703674,0.004218127578496933,-0.019420763477683067,0.016033438965678215,-0.0007093963213264942,0.027613399550318718
0.03428966552019119,0.003933389205485582,-0.02085205167531967,0.015543170273303986,-0.0006804431322962046,0.027737874537706375
0.03401392698287964,0.003794536693021655,-0.01999172382056713,0.015977149829268456,-0.0006927381618879735,0.027524957433342934
0.0339539535343647,0.0038593553472310305,-0.019451187923550606,0.016195576637983322,-0.000641469843685627,0.02758020907640457
0.034393858164548874,0.004129454027861357,-0.019641438499093056,0.016995636746287346,-0.0006499062292277813,0.027465414255857468
0.034308888018131256,0.0039415317587554455,-0.02005491591989994,0.017488926649093628,-0.0005878469091840088,0.027574284002184868
0.033972520381212234,0.003736219834536314,-0.01951070874929428,0.016847830265760422,-0.0006176908500492573,0.02741874009370804
0.03443913906812668,0.004301716107875109,-0.019885238260030746,0.016495564952492714,-0.0006281935493461788,0.02748055011034012
0.03446310758590698,0.004211523104459047,-0.01993386261165142,0.015868186950683594,-0.0006314488709904253,0.027542615309357643
0.03418973088264465,0.004369760863482952,-0.01959153637290001,0.01627788133919239,-0.0006157284951768816,0.02760138362646103
0.03496810793876648,0.004525238182395697,-0.020268891006708145,0.016427749767899513,-0.0006576066953130066,0.027604669332504272
0.0351974219083786,0.004257164429873228,-0.019711634144186974,0.01636907085776329,-0.0006333781639114022,0.027627963572740555
0.035253532230854034,0.0042462898418307304,-0.019933762028813362,0.016376787796616554,-0.0006393152289092541,0.02835301123559475
0.03537639230489731,0.004676230251789093,-0.020102137699723244,0.01630316860973835,-0.0005999202840030193,0.028551554307341576
0.03510269522666931,0.00429052859544754,-0.019426586106419563,0.015792451798915863,-0.0006166050443425775,0.028082897886633873
0.03510269522666931,0.00429052859544754,-0.019426586106419563,0.015792451798915863,-0.0006166050443425775,0.028082897886633873
0.03500337526202202,0.003976649139076471,-0.019671287387609482,0.016433939337730408,-0.0005764817469753325,0.026898354291915894
0.03558332473039627,0.0043858750723302364,-0.02016584388911724,0.01632692478597164,-0.000581516360398382,0.026965124532580376
0.03635333850979805,0.004184256307780743,-0.019846774637699127,0.016649417579174042,-0.0005818958161398768,0.02796422317624092
0.035416118800640106,0.004405132494866848,-0.019701382145285606,0.016699397936463356,-0.0005674176500178874,0.02812301553785801
0.03430718556046486,0.0041487133130431175,-0.020116975530982018,0.016712481155991554,-0.0005902799312025309,0.02788373827934265
0.03570246323943138,0.004163283389061689,-0.01978808268904686,0.01689215935766697,-0.0006066148052923381,0.029111653566360474
0.03534708544611931,0.004061771556735039,-0.019383233040571213,0.016826435923576355,-0.0005802200175821781,0.02872280590236187
0.03655407577753067,0.0038396145682781935,-0.019968543201684952,0.01713317260146141,-0.0006809631595388055,0.026677513495087624
0.03594379499554634,0.0037742212880402803,-0.019853565841913223,0.01654805801808834,-0.0007137159118428826,0.02795557491481304
0.03498028591275215,0.0043726712465286255,-0.01938728243112564,0.016477754339575768,-0.0007287162006832659,0.028616899624466896
0.03468858078122139,0.004811059683561325,-0.02013339474797249,0.017200643196702003,-0.000734051107428968,0.02897334285080433
0.03552741929888725,0.004242471419274807,-0.020288705825805664,0.016675420105457306,-0.0007857902091927826,0.02853528968989849
0.03644753620028496,0.004376649856567383,-0.01957523077726364,0.01691076159477234,-0.0008657408179715276,0.028327694162726402
0.035120729357004166,0.0041350023820996284,-0.019921844825148582,0.01646324433386326,-0.0007802913314662874,0.028483204543590546
0.0362720713019371,0.004093848634511232,-0.020178256556391716,0.017248261719942093,-0.0007893515285104513,0.028229165822267532
0.03617312014102936,0.004095020238310099,-0.019427575170993805,0.017033830285072327,-0.0007945080869831145,0.02825525403022766
0.03560742735862732,0.003992717247456312,-0.019596876576542854,0.016618914902210236,-0.0007264675805345178,0.028138887137174606
0.03614358976483345,0.004314134828746319,-0.02036726288497448,0.016988378018140793,-0.00071762251900509,0.028664259240031242
0.03555437922477722,0.004315224941819906,-0.020248914137482643,0.0166375283151865,-0.0006577352178283036,0.028450611978769302
0.03555437922477722,0.004315224941819906,-0.020248914137482643,0.0166375283151865,-0.0006577352178283036,0.028450611978769302
0.03605126217007637,0.00436812499538064,-0.020129289478063583,0.016512101516127586,-0.0006163054495118558,0.028403600677847862
0.0358537957072258,0.004107790067791939,-0.019750362262129784,0.016551842913031578,-0.0006307534640654922,0.028687268495559692
0.03542085736989975,0.004364860709756613,-0.020578628405928612,0.01666864939033985,-0.0006005475297570229,0.028694497421383858
0.03542085736989975,0.004364860709756613,-0.020578628405928612,0.01666864939033985,-0.0006005475297570229,0.028694497421383858
0.037195779383182526,0.004519008565694094,-0.020820556208491325,0.0166437067091465,-0.0006357978563755751,0.02890070341527462
0.037195779383182526,0.004519008565694094,-0.020820556208491325,0.0166437067091465,-0.0006357978563755751,0.02890070341527462
0.03475048393011093,0.004775350447744131,-0.01992630772292614,0.017059054225683212,-0.0006510948878712952,0.029117489233613014
0.03601362556219101,0.00458448426797986,-0.020956875756382942,0.01771550439298153,-0.000652652292046696,0.029006296768784523
0.0367121696472168,0.004275080282241106,-0.02143872156739235,0.016998976469039917,-0.0006408909684978426,0.028758006170392036
0.036433566361665726,0.004478092305362225,-0.020811056718230247,0.016968436539173126,-0.0008236312423832715,0.028620880097150803
0.03732666000723839,0.0046591972932219505,-0.020202986896038055,0.016946304589509964,-0.0007818484446033835,0.029449671506881714
0.03746073320508003,0.004961006809026003,-0.0209098681807518,0.017638077959418297,-0.0007932878215797246,0.030371077358722687
0.03586180508136749,0.004752254579216242,-0.02123432792723179,0.017514610663056374,-0.0008050465839914978,0.029752759262919426
0.03638457879424095,0.004669132176786661,-0.020465653389692307,0.016999930143356323,-0.0008052079938352108,0.02866630256175995
0.03742850944399834,0.00474968645721674,-0.020659837871789932,0.01773620769381523,-0.0007494766032323241,0.02854830026626587
0.0376388281583786,0.004422291647642851,-0.0213672686368227,0.017550604417920113,-0.0007573432521894574,0.0296549741178751
0.03718636929988861,0.004556027241051197,-0.021387692540884018,0.018430987372994423,-0.0007596588111482561,0.029299968853592873
0.03699491545557976,0.004216305445879698,-0.02092413604259491,0.01830492913722992,-0.0007492982549592853,0.029641034081578255
0.037382543087005615,0.00433444743975997,-0.021229026839137077,0.017227280884981155,-0.0007229376351460814,0.03083259053528309
0.03743617981672287,0.004674995318055153,-0.02096528187394142,0.01802169531583786,-0.0008037423249334097,0.030384020879864693
0.0374571718275547,0.004739957395941019,-0.020858049392700195,0.01767137460410595,-0.0008528342586942017,0.029837897047400475
0.03747372701764107,0.004652933683246374,-0.02117672748863697,0.017336079850792885,-0.0008844186668284237,0.02931174449622631
0.037172578275203705,0.004134633578360081,-0.021545330062508583,0.017789451405405998,-0.0013012423878535628,0.030133133754134178
0.03758738189935684,0.003449969459325075,-0.021631956100463867,0.017412610352039337,-0.0012465587351471186,0.031231753528118134
0.03783312067389488,0.0035767743829637766,-0.02094792202115059,0.018297847360372543,-0.001077549415640533,0.03067643567919731
0.03799455240368843,0.004320403560996056,-0.021118076518177986,0.018299473449587822,-0.0010348510695621371,0.030403897166252136
0.03658207505941391,0.0042760479263961315,-0.021917803213000298,0.0180433951318264,-0.0007820060127414763,0.030458014458417892
0.038897089660167694,0.004009467549622059,-0.021625379100441933,0.017479563131928444,-0.000730368890799582,0.030395403504371643
0.03884511813521385,0.004214887041598558,-0.0216821301728487,0.017530271783471107,-0.0006923264008946717,0.030748996883630753
0.0379178486764431,0.004056925419718027,-0.021789250895380974,0.017651742324233055,-0.000712042092345655,0.030718792229890823
0.038517240434885025,0.004359304439276457,-0.0220884308218956,0.01728140190243721,-0.0007310298969969153,0.030622709542512894
0.038517240434885025,0.004359304439276457,-0.0220884308218956,0.01728140190243721,-0.0007310298969969153,0.030622709542512894
0.03858292102813721,0.004317859653383493,-0.021815761923789978,0.018010759726166725,-0.0007345570484176278,0.030581418424844742
0.038549985736608505,0.003997401334345341,-0.02190762758255005,0.018121523782610893,-0.0007622241391800344,0.030503928661346436
0.03906510770320892,0.004173877649009228,-0.021932771429419518,0.017899157479405403,-0.000757367059122771,0.030840270221233368
0.03871527314186096,0.004256844986230135,-0.021955043077468872,0.018010182306170464,-0.0006988162058405578,0.031048767268657684
0.03885563090443611,0.003991283476352692,-0.02143448404967785,0.018223579972982407,-0.000714008929207921,0.031228773295879364
0.03860495984554291,0.0038022303488105536,-0.021882204338908195,0.018403101712465286,-0.0007515254546888173,0.03160075098276138
0.039267685264348984,0.003981331828981638,-0.022285645827651024,0.018391354009509087,-0.0007907511899247766,0.03186200559139252
0.040184177458286285,0.004059219267219305,-0.022176947444677353,0.017835473641753197,-0.0007908415864221752,0.03148158639669418
0.03865962103009224,0.004370932467281818,-0.021929476410150528,0.018443245440721512,-0.0008161256555467844,0.03177022188901901
0.03776690363883972,0.004170386586338282,-0.021443761885166168,0.01847107894718647,-0.0009244063985534012,0.03158741816878319
0.03909633308649063,0.003973724786192179,-0.022050045430660248,0.01800645887851715,-0.0010505496757104993,0.03143532946705818
0.03941027820110321,0.004319303203374147,-0.022259194403886795,0.01831413060426712,-0.000969971006270498,0.03086933307349682
0.04037245362997055,0.004132160451263189,-0.02221721224486828,0.01780705899000168,-0.0009326048311777413,0.03175448998808861
0.04064502939581871,0.004008712247014046,-0.021474523469805717,0.01820482686161995,-0.0008494045468978584,0.03170355409383774
0.03845135122537613,0.003954219166189432,-0.02199650928378105,0.018632149323821068,-0.000761226867325604,0.03261281177401543
0.039319928735494614,0.0043713427148759365,-0.022159390151500702,0.018178097903728485,-0.0006911524687893689,0.033135827630758286
0.04015666991472244,0.0043298290111124516,-0.02259361557662487,0.018404467031359673,-0.0006613648729398847,0.03163604065775871
0.039899855852127075,0.00434216670691967,-0.022194623947143555,0.018762465566396713,-0.0006348797469399869,0.030748706310987473
0.040070462971925735,0.004401686135679483,-0.02216385304927826,0.018910154700279236,-0.0006592836580239236,0.031227711588144302
0.039862945675849915,0.004551281221210957,-0.02194628305733204,0.01993115432560444,-0.000682061247061938,0.03188900277018547
0.03974353149533272,0.004630037117749453,-0.021743912249803543,0.0181166660040617,-0.0007677447283640504,0.03177068009972572
0.03967318311333656,0.004456439986824989,-0.023261724039912224,0.018727237358689308,-0.0008977343095466495,0.032878343015909195
0.040039148181676865,0.004900687839835882,-0.021477526053786278,0.018823621794581413,-0.0008575925603508949,0.03216458484530449
0.03960448130965233,0.004483471624553204,-0.021788591518998146,0.018788723275065422,-0.0009901713347062469,0.031202901154756546
0.04017098993062973,0.004516466986387968,-0.022470606490969658,0.019286511465907097,-0.0009699319489300251,0.03192571923136711
0.04017098993062973,0.004516466986387968,-0.022470606490969658,0.019286511465907097,-0.0009699319489300251,0.03192571923136711
0.04111680015921593,0.00423769373446703,-0.023104092106223106,0.01904856041073799,-0.0009054701076820493,0.032707881182432175
0.03937811031937599,0.004309521988034248,-0.02218056283891201,0.018829669803380966,-0.000843467831145972,0.03290783241391182
0.038917943835258484,0.004715555347502232,-0.02262777090072632,0.01933368109166622,-0.0008460265817120671,0.03252949193120003
0.03978641331195831,0.004668581299483776,-0.022623678669333458,0.018978817388415337,-0.0007629555184394121,0.03241412714123726
0.04001612216234207,0.004873538389801979,-0.021776780486106873,0.018409956246614456,-0.0006580910412594676,0.032089050859212875
0.04181620106101036,0.004645211156457663,-0.02217843011021614,0.018679192289710045,-0.0005729059921577573,0.03266902267932892
0.040034979581832886,0.00441981153562665,-0.02311038412153721,0.018835825845599174,-0.0006021240842528641,0.032547175884246826
0.038603462278842926,0.0043944246135652065,-0.022746091708540916,0.019088517874479294,-0.0006256901542656124,0.03244178369641304
0.040930356830358505,0.004503744188696146,-0.0223618783056736,0.019165191799402237,-0.0006505289347842336,0.03247987478971481
0.040962107479572296,0.00459560239687562,-0.022238539531826973,0.019316645339131355,-0.0007652536150999367,0.03300090506672859
0.040901657193899155,0.004597341641783714,-0.022603999823331833,0.019849127158522606,-0.0008031571633182466,0.033383164554834366
0.04046962782740593,0.0051592616364359856,-0.02311691641807556,0.02039310708642006,-0.0008089057519100606,0.032137468457221985
0.040456488728523254,0.005032069515436888,-0.02289268933236599,0.019751781597733498,-0.0007794405682943761,0.0337742380797863
0.041171055287122726,0.004349433351308107,-0.022115379571914673,0.019173840060830116,-0.0007476820610463619,0.03371366485953331
0.0413532629609108,0.003995017614215612,-0.022219473496079445,0.01911754161119461,-0.0008725532679818571,0.03353245556354523
0.041136305779218674,0.004304966889321804,-0.022863714024424553,0.019190318882465363,-0.0008835010812617838,0.03367657586932182
0.04107572138309479,0.004908530507236719,-0.02316253073513508,0.019366439431905746,-0.0008293769205920398,0.033944323658943176
0.041792236268520355,0.005001863464713097,-0.022766128182411194,0.020335542038083076,-0.0008266953518614173,0.03369840607047081
0.041696492582559586,0.0051240804605185986,-0.022359315305948257,0.020092282444238663,-0.0008279625326395035,0.03334144875407219
0.041531141847372055,0.004830138757824898,-0.02263448014855385,0.019186794757843018,-0.0007677070680074394,0.03492273762822151
0.04196486994624138,0.004846769850701094,-0.022830944508314133,0.01983248069882393,-0.0007821301696822047,0.034954749047756195
0.04189930483698845,0.005174180027097464,-0.02227165363729,0.020184209570288658,-0.0008211100357584655,0.0325176827609539
0.042320381850004196,0.005176970269531012,-0.02205641008913517,0.019861306995153427,-0.0010115106124430895,0.033916473388671875
