davideferrari95/blind_handover_controller/data/Test 81 - [2024-02-07 -- 16-05-40]/joint_states_data.csv
shoulder_pan_joint,shoulder_lift_joint,elbow_joint,wrist_1_joint,wrist_2_joint,wrist_3_joint
0.005104464013129473,0.007599369157105684,-0.005787561647593975,0.0012569315731525421,-8.88377835508436e-05,0.005548329558223486
0.005104464013129473,0.007599369157105684,-0.005787561647593975,0.0012569315731525421,-8.88377835508436e-05,0.005548329558223486
0.004469238221645355,0.008104554377496243,-0.005996885243803263,0.0018338683294132352,-8.775539026828483e-05,0.0051226019859313965
0.0044571408070623875,0.007651496212929487,-0.006727518048137426,0.002203482436016202,-8.669879025546834e-05,0.004765354096889496
0.004420711658895016,0.007575864903628826,-0.0066419802606105804,0.002470232080668211,-8.576298569096252e-05,0.004688712768256664
0.004243720788508654,0.0077560702338814735,-0.007219416089355946,0.0022606984712183475,-0.0001107335920096375,0.0048624323680996895
0.0043756249360740185,0.007721344940364361,-0.007103108335286379,0.002147332765161991,-0.00010980031220242381,0.005164808593690395
0.004550534766167402,0.007510710041970015,-0.007502480875700712,0.002109617693349719,-0.00010729756468208507,0.004914029501378536
0.004816903732717037,0.007371257990598679,-0.007053389213979244,0.0022783372551202774,-0.00010480602941242978,0.0046369340270757675
0.004360562656074762,0.007884112186729908,-0.007285697851330042,0.002218595938757062,-0.00010242113785352558,0.0042528617195785046
0.004359591752290726,0.007752259261906147,-0.007546441163867712,0.0019963679369539022,-0.00010014184954343364,0.004402881022542715
0.004527383483946323,0.007433527149260044,-0.006896593142300844,0.001778942532837391,-9.796171798370779e-05,0.0048594712279737
0.0047647375613451,0.007712136954069138,-0.00819920189678669,0.0015408816980198026,-9.587456588633358e-05,0.005107256583869457
0.004694803152233362,0.00798775814473629,-0.0067364308051764965,0.0016265629092231393,-0.00010912050493061543,0.004273246042430401
0.004694803152233362,0.00798775814473629,-0.0067364308051764965,0.0016265629092231393,-0.00010912050493061543,0.004273246042430401
0.00450260192155838,0.008180405013263226,-0.007042992394417524,0.0016945688985288143,-0.00010805750207509845,0.004052361007779837
0.004554021637886763,0.007986292243003845,-0.0075341202318668365,0.001857401104643941,-0.00010600921814329922,0.004519341513514519
0.004611617419868708,0.007829870097339153,-0.00717180548235774,0.00174435053486377,-0.00010397288133390248,0.004774308763444424
0.004603220149874687,0.007590569090098143,-0.006783659569919109,0.0015904605388641357,-0.00010200907127000391,0.004729056265205145
0.005031027365475893,0.0075487298890948296,-0.007126609794795513,0.001461719279177487,-0.00010011776612373069,0.004728766158223152
0.00495737511664629,0.007519055623561144,-0.007381290663033724,0.0013921678764745593,-9.829537884797901e-05,0.004954088944941759
0.0044416883029043674,0.007447178941220045,-0.006976392585784197,0.001343526178970933,-9.653796587372199e-05,0.004885318223387003
0.004419728647917509,0.007347084581851959,-0.00673932209610939,0.0014031260507181287,-0.00010657178063411266,0.004589997697621584
0.004701928701251745,0.006941559258848429,-0.007255134172737598,0.001305998652242124,-0.00010847346129594371,0.004779941402375698
0.004654898773878813,0.007233751937747002,-0.008177453652024269,0.0012552826665341854,-0.00010687727626645938,0.004771582782268524
0.00439496012404561,0.0077611180022358894,-0.007079689763486385,0.00114924693480134,-0.00010511006257729605,0.004989277105778456
0.004523765295743942,0.006857411470264196,-0.006767723709344864,0.0012028830824419856,-0.00010338617721572518,0.00493413582444191
0.004596532788127661,0.006927747745066881,-0.007003065198659897,0.0011964356526732445,-0.00010171697067562491,0.004724404774606228
0.005204272922128439,0.006835693959146738,-0.008050614967942238,0.0012164214858785272,-0.00010010078403865919,0.004749849438667297
0.0052849361672997475,0.007290670182555914,-0.007477434352040291,0.0012918079737573862,-9.853525261860341e-05,0.004768893588334322
0.004361520521342754,0.007048436906188726,-0.006821321789175272,0.0012294877087697387,-0.00010730599024100229,0.004640994593501091
0.003961731214076281,0.00705103250220418,-0.006925830151885748,0.001199078280478716,-0.00010896268213400617,0.004638124722987413
0.004192941356450319,0.007411477621644735,-0.008137104101479053,0.0011808705748990178,-0.00010754933464340866,0.004947809502482414
0.004883653949946165,0.007852751761674881,-0.007720745634287596,0.001153731718659401,-0.00010598029621178284,0.004843990318477154
0.004989838693290949,0.007140779402107,-0.006967385299503803,0.0011249614180997014,-0.00010444388317409903,0.004471847787499428
0.004842950496822596,0.006635761354118586,-0.006861699745059013,0.0012025324394926429,-0.00010295046376995742,0.004332993645220995
0.004774454049766064,0.006916633807122707,-0.007552755530923605,0.0012065492337569594,-0.00010149922309210524,0.004527490120381117
0.0045595960691571236,0.0073892720974981785,-0.0080695366486907,0.0011793001322075725,-0.00010008824756368995,0.0046793799847364426
0.004803851712495089,0.007381053175777197,-0.006783031392842531,0.0013041356578469276,-0.00012367191084194928,0.005149921402335167
0.005349254235625267,0.006700078025460243,-0.006515743676573038,0.0012929741060361266,-0.0001282489683944732,0.0055064186453819275
0.005116735585033894,0.006829830817878246,-0.007435612380504608,0.0012492149835452437,-0.0001252095535164699,0.004774667322635651
0.004812379367649555,0.007082089316099882,-0.007141472306102514,0.0013026297092437744,-0.00012185356172267348,0.004498436115682125
0.004834664985537529,0.006875938735902309,-0.0067239138297736645,0.0011790229473263025,-0.00011559513222891837,0.004063749220222235
0.004834664985537529,0.006875938735902309,-0.0067239138297736645,0.0011790229473263025,-0.00011559513222891837,0.004063749220222235
0.004843467380851507,0.006413653492927551,-0.007643472868949175,0.0010865277145057917,-0.00011270009417785332,0.004039368126541376
0.005149243865162134,0.006436207331717014,-0.007754095830023289,0.0009702193201519549,-0.00010994628246407956,0.004227725323289633
0.005089803598821163,0.007159198634326458,-0.006652479059994221,0.00095204176614061,-0.00010732393275247887,0.0048164199106395245
0.0048105414025485516,0.006983465515077114,-0.006613437086343765,0.0009435558458790183,-0.00010482380457688123,0.0048061031848192215
0.004703234415501356,0.007049642037600279,-0.007371090352535248,0.0009383466094732285,-0.00012155618605902418,0.004501436837017536
0.004609062802046537,0.007043024525046349,-0.007799497805535793,0.0009064590558409691,-0.0001200995611725375,0.004515535198152065
0.004638673271983862,0.006771233398467302,-0.006913767661899328,0.0009754817001521587,-0.00011756616004277021,0.004254235420376062
0.004727217834442854,0.006944967899471521,-0.006725809536874294,0.0010018559405580163,-0.00011506632290547714,0.004064062610268593
0.00517463032156229,0.0067389062605798244,-0.007170624099671841,0.0011004931293427944,-0.00011266594810876995,0.003994722850620747
0.004885029047727585,0.006943824701011181,-0.007742203306406736,0.0012093308614566922,-0.00011036312935175374,0.004282549023628235
0.005064712837338448,0.006998731289058924,-0.007389610167592764,0.0010916120372712612,-0.00010815277346409857,0.004497223533689976
0.005001979414373636,0.007207764778286219,-0.0071205999702215195,0.0010585604468360543,-0.0001060290087480098,0.004492238163948059
0.004819318186491728,0.007250793278217316,-0.007644631899893284,0.0010278963018208742,-0.00010398729500593618,0.004375865682959557
0.004619250074028969,0.007343703415244818,-0.007758690509945154,0.0010123368119820952,-0.0001020226045511663,0.004491226281970739
0.005404101684689522,0.007505928166210651,-0.007335243746638298,0.0009946714853867888,-0.00011251490650465712,0.00428007123991847
0.0052019571885466576,0.007648123893886805,-0.007257714867591858,0.0009814657969400287,-0.00011441146489232779,0.004465559963136911
0.0048917182721197605,0.006954640615731478,-0.007528761401772499,0.000943285645917058,-0.00011262355837970972,0.00459308223798871
0.005156019702553749,0.007317598909139633,-0.007635757327079773,0.0009414565283805132,-0.00011066203296650201,0.004618654027581215
0.004949311725795269,0.006792386062443256,-0.0073645031079649925,0.0009354130015708506,-0.00010875281441258267,0.004154185764491558
0.004638110287487507,0.007190082222223282,-0.007440231274813414,0.0009226694237440825,-0.00010690737690310925,0.004395564552396536
0.005057625472545624,0.007122791837900877,-0.007704335264861584,0.0009343787096440792,-0.00010512352309888229,0.0041853999719023705
0.00520936818793416,0.007046638056635857,-0.007849641144275665,0.0009274634649045765,-0.00010339829896111041,0.004326590336859226
0.004884864203631878,0.006880934350192547,-0.007571574300527573,0.0009232935262843966,-0.00010172853217227384,0.004931048024445772
0.004949366673827171,0.007391863502562046,-0.006974377203732729,0.0009202626533806324,-0.00010011208360083401,0.004546348005533218
0.004949366673827171,0.007391863502562046,-0.006974377203732729,0.0009202626533806324,-0.00010011208360083401,0.004546348005533218
0.004791961517184973,0.007218850776553154,-0.007859373465180397,0.000927718123421073,-9.854603558778763e-05,0.004479803144931793
0.004909517243504524,0.007190507370978594,-0.007577528245747089,0.0008560186251997948,-0.00010914752056123689,0.004252996761351824
0.005138326436281204,0.007885733619332314,-0.007498002145439386,0.0008574232924729586,-0.00010757203563116491,0.004575757775455713
0.004977515432983637,0.007359846029430628,-0.007056493777781725,0.0008621860761195421,-0.0001059920250554569,0.004779803566634655
0.0047922139056026936,0.0070145996287465096,-0.008016154170036316,0.0008560604765079916,-0.00010445455700391904,0.0048240614123642445
0.0049393055960536,0.0072683002799749374,-0.007839774712920189,0.0008746522944420576,-0.00010296083928551525,0.0046575977467000484
0.005051693879067898,0.007943185977637768,-0.007105419412255287,0.000862235901877284,-0.00010150927118957043,0.0045956941321492195
0.0049485801719129086,0.007441001478582621,-0.007500715088099241,0.0007842121995054185,-0.00010009803372668102,0.004529804456979036
0.005304718855768442,0.0071325418539345264,-0.00832909531891346,0.0007847885135561228,-9.872552618617192e-05,0.0043359906412661076
0.005209506954997778,0.006926450412720442,-0.007307134103029966,0.0007209222530946136,-9.739009692566469e-05,0.004348802845925093
0.004902509972453117,0.007761509157717228,-0.007163712289184332,0.0006959658348932862,-9.609043627278879e-05,0.004372123628854752
0.004803760908544064,0.007509727496653795,-0.007541556842625141,0.0006957895238883793,-9.482492168899626e-05,0.004450992215424776
0.004766467958688736,0.007173418998718262,-0.007626582868397236,0.0006403549923561513,-9.359227260574698e-05,0.0045292251743376255
0.005156497936695814,0.0069927917793393135,-0.007293356116861105,0.0006626659887842834,-9.23913685255684e-05,0.004633194766938686
0.005514835938811302,0.00733254523947835,-0.0072433422319591045,0.000646549160592258,-9.12207251531072e-05,0.004445739556103945
0.005107438191771507,0.007345190271735191,-0.007381076458841562,0.0006281504174694419,-9.007954940898344e-05,0.004459090530872345
0.0048642694018781185,0.007247505243867636,-0.008121379651129246,0.0006158318719826639,-8.896645886125043e-05,0.004224554169923067
0.004906443879008293,0.007378795184195042,-0.0076572163961827755,0.00057352299336344,-9.213294106302783e-05,0.003961734473705292
0.005173454061150551,0.007948645390570164,-0.006933898665010929,0.0006053527467884123,-9.091933316085488e-05,0.0040997788310050964
0.004958239383995533,0.007364696357399225,-0.00736911129206419,0.000549966236576438,-8.916028309613466e-05,0.0038931274320930243
0.0053987386636435986,0.007224826607853174,-0.00777581799775362,0.0005711352569051087,-8.74307079357095e-05,0.0037820760626345873
0.00526729179546237,0.007233529817312956,-0.0075166793540120125,0.000532586476765573,-8.576459367759526e-05,0.003872489556670189
0.004937345627695322,0.007871536538004875,-0.007500536274164915,0.0004916306934319437,-8.416054333793e-05,0.003975220024585724
0.004832444712519646,0.0072336443699896336,-0.006962253246456385,0.0005166182527318597,-8.261542825493962e-05,0.004887695889919996
0.005208664108067751,0.0068057202734053135,-0.007203806657344103,0.0004857020976487547,-8.11259524198249e-05,0.004494323395192623
0.00505848228931427,0.0071051036939024925,-0.007199289742857218,0.0004706555337179452,-7.968934369273484e-05,0.00395496841520071
0.00505848228931427,0.0071051036939024925,-0.007199289742857218,0.0004706555337179452,-7.968934369273484e-05,0.00395496841520071
0.005318637005984783,0.0076834093779325485,-0.007191328797489405,0.0004404720093589276,-7.830269896658137e-05,0.003797659184783697
0.0052701435051858425,0.007287782151252031,-0.008032983168959618,0.00044095207704231143,-7.696342800045386e-05,0.004109638277441263
0.005280203185975552,0.007163308560848236,-0.00694119231775403,0.0004593161283992231,-7.441789784934372e-05,0.004532031714916229
0.005132549908012152,0.0074876355938613415,-0.0069152554497122765,0.000442740973085165,-7.320723671000451e-05,0.004301959183067083
0.005378567148000002,0.007194741629064083,-0.007325802929699421,0.00041461808723397553,-7.203541463240981e-05,0.004286743234843016
0.005632787011563778,0.007185182999819517,-0.008176334202289581,0.00044078074279241264,-7.090043800417334e-05,0.004376825876533985
0.005174365825951099,0.007021201774477959,-0.007554131094366312,0.00041852486901916564,-6.980066245887429e-05,0.004222743213176727
0.005203218199312687,0.007304363884031773,-0.00739020062610507,0.0004613290948327631,-7.894162990851328e-05,0.003996316809207201
0.005069643724709749,0.007367326412349939,-0.007456277497112751,0.0004395445575937629,-8.10093479231e-05,0.003905361518263817
0.004946282599121332,0.007364089135080576,-0.007446636445820332,0.00047103932593017817,-8.002130198292434e-05,0.003978452645242214
0.005302303936332464,0.007345389574766159,-0.00725398026406765,0.0004419745528139174,-7.886647654231638e-05,0.0045115090906620026
0.005290978122502565,0.00787437055259943,-0.007322558201849461,0.00044213540968485177,-7.77321110945195e-05,0.004738816060125828
0.005509324371814728,0.007406657095998526,-0.00815153680741787,0.0004413889837451279,-7.662919233553112e-05,0.004358571954071522
0.005257099401205778,0.0070103127509355545,-0.00797305814921856,0.00044310055091045797,-7.555691263405606e-05,0.004182056523859501
0.0057221874594688416,0.00731850927695632,-0.0074443151243031025,0.000442434917204082,-7.451434794347733e-05,0.00398677634075284
0.005464592017233372,0.007476652041077614,-0.007492943201214075,0.0005055522196926177,-7.350018131546676e-05,0.003844689577817917
0.00527316564694047,0.007206128444522619,-0.007860727608203888,0.0005285746301524341,-7.251314673339948e-05,0.003819796722382307
0.005433030426502228,0.006799940951168537,-0.00787598267197609,0.0005213398835621774,-7.155236380640417e-05,0.003825940191745758
0.0055381860584020615,0.007284084800630808,-0.007541325408965349,0.0005364174139685929,-7.061667565722018e-05,0.0037634980399161577
0.005556797608733177,0.006921146996319294,-0.007425309624522924,0.000511114310938865,-6.970513641135767e-05,0.0037646680139005184
0.0053234947845339775,0.007211338263005018,-0.0074592698365449905,0.000532275065779686,-7.446971721947193e-05,0.004288952797651291
0.005905689671635628,0.007046460639685392,-0.007848720997571945,0.0005046157748438418,-7.889622793300077e-05,0.0041208122856915
0.005479373969137669,0.00665491446852684,-0.007503674831241369,0.0006049848743714392,-7.826600631233305e-05,0.0038512679748237133
0.005371120758354664,0.006838706322014332,-0.007288717199116945,0.0006221874500624835,-7.732825906714424e-05,0.003672137390822172
0.005426649935543537,0.007056860718876123,-0.0074913110584020615,0.0005801907391287386,-7.639210525667295e-05,0.003662161296233535
0.005982980132102966,0.006918725557625294,-0.007816432975232601,0.0006006774492561817,-7.547696441179141e-05,0.0037400147411972284
0.00613350560888648,0.006370255257934332,-0.0065802172757685184,0.0005577912088483572,-7.458345498889685e-05,0.0038496749475598335
0.005869680549949408,0.006475778296589851,-0.007097180467098951,0.0005810862639918923,-7.371087122010067e-05,0.004211926367133856
0.005869680549949408,0.006475778296589851,-0.007097180467098951,0.0005810862639918923,-7.371087122010067e-05,0.004211926367133856
0.0056553552858531475,0.006910547614097595,-0.007365384139120579,0.0006083094631321728,-7.12113396730274e-05,0.003933061845600605
0.0056553552858531475,0.006910547614097595,-0.007365384139120579,0.0006083094631321728,-7.12113396730274e-05,0.003933061845600605
0.00612263847142458,0.006372258998453617,-0.007636951748281717,0.000628590933047235,-7.041540084173903e-05,0.0035780626349151134
0.006250343751162291,0.006519685965031385,-0.007954209111630917,0.0005814416217617691,-6.96370771038346e-05,0.0036321007646620274
0.005858125165104866,0.006798370275646448,-0.00829328503459692,0.0005985641037113965,-4.5468036660167854e-06,0.003786162007600069
0.005649610888212919,0.0065690153278410435,-0.007951430976390839,0.0005608772626146674,-2.968737931041687e-07,0.0038681081496179104
0.005543839652091265,0.006080011837184429,-0.007620890624821186,0.0005989507772028446,-1.9383739058298488e-08,0.003883472178131342
0.006143566220998764,0.006095880176872015,-0.00856737233698368,0.0005538130062632263,-1.2656196091143102e-09,0.00390347046777606
0.00608915276825428,0.0066738612949848175,-0.007900694385170937,0.0005797414924018085,-8.263591894097644e-11,0.0038501436356455088
0.005806521978229284,0.00641013216227293,-0.00732394028455019,0.0005339922499842942,-5.395534279778458e-12,0.0034418965224176645
0.005521826911717653,0.006317999679595232,-0.008170847781002522,0.0005618678405880928,-3.5228983901076927e-13,0.0034871543757617474
0.0056530325673520565,0.006280444096773863,-0.00862815696746111,0.0005749490228481591,-2.3002009774978835e-14,0.003751550568267703
0.00598606513813138,0.007075349800288677,-0.007637388538569212,0.0005483655841089785,-1.5018668131174299e-15,0.0039396733045578
0.0061349160969257355,0.006801492068916559,-0.007221021223813295,0.0005804120446555316,-9.806116312230796e-17,0.004275670275092125
0.0060995351523160934,0.006428259890526533,-0.0069583747535943985,0.0006150986300781369,-6.402692683383511e-18,0.004366991575807333
0.006123754195868969,0.006561282090842724,-0.008138039149343967,0.0005751755088567734,-4.1805007639848763e-19,0.004117257427424192
0.0055060372687876225,0.006101648323237896,-0.007164437789469957,0.0006018883432261646,-2.72956774380656e-20,0.0038287420757114887
0.005982359871268272,0.00650449562817812,-0.006580187473446131,0.0006123150233179331,-1.782212934378958e-21,0.003704634727910161
0.006262920796871185,0.006619721185415983,-0.006731097586452961,0.0005811667651869357,-1.163657556533653e-22,0.0033511377405375242
0.006108926143497229,0.006785022560507059,-0.0076223863288760185,0.0006735441274940968,-7.597852277485568e-24,0.003542274236679077
0.006050056777894497,0.006748285610228777,-0.008059360086917877,0.0006935730925761163,-4.960854847438077e-25,0.0037742839194834232
0.005892759654670954,0.006378634832799435,-0.006926313508301973,0.0006908287759870291,-3.2390838309552694e-26,0.003825237276032567
0.0064171417616307735,0.006912649143487215,-0.006871664430946112,0.0007113284082151949,-2.1148902497648562e-27,0.003778641577810049
0.006425248458981514,0.006878426298499107,-0.007588854059576988,0.0006897245184518397,-1.3808721497143397e-28,0.003795311553403735
0.006019274704158306,0.0068452428095042706,-0.007318767718970776,0.0008639307925477624,-9.016107874648783e-30,0.0034169370774179697
0.006264119874686003,0.007159590255469084,-0.006867782678455114,0.0008139362325891852,-5.8868738281270545e-31,0.003325989004224539
0.0056538027711212635,0.007554047740995884,-0.007124250289052725,0.0008214793051593006,-3.8437075415779314e-32,0.0033687427639961243
0.006019089370965958,0.006992231588810682,-0.007685048971325159,0.0008303098729811609,-2.50966666368116e-33,0.003479357110336423
0.006257496774196625,0.007405267097055912,-0.007684148848056793,0.0009037539712153375,-1.6386329261502781e-34,0.003648030338808894
0.006114334333688021,0.006739518605172634,-0.007348052226006985,0.000919485290069133,-1.0699101481851872e-35,0.003330736421048641
0.006324654910713434,0.0071423170156776905,-0.0077909016981720924,0.0009152238490059972,-6.334663339657709e-05,0.003872467437759042
0.006340666674077511,0.00663219066336751,-0.007641302887350321,0.0009377358364872634,-6.273324106587097e-05,0.004042059648782015
0.006468914914876223,0.0064198169857263565,-0.00725112808868289,0.0009318077936768532,-6.188811676111072e-05,0.003919586073607206
0.006468914914876223,0.0064198169857263565,-0.00725112808868289,0.0009318077936768532,-6.188811676111072e-05,0.003919586073607206
0.006124984938651323,0.007268570363521576,-0.007238536607474089,0.0008755458984524012,-6.104964995756745e-05,0.0035052523016929626
0.00577519042417407,0.007550402544438839,-0.007692363578826189,0.0008754077134653926,-6.023261812515557e-05,0.0030752255115658045
0.006031415890902281,0.006758189294487238,-0.008191699162125587,0.0008282283088192344,-5.9437061281641945e-05,0.002832916798070073
0.00659606046974659,0.0064101070165634155,-0.007954598404467106,0.000780940696131438,-5.86622190894559e-05,0.0027414264623075724
0.006561723537743092,0.0068412781693041325,-0.007983190007507801,0.0007782169850543141,-5.790737850475125e-05,0.0025311566423624754
0.006274315994232893,0.0070950365625321865,-0.007889601401984692,0.0007929381681606174,-5.71716227568686e-05,0.00267944298684597
0.005952135194092989,0.0067078606225550175,-0.00818849541246891,0.0007792944088578224,-5.6454449804732576e-05,0.0029968314338475466
0.00596874114125967,0.0070807235315442085,-0.0077469926327466965,0.0007514641038142145,-5.575496470555663e-05,0.003454947844147682
0.006389118731021881,0.006606212351471186,-0.007471941411495209,0.0008878442458808422,-5.5072672694223e-05,0.0038107968866825104
0.006653245072811842,0.00707784341648221,-0.007556030061095953,0.00093205610755831,-5.4406813433161005e-05,0.0034328685142099857
0.006612943951040506,0.0069189793430268764,-0.007735237013548613,0.0009306437568739057,-5.3756852139486e-05,0.002811581129208207
0.006039120722562075,0.006822329480201006,-0.007378684356808662,0.0008600771543569863,-5.312227222020738e-05,0.002670466899871826
0.0061229863204061985,0.0070985183119773865,-0.0077157034538686275,0.0009884104365482926,-5.250249887467362e-05,0.0027325383853167295
0.00709952088072896,0.007652929984033108,-0.008040997199714184,0.0009817349491640925,-5.1897008233936504e-05,0.002953882794827223
0.006904220674186945,0.007245414890348911,-0.00820109061896801,0.0009705150150693953,-5.130535282660276e-05,0.0027865844313055277
0.006223755888640881,0.006577569060027599,-0.007886228151619434,0.0009144796640612185,-5.072697240393609e-05,0.002784000476822257
0.006134514231234789,0.006698806770145893,-0.00789120327681303,0.000983254169113934,-5.016155046178028e-05,0.002780721290037036
0.006892308127135038,0.007011120673269033,-0.008187776431441307,0.0009742483962327242,-2.5146578991552815e-05,0.0025563889648765326
0.006856236606836319,0.007057206239551306,-0.007754950784146786,0.0009962919866666198,-1.6418920267824433e-06,0.002726912498474121
0.006476592272520065,0.007001920603215694,-0.00763043062761426,0.0010138709330931306,-1.0720381737883145e-07,0.0031482246704399586
0.00615021912381053,0.007116587366908789,-0.007946664467453957,0.0010758981807157397,-6.9996435314578775e-09,0.0030557236168533564
0.006606594659388065,0.006993485148996115,-0.008137961849570274,0.0010312575614079833,-4.570266942671708e-10,0.0027952869422733784
0.006763138808310032,0.0074120475910604,-0.007508012466132641,0.0010111454175785184,-2.984057445587496e-11,0.002597708022221923
0.007287740707397461,0.007417844142764807,-0.0073105026967823505,0.0009850268252193928,-1.948376139246366e-12,0.0027623737696558237
0.006495034322142601,0.006415501236915588,-0.008208289742469788,0.0010020863264799118,-8.30623293263848e-15,0.002938697347417474
0.006745439954102039,0.006977257784456015,-0.00785180926322937,0.0009879324352368712,-5.423376731328322e-16,0.002819514600560069
0.007183172274380922,0.007324266713112593,-0.00828551035374403,0.0010360429296270013,-3.541077484278256e-17,0.0029063166584819555
0.007183172274380922,0.007324266713112593,-0.00828551035374403,0.0010360429296270013,-3.541077484278256e-17,0.0029063166584819555
0.007455889135599136,0.006649712100625038,-0.007619835436344147,0.0010083027882501483,-1.5096170256184638e-19,0.0029603219591081142
0.0068548573181033134,0.007371088024228811,-0.007273167837411165,0.0009930706582963467,-9.856721337685957e-21,0.002891699317842722
0.0068548573181033134,0.007371088024228811,-0.007273167837411165,0.0009930706582963467,-9.856721337685957e-21,0.002891699317842722
0.006811879109591246,0.007394073996692896,-0.007610574830323458,0.0009750226745381951,-6.435734766765524e-22,0.0032068395521491766
0.00680262316018343,0.006921322550624609,-0.008193803951144218,0.0009700349764898419,-4.2020746087612494e-23,0.0030915194656699896
0.006700659170746803,0.0072082108817994595,-0.007497037760913372,0.0009595666779205203,-2.7436540868389266e-24,0.0027651183772832155
0.007212325464934111,0.007460101041942835,-0.008054989390075207,0.0009524953784421086,-1.791410054822005e-25,0.0025970954447984695
0.007036932744085789,0.00770518509671092,-0.00799719337373972,0.0010524155804887414,-1.1696627842102536e-26,0.0025099539197981358
0.007534700911492109,0.007157360203564167,-0.007438638247549534,0.001072916085831821,-7.637061897726243e-28,0.0024876296520233154
0.006780192255973816,0.006719937548041344,-0.00723682064563036,0.0010889992117881775,-4.9864553116683734e-29,0.0024290147703140974
0.00693657249212265,0.0071225776337087154,-0.007336237467825413,0.0013767280615866184,-3.2557992411561205e-30,0.00274040549993515
0.007094751577824354,0.007381804287433624,-0.008129296824336052,0.0014481046237051487,-2.1258039508349527e-31,0.0025796706322580576
0.0071354880928993225,0.0073974779807031155,-0.007914855144917965,0.0015880349092185497,-1.3879981624488267e-32,0.002498683985322714
0.0070593878626823425,0.006667871959507465,-0.007450999226421118,0.001545756938867271,-9.062636246492625e-34,0.0024903512094169855
0.006912649143487215,0.0066217705607414246,-0.00735493004322052,0.001446075038984418,-5.917253743103377e-35,0.0025084461085498333
0.0074422298930585384,0.0072366222739219666,-0.007967573590576649,0.001404665526933968,-3.863543717170357e-36,0.0024056853726506233
0.007150763180106878,0.007151040714234114,-0.00844061840325594,0.0013823730405420065,-2.5226179438930443e-37,0.0024528931826353073
0.007538550533354282,0.007010354194790125,-0.007881354540586472,0.0013257501414045691,-1.647089157694165e-38,0.0023433275055140257
0.006819377653300762,0.0068918801844120026,-0.008165951818227768,0.0013804382178932428,-1.0754321116399382e-39,0.002243806142359972
0.00921007338911295,0.007329444866627455,-0.008282971568405628,0.0013143755495548248,-7.021766474885226e-41,0.002220212249085307
0.007319089025259018,0.0075147682800889015,-0.007957668043673038,0.0013734925305470824,-4.5850485752708015e-42,0.002120367484167218
0.00664870347827673,0.006977696903049946,-0.0075422655791044235,0.0015389046166092157,-2.9987787136551085e-43,0.0022142932284623384
0.00664870347827673,0.006977696903049946,-0.0075422655791044235,0.0015389046166092157,-2.9987787136551085e-43,0.0022142932284623384
0.006913140881806612,0.006566605530679226,-0.00846377294510603,0.0014610482612624764,-1.961817850054744e-44,0.0021515057887881994
0.007450849749147892,0.006871351972222328,-0.008570978417992592,0.001665957155637443,-1.401298464324817e-45,0.0023474376648664474
0.0071771880611777306,0.007111908867955208,-0.0077064307406544685,0.0016978312050923705,-0.0,0.0023992036003619432
0.007241516839712858,0.006744318176060915,-0.008371776901185513,0.001723832101561129,-0.0,0.002500175265595317
0.007743383292108774,0.007071002386510372,-0.008444493636488914,0.0016724844463169575,-0.0,0.0023462737444788218
0.007578238379210234,0.007386292330920696,-0.008225364610552788,0.0017082314006984234,-0.0,0.002262447727844119
0.0072849588468670845,0.007271875161677599,-0.00816264282912016,0.0016214451752603054,-0.0,0.002030010335147381
0.007116134278476238,0.007248086389154196,-0.00826532207429409,0.0015933346003293991,-0.0,0.0018989387899637222
0.007502238731831312,0.007231687195599079,-0.008084971457719803,0.001555080059915781,-0.0,0.001783050480298698
0.0082017183303833,0.007149671670049429,-0.008205214515328407,0.0014236014103516936,-0.0,0.0018488422501832247
0.007713389117270708,0.007091776002198458,-0.008752991445362568,0.001511315000243485,-0.0,0.0019720534328371286
0.007612296845763922,0.006827694363892078,-0.00843006744980812,0.0014370942953974009,-0.0,0.00231312308460474
0.00756250973790884,0.0062896739691495895,-0.008098634891211987,0.0015753943007439375,-0.0,0.0025361753068864346
0.008058016188442707,0.006322461646050215,-0.00845540314912796,0.0015778940869495273,-0.0,0.0022802797611802816
0.0077623347751796246,0.00666652200743556,-0.00860142707824707,0.001653675688430667,-0.0,0.0019733093213289976
0.007036401890218258,0.0064781135879457,-0.007994046434760094,0.001717299222946167,-0.0,0.0019135766196995974
0.008185950107872486,0.006437038537114859,-0.007362151984125376,0.0018831252818927169,-0.0,0.0018193438882008195
0.008005661889910698,0.006796372588723898,-0.007710190024226904,0.001919961185194552,-0.0,0.0017579264240339398
0.007526061497628689,0.006888095755130053,-0.008290684781968594,0.001799995661713183,-0.0,0.0017996073001995683
0.00786152295768261,0.006366438698023558,-0.00831187330186367,0.0017954905051738024,-0.0,0.0018271009903401136
0.008176450617611408,0.006529130507260561,-0.007816538214683533,0.0016667235177010298,-0.0,0.0018835455412045121
0.007678147405385971,0.007159021683037281,-0.00875048153102398,0.0017148671904578805,-0.0,0.0018989003729075193
0.007426097989082336,0.006801966577768326,-0.008522434160113335,0.0016797814751043916,-0.0,0.001971838530153036
0.007414599414914846,0.006134511437267065,-0.008393011055886745,0.0020144160371273756,-5.287156091071665e-05,0.0018127185758203268
0.008163181133568287,0.006170312408357859,-0.008007439784705639,0.001974244834855199,-5.620312367682345e-05,0.0017585251480340958
0.008336196653544903,0.006305602379143238,-0.00820213183760643,0.001936667482368648,-5.576730836764909e-05,0.001611448940820992
0.007906789891421795,0.006764402613043785,-0.008111259900033474,0.001780858961865306,-5.510142364073545e-05,0.0016157027566805482
0.007790743838995695,0.006709877867251635,-0.007759683299809694,0.0015944682527333498,-5.443604459287599e-05,0.0014372450532391667
0.007723287213593721,0.006773001980036497,-0.009045593440532684,0.0016200038371607661,-5.3785453928867355e-05,0.001489151967689395
0.007723287213593721,0.006773001980036497,-0.009045593440532684,0.0016200038371607661,-5.3785453928867355e-05,0.001489151967689395
0.007943670265376568,0.006746672559529543,-0.008333702571690083,0.0017430154839530587,-5.315025555319153e-05,0.0014172992669045925
0.007997866719961166,0.0067475480027496815,-0.007852287963032722,0.001894611050374806,-5.192370372242294e-05,0.0015092120738700032
0.008965542539954185,0.006641151383519173,-0.008487125858664513,0.002006150083616376,-5.1331400754861534e-05,0.001438058097846806
0.007925068028271198,0.006893979851156473,-0.00799643062055111,0.0021223730873316526,-5.0186488806502894e-05,0.0014952901983633637
0.007925068028271198,0.006893979851156473,-0.00799643062055111,0.0021223730873316526,-5.0186488806502894e-05,0.0014952901983633637
0.00836184248328209,0.006654949393123388,-0.00834320206195116,0.0020937686786055565,-2.5158971766359173e-05,0.0015777233056724072
0.008408128283917904,0.006478786934167147,-0.009012780152261257,0.0020279441960155964,-1.642701136006508e-06,0.0014623211463913321
0.008384822867810726,0.0064893802627921104,-0.008148591965436935,0.0018351254984736443,-1.0725665333666257e-07,0.0013685837620869279
0.007822951301932335,0.006689667236059904,-0.007833578623831272,0.0018144813366234303,-7.003093660529203e-09,0.0011651602108031511
0.008145502768456936,0.006448348518460989,-0.008217722177505493,0.0018657938344404101,-4.572519307632916e-10,0.0011070542968809605
0.00888967327773571,0.006938498932868242,-0.008096727542579174,0.00176231877412647,-2.985528491095124e-11,0.001182264881208539
0.007879000157117844,0.006357640493661165,-0.008110645227134228,0.0016822247998788953,-1.9493369592116228e-12,0.001303348457440734
0.008121762424707413,0.0064458586275577545,-0.00831860862672329,0.0016713434597477317,-1.2727775918711798e-13,0.0013174512423574924
0.008281005546450615,0.006165297701954842,-0.009062094613909721,0.0016046353848651052,-8.310328336938455e-15,0.0015162911731749773
0.008130236528813839,0.0066992538049817085,-0.00855253729969263,0.0018622428178787231,-5.426051237859277e-16,0.001672229846008122
0.008425112813711166,0.006968728266656399,-0.007890161126852036,0.0017621678998693824,-3.542823827987478e-17,0.0015840486157685518
0.008628006093204021,0.005941287614405155,-0.008014394901692867,0.0020382755901664495,-2.313210789799695e-18,0.0014307565288618207
0.00822761282324791,0.005911693908274174,-0.008576433174312115,0.0019091389840468764,-1.51036122967582e-19,0.0013303038431331515
0.008162464015185833,0.006550393998622894,-0.00886976532638073,0.0021187567617744207,-9.861579408197572e-21,0.0013294253731146455
0.009331372566521168,0.007209519390016794,-0.008087697438895702,0.0020818307530134916,-6.438907375999705e-22,0.0012340405955910683
0.008531229570508003,0.0068701268173754215,-0.008679134771227837,0.002278221072629094,-4.204146788587084e-23,0.0011922897538170218
0.008369116112589836,0.006185984238982201,-0.00800134614109993,0.0023105130530893803,-2.745007180506607e-24,0.0012300058733671904
0.00856074970215559,0.006239254493266344,-0.008075608871877193,0.0022085229866206646,-1.7922935790358526e-25,0.001258518430404365
0.008540527895092964,0.006898603867739439,-0.008544337935745716,0.0022635655477643013,-1.170239484672801e-26,0.0012894213432446122
0.00834669079631567,0.006994837429374456,-0.00839354656636715,0.0020614478271454573,-7.640827572250006e-28,0.001315856585279107
0.008878415450453758,0.006246752105653286,-0.008338093757629395,0.0020746414083987474,-4.988914483466113e-29,0.0011858714278787374
0.008756972849369049,0.006302970927208662,-0.0091773122549057,0.0020584154408425093,-3.257404308162507e-30,0.001089321682229638
0.008428391069173813,0.005839736666530371,-0.008675504475831985,0.0022782492451369762,-2.126852256697016e-31,0.0010369070805609226
0.008792856708168983,0.006171389948576689,-0.008228719234466553,0.0023944666609168053,-1.388682594034593e-32,0.0009937583236023784
0.008560811169445515,0.006699272431433201,-0.007800344377756119,0.002381546888500452,-9.067104961735673e-34,0.00094748375704512
0.008560811169445515,0.006699272431433201,-0.007800344377756119,0.002381546888500452,-9.067104961735673e-34,0.00094748375704512
0.008413626812398434,0.006087958347052336,-0.008776277303695679,0.002366135362535715,-5.920171242021947e-35,0.0008934802608564496
0.008509399369359016,0.006519943941384554,-0.008268776349723339,0.0024968355428427458,-2.523861848513856e-37,0.0008940156549215317
0.008796432986855507,0.006882066838443279,-0.008147313259541988,0.0027566086500883102,-1.6479014904139342e-38,0.0008658895385451615
0.009157609194517136,0.006279182154685259,-0.00841331947594881,0.002849259879440069,-9.766656876308843e-05,0.0008186374907381833
0.008205289021134377,0.006218612659722567,-0.008066489361226559,0.0028150281868875027,-0.00010480469791218638,0.0008897747611626983
0.008759306743741035,0.005685534328222275,-0.0070336684584617615,0.0026764445938169956,-0.000103020116512198,0.0008967704488895833
0.00905153714120388,0.00590898422524333,-0.008469567634165287,0.0027772795874625444,-0.00010075361205963418,0.0008477469673380256
0.0086704446002841,0.00647900952026248,-0.00885636918246746,0.0026314989663660526,-9.854984091361985e-05,0.0007965200347825885
0.008716036565601826,0.006433537695556879,-0.008334562182426453,0.002540507121011615,-0.00011319318582536653,0.0008042986737564206
0.008813937194645405,0.005974368192255497,-0.007821599952876568,0.002733060624450445,-0.00011313210416119546,0.0007539462530985475
0.009314985945820808,0.006013437639921904,-0.008718597702682018,0.0027548104990273714,-0.00011095818626927212,0.0006745032733306289
0.008710547350347042,0.005847696214914322,-0.00823450181633234,0.0025071592535823584,-0.0001087337514036335,0.000673827133141458
0.00891772098839283,0.006258995272219181,-0.007777303922921419,0.0026101411785930395,-0.00010658807150321081,0.0006222404772415757
0.00940717663615942,0.006466308608651161,-0.008279914036393166,0.002763726282864809,-0.00011966237070737407,0.0006042492459528148
0.008616671897470951,0.005674988497048616,-0.008906013332307339,0.002700465265661478,-0.00011948103929171339,0.000588253780733794
0.009437238797545433,0.00589444674551487,-0.00871618278324604,0.002651338465511799,-0.00011739097681129351,0.0005404098774306476
0.009131215512752533,0.005439429543912411,-0.008374461904168129,0.0027671910356730223,-0.00011525233276188374,0.0004978397628292441
0.009211976081132889,0.006126308348029852,-0.008741931989789009,0.0028393971733748913,-0.00011318238102830946,0.00046136288437992334
0.009456607513129711,0.005979837849736214,-0.008781664073467255,0.002922011772170663,-0.00012601265916600823,0.00045968437916599214
0.00969084445387125,0.005564467050135136,-0.00829536747187376,0.002823486225679517,-0.00012479587167035788,0.0004578114312607795
0.009326992556452751,0.005517612677067518,-0.008833857253193855,0.0029909692239016294,-0.00012273187167011201,0.00043211906449869275
0.00920927431434393,0.0060363346710801125,-0.009053030051290989,0.0029631699435412884,-0.00012067874195054173,0.00040775135857984424
0.009474427439272404,0.00610524183139205,-0.00886276550590992,0.002891277428716421,-0.00020014234178233892,0.00038589705945923924
0.009114565327763557,0.00596425449475646,-0.008686183951795101,0.002713245339691639,-0.00021665164967998862,0.00034456021967343986
0.009114565327763557,0.00596425449475646,-0.008686183951795101,0.002713245339691639,-0.00021665164967998862,0.00034456021967343986
0.009279442951083183,0.006048339884728193,-0.009515310637652874,0.002658704062923789,-0.0002083299623336643,0.0003014860558323562
0.010102584026753902,0.00533756148070097,-0.008295457810163498,0.003121059387922287,-0.00022384115436580032,0.00031572437728755176
0.009047222323715687,0.005586571525782347,-0.009424230083823204,0.0029750564135611057,-0.00021928735077381134,0.00029983179410919547
0.009734801948070526,0.0061563774943351746,-0.009356758557260036,0.0030162178445607424,-0.00021101368474774063,0.000328253983752802
0.009793229401111603,0.005495862569659948,-0.008891032077372074,0.002929292619228363,-0.0002281288179801777,0.0003147333045490086
0.009218049235641956,0.0054169162176549435,-0.009324992075562477,0.0029644134920090437,-0.00022778099810238928,0.00029993336647748947
0.010424163192510605,0.005713708233088255,-0.009213651530444622,0.0029675308614969254,-0.00022032996639609337,0.0002863109402824193
0.00942488107830286,0.0053333682008087635,-0.008331917226314545,0.0031298899557441473,-0.00023930173483677208,0.0002738634357228875
0.009531917981803417,0.005948568694293499,-0.008895734325051308,0.0032198436092585325,-0.00023511667677666992,0.00026245220215059817
0.009887085296213627,0.005702640861272812,-0.009535878896713257,0.003213787218555808,-0.0002910835901275277,0.0002519539266359061
0.009717201814055443,0.005598489195108414,-0.009630478918552399,0.003267068648710847,-0.00032961092074401677,0.0002422630786895752
0.009852007031440735,0.005805340129882097,-0.00903079193085432,0.003145103342831135,-0.00031076063169166446,0.00023329058603849262
0.00978322047740221,0.005816875025629997,-0.009368623606860638,0.003413955681025982,-0.00029091790202073753,0.0002249597746413201
0.009582377970218658,0.006181048694998026,-0.009099442511796951,0.003627421800047159,-0.00027325903647579253,0.00021720271615777165
0.009578784927725792,0.005809240508824587,-0.009316323325037956,0.003202239517122507,-0.0002576097322162241,0.00020996318198740482
0.009598256088793278,0.005658924113959074,-0.009315747767686844,0.0030683621298521757,-0.00028582397499121726,0.0002031904150499031
0.01017053797841072,0.005608732346445322,-0.009462827816605568,0.002997402800247073,-0.00027693514130078256,0.0001968412398127839
0.010339364409446716,0.005653515923768282,-0.008884653449058533,0.003055417211726308,-0.0002637805009726435,0.0001908768608700484
0.00951001700013876,0.005783500615507364,-0.009753621183335781,0.003662516362965107,-0.00025151585577987134,0.00018526324129197747
0.00951001700013876,0.005783500615507364,-0.009753621183335781,0.003662516362965107,-0.00025151585577987134,0.00018526324129197747
0.010471312329173088,0.005791341885924339,-0.008451947942376137,0.004061438143253326,-0.00026807625545188785,0.00017497171938885003
0.009974956512451172,0.005725131370127201,-0.009131268598139286,0.0035198829136788845,-0.0002574316749814898,0.00017024348198901862
0.009839235804975033,0.00548415957018733,-0.009621952660381794,0.0032443038653582335,-0.0002473431813996285,0.0001657636894378811
0.009406846016645432,0.005766012705862522,-0.009191149845719337,0.0032254857942461967,-0.00023799852351658046,0.00016151390445884317
0.009857495315372944,0.006014296784996986,-0.009256349876523018,0.0034563110675662756,-0.0002453805645927787,0.00015747646102681756
0.009989540092647076,0.005893595051020384,-0.009343721903860569,0.0035975866485387087,-0.00025179743533954024,0.0001536358759040013
0.010250327177345753,0.00591568648815155,-0.008972076699137688,0.0036205309443175793,-0.0002442353288643062,0.00014997823745943606
0.009876175783574581,0.005600657779723406,-0.008985092863440514,0.0035531087778508663,-0.00023628391500096768,0.0001464906963519752
0.009825424291193485,0.006219516508281231,-0.008872214704751968,0.0036035540979355574,-0.00022360627190209925,0.000139980751555413
0.009825424291193485,0.006219516508281231,-0.008872214704751968,0.0036035540979355574,-0.00022360627190209925,0.000139980751555413
0.009985054843127728,0.005587865598499775,-0.009274296462535858,0.0033396552316844463,-0.00024472782388329506,0.00013693793152924627
0.010167042724788189,0.005759221501648426,-0.009620839729905128,0.003133239457383752,-0.000243597271037288,0.0001340249873464927
0.00997135415673256,0.005735534243285656,-0.009107118472456932,0.003083424409851432,-0.0002527471515350044,0.00013123285316396505
0.010023217648267746,0.0060663046315312386,-0.008688727393746376,0.0031608538702130318,-0.000260086206253618,0.00012855505337938666
0.010362687520682812,0.0064503904432058334,-0.00936751626431942,0.0034461370669305325,-0.0002773944870568812,0.00012598423927556723
0.009831337258219719,0.00594482384622097,-0.008996558375656605,0.00371725601144135,-0.0002752218279056251,6.771391053916886e-05
0.010627375915646553,0.005596559960395098,-0.008828221820294857,0.003798897610977292,-0.0005167300114408135,4.8364650865551084e-05
0.011615496128797531,0.005669647362083197,-0.00955134816467762,0.004151317290961742,-0.0005885464488528669,4.598270243150182e-05
0.012581560760736465,0.006014603190124035,-0.009535337798297405,0.003648299491032958,-0.000581504893489182,4.47642378276214e-05
0.01162277814000845,0.006551219616085291,-0.009089424274861813,0.003509089583531022,-0.0005685433279722929,4.3673135223798454e-05
0.010865234769880772,0.0061464072205126286,-0.009378540329635143,0.003668390680104494,-0.0005933544016443193,3.216040931874886e-05
0.011702282354235649,0.0057535432279109955,-0.008890779688954353,0.004185594152659178,-0.0008664470515213907,2.1533654944505543e-05
0.011640140786767006,0.005662898998707533,-0.008972653187811375,0.00401580473408103,-0.0009194159647449851,2.0400990251800977e-05
0.01150093600153923,0.005981736816465855,-0.008996203541755676,0.0038586778100579977,-0.0009356337832286954,1.9907642126781866e-05
0.012162143364548683,0.006498405709862709,-0.009402004070580006,0.003766060573980212,-0.0013548864517360926,2.5571484911779407e-06
0.011898902244865894,0.006034873891621828,-0.008955643512308598,0.0036810915917158127,-0.0013126397971063852,1.6696353100087435e-07
0.011655334383249283,0.006135875824838877,-0.009253483265638351,0.003646701341494918,-0.001257260562852025,1.090152501603825e-08
0.011771317571401596,0.005781606305390596,-0.009163868613541126,0.0039660995826125145,-0.0012600572081282735,7.117917366628035e-10
0.011948365718126297,0.006071786861866713,-0.008648193441331387,0.004231090657413006,-0.0012628468684852123,4.6474917664296456e-11
0.011964988894760609,0.006295853294432163,-0.00877460092306137,0.0036718822084367275,-0.001205675071105361,3.03448000234241e-12
0.011406169272959232,0.005644804798066616,-0.009001413360238075,0.0035569833125919104,-0.001111497520469129,1.9812988326806807e-13
0.011727049946784973,0.005905997473746538,-0.008977020159363747,0.0037069651298224926,-0.0010788860963657498,-0.0006124777719378471
0.01185907144099474,0.005453270860016346,-0.008559956215322018,0.004401462618261576,-0.0010095868492498994,-0.000990910455584526
0.01185907144099474,0.005453270860016346,-0.008559956215322018,0.004401462618261576,-0.0010095868492498994,-0.000990910455584526
0.01174533274024725,0.005876390729099512,-0.009565839543938637,0.003912249580025673,-0.0009194844751618803,-0.0008781373617239296
0.01158813200891018,0.00628727488219738,-0.008586939424276352,0.004021598957479,-0.0008216779096983373,-0.0008661715546622872
0.011778977699577808,0.00561016658321023,-0.008323931135237217,0.004142049700021744,-0.000743980286642909,-0.0007845099316909909
0.01225031353533268,0.005958471447229385,-0.009237081743776798,0.004309140145778656,-0.0006245835102163255,-0.0007301121950149536
0.011786960996687412,0.005683872848749161,-0.009116264060139656,0.004187529440969229,-0.000547352188732475,-0.0007321503362618387
0.01184318121522665,0.0060444967821240425,-0.008921089582145214,0.004416871815919876,-0.0005346762482076883,-0.0007662571151740849
0.011721054092049599,0.006084044463932514,-0.009515968151390553,0.0047610909678041935,-0.0005247356602922082,-0.0007940039504319429
0.01216593012213707,0.0060287113301455975,-0.009315463714301586,0.004807171877473593,-0.00048073785728774965,-0.0011831446317955852
0.01190461590886116,0.005929713137447834,-0.008913707919418812,0.0043699005618691444,-0.00044156707008369267,-0.0012879996793344617
0.012155717238783836,0.005847314838320017,-0.009090476669371128,0.0044266656041145325,-0.0004081733350176364,-0.001416939776390791
0.012083031237125397,0.005930888932198286,-0.00921392347663641,0.004492694046348333,-0.00037947038072161376,-0.0013783910544589162
0.011825093068182468,0.005945137236267328,-0.008918218314647675,0.00465217512100935,-0.0003545396320987493,-0.0013716123066842556
0.012230070307850838,0.00584918400272727,-0.009146067313849926,0.004795142449438572,-0.0003842738806270063,-0.0012427137698978186
0.012271586805582047,0.006137275602668524,-0.009344823658466339,0.005005710292607546,-0.00036534754326567054,-0.0011893854243680835
0.012269462458789349,0.005576930474489927,-0.008926734328269958,0.004440709482878447,-0.00034552093711681664,-0.0012384444708004594
0.012086797505617142,0.005822206847369671,-0.009128600358963013,0.004340894054621458,-0.0003275629715062678,-0.0013920278288424015
0.012183223851025105,0.00554463779553771,-0.009482053108513355,0.0043248459696769714,-0.0003113705024588853,-0.0015207391697913408
0.011962569318711758,0.0059103588573634624,-0.009050039574503899,0.004548545926809311,-0.0002967017353512347,-0.001644392148591578
0.011757601983845234,0.005626524332910776,-0.008698776364326477,0.004697147756814957,-0.0002833540493156761,-0.0018115793354809284
0.012797263450920582,0.005701072048395872,-0.009559649974107742,0.004964993800967932,-0.00027115497505292296,-0.0017038618680089712
0.011836661025881767,0.00629094522446394,-0.009347610175609589,0.005003150552511215,-0.00025996373733505607,-0.0018172094132751226
0.012303684838116169,0.005639992654323578,-0.008889934979379177,0.004446234554052353,-0.00024965981720015407,-0.0019177458016201854
0.012339281849563122,0.00529507314786315,-0.009331302717328072,0.004302599001675844,-0.00024014136579353362,-0.0022044742945581675
0.011906635947525501,0.005557237192988396,-0.008988329209387302,0.004154528491199017,-0.00023132273054216057,-0.0023480686359107494
0.012184658087790012,0.005586266051977873,-0.00875129085034132,0.0048102266155183315,-0.00025077411555685103,-0.002257344778627157
0.012165726162493229,0.005405439995229244,-0.009321321733295918,0.004923902451992035,-0.0002381156518822536,-0.0020664299372583628
0.012165726162493229,0.005405439995229244,-0.009321321733295918,0.004923902451992035,-0.0002381156518822536,-0.0020664299372583628
0.01222065556794405,0.005316956900060177,-0.009218880906701088,0.004616521764546633,-0.00023050793970469385,-0.002123568207025528
0.012164588086307049,0.005370857659727335,-0.008625391870737076,0.0045096008107066154,-0.00022335763787850738,-0.0021116400603204966
0.01239914633333683,0.00545542361214757,-0.009828823618590832,0.004428514279425144,-0.000216636253753677,-0.0022884111385792494
0.011952515691518784,0.005495539866387844,-0.009006884880363941,0.0044953650794923306,-0.00021030816424172372,-0.0025622756220400333
0.012653340585529804,0.006107684224843979,-0.008412115275859833,0.00550864590331912,-0.00020433908503036946,-0.002727201674133539
0.01207006350159645,0.00550047354772687,-0.008993850089609623,0.005378710571676493,-0.0001986996503546834,-0.0026292584370821714
0.012229607440531254,0.005325637757778168,-0.008965035900473595,0.0050000534392893314,-0.0001933631137944758,-0.0023349758703261614
0.012108259834349155,0.005195739679038525,-0.008653724566102028,0.004802285227924585,-0.00018830537737812847,-0.0022545824758708477
0.012122252024710178,0.005891777575016022,-0.010421285405755043,0.004677096381783485,-0.00018350566097069532,-0.00224530347622931
0.012329628691077232,0.005583042744547129,-0.009046674706041813,0.0047311014495790005,-0.0001789446105249226,-0.0024187895469367504
0.011992710642516613,0.005710070487111807,-0.008718176744878292,0.005770751275122166,-0.0001746051711961627,-0.0024184708017855883
0.013065102510154247,0.005219930317252874,-0.010639213025569916,0.005568056832998991,-0.00017047101573552936,-0.002735906047746539
0.012563640251755714,0.00536503316834569,-0.01087922602891922,0.005810422357171774,-0.00016652781050652266,-0.002918361686170101
0.012974588200449944,0.005754957906901836,-0.009909396059811115,0.005473719444125891,-0.0001627632009331137,-0.0029576383531093597
0.01209745928645134,0.006057840771973133,-0.010569064877927303,0.004979729652404785,-0.00015916512347757816,-0.0028343035373836756
0.01247395295649767,0.005864989478141069,-0.010348241776227951,0.005195028148591518,-0.00015572248958051205,-0.002916719065979123
0.012841267511248589,0.005460864398628473,-0.010327499359846115,0.0056145889684557915,-0.00015242565132211894,-0.0026635148096829653
0.012519856914877892,0.005453838501125574,-0.010800070129334927,0.005570879206061363,-0.00014926576113794,-0.0025421655736863613
0.013273278251290321,0.006134582217782736,-0.01115396898239851,0.004975772928446531,-0.00014623381139244884,-0.0026056282222270966
0.012761394493281841,0.006116427481174469,-0.011725815944373608,0.00450633792206645,-0.00014332294813357294,-0.0027270126156508923
0.013125089928507805,0.005885064136236906,-0.011370552703738213,0.004355822689831257,-0.00014052573533263057,-0.002449575113132596
0.013125089928507805,0.005885064136236906,-0.011370552703738213,0.004355822689831257,-0.00014052573533263057,-0.002449575113132596
0.013027781620621681,0.005461724475026131,-0.011648881249129772,0.005285053048282862,-0.00013524618407245725,-0.002382033271715045
0.01320475060492754,0.005306358449161053,-0.01104943361133337,0.005429590120911598,-0.00013275242235977203,-0.003001776058226824
0.012807776220142841,0.0058768740855157375,-0.011009366251528263,0.005095190368592739,-0.00013034908624831587,-0.003650532802566886
0.012887547723948956,0.005762459710240364,-0.01114710234105587,0.004809485282748938,-0.00012803124263882637,-0.0043904343619942665
0.012901755049824715,0.005744344089180231,-0.01081204041838646,0.004664123523980379,-0.0001257943658856675,-0.004216939210891724
0.013273986987769604,0.0048966179601848125,-0.01124497689306736,0.004891872871667147,-0.0001236341631738469,-0.0034687963780015707
0.012863167561590672,0.005055319517850876,-0.011112646199762821,0.005030766595155001,-0.00012154701835243031,-0.003397321328520775
0.01348877977579832,0.0055090999230742455,-0.010355624370276928,0.005282409489154816,-0.00011952930799452588,-0.0031096970196813345
0.013034631498157978,0.005363615229725838,-0.011062845587730408,0.0054660821333527565,-0.00011757726315408945,-0.0033918533008545637
0.013355991803109646,0.005858926102519035,-0.011030876077711582,0.0048774234019219875,-0.00011568807531148195,-0.003692008089274168
0.013372614979743958,0.005138672888278961,-0.010901933535933495,0.004941529128700495,-0.00011385859397705644,-0.0041640386916697025
0.014057469554245472,0.00474883709102869,-0.011292156763374805,0.005864549893885851,-0.0001120861415984109,-0.004133451264351606
0.013803540728986263,0.005111372098326683,-0.01094867568463087,0.006157691590487957,-0.00011036797513952479,-0.0035309367813169956
0.01389316190034151,0.00514640798792243,-0.01130001526325941,0.006005342584103346,-0.0001087016862584278,-0.0033893431536853313
0.013673102483153343,0.00539256539195776,-0.011149688623845577,0.005421972367912531,-0.00010708501940825954,-0.0035581369884312153
0.013703917153179646,0.005675098858773708,-0.010780474171042442,0.005023004952818155,-0.00010551569721428677,-0.0035047363489866257
0.013919457793235779,0.005360917653888464,-0.011592851020395756,0.005207406356930733,-0.000103991616924759,-0.003553201677277684
0.014129002578556538,0.004984006285667419,-0.010990726761519909,0.005251688417047262,-0.00010251113417325541,-0.003641687799245119
0.013940942473709583,0.00524872587993741,-0.010814331471920013,0.00577929150313139,-0.00010107205162057653,-0.003974701277911663
0.013868887908756733,0.005628876853734255,-0.010996049270033836,0.005750563926994801,-9.96729067992419e-05,-0.004030553624033928
0.014502382837235928,0.006234182044863701,-0.010897910222411156,0.0056067705154418945,-9.831193892750889e-05,-0.0037975765299052
0.014190729707479477,0.005642641335725784,-0.011564726009964943,0.005430599208921194,-9.698766371002421e-05,-0.0034678445663303137
0.014400009997189045,0.0052725342102348804,-0.010764365084469318,0.005594767164438963,-9.569853864377365e-05,-0.0035928734578192234
0.014175957068800926,0.0052674515172839165,-0.010604768991470337,0.005669145379215479,-9.444326133234426e-05,-0.00391832459717989
0.014309044927358627,0.005112107843160629,-0.011247869580984116,0.005658741574734449,-9.322060213889927e-05,-0.004017758183181286
0.014609700068831444,0.005717557389289141,-0.01036316342651844,0.0059170410968363285,-9.086752834264189e-05,-0.0038595276419073343
0.014609700068831444,0.005717557389289141,-0.01036316342651844,0.0059170410968363285,-9.086752834264189e-05,-0.0038595276419073343
0.014487167820334435,0.005364258773624897,-0.010718125849962234,0.0063095251098275185,-8.973501098807901e-05,-0.003876273985952139
0.014888852834701538,0.0049700429663062096,-0.010435987263917923,0.00622542342171073,-8.863046241458505e-05,-0.003928087651729584
0.014570096507668495,0.005317316390573978,-0.010505173355340958,0.006221720948815346,-8.755274029681459e-05,-0.004157909192144871
0.014616629108786583,0.005555144511163235,-0.010558631271123886,0.005758058745414019,-8.650086238048971e-05,-0.003997804131358862
0.014559837989509106,0.005884584970772266,-0.010655715130269527,0.005896222312003374,-8.547399920644239e-05,-0.0042929621413350105
0.01504206657409668,0.005735710728913546,-0.01150665432214737,0.006303365807980299,-8.447124127997085e-05,-0.0042193494737148285
0.015247774310410023,0.005191500764340162,-0.010570310056209564,0.006332674995064735,-8.349168638233095e-05,-0.003991351928561926
0.014751434326171875,0.00561560457572341,-0.010326019488275051,0.006154305767267942,-8.253464329754934e-05,-0.004131319932639599
0.014638938941061497,0.005385872907936573,-0.010938835330307484,0.0057387575507164,-8.159929711837322e-05,-0.004746154882013798
0.014845434576272964,0.005424611736088991,-0.010330911725759506,0.005823164712637663,-8.06848838692531e-05,-0.004728900734335184
0.014819888398051262,0.0057387021370232105,-0.010619510896503925,0.006442044861614704,-7.97907414380461e-05,-0.004363617394119501
0.015075113624334335,0.005442908965051174,-0.010784748010337353,0.00660238042473793,-1.0277966794092208e-05,-0.004401578102260828
0.015323254279792309,0.005048575345426798,-0.010597005486488342,0.006372462492436171,-6.710777142870938e-07,-0.004436189774423838
0.015299243852496147,0.005649652797728777,-0.010651768185198307,0.006376436445862055,-4.3816577033339854e-08,-0.004341675899922848
0.015374386683106422,0.005322518292814493,-0.011036524549126625,0.006877910811454058,-2.860909509294629e-09,-0.004572021309286356
0.014901108108460903,0.006039110943675041,-0.01048983447253704,0.00700141116976738,-1.8679695290568787e-10,-0.0050321524031460285
0.015075784176588058,0.00559581071138382,-0.01094391942024231,0.0072442009113729,-1.2196506825323805e-11,-0.004948837216943502
0.014946519397199154,0.005307660438120365,-0.010308192111551762,0.0066572935320436954,-7.96344760967127e-13,-0.004825732670724392
0.015325741842389107,0.005356634967029095,-0.010646529495716095,0.0064177438616752625,-5.199562229884179e-14,-0.004684015642851591
0.015275525860488415,0.0047141690738499165,-0.011196915060281754,0.006687764078378677,-3.3949423574295996e-15,-0.004659457132220268
0.01585656963288784,0.005114526953548193,-0.01066910196095705,0.006767237558960915,-2.216654650369064e-16,-0.004969520028680563
0.015542158856987953,0.0055844709277153015,-0.011376622132956982,0.006556372623890638,-1.44731709060342e-17,-0.0052078538574278355
0.01588132418692112,0.005479997955262661,-0.010593471117317677,0.0066442848183214664,-9.449947064280366e-19,-0.005249764770269394
0.01575174741446972,0.00525730662047863,-0.01041456963866949,0.00670458422973752,-6.170139875602783e-20,-0.004967705346643925
0.015916857868433,0.00491314847022295,-0.01131844986230135,0.006849262863397598,-4.0286603888173455e-21,-0.004731504712253809
0.01615992747247219,0.004838265012949705,-0.010932151228189468,0.006751745007932186,-2.630427532160407e-22,-0.004638458136469126
0.01615992747247219,0.004838265012949705,-0.010932151228189468,0.006751745007932186,-2.630427532160407e-22,-0.004638458136469126
0.016029708087444305,0.005152996629476547,-0.011627573519945145,0.006609935779124498,-1.121392696650059e-24,-0.005229138303548098
0.015890004113316536,0.0052231354638934135,-0.01080856192857027,0.0071036978624761105,-7.32189322679209e-26,-0.005573020316660404
0.01621253788471222,0.005054835695773363,-0.010220051743090153,0.006889603566378355,-4.7806735008222374e-27,-0.005608491599559784
0.01697968877851963,0.0051306081004440784,-0.010823987424373627,0.006815055385231972,-3.121437957338488e-28,-0.005546850617974997
0.016918271780014038,0.00491412915289402,-0.010698440484702587,0.007044853176921606,-2.03807609273252e-29,-0.005151604302227497
0.016833798959851265,0.004885418806225061,-0.01101431529968977,0.006983666215091944,-1.3307180977297264e-30,-0.0053087580017745495
0.01626701094210148,0.005201776046305895,-0.010846641846001148,0.006606564857065678,-8.688638282238518e-32,-0.005489622242748737
0.016421709209680557,0.0054422710090875626,-0.010392758995294571,0.006679051090031862,-5.673059898659165e-33,-0.005499464459717274
0.016020750626921654,0.005007046740502119,-0.011389059945940971,0.00691976398229599,-3.7041027743522545e-34,-0.005687476601451635
0.016728729009628296,0.005255186930298805,-0.011226593516767025,0.006961793173104525,-2.4185144810117695e-35,-0.005348344333469868
0.01683099754154682,0.005175570026040077,-0.01091353502124548,0.007157706189900637,-1.5791172755213722e-36,-0.0052121663466095924
0.017018290236592293,0.005004439502954483,-0.01008351519703865,0.007347903214395046,-1.0310507471972283e-37,-0.005241756327450275
0.016943199560046196,0.00518766837194562,-0.011078284122049809,0.007065682206302881,-6.732024195312176e-39,-0.005631979554891586
0.016486654058098793,0.005164069589227438,-0.011939634568989277,0.007085775025188923,-2.959895209642127e-05,-0.006110322196036577
0.01722702756524086,0.005469549912959337,-0.011149808764457703,0.007400863338261843,-1.932600071086199e-06,-0.005989458877593279
0.017083201557397842,0.005572103429585695,-0.010665425099432468,0.007477010600268841,-1.2618497180483246e-07,-0.005297213327139616
0.017765965312719345,0.004966797772794962,-0.011188440956175327,0.007524582557380199,-8.238977500241162e-09,-0.005769130773842335
0.017543410882353783,0.0049893842078745365,-0.011009753681719303,0.0068673440255224705,-5.379462986176975e-10,-0.0056345462799072266
0.01719050481915474,0.005301804281771183,-0.011584050953388214,0.007101260591298342,-3.5124049502233134e-11,-0.006064583547413349
0.018137125298380852,0.005136395338922739,-0.011998569592833519,0.006953320931643248,-2.2933495380517144e-12,-0.006351505406200886
0.01705780066549778,0.005333763547241688,-0.011223639361560345,0.007005133666098118,-1.497393517773532e-13,-0.0060958340764045715
0.017436208203434944,0.0051840366795659065,-0.011597608216106892,0.007281412370502949,-9.776909980934757e-15,-0.0061606899835169315
0.017924698069691658,0.0049999672919511795,-0.011217006482183933,0.0075998613610863686,-6.383624102312632e-16,-0.005993271712213755
0.017772097140550613,0.005246649496257305,-0.01170247420668602,0.0074797323904931545,-4.168049948346909e-17,-0.006446242332458496
0.018422460183501244,0.005018867086619139,-0.012314829044044018,0.007712211925536394,-2.7214386909601807e-18,-0.006633923389017582
0.018141234293580055,0.004917185287922621,-0.011981510557234287,0.007560792379081249,-1.7769051894224307e-19,-0.006647483911365271
0.018141234293580055,0.004917185287922621,-0.011981510557234287,0.007560792379081249,-1.7769051894224307e-19,-0.006647483911365271
0.01817901059985161,0.005107130855321884,-0.011749147437512875,0.007524790707975626,-7.575226547655253e-22,-0.006660669110715389
0.01812940090894699,0.005627391394227743,-0.013078281655907631,0.00725771626457572,-4.9460815140001186e-23,-0.006838409695774317
0.01812940090894699,0.005627391394227743,-0.013078281655907631,0.00725771626457572,-4.9460815140001186e-23,-0.006838409695774317
0.018342019990086555,0.004491064231842756,-0.011671791784465313,0.007912803441286087,-2.1085921661053584e-25,-0.007155248429626226
0.01821316033601761,0.004480377770960331,-0.012529765255749226,0.007468210533261299,-1.376760111134553e-26,-0.006224635988473892
0.018719514831900597,0.005063959863036871,-0.011987166479229927,0.007303883321583271,-0.00020911953470204026,-0.00651517603546381
0.018658190965652466,0.00507086468860507,-0.012390644289553165,0.007519672624766827,-0.00024584788479842246,-0.006916410755366087
0.018293770030140877,0.005111022386699915,-0.012192407622933388,0.008148458786308765,-0.0002562501758802682,-0.006958109326660633
0.01879390887916088,0.0053914082236588,-0.012343288399279118,0.00779874948784709,-0.00024601613404229283,-0.006990733556449413
0.018719427287578583,0.004943623207509518,-0.01245797611773014,0.00758408335968852,-0.0002545642200857401,-0.007135098334401846
0.018611598759889603,0.004905115347355604,-0.011985267512500286,0.007744370028376579,-0.00026184035232290626,-0.007010883651673794
0.018695062026381493,0.0052925655618309975,-0.012401062995195389,0.008155499584972858,-0.0002791864681057632,-0.00670140516012907
0.018827984109520912,0.005133173894137144,-0.01204447727650404,0.008196753449738026,-0.0002769316197372973,-0.007032981142401695
0.01898740790784359,0.005394861102104187,-0.0124669773504138,0.007653086446225643,-0.0004832895065192133,-0.007851281203329563
0.019411852583289146,0.005263938568532467,-0.012171256355941296,0.008315104059875011,-0.0005450999015010893,-0.00784354843199253
0.01870986446738243,0.005004119593650103,-0.012289558537304401,0.008534778840839863,-0.0005068582249805331,-0.007397033274173737
0.01891031302511692,0.005189898423850536,-0.012315223924815655,0.008172665722668171,-0.0005359367933124304,-0.007340545766055584
0.019170992076396942,0.005125815514475107,-0.012127025052905083,0.00821373239159584,-0.0005597086274065077,-0.007436536252498627
0.01915086805820465,0.0057819620706140995,-0.013258066959679127,0.009077074937522411,-0.0008215362322516739,-0.007483809255063534
0.019076745957136154,0.005437072366476059,-0.012342536821961403,0.008695793338119984,-0.0008977850084193051,-0.007806253153830767
0.019210344180464745,0.00548427551984787,-0.012715908698737621,0.008219188079237938,-0.0012667328119277954,-0.007842523977160454
0.01899775117635727,0.0055646272376179695,-0.012607105076313019,0.008304466493427753,-0.0015906249172985554,-0.007667283993214369
0.019428659230470657,0.005119571462273598,-0.013384244404733181,0.008646015077829361,-0.0015718643553555012,-0.008085940033197403
0.019199920818209648,0.005425991024821997,-0.012427768670022488,0.008676603436470032,-0.0016570509178563952,-0.008054948411881924
0.019200801849365234,0.005175258032977581,-0.012425366789102554,0.009022996760904789,-0.001519183162599802,-0.008138413541018963
0.0192994624376297,0.005330337211489677,-0.013242652639746666,0.008608527481555939,-0.0013986768899485469,-0.008420591242611408
0.019516676664352417,0.005253898445516825,-0.01248805783689022,0.008852371945977211,-0.0012023353483527899,-0.007751415483653545
0.019327718764543533,0.004913749638944864,-0.013123310171067715,0.008816855028271675,-0.0009379019611515105,-0.007532596588134766
0.019227908924221992,0.0049612922593951225,-0.012856647372245789,0.009287659078836441,-0.0009064801270142198,-0.007995367981493473
0.019440576434135437,0.005070479121059179,-0.012596498243510723,0.009153768420219421,-0.0008012381149455905,-0.007449128665030003
0.01961786113679409,0.005386633332818747,-0.013363702222704887,0.008890590630471706,-0.0008016109350137413,-0.007274271454662085
0.01961786113679409,0.005386633332818747,-0.013363702222704887,0.008890590630471706,-0.0008016109350137413,-0.007274271454662085
0.020303886383771896,0.005074528977274895,-0.01314427237957716,0.00935031846165657,-0.0007321021403186023,-0.0073885247111320496
0.019552379846572876,0.004753328859806061,-0.01367648970335722,0.008585797622799873,-0.0006651775911450386,-0.007459674961864948
0.01925506256520748,0.005024218466132879,-0.013363055884838104,0.00842387042939663,-0.0005782127263955772,-0.007367449346929789
0.019466932862997055,0.005225532688200474,-0.01319152768701315,0.00937790796160698,-0.0005075719673186541,-0.007578269112855196
0.01945515349507332,0.005670398008078337,-0.013500788249075413,0.009095954708755016,-0.000455730885732919,-0.00825872365385294
0.019359661266207695,0.005294585134834051,-0.013181963935494423,0.008607984520494938,-0.0004743258759845048,-0.00848336424678564
0.020121868699789047,0.0051954626105725765,-0.013499321416020393,0.008781065233051777,-0.0004531963204499334,-0.007959860377013683
0.019999558106064796,0.00496444059535861,-0.012943170964717865,0.00876571610569954,-0.000419213785789907,-0.007618618663400412
0.0191041249781847,0.004771568812429905,-0.013757276348769665,0.008820326067507267,-0.00038906611735001206,-0.007879937998950481
0.019896535202860832,0.004799540154635906,-0.013198318891227245,0.009125227108597755,-0.00039228732930496335,-0.007717068772763014
0.02040165103971958,0.005217608995735645,-0.013981642201542854,0.009494462050497532,-0.00039468417526222765,-0.00738911097869277
0.02011922374367714,0.005031167063862085,-0.013234569691121578,0.009364528581500053,-0.00037307056481949985,-0.0071997689083218575
0.019866297021508217,0.004972054157406092,-0.013467405922710896,0.009558937512338161,-0.00035231406218372285,-0.007351244799792767
0.020103227347135544,0.004927270580083132,-0.013288584537804127,0.009800163097679615,-0.0003568974498193711,-0.007106937933713198
0.019238507375121117,0.004795156419277191,-0.013943532481789589,0.008563016541302204,-0.0003605414822231978,-0.007232917007058859
0.019607502967119217,0.0048247636295855045,-0.013865595683455467,0.008763325400650501,-0.0003446837654337287,-0.007515514735132456
0.01994781196117401,0.005634481552988291,-0.013785379938781261,0.009385327808558941,-0.00032902148086577654,-0.007625104393810034
0.02012569271028042,0.005223141051828861,-0.013526585884392262,0.009185776114463806,-0.0003146452072542161,-0.007215930614620447
0.01967192254960537,0.004917096346616745,-0.014147289097309113,0.00906643457710743,-0.0003014677786268294,-0.0072151729837059975
0.021092519164085388,0.004689948167651892,-0.013434600085020065,0.009447786957025528,-0.000275128724751994,-0.00790831446647644
0.0205061137676239,0.004859917797148228,-0.014527085237205029,0.009343248791992664,-0.0002476062218192965,-0.007910099811851978
0.019724005833268166,0.005355386063456535,-0.014054935425519943,0.009642058983445168,-0.000233919607126154,-0.007230604998767376
0.01991470344364643,0.005741417873650789,-0.013362155295908451,0.009834851138293743,-0.00022230665490496904,-0.00723296357318759
0.02019939012825489,0.005244766362011433,-0.013798881322145462,0.009451540187001228,-0.00021183511125855148,-0.007045596372336149
0.020391082391142845,0.005110899917781353,-0.0139180738478899,0.009117845445871353,-0.00020230846712365746,-0.007975658401846886
0.020391082391142845,0.005110899917781353,-0.0139180738478899,0.009117845445871353,-0.00020230846712365746,-0.007975658401846886
0.020462211221456528,0.005087837111204863,-0.014391395263373852,0.00957201886922121,-0.00019360271107871085,-0.00819791853427887
0.020554328337311745,0.005305074620991945,-0.014146323315799236,0.009307364001870155,-0.00021359039237722754,-0.007940618321299553
0.0204723309725523,0.005166119895875454,-0.013507149182260036,0.009722448885440826,-0.00020573966321535408,-0.007774065714329481
0.02068820595741272,0.005829588044434786,-0.014114993624389172,0.009584547020494938,-0.00021438513067550957,-0.007899296469986439
0.020840758457779884,0.005352029576897621,-0.013794653117656708,0.009332147426903248,-0.0002219529851572588,-0.007632747758179903
0.020969372242689133,0.004733534529805183,-0.014574315398931503,0.010157954879105091,-0.00021535338601097465,-0.008106130175292492
0.020955489948391914,0.004925836808979511,-0.013763817958533764,0.009981154464185238,-0.0002082969294860959,-0.009109871461987495
0.021089989691972733,0.005297254305332899,-0.014335401356220245,0.008929973468184471,-0.00020163376757409424,-0.008578432723879814
0.021113058552145958,0.005181758664548397,-0.013909253291785717,0.01073340605944395,-0.0002214105479652062,-0.008423461578786373
0.021096518263220787,0.005352343432605267,-0.01460869237780571,0.011006338521838188,-0.0002164513134630397,-0.008470548316836357
0.021328968927264214,0.004597501363605261,-0.014001777395606041,0.01052347756922245,-0.0002557240368332714,-0.008480177260935307
0.0215840432792902,0.004675204865634441,-0.014408336021006107,0.010447525419294834,-0.00024841123376972973,-0.007883251644670963
0.02161591686308384,0.005660499446094036,-0.01371467113494873,0.010196711868047714,-0.0002358334168093279,-0.007994584739208221
0.021332163363695145,0.005382531322538853,-0.014485066756606102,0.009915347211062908,-0.00022411387180909514,-0.008720082230865955
0.021491248160600662,0.0050960443913936615,-0.01401748787611723,0.00993647426366806,-0.0002504568255972117,-0.008660009130835533
0.021827129647135735,0.005069081671535969,-0.014552022330462933,0.009832705371081829,-0.00024419769761152565,-0.008433514274656773
0.021716274321079254,0.00494264904409647,-0.013937605544924736,0.01064272690564394,-0.0002530119090806693,-0.008470145054161549
0.021668242290616035,0.004765713587403297,-0.014665240421891212,0.010529887862503529,-0.00026032578898593783,-0.00890862476080656
0.021882163360714912,0.005118570290505886,-0.01389151718467474,0.010467009618878365,-0.0002776379697024822,-0.008853684179484844
0.022130291908979416,0.005052400752902031,-0.01464166957885027,0.010697850957512856,-0.00027545352349989116,-0.009132261388003826
0.02205292135477066,0.00565663306042552,-0.013867259956896305,0.010766503401100636,-0.0003991829289589077,-0.009112206287682056
0.021795174106955528,0.005264770705252886,-0.014600766822695732,0.010450856760144234,-0.00042196642607450485,-0.00943131372332573
0.022056985646486282,0.00500402832403779,-0.013942421413958073,0.01089007779955864,-0.00042403346742503345,-0.009007284417748451
0.022056985646486282,0.00500402832403779,-0.013942421413958073,0.01089007779955864,-0.00042403346742503345,-0.009007284417748451
0.022429926320910454,0.005672902334481478,-0.014328151941299438,0.010702931322157383,-0.00039528420893475413,-0.008986366912722588
0.02257716841995716,0.005498805083334446,-0.014589015394449234,0.010694862343370914,-0.00040133323636837304,-0.008783301338553429
0.02257716841995716,0.005498805083334446,-0.014589015394449234,0.010694862343370914,-0.00040133323636837304,-0.008783301338553429
0.02275577001273632,0.005282448139041662,-0.014742597937583923,0.01036389172077179,-0.0005305527593009174,-0.009042386896908283
0.022280707955360413,0.005431488621979952,-0.014161985367536545,0.010527070611715317,-0.0005123958108015358,-0.009527207352221012
0.022453516721725464,0.005081499926745892,-0.014807911589741707,0.010299568995833397,-0.0005482488195411861,-0.009101850911974907
0.022518644109368324,0.0054128170013427734,-0.014342100359499454,0.010312103666365147,-0.0005643279291689396,-0.009340844117105007
0.022907257080078125,0.005506984889507294,-0.014859998598694801,0.010544972494244576,-0.000572735967580229,-0.009024308063089848
0.022642701864242554,0.005681629292666912,-0.013932868838310242,0.01062481664121151,-0.0005629207007586956,-0.009375122375786304
0.023348934948444366,0.005045346915721893,-0.015156353823840618,0.010940098203718662,-0.0006134063587523997,-0.009546641260385513
0.024050718173384666,0.004758100491017103,-0.014616784639656544,0.010381023399531841,-0.0006143160280771554,-0.009270792827010155
0.023872889578342438,0.005025052931159735,-0.014974948018789291,0.010356349870562553,-0.0006463723839260638,-0.009496983140707016
0.023636402562260628,0.0054176184348762035,-0.014771276153624058,0.01032473985105753,-0.0006301607936620712,-0.009929569438099861
0.023321907967329025,0.005013390444219112,-0.015172484330832958,0.009974431246519089,-0.0006113843992352486,-0.009754003025591373
0.023161396384239197,0.0042455121874809265,-0.01509854570031166,0.010362451896071434,-0.0006340568652376533,-0.010325419716536999
0.023493194952607155,0.0037795158568769693,-0.015219584107398987,0.010340598411858082,-0.0006802071584388614,-0.009866351261734962
0.024471353739500046,0.004217654932290316,-0.014897025190293789,0.01031655352562666,-0.0007120196823962033,-0.009354311972856522
0.0241156704723835,0.004564329981803894,-0.015330247581005096,0.010428154841065407,-0.000707767263520509,-0.00955053698271513
0.024041302502155304,0.004647439811378717,-0.015900684520602226,0.011126404628157616,-0.0006800133269280195,-0.009805362671613693
0.024387087672948837,0.0044020009227097034,-0.015603908337652683,0.011045863851904869,-0.0006983185885474086,-0.009531965479254723
0.024737877771258354,0.004213337320834398,-0.01630750112235546,0.011445297859609127,-0.0007349044899456203,-0.009731734171509743
0.024541743099689484,0.004351837560534477,-0.015793252736330032,0.011193681508302689,-0.0007104293908923864,-0.0106143644079566
0.024464525282382965,0.004515963606536388,-0.01601557619869709,0.010791972279548645,-0.0007330406224355102,-0.009936897084116936
0.024255605414509773,0.004096468910574913,-0.015430808998644352,0.011266475543379784,-0.0007314300164580345,-0.0100995609536767
0.024517634883522987,0.004356555640697479,-0.016048045828938484,0.011110602878034115,-0.0006773984641768038,-0.010071477852761745
0.024633103981614113,0.004109230358153582,-0.015540779568254948,0.010447313077747822,-0.0006552159902639687,-0.010609294287860394
0.025077687576413155,0.003921754192560911,-0.01573951169848442,0.01088882889598608,-0.0006355452933348715,-0.010230669751763344
0.02498934045433998,0.004270449280738831,-0.015961406752467155,0.010634010657668114,-0.0005869189626537263,-0.009887288324534893
0.02498934045433998,0.004270449280738831,-0.015961406752467155,0.010634010657668114,-0.0005869189626537263,-0.009887288324534893
0.025026915594935417,0.0044688936322927475,-0.015838056802749634,0.011093112640082836,-0.0005509546026587486,-0.010235182009637356
0.025075536221265793,0.00420472864061594,-0.015791283920407295,0.01100984402000904,-0.0005267165834084153,-0.010371772572398186
0.025373656302690506,0.00433186162263155,-0.01595817133784294,0.011627092957496643,-0.0005440033273771405,-0.010282780975103378
0.025096619501709938,0.00435258261859417,-0.015844766050577164,0.01121579296886921,-0.000517909531481564,-0.009893902577459812
0.025116605684161186,0.0044492874294519424,-0.016952045261859894,0.011239019222557545,-0.0005433627520687878,-0.01000080443918705
0.025454403832554817,0.004697863012552261,-0.01587878353893757,0.011596736498177052,-0.0005097937537357211,-0.010502279736101627
0.025669032707810402,0.004660145379602909,-0.016078215092420578,0.011259506456553936,-0.0005701830959878862,-0.010302027687430382
0.025744736194610596,0.004573423881083727,-0.01685328409075737,0.011830110102891922,-0.0005133142694830894,-0.01042125839740038
0.025555873289704323,0.004291446413844824,-0.015870921313762665,0.011715853586792946,-0.00046116282464936376,-0.010723878629505634
0.02593635767698288,0.004082491621375084,-0.016112178564071655,0.011455967091023922,-0.0004959016223438084,-0.010781219229102135
0.025181302800774574,0.004122595302760601,-0.01554027758538723,0.011574240401387215,-0.0004588056181091815,-0.010736451484262943
0.025299960747361183,0.004185789730399847,-0.01597294956445694,0.011478893458843231,-0.00048399934894405305,-0.010238616727292538
0.02570294216275215,0.004944505635648966,-0.015852956101298332,0.011966723948717117,-0.0004571688186842948,-0.010301956906914711
0.026390444487333298,0.00491485558450222,-0.016687043011188507,0.012229875661432743,-0.0004834255378227681,-0.010418207384645939
0.026115447282791138,0.0044461083598434925,-0.016017256304621696,0.012569635175168514,-0.00045649183448404074,-0.010625343769788742
0.025420481339097023,0.004308836068958044,-0.01596258208155632,0.012696187943220139,-0.0004500197246670723,-0.010347947478294373
0.02563326247036457,0.004191599320620298,-0.016493650153279305,0.012528974562883377,-0.00041724590118974447,-0.010517523624002934
0.027158647775650024,0.004842575639486313,-0.01606408692896366,0.012636811472475529,-0.00044827154488302767,-0.010906388983130455
0.02662944607436657,0.005104743409901857,-0.016382670029997826,0.012261672876775265,-0.00042221060721203685,-0.010915848426520824
0.0262959785759449,0.004782034084200859,-0.015821795910596848,0.012610194273293018,-0.0003921179741155356,-0.010922148823738098
0.02632991597056389,0.0048013064078986645,-0.016558771952986717,0.01260825153440237,-0.0003951863618567586,-0.010946120135486126
0.026496119797229767,0.0049019162543118,-0.01630396395921707,0.012683753855526447,-0.0003974213032051921,-0.0108139393851161
0.026431886479258537,0.004766775295138359,-0.016358381137251854,0.01237578596919775,-0.00042190830572508276,-0.010807131417095661
0.025642042979598045,0.004667866975069046,-0.016545668244361877,0.012251535430550575,-0.00040464967605657876,-0.010880442336201668
0.025699185207486153,0.00515739107504487,-0.016240810975432396,0.012613010592758656,-0.000383510603569448,-0.010148446075618267
0.02642589807510376,0.005053107161074877,-0.016748035326600075,0.012420248240232468,-0.00041570543544366956,-0.010359017178416252
0.027430158108472824,0.00454138545319438,-0.01576075330376625,0.012340182438492775,-0.0003970373363699764,-0.010959790088236332
0.02723003178834915,0.004589063581079245,-0.01630192995071411,0.012226122431457043,-0.00041960872476920485,-0.010507711209356785
0.02723003178834915,0.004589063581079245,-0.01630192995071411,0.012226122431457043,-0.00041960872476920485,-0.010507711209356785
0.026907654479146004,0.005054156295955181,-0.01583663374185562,0.012518854811787605,-0.0004048592527396977,-0.010757356882095337
0.026873834431171417,0.004195982124656439,-0.016913626343011856,0.012515504844486713,-0.0004077213816344738,-0.011061741970479488
0.027478083968162537,0.005619672127068043,-0.016351260244846344,0.013036631047725677,-0.0003862855373881757,-0.011600215919315815
0.02742168679833412,0.004512852523475885,-0.01631917804479599,0.012732259929180145,-0.00040251531754620373,-0.011212656274437904
0.02727622725069523,0.004013896454125643,-0.015915652737021446,0.013128766790032387,-0.00039257513708435,-0.011736234650015831
0.027160299941897392,0.005282060243189335,-0.01684599742293358,0.01286887377500534,-0.0004468724364414811,-0.011433781124651432
0.02692410536110401,0.005195205565541983,-0.01669144816696644,0.013409193605184555,-0.000492778024636209,-0.011305976659059525
0.02759862132370472,0.004703731741756201,-0.016884267330169678,0.013250377029180527,-0.0004709242784883827,-0.011674548499286175
0.027600852772593498,0.005418678745627403,-0.01666908897459507,0.013277332298457623,-0.0005016710492782295,-0.011586923152208328
0.02733817882835865,0.005251780617982149,-0.016487838700413704,0.013263661414384842,-0.0005266465595923364,-0.011701102368533611
0.02764175273478031,0.004740748554468155,-0.017065124586224556,0.012971024960279465,-0.0007321054581552744,-0.011722680181264877
0.02750939503312111,0.004874981939792633,-0.016097601503133774,0.01285196840763092,-0.0008177788695320487,-0.01135637704282999
0.027555719017982483,0.005277214106172323,-0.017222322523593903,0.0127766914665699,-0.0008170276414602995,-0.01166460756212473
0.02751433476805687,0.004972080700099468,-0.01690865494310856,0.012952573597431183,-0.0008261908078566194,-0.011940820142626762
0.027795391157269478,0.005496839992702007,-0.017149168998003006,0.012112477794289589,-0.0008829885045997798,-0.011908009648323059
0.02817567251622677,0.00525360181927681,-0.016944071277976036,0.01267297100275755,-0.0009587846579961479,-0.011952511966228485
0.028141234070062637,0.004965709988027811,-0.01614494062960148,0.01243517640978098,-0.0009731379104778171,-0.012212011963129044
0.028363564983010292,0.0051002465188503265,-0.01698816567659378,0.012902066111564636,-0.000964666367508471,-0.01238195039331913
0.02802126668393612,0.004991068504750729,-0.017179474234580994,0.013025869615375996,-0.0008702739723958075,-0.012186311185359955
0.028474321588873863,0.004802103154361248,-0.01778361015021801,0.013445500284433365,-0.0008675687713548541,-0.012004042975604534
0.028462816029787064,0.005139502696692944,-0.017397353425621986,0.013660315424203873,-0.0008720665355212986,-0.01194003876298666
0.028435098007321358,0.005342881195247173,-0.016787128522992134,0.013795509934425354,-0.0008758099284023046,-0.012120803818106651
0.027049588039517403,0.004816483240574598,-0.01787550561130047,0.013762982562184334,-0.000871146738063544,-0.012326089665293694
0.028817106038331985,0.0049758004024624825,-0.01733124442398548,0.013754306361079216,-0.0009856419637799263,-0.012277841567993164
0.02907608449459076,0.005100635811686516,-0.01731482893228531,0.01354681234806776,-0.0009884245228022337,-0.012656639330089092
0.02884702943265438,0.005185495596379042,-0.017452454194426537,0.013247787021100521,-0.0009767625015228987,-0.01232373807579279
0.028943704441189766,0.005293294787406921,-0.01745043322443962,0.013638815842568874,-0.0009123717900365591,-0.012420776300132275
0.028943704441189766,0.005293294787406921,-0.01745043322443962,0.013638815842568874,-0.0009123717900365591,-0.012420776300132275
0.028327221050858498,0.00530388904735446,-0.018362505361437798,0.01407152321189642,-0.0008019446977414191,-0.013325948268175125
0.02915799245238304,0.005258462857455015,-0.01766793243587017,0.01342554297298193,-0.0008109405171126127,-0.012752672657370567
0.028407469391822815,0.004942192230373621,-0.017613908275961876,0.013934759423136711,-0.000798629189375788,-0.01186462678015232
0.028628570958971977,0.004797006957232952,-0.0172269344329834,0.013506051152944565,-0.0007324600592255592,-0.012349598109722137
0.02993331477046013,0.005410035140812397,-0.0179499089717865,0.0133677888661623,-0.0007262681610882282,-0.012421747669577599
0.02901487983763218,0.005135648883879185,-0.017592748627066612,0.013693627901375294,-0.0006789190229028463,-0.012595844455063343
0.02878941223025322,0.0051942262798547745,-0.017355849966406822,0.014014591462910175,-0.0006225015968084335,-0.01246357336640358
0.028631888329982758,0.005094779189676046,-0.018200451508164406,0.013664990663528442,-0.0005537110846489668,-0.012707988731563091
0.028513729572296143,0.004962543956935406,-0.01760238967835903,0.01408615242689848,-0.0005781943327747285,-0.012614316307008266
0.029001666232943535,0.005121781025081873,-0.017679918557405472,0.01381007768213749,-0.0005326230893842876,-0.012704296037554741
0.029295936226844788,0.005036235321313143,-0.018035979941487312,0.0141129270195961,-0.0004854410362895578,-0.01297308225184679
0.02921692654490471,0.005081321112811565,-0.017565065994858742,0.013704639859497547,-0.0005143576418049634,-0.012959824874997139
0.029401745647192,0.00487045431509614,-0.018173987045884132,0.014094960875809193,-0.00047967283171601593,-0.013108893297612667
0.029586702585220337,0.004873576108366251,-0.017523106187582016,0.014076721854507923,-0.0005052231135778129,-0.013140400871634483
0.02941209077835083,0.005233023315668106,-0.017897682264447212,0.014579282142221928,-0.0004785232013091445,-0.013338159769773483
0.028923893347382545,0.005413911771029234,-0.018203776329755783,0.014294289983808994,-0.00049426662735641,-0.012953351251780987
0.029287150129675865,0.005118886940181255,-0.017239291220903397,0.014760675840079784,-0.00044935254845768213,-0.013280519284307957
0.029038647189736366,0.0047684647142887115,-0.017958536744117737,0.01457627210766077,-0.00044823563075624406,-0.013371061533689499
0.02953742817044258,0.0047989338636398315,-0.01823900267481804,0.014716096222400665,-0.0004469031700864434,-0.013347187079489231
0.02938981167972088,0.004911086987704039,-0.017605822533369064,0.014407030306756496,-0.00047458309563808143,-0.013277853839099407
0.029890460893511772,0.005038777831941843,-0.01817883551120758,0.015076897107064724,-0.0004801948962267488,-0.013431867584586143
0.029380004853010178,0.0043489388190209866,-0.017826994881033897,0.014601627364754677,-0.0004774402768816799,-0.013086752966046333
0.029767636209726334,0.0043698144145309925,-0.018278073519468307,0.01452724914997816,-0.0005486221634782851,-0.013495437800884247
0.03061404637992382,0.004276649095118046,-0.018302064388990402,0.014318637549877167,-0.0005772752920165658,-0.013856303878128529
0.02996833249926567,0.0045518758706748486,-0.017692716792225838,0.01513922493904829,-0.0005428435979411006,-0.013336565345525742
0.029811009764671326,0.004568086471408606,-0.018430551514029503,0.015443584881722927,-0.0005711455014534295,-0.013729771599173546
0.03004451096057892,0.004907381255179644,-0.01870737224817276,0.01613052748143673,-0.0005648298538289964,-0.013832418248057365
0.03024822100996971,0.004868611693382263,-0.01806662417948246,0.015225712209939957,-0.0005548384506255388,-0.013586551882326603
0.03024822100996971,0.004868611693382263,-0.01806662417948246,0.015225712209939957,-0.0005548384506255388,-0.013586551882326603
0.031538307666778564,0.004659366328269243,-0.018254414200782776,0.014975689351558685,-0.0006806955207139254,-0.013726671226322651
0.030358612537384033,0.00468446547165513,-0.01844462938606739,0.015255408361554146,-0.0007071387954056263,-0.01374343503266573
0.030022239312529564,0.004210800863802433,-0.01881522499024868,0.014731856063008308,-0.0007274779491126537,-0.014062950387597084
0.03117160126566887,0.004516159184277058,-0.018443673849105835,0.015412776730954647,-0.0008375297184102237,-0.014377659186720848
0.03113824501633644,0.004641731735318899,-0.018645310774445534,0.015500354580581188,-0.0009529969538562,-0.014596174471080303
0.031145581975579262,0.004509921185672283,-0.018839415162801743,0.016092540696263313,-0.0009517388534732163,-0.01393576618283987
0.031816065311431885,0.00480329804122448,-0.018283503130078316,0.016298195347189903,-0.0008561622817069292,-0.013589832931756973
0.03201710805296898,0.004249881021678448,-0.01900724321603775,0.015799304470419884,-0.0008554478990845382,-0.013493225909769535
0.031219031661748886,0.003919031471014023,-0.019192032516002655,0.016083283349871635,-0.0007710508652962744,-0.013306260108947754
0.0308485459536314,0.004282954148948193,-0.018074387684464455,0.01547732949256897,-0.0007247897447086871,-0.013600720092654228
0.03168715909123421,0.0043695224449038506,-0.018692459911108017,0.016635676845908165,-0.0007360795279964805,-0.013877795077860355
0.032454002648591995,0.0045119235292077065,-0.01951325684785843,0.016143301501870155,-0.0007409816607832909,-0.014016996137797832
0.03245824947953224,0.004270212724804878,-0.018825871869921684,0.016215253621339798,-0.0006857135449536145,-0.014016015455126762
0.032348960638046265,0.004200332798063755,-0.019049685448408127,0.016117917373776436,-0.0006845872267149389,-0.014068204909563065
0.032211221754550934,0.00439522136002779,-0.019579490646719933,0.016082268208265305,-0.0006434136885218322,-0.014318077825009823
0.03224753960967064,0.004221320152282715,-0.018989887088537216,0.015480424277484417,-0.0006528017111122608,-0.014507407322525978
0.031128987669944763,0.004013937897980213,-0.019280727952718735,0.015132656320929527,-0.0006649321294389665,-0.014558291994035244
0.03319261595606804,0.004364113323390484,-0.019593045115470886,0.01610117219388485,-0.0006649184506386518,-0.01366210263222456
0.03306644409894943,0.004105637781322002,-0.01926066167652607,0.015830377116799355,-0.0006873472011648118,-0.01381356455385685
0.03336861729621887,0.003901693969964981,-0.01971091702580452,0.016324419528245926,-0.0006666931440122426,-0.014407210983335972
0.03296608105301857,0.0042392476461827755,-0.0196343082934618,0.01591256819665432,-0.0007379230810329318,-0.014272470027208328
0.03325479477643967,0.004303355235606432,-0.01973315142095089,0.016328861936926842,-0.0007714347448199987,-0.014576934278011322
0.03302706405520439,0.004016951657831669,-0.02037549763917923,0.016308587044477463,-0.0007889684056863189,-0.014621097594499588
0.033474475145339966,0.0038205874152481556,-0.0207534022629261,0.01645417883992195,-0.0007759807631373405,-0.014690106734633446
0.03320257365703583,0.00392560288310051,-0.019881900399923325,0.01659686490893364,-0.0007423346978612244,-0.014335679821670055
0.03320257365703583,0.00392560288310051,-0.019881900399923325,0.01659686490893364,-0.0007423346978612244,-0.014335679821670055
0.03324202820658684,0.004038876388221979,-0.019733121618628502,0.01609545201063156,-0.0007949366699904203,-0.014505060389637947
0.033723656088113785,0.004002317786216736,-0.020056691020727158,0.015466473065316677,-0.0008295976440422237,-0.014547888189554214
0.03387528657913208,0.00407665828242898,-0.01976299099624157,0.015867047011852264,-0.0007581151439808309,-0.01452025305479765
0.03387121483683586,0.003945551812648773,-0.020688218995928764,0.015533942729234695,-0.0007680541020818055,-0.014886029064655304
0.033945273607969284,0.0037280330434441566,-0.020612683147192,0.01606088876724243,-0.0007067943806760013,-0.014939194545149803
0.0344228595495224,0.003624356584623456,-0.018514815717935562,0.016122233122587204,-0.0006938825827091932,-0.015042226761579514
0.03475913405418396,0.003595518646761775,-0.020278623327612877,0.01616859622299671,-0.000664378865621984,-0.01509197149425745
0.03431188315153122,0.0036042379215359688,-0.02119787596166134,0.016246376559138298,-0.0006374884978868067,-0.014602307230234146
0.034610144793987274,0.003669994417577982,-0.02104128710925579,0.016244560480117798,-0.000573129509575665,-0.014631356112658978
0.03539486601948738,0.0037761437706649303,-0.02043118327856064,0.016450678929686546,-0.0005814550677314401,-0.014934931881725788
0.03598736971616745,0.00441064964979887,-0.020895931869745255,0.0160078052431345,-0.000550137076061219,-0.01508399285376072
0.032884541898965836,0.004523799754679203,-0.02049916796386242,0.016485081985592842,-0.0005695870495401323,-0.014744131825864315
0.03430391848087311,0.004255237057805061,-0.019975988194346428,0.01676408387720585,-0.0005357707850635052,-0.01513623259961605
0.03547873720526695,0.003928699530661106,-0.020643077790737152,0.01684207282960415,-0.0005001632962375879,-0.015223273076117039
0.03493453189730644,0.004286237992346287,-0.021494058892130852,0.016791563481092453,-0.0005295649752952158,-0.015347369946539402
0.03581664711236954,0.004228254780173302,-0.02088330313563347,0.016800880432128906,-0.0005315870512276888,-0.015125174075365067
0.03625647351145744,0.004218126181513071,-0.020516999065876007,0.017574355006217957,-0.0005239658057689667,-0.015405946411192417
0.035178616642951965,0.004275270737707615,-0.02112315408885479,0.017167653888463974,-0.0005369072896428406,-0.015372082591056824
0.03439239412546158,0.004449453670531511,-0.021472027525305748,0.01735389046370983,-0.0005177692510187626,-0.015602342784404755
0.03614463284611702,0.004056169185787439,-0.021564697846770287,0.017435435205698013,-0.0006543207564391196,-0.015384599566459656
0.036058977246284485,0.0043307337909936905,-0.020891288295388222,0.01715071126818657,-0.0006683344836346805,-0.015338844619691372
0.035834960639476776,0.004133495967835188,-0.0207850132137537,0.0174335315823555,-0.000618483463767916,-0.01511039026081562
0.03581433743238449,0.004371413495391607,-0.021251419559121132,0.01711474359035492,-0.000636186043266207,-0.01536035817116499
0.03577888011932373,0.004158946685492992,-0.020854702219367027,0.017389554530382156,-0.0006282590911723673,-0.015345439314842224
0.03560370206832886,0.004314580000936985,-0.021327130496501923,0.017507504671812057,-0.0006122175836935639,-0.01545655820518732
0.03571341186761856,0.004578272346407175,-0.021371489390730858,0.01694139838218689,-0.0006038013962097466,-0.01553070917725563
0.03569015860557556,0.004538138397037983,-0.021367276087403297,0.017136046662926674,-0.0006203452358022332,-0.016187865287065506
0.03609919175505638,0.004259069450199604,-0.021283656358718872,0.0170935969799757,-0.0006020074943080544,-0.014811723493039608
0.03592786565423012,0.004033192526549101,-0.021380696445703506,0.01779795065522194,-0.0006287776050157845,-0.014934629201889038
0.03571200743317604,0.0039449031464755535,-0.0212359931319952,0.01788877509534359,-0.0006166562088765204,-0.015727495774626732
0.03571200743317604,0.0039449031464755535,-0.0212359931319952,0.01788877509534359,-0.0006166562088765204,-0.015727495774626732
0.0361851267516613,0.004607395268976688,-0.021083399653434753,0.018043987452983856,-0.0007009317632764578,-0.01600622944533825
0.035636305809020996,0.004726646468043327,-0.021172789856791496,0.01815776340663433,-0.0007436989690177143,-0.01593271642923355
0.03698940575122833,0.004633759614080191,-0.02195207215845585,0.017909009009599686,-0.0007563178660348058,-0.016189001500606537
0.037657979875802994,0.004175500478595495,-0.022775139659643173,0.01790948398411274,-0.0007588524022139609,-0.015976404771208763
0.03619536757469177,0.0043711126782000065,-0.02173279970884323,0.01768162101507187,-0.0007125128759071231,-0.015893105417490005
0.03577255830168724,0.004233065992593765,-0.021050330251455307,0.017838476225733757,-0.0007924790261313319,-0.015915436670184135
0.03693355992436409,0.004373336676508188,-0.021133024245500565,0.017854884266853333,-0.000802418973762542,-0.016054300591349602
0.037022579461336136,0.004990614950656891,-0.021520914509892464,0.017365621402859688,-0.0008149042259901762,-0.016429316252470016
0.03769318759441376,0.004869414959102869,-0.021568745374679565,0.017337199300527573,-0.0007345916819758713,-0.016398092731833458
0.03710280731320381,0.004444085527211428,-0.022230984643101692,0.01669619046151638,-0.0007395468419417739,-0.016373075544834137
0.0363755077123642,0.004359733313322067,-0.02182871103286743,0.017004627734422684,-0.0006805937155149877,-0.01611948572099209
0.036102861166000366,0.0046425447799265385,-0.02142682485282421,0.017390597611665726,-0.0006452967645600438,-0.01612822152674198
0.03674750402569771,0.00476768147200346,-0.02171781286597252,0.017919739708304405,-0.0006530571263283491,-0.015831375494599342
0.037077680230140686,0.004997230600565672,-0.022638065740466118,0.01853625662624836,-0.0006540429312735796,-0.016093648970127106
0.03709118440747261,0.00454719876870513,-0.022190285846590996,0.017607564106583595,-0.0006334282224997878,-0.016581304371356964
0.036862440407276154,0.004451739136129618,-0.022381367161870003,0.017661111429333687,-0.0006493679829873145,-0.016895847395062447
0.036483943462371826,0.00444045290350914,-0.021894950419664383,0.017588799819350243,-0.0006915957783348858,-0.017088204622268677
0.036877840757369995,0.00455515505746007,-0.021595269441604614,0.016948603093624115,-0.0007748697535134852,-0.016174327582120895
0.03728039562702179,0.0046131787821650505,-0.022463109344244003,0.017416659742593765,-0.0007653575157746673,-0.016259830445051193
0.03728428855538368,0.004509126301854849,-0.022858204320073128,0.017351660877466202,-0.0007794047705829144,-0.01639827899634838
0.03747754171490669,0.00468005146831274,-0.022226225584745407,0.01734008826315403,-0.0007468282128684223,-0.016107885167002678
0.03811126947402954,0.004708522465080023,-0.022374186664819717,0.01749498024582863,-0.0008603649912402034,-0.016762662678956985
0.036109715700149536,0.004811229649931192,-0.02251153625547886,0.017070848494768143,-0.0008769232081249356,-0.016530772671103477
0.03788250312209129,0.00518624484539032,-0.022913014516234398,0.018036138266324997,-0.0008319864282384515,-0.01697445474565029
0.03807910531759262,0.004937826655805111,-0.02287568710744381,0.018113911151885986,-0.0007835734868422151,-0.016635296866297722
0.03743812441825867,0.0048584165051579475,-0.022514862939715385,0.018118983134627342,-0.0007859327015466988,-0.01633203588426113
0.03743812441825867,0.0048584165051579475,-0.022514862939715385,0.018118983134627342,-0.0007859327015466988,-0.01633203588426113
0.03819621726870537,0.0046874950639903545,-0.02247806079685688,0.01797821745276451,-0.0007486818358302116,-0.0166252963244915
0.03841762617230415,0.00460593868046999,-0.022749129682779312,0.018208028748631477,-0.0007116239867173135,-0.016431210562586784
0.03829221799969673,0.0046763052232563496,-0.022318407893180847,0.017677580937743187,-0.0007227146998047829,-0.016833234578371048
0.03816492110490799,0.004675835836678743,-0.02201744168996811,0.016728665679693222,-0.0007283720769919455,-0.016979120671749115
0.03876382112503052,0.005066713318228722,-0.02260260097682476,0.01798536255955696,-0.0008330229902639985,-0.016591886058449745
0.03877756744623184,0.004949248395860195,-0.023113301023840904,0.018871979787945747,-0.0008802658994682133,-0.016745656728744507
0.03865141049027443,0.004764929413795471,-0.02256106398999691,0.018439536914229393,-0.0008854959160089493,-0.01634657382965088
0.038482580333948135,0.004903661087155342,-0.022519201040267944,0.019304415211081505,-0.0009064590558409691,-0.01673739030957222
0.03937927260994911,0.004843900911509991,-0.02243971638381481,0.01925644837319851,-0.001185321481898427,-0.017074547708034515
0.040468521416187286,0.0050118463113904,-0.022783057764172554,0.019172528758645058,-0.0011727147502824664,-0.01715501770377159
0.03835824131965637,0.0047310031950473785,-0.02288607507944107,0.019096586853265762,-0.0011315620504319668,-0.016897017136216164
