davideferrari95/blind_handover_controller/data/Test 86 - [2024-02-07 -- 16-08-36]/joint_states_data.csv
shoulder_pan_joint,shoulder_lift_joint,elbow_joint,wrist_1_joint,wrist_2_joint,wrist_3_joint
0.008375038392841816,0.0036025557201355696,-0.0076559120789170265,0.004868779331445694,-8.442710532108322e-05,0.008266504853963852
0.008375038392841816,0.0036025557201355696,-0.0076559120789170265,0.004868779331445694,-8.442710532108322e-05,0.008266504853963852
0.008375038392841816,0.0036025557201355696,-0.0076559120789170265,0.004868779331445694,-8.442710532108322e-05,0.008266504853963852
0.009206181392073631,0.003078992012888193,-0.007369224447757006,0.0046198805794119835,-8.312927820952609e-05,0.008264717645943165
0.009313004091382027,0.002384234219789505,-0.007321625482290983,0.0045221662148833275,-9.200063504977152e-05,0.00777845922857523
0.009170660749077797,0.0021705778781324625,-0.0074907587841153145,0.0047086915001273155,-9.385809244122356e-05,0.00837786216288805
0.008911574259400368,0.002049356233328581,-0.007564586121588945,0.004773427732288837,-9.268800931749865e-05,0.007903825491666794
0.009452340193092823,0.0025379296857863665,-0.007314142771065235,0.004822731018066406,-9.135767322732136e-05,0.007554228883236647
0.008819839917123318,0.0029510697349905968,-0.0075161573477089405,0.004743876866996288,-9.005278843687847e-05,0.0079960273578763
0.009593915194272995,0.003002885263413191,-0.007449781522154808,0.00448266789317131,-8.878375228960067e-05,0.00833351444453001
0.008924768306314945,0.0026964389253407717,-0.0071924664080142975,0.004033646080642939,-9.371246414957568e-05,0.008060556836426258
0.008501695469021797,0.0021159956231713295,-0.0071167247369885445,0.0044711013324558735,-9.73241840256378e-05,0.00786101259291172
0.008933838456869125,0.002153949346393347,-0.0073332772590219975,0.004351673647761345,-9.605081868357956e-05,0.008112223818898201
0.009332572109997272,0.002440689830109477,-0.007670135702937841,0.0042289248667657375,-9.478798892814666e-05,0.007924792356789112
0.00850133877247572,0.003083878429606557,-0.006986466236412525,0.004243655130267143,-9.355638030683622e-05,0.007703894283622503
0.00848433282226324,0.002839992754161358,-0.006942252162843943,0.00442721089348197,-9.235636389348656e-05,0.008227295242249966
0.00902323517948389,0.0026218437124043703,-0.00749413575977087,0.004221794661134481,-9.118673187913373e-05,0.00801821704953909
0.008600303903222084,0.002425224520266056,-0.0077674235217273235,0.004526177886873484,-9.004629828268662e-05,0.007984491065144539
0.008329746313393116,0.0024493769742548466,-0.007419244851917028,0.004706761799752712,-0.00011601655569393188,0.007713153958320618
0.008899209089577198,0.0024851979687809944,-0.00698351813480258,0.004770572297275066,-0.00013813535042572767,0.007994168438017368
0.008843034505844116,0.0028771746437996626,-0.007245388347655535,0.004712563473731279,-0.00013564927212428302,0.008325887843966484
0.008831553161144257,0.0028192398604005575,-0.007760352920740843,0.004327320493757725,-0.00013178607332520187,0.007910230197012424
0.008803327567875385,0.0027190677355974913,-0.007398761343210936,0.004462271463125944,-0.0001280427968595177,0.008004242554306984
0.008768289349973202,0.002506429562345147,-0.006751144304871559,0.0042327335104346275,-0.00012450084614101797,0.00796408113092184
0.00893580075353384,0.0026561410631984472,-0.007258260622620583,0.004477266687899828,-0.00012114871060475707,0.007996177300810814
0.00893580075353384,0.0026561410631984472,-0.007258260622620583,0.004477266687899828,-0.00012114871060475707,0.007996177300810814
0.008332885801792145,0.003071142826229334,-0.007166668307036161,0.004798978101462126,-0.00011797243496403098,0.007923196069896221
0.008613682352006435,0.003107941709458828,-0.007167595438659191,0.004985736217349768,-0.00011495834769448265,0.00785986240953207
0.009073197841644287,0.003067789366468787,-0.00741557078436017,0.004895300138741732,-0.00011209463264094666,0.008045343682169914
0.008330096490681171,0.0031601255759596825,-0.007561715319752693,0.004866734612733126,-0.00010937004117295146,0.008412784896790981
0.008768336847424507,0.003416365245357156,-0.00787314772605896,0.005217615980654955,-0.00010677491809474304,0.008931206539273262
0.009012187831103802,0.0035183141008019447,-0.006398653145879507,0.005219091195613146,-0.00010430005204398185,0.007803983986377716
0.00856705941259861,0.003364966716617346,-0.007158592343330383,0.005091003142297268,-0.00010193727939622477,0.007474476937204599
0.008660507388412952,0.0030321250669658184,-0.008251790888607502,0.005163561552762985,-9.967925143428147e-05,0.007618083152920008
0.008476455695927143,0.0029391522984951735,-0.008094649761915207,0.00498807430267334,-0.00011198437277926132,0.007675918750464916
0.008213689550757408,0.0028651964385062456,-0.007385196164250374,0.004917961545288563,-0.00011421151430113241,0.008187694475054741
0.008656012825667858,0.0035098360385745764,-0.008398497477173805,0.005350166466087103,-0.00010987775021931157,0.007605087012052536
0.008531242609024048,0.0035213648807257414,-0.008084570057690144,0.00556094478815794,-0.0001076875560102053,0.008144390769302845
0.008214622735977173,0.0034041977487504482,-0.007616439834237099,0.005095194559544325,-0.00010558221401879564,0.008284053765237331
0.008797967806458473,0.0034697363153100014,-0.007524833083152771,0.004575178027153015,-0.00010355748236179352,0.007618155796080828
0.008586699143052101,0.003213495248928666,-0.008185753598809242,0.004528327379375696,-0.0001016088790493086,0.007785265799611807
0.008308242075145245,0.0034351819194853306,-0.00792776606976986,0.00507795624434948,-9.97321549220942e-05,0.007900378666818142
0.008933058008551598,0.0032414551824331284,-0.007411376107484102,0.0052773552015423775,-9.792359196580946e-05,0.00806652195751667
0.008261693641543388,0.003073606174439192,-0.007065023295581341,0.005707972217351198,-9.617953764973208e-05,0.007691813167184591
0.008442206308245659,0.003056541783735156,-0.007890529930591583,0.005362612195312977,-9.449644858250394e-05,0.007525187451392412
0.007910584099590778,0.0031265923753380775,-0.007619913201779127,0.004858681932091713,-9.287115244660527e-05,0.0080116493627429
0.008900750428438187,0.0034519999753683805,-0.007195141166448593,0.004734328482300043,-9.130094258580357e-05,0.007677383720874786
0.008900750428438187,0.0034519999753683805,-0.007195141166448593,0.004734328482300043,-9.130094258580357e-05,0.007677383720874786
0.008667107671499252,0.0033253675792366266,-0.0070003969594836235,0.0051787677221000195,-8.978295227279887e-05,0.007936215959489346
0.008323043584823608,0.0032717178110033274,-0.007622859440743923,0.0053785620257258415,-8.831456943880767e-05,0.007993102073669434
0.008309176191687584,0.003331788582727313,-0.008213169872760773,0.005611421540379524,-8.689340756973252e-05,0.008047943003475666
0.008547757752239704,0.003076589433476329,-0.00798451341688633,0.004942920058965683,-9.253652387997136e-05,0.008269725367426872
0.008665937930345535,0.0031915418803691864,-0.007854290306568146,0.004564044531434774,-9.774261707207188e-05,0.008012172766029835
0.008609205484390259,0.00324985827319324,-0.007796167861670256,0.004512124229222536,-9.667642007116228e-05,0.00801820494234562
0.00870583113282919,0.0030724392272531986,-0.007581587880849838,0.004632062744349241,-9.524317283648998e-05,0.008318583481013775
0.00844237394630909,0.003049331484362483,-0.0075630610808730125,0.004661505576223135,-9.38266166485846e-05,0.007736802101135254
0.008313355036079884,0.0032592802308499813,-0.008126518689095974,0.0046762386336922646,-9.244980901712552e-05,0.00737362215295434
0.009111306630074978,0.0036799595691263676,-0.007997842505574226,0.004716208204627037,-9.111281542573124e-05,0.007842512801289558
0.00838537234812975,0.0033426417503505945,-0.007216805126518011,0.004824582487344742,-0.00010077676415676251,0.007345164194703102
0.008787230588495731,0.0032810631673783064,-0.0074912444688379765,0.004687323234975338,-9.977121226256713e-05,0.007306206971406937
0.008495861664414406,0.003405053401365876,-0.0077163949608802795,0.004888346418738365,-9.84328071353957e-05,0.007778355851769447
0.008462732657790184,0.003350531216710806,-0.007484586909413338,0.004850773140788078,-9.710690210340545e-05,0.0076344870030879974
0.008375009521842003,0.003399984445422888,-0.007318065967410803,0.00477635720744729,-9.581476479070261e-05,0.0073948330245912075
0.008367029950022697,0.0032293132971972227,-0.007648210506886244,0.004686278756707907,-9.455641702516004e-05,0.007158489432185888
0.008535042405128479,0.003421542001888156,-0.007853467017412186,0.004647074267268181,-9.33308620005846e-05,0.007955311797559261
0.00865641888231039,0.0036834166385233402,-0.008102087303996086,0.0046290685422718525,-9.213642624672502e-05,0.008269247598946095
0.008736008778214455,0.003416831837967038,-0.007722523994743824,0.00470431474968791,-9.097236033994704e-05,0.008144378662109375
0.008587582036852837,0.0032892790623009205,-0.007685431279242039,0.005114670842885971,-8.983726002043113e-05,0.007359687704592943
0.008720561861991882,0.0031843758188188076,-0.008108791895210743,0.00498124398291111,-8.873016486177221e-05,0.007421398069709539
0.008778313174843788,0.0034289450850337744,-0.0076496778056025505,0.004865073133260012,-8.77392158145085e-05,0.0072529916651546955
0.00846523605287075,0.0033126925118267536,-0.007610969245433807,0.005080990958958864,-8.6156593170017e-05,0.007393218576908112
0.009236970916390419,0.003504325170069933,-0.0087091950699687,0.005466072354465723,-8.454429917037487e-05,0.007593049667775631
0.008560467511415482,0.0032474121544510126,-0.00828070379793644,0.005243635270744562,-8.29854907351546e-05,0.007636492606252432
0.008216291666030884,0.003560739103704691,-0.008235525339841843,0.005707259755581617,-8.148302003974095e-05,0.007468171417713165
0.00883910059928894,0.003259051591157913,-0.007860846817493439,0.00550225842744112,-8.003367838682607e-05,0.0073095099069178104
0.00883910059928894,0.003259051591157913,-0.007860846817493439,0.00550225842744112,-8.003367838682607e-05,0.0073095099069178104
0.008694560267031193,0.0033564779441803694,-0.007769722957164049,0.00534104136750102,-7.863517384976149e-05,0.007099551148712635
0.008503163233399391,0.0034454872366040945,-0.00807169545441866,0.005127092357724905,-7.728463970124722e-05,0.007655871566385031
0.009278813377022743,0.0033927629701793194,-0.007952176034450531,0.0050567579455673695,-9.01664316188544e-05,0.007748177740722895
0.008340778760612011,0.00351785309612751,-0.008621913380920887,0.005047299899160862,-8.959581464296207e-05,0.0074484702199697495
0.008056127466261387,0.0036695199087262154,-0.007882615551352501,0.005347314290702343,-8.819303911877796e-05,0.007185359951108694
0.008176273666322231,0.0032875887118279934,-0.008083143271505833,0.005503649823367596,-8.677973528392613e-05,0.007476881146430969
0.008931688033044338,0.003148301038891077,-0.007782077882438898,0.005126562435179949,-8.5407416918315e-05,0.007369376718997955
0.008866878226399422,0.0032752982806414366,-0.007892675697803497,0.005024487618356943,-8.407766290474683e-05,0.007327068131417036
0.008277783170342445,0.0037375681567937136,-0.00811424944549799,0.00499421963468194,-8.278863970190287e-05,0.007290933281183243
0.008327151648700237,0.003992564044892788,-0.007907451130449772,0.00535287382081151,-8.153854287229478e-05,0.00795547105371952
0.008327935822308064,0.003457071725279093,-0.007463168818503618,0.005506155546754599,-9.026669431477785e-05,0.0076635126024484634
0.008531427942216396,0.0032903312239795923,-0.007538331672549248,0.004930831491947174,-9.099112503463402e-05,0.0077327643521130085
0.00850432924926281,0.0035337156150490046,-0.007997008040547371,0.004793105181306601,-8.970958151621744e-05,0.007341064978390932
0.008964020758867264,0.0037888193037360907,-0.008187233470380306,0.0047842152416706085,-8.845055708661675e-05,0.006907750852406025
0.008684853091835976,0.0034212395548820496,-0.008549584075808525,0.004737443756312132,-8.722580969333649e-05,0.00673676235601306
0.008129701018333435,0.0035123401321470737,-0.008132854476571083,0.005202266853302717,-8.603515743743628e-05,0.0069365366362035275
0.00866615492850542,0.0032922644168138504,-0.007693246006965637,0.005487437359988689,-8.487559534842148e-05,0.0071108280681073666
0.008583536371588707,0.0034751221537590027,-0.008323914371430874,0.004938578233122826,-8.964316657511517e-05,0.007285325787961483
0.008492845110595226,0.0036858951207250357,-0.008238444104790688,0.004954117815941572,-9.405943274032325e-05,0.00750650092959404
0.008642107248306274,0.0032766261138021946,-0.008050341159105301,0.00480966130271554,-9.320663230028003e-05,0.007103413809090853
0.008835232816636562,0.00322776404209435,-0.008229896426200867,0.00486950296908617,-9.203953231917694e-05,0.007394562941044569
0.008534334599971771,0.003294045105576515,-0.008642935194075108,0.004851306322962046,-9.087941725738347e-05,0.0068712481297552586
0.00878721009939909,0.0035442423541098833,-0.00790416356176138,0.00494017731398344,-8.9746703451965e-05,0.006593748927116394
0.009081056341528893,0.0033197577577084303,-0.007286404725164175,0.0049414075911045074,-8.864142000675201e-05,0.006865461822599173
0.008291016332805157,0.003381409216672182,-0.007908029481768608,0.004688207991421223,-8.756374154472724e-05,0.006995953153818846
0.008703422732651234,0.0032341203186661005,-0.009108005091547966,0.004838534630835056,-8.65113252075389e-05,0.007182658184319735
0.008703422732651234,0.0032341203186661005,-0.009108005091547966,0.004838534630835056,-8.65113252075389e-05,0.007182658184319735
0.008918425999581814,0.00359282991848886,-0.008037746883928776,0.005237788427621126,-0.00012164284271420911,0.007329518441110849
0.008927889168262482,0.0033257934264838696,-0.00750091765075922,0.005048437975347042,-0.00012981453619431704,0.007431790232658386
0.008654346689581871,0.0032262755557894707,-0.008225264959037304,0.004878807347267866,-0.00012691615847870708,0.007024422753602266
0.008524673990905285,0.0032195160165429115,-0.00809974130243063,0.0053329868242144585,-0.00012348311429377645,0.007126976270228624
0.00876004621386528,0.003544993931427598,-0.00752086378633976,0.0054772160947322845,-0.00012018821144010872,0.0073639401234686375
0.00862802006304264,0.0038883311208337545,-0.00829362589865923,0.005475282669067383,-0.00011706148507073522,0.007003659848123789
0.008851912803947926,0.0034459340386092663,-0.008645813912153244,0.005363204516470432,-0.00011409336002543569,0.006894206628203392
0.008969997055828571,0.0030847080051898956,-0.007680193055421114,0.00534019572660327,-0.0001320366282016039,0.006943511310964823
0.008759189397096634,0.002866035560145974,-0.0072013200260698795,0.005043322686105967,-0.000130207059555687,0.007044167723506689
0.008498424664139748,0.0032773218117654324,-0.007456059567630291,0.004810171201825142,-0.00012722752580884844,0.007162894122302532
0.008728781715035439,0.003686868352815509,-0.008410650305449963,0.005001912824809551,-0.00012430467177182436,0.0069678896106779575
0.008611793629825115,0.004141814075410366,-0.007840261794626713,0.005056201945990324,-0.00012150769907748327,0.006781633477658033
0.009321924299001694,0.0033658817410469055,-0.00851077027618885,0.005180517211556435,-0.00011627503408817574,0.006618287414312363
0.008095856755971909,0.003282024059444666,-0.008141454309225082,0.00516072241589427,-0.0001138239458668977,0.006603271700441837
0.008267344906926155,0.0035173397045582533,-0.007727665361016989,0.005046236794441938,-0.00012881452857982367,0.006751559674739838
0.00925145298242569,0.003432905999943614,-0.007460546214133501,0.005181430373340845,-0.0001273419475182891,0.007348745595663786
0.00923098437488079,0.003445020643994212,-0.008733355440199375,0.00543168094009161,-0.00012489136133808643,0.007080055307596922
0.009070033207535744,0.003683993825688958,-0.008713568560779095,0.005621663294732571,-0.00012246832193341106,0.006808907724916935
0.008857558481395245,0.003349015023559332,-0.00788471382111311,0.005507904104888439,-0.00012013334344374016,0.006353661417961121
0.00946791097521782,0.003465172601863742,-0.00779474712908268,0.005513782612979412,-0.00011788532719947398,0.006720421370118856
0.00866460707038641,0.0032110526226460934,-0.008462989702820778,0.005280978512018919,-0.00011571992945391685,0.0070096468552947044
0.008794037625193596,0.003037460381165147,-0.007905058562755585,0.005009952001273632,-0.00012878650159109384,0.007532478775829077
0.008953272365033627,0.0024047717452049255,-0.008246596902608871,0.005242929793894291,-0.00012749461166094989,0.007049912121146917
0.009251635521650314,0.0021789309103041887,-0.0082256393507123,0.005248981527984142,-0.00012533953122328967,0.006569919176399708
0.00864597037434578,0.002071758033707738,-0.00803796574473381,0.005942704621702433,-0.0001231990900123492,0.006467153318226337
0.00890397559851408,0.0021662223152816296,-0.007273417431861162,0.0055083539336919785,-0.0001211267663165927,0.0065886820666491985
0.00937545858323574,0.0027638329192996025,-0.00759101752191782,0.005087736994028091,-0.00011912274931091815,0.006720770616084337
0.008663504384458065,0.002848341129720211,-0.00865473598241806,0.0055899713188409805,-0.00011718404130078852,0.006507799029350281
0.009239078499376774,0.0025030681863427162,-0.0078465910628438,0.005591059103608131,-0.00011530725168995559,0.006596919149160385
0.009089335799217224,0.0025166780687868595,-0.008072452619671822,0.0059087383560836315,-0.00013042791397310793,0.006575598381459713
0.008774579502642155,0.002424700651317835,-0.00777190737426281,0.005567224696278572,-0.00014251872198656201,0.00657150661572814
0.008774579502642155,0.002424700651317835,-0.00777190737426281,0.005567224696278572,-0.00014251872198656201,0.00657150661572814
0.00875047966837883,0.0023032180033624172,-0.00790553167462349,0.005335178691893816,-0.00013917086471337825,0.00698386924341321
0.009157434105873108,0.0026695101987570524,-0.007473817095160484,0.0051311831921339035,-0.00013506288814824075,0.006645794492214918
0.009042087942361832,0.0026174462400376797,-0.0074022384360432625,0.005024695303291082,-0.0001311312516918406,0.006468013860285282
0.008858231827616692,0.00248992582783103,-0.007878272794187069,0.005792680196464062,-0.0001274180831387639,0.006691738963127136
0.009314141236245632,0.0026435572654008865,-0.008375930599868298,0.00589414406567812,-0.00012390945630613714,0.006775390822440386
0.0093727121129632,0.0025564555544406176,-0.008110826835036278,0.005879680160433054,-0.0001205888474942185,0.006630836520344019
0.009044677019119263,0.0024292736779898405,-0.00818122923374176,0.005175367463380098,-0.00011744156654458493,0.006226059049367905
0.009222396649420261,0.0024237646721303463,-0.008309886790812016,0.004842531401664019,-0.00011445429117884487,0.006057612597942352
0.008725772611796856,0.00242710392922163,-0.008352309465408325,0.006141324061900377,-0.0001089136567316018,0.006202086806297302
0.009618205949664116,0.0027505008038133383,-0.008620950393378735,0.005843593273311853,-0.00010633988858899102,0.006087308283895254
0.009638014249503613,0.0026043476536870003,-0.00876401923596859,0.005818132311105728,-0.00011409739818191156,0.006006298121064901
0.009173999540507793,0.0024549176450818777,-0.008286505937576294,0.005339426454156637,-0.00012115904246456921,0.005942514166235924
0.009261933155357838,0.0026414592284709215,-0.008343728259205818,0.005095355678349733,-0.00011911484762094915,0.00599217414855957
0.009407872334122658,0.0025987960398197174,-0.008708223700523376,0.00603113416582346,-0.00011658421135507524,0.006173643749207258
0.009199694730341434,0.0024970227386802435,-0.008042775094509125,0.005794798955321312,-0.00011412295862101018,0.006190125364810228
0.009041535668075085,0.002659187186509371,-0.008111964911222458,0.005474037025123835,-0.00011176101543242112,0.006189784035086632
0.010180432349443436,0.002808517776429653,-0.00819581001996994,0.005144702270627022,-0.00010949486022582278,0.005843793973326683
0.009187287651002407,0.002903806045651436,-0.00843812432140112,0.004876413382589817,-0.00010731867951108143,0.005812556482851505
0.00971415638923645,0.002831290941685438,-0.008248935453593731,0.0053208572790026665,-0.0001052274092216976,0.005866722669452429
0.009328636340796947,0.0029058940708637238,-0.00788914691656828,0.0059486376121640205,-0.00010321604349883273,0.006174984388053417
0.009447785094380379,0.002827411750331521,-0.008007516153156757,0.005995686631649733,-0.00010128015128429979,0.006234555039554834
0.009360632859170437,0.0028448388911783695,-0.008561473339796066,0.005767252296209335,-9.941545431502163e-05,0.0059912852011621
0.009558059275150299,0.002664878498762846,-0.008383173495531082,0.00526136439293623,-9.761836554389447e-05,0.005447972100228071
0.009816629812121391,0.0028921766206622124,-0.00810812134295702,0.00502221193164587,-9.588507236912847e-05,0.005606124177575111
0.009489021264016628,0.002999536693096161,-0.009080391377210617,0.005708354990929365,-9.421198046766222e-05,0.00553814135491848
0.009589364752173424,0.0029851419385522604,-0.008592125028371811,0.00589281041175127,-9.259658691007644e-05,0.0060386634431779385
0.009589364752173424,0.0029851419385522604,-0.008592125028371811,0.00589281041175127,-9.259658691007644e-05,0.0060386634431779385
0.009251381270587444,0.0029207125771790743,-0.00798681192100048,0.005220950115472078,-8.952624921221286e-05,0.0055256434716284275
0.009251381270587444,0.0029207125771790743,-0.00798681192100048,0.005220950115472078,-8.952624921221286e-05,0.0055256434716284275
0.009578931145370007,0.00310497242026031,-0.009333283640444279,0.005188485607504845,-8.806616096990183e-05,0.005359688773751259
0.00987324770539999,0.0031498780008405447,-0.00864111352711916,0.005829645786434412,-8.665303903399035e-05,0.0056681823916733265
0.009225409477949142,0.0030784003902226686,-0.007924417033791542,0.005936227738857269,-8.528443868272007e-05,0.005402441136538982
0.009958421811461449,0.0027822423726320267,-0.008183024823665619,0.005860162433236837,-8.395844633923844e-05,0.005876017268747091
0.009833253920078278,0.0029145225416868925,-0.007867918349802494,0.005579895805567503,-8.26731338747777e-05,0.005444081500172615
0.009377377107739449,0.0030112871900200844,-0.00879949051886797,0.005403214134275913,-8.142649312503636e-05,0.005559683311730623
0.010128856636583805,0.0030037187971174717,-0.00873424019664526,0.0053823525086045265,-9.27003420656547e-05,0.005504579748958349
0.009853535331785679,0.0029967508744448423,-0.009026151150465012,0.0055489735677838326,-9.215864702127874e-05,0.005978047382086515
0.010099471546709538,0.003150587435811758,-0.008146872743964195,0.005949821788817644,-8.95934717846103e-05,0.005445037968456745
0.009767460636794567,0.003107541473582387,-0.008925543166697025,0.005751847755163908,-8.833740139380097e-05,0.005354901310056448
0.009227385744452477,0.0030321148224174976,-0.008530743420124054,0.006229958962649107,-8.711597183719277e-05,0.005486923269927502
0.009521953761577606,0.0027976464480161667,-0.008015920408070087,0.005997447296977043,-8.592774975113571e-05,0.005492071155458689
0.010004594922065735,0.002914650598540902,-0.00849063415080309,0.006006965413689613,-8.477150549879298e-05,0.0059954943135380745
0.009508552961051464,0.0029418645426630974,-0.009344951249659061,0.005389275960624218,-8.364606037503108e-05,0.005692815408110619
0.009621281176805496,0.002996475901454687,-0.008162199519574642,0.005672938656061888,-8.254993736045435e-05,0.00559352058917284
0.010236343368887901,0.0028212955221533775,-0.007918823510408401,0.005864567123353481,-8.148232154780999e-05,0.005248249042779207
0.00964618194848299,0.0030656391754746437,-0.008343547582626343,0.005913992878049612,-8.044188871281222e-05,0.005576602183282375
0.010027245618402958,0.002989008789882064,-0.008253608830273151,0.006024202331900597,-7.942777301650494e-05,0.005478640552610159
0.009753451682627201,0.0029666763730347157,-0.00762034859508276,0.005492737516760826,-7.84388612373732e-05,0.005435316823422909
0.00947884377092123,0.0028322814032435417,-0.00887476559728384,0.004924278240650892,-7.747426570858806e-05,0.0049827625043690205
0.010110518895089626,0.0029506024438887835,-0.009415877982974052,0.005359745118767023,-7.653312786715105e-05,0.004786384291946888
0.009870930574834347,0.003307992359623313,-0.008588632568717003,0.005849312990903854,-7.56145382183604e-05,0.005185605492442846
0.009786991402506828,0.0033963711466640234,-0.007846934720873833,0.006310056429356337,-7.471774006262422e-05,0.005343922413885593
0.010270587168633938,0.003068896709010005,-0.008837626315653324,0.006086742505431175,-7.384202035609633e-05,0.005532838404178619
0.010393468663096428,0.002994327340275049,-0.008168828673660755,0.005805153865367174,-7.298660057131201e-05,0.005210102070122957
0.009552237577736378,0.003454208141192794,-0.008573213592171669,0.005996603984385729,-7.215069490484893e-05,0.004750351887196302
0.009552237577736378,0.003454208141192794,-0.008573213592171669,0.005996603984385729,-7.215069490484893e-05,0.004750351887196302
0.009930351749062538,0.003217782126739621,-0.00934516079723835,0.006015980150550604,-7.133377948775887e-05,0.005284626502543688
0.01007603108882904,0.003420886816456914,-0.009250769391655922,0.00602754857391119,-7.05351703800261e-05,0.005298356059938669
0.009775366634130478,0.0034237385261803865,-0.009165667928755283,0.0063562700524926186,-6.975420546950772e-05,0.005031871143728495
0.009745148941874504,0.003341787261888385,-0.008084192872047424,0.006092599127441645,-8.985154636320658e-06,0.005184370558708906
0.009954293258488178,0.0035329328384250402,-0.008517430163919926,0.006040259730070829,-5.8666643099059e-07,0.005063826683908701
0.009452424012124538,0.003737660823389888,-0.009457852691411972,0.006498769856989384,-3.83051244057242e-08,0.004647588822990656
0.00967310182750225,0.003440211294218898,-0.008743220008909702,0.006474034395068884,-2.5010511439660377e-09,0.004851000849157572
0.010336094535887241,0.0030394713394343853,-0.009790211915969849,0.006115224678069353,-1.6330076180182118e-10,0.004773832857608795
0.009232556447386742,0.003155831014737487,-0.00873655453324318,0.006246762815862894,-1.0662373761682886e-11,0.004874928388744593
0.010451547801494598,0.003249477595090866,-0.009218038059771061,0.006480222102254629,-4.5455375981230325e-14,0.005117013119161129
0.009712828323245049,0.003372765379026532,-0.008687390945851803,0.006439289078116417,-2.9679113323460545e-15,0.004547636024653912
0.009885957464575768,0.0031655633356422186,-0.008461757563054562,0.006358051206916571,-1.9378340357945078e-16,0.004517824854701757
0.01010656263679266,0.0032989666797220707,-0.009070591069757938,0.005662247538566589,-1.2652672109258094e-17,0.004601638298481703
0.01012257020920515,0.003167303279042244,-0.009422400034964085,0.006200910080224276,-8.261290075005314e-19,0.004646311514079571
0.011433063074946404,0.003050912404432893,-0.008034763857722282,0.006589626427739859,-3.5219173478845e-21,0.004665028303861618
0.011433063074946404,0.003050912404432893,-0.008034763857722282,0.006589626427739859,-3.5219173478845e-21,0.004665028303861618
0.010490299202501774,0.003152281977236271,-0.008920330554246902,0.0062952167354524136,-2.299560588284479e-22,0.004559668712317944
0.011164911091327667,0.003125041490420699,-0.00903006736189127,0.006078366190195084,-1.5014485850101955e-23,0.004350465256720781
0.011591791175305843,0.0035425417590886354,-0.008881795220077038,0.005963366944342852,-9.803386475549792e-25,0.004763140343129635
0.011389960534870625,0.0033436233643442392,-0.009439390152692795,0.006381659768521786,-6.400910445898203e-26,0.004913859069347382
0.0112777603790164,0.0035069596488028765,-0.00926566869020462,0.0060154590755701065,-4.1793373127983e-27,0.00477951904758811
0.011268511414527893,0.003119072411209345,-0.008548790588974953,0.0058411359786987305,-2.728808489967227e-28,0.00475937407463789
0.011629916727542877,0.0032695226836949587,-0.008744814433157444,0.00598921300843358,-1.781717212931181e-29,0.004623983986675739
0.01076354831457138,0.0033592237159609795,-0.009460564702749252,0.006071500480175018,-1.1633341909014492e-30,0.004318281542509794
0.010964244604110718,0.00315276300534606,-0.009212887845933437,0.0063161966390907764,-7.595740629723934e-32,0.0039827218279242516
0.010964244604110718,0.00315276300534606,-0.009212887845933437,0.0063161966390907764,-7.595740629723934e-32,0.0039827218279242516
0.01107576210051775,0.003024555277079344,-0.00904675479978323,0.006098649464547634,-4.959475685650511e-33,0.004316790960729122
0.010589104145765305,0.0032300963066518307,-0.009112522006034851,0.005878002382814884,-3.2381834202006e-34,0.004169384017586708
0.011074363254010677,0.0030500954017043114,-0.00911838561296463,0.006071926560252905,-2.1143025123262117e-35,0.004417136311531067
0.011143184266984463,0.003257827600464225,-0.008631317876279354,0.006574349943548441,-1.3804884870855552e-36,0.0048423754051327705
0.011345912702381611,0.003376641543582082,-0.009446149691939354,0.0063972980715334415,-9.013603501162122e-38,0.004472784232348204
0.01194889284670353,0.0033738084603101015,-0.00952335074543953,0.006136754993349314,-5.88523915149919e-39,0.0041300635784864426
0.011033215560019016,0.0032952846959233284,-0.009130781516432762,0.0059768399223685265,-3.842640648871513e-40,0.0035342485643923283
0.011872300878167152,0.0034036554861813784,-0.009004560299217701,0.006157631985843182,-2.509024900373585e-41,0.0039088367484509945
0.011243890970945358,0.003688326571136713,-0.008904931135475636,0.0069036115892231464,-1.638117904795711e-42,0.004239128436893225
0.011247245594859123,0.0033655341248959303,-0.00876156147569418,0.0068747503682971,-1.064986832886861e-43,0.0045513915829360485
0.011688603088259697,0.0031573406886309385,-0.009201214648783207,0.00659416988492012,-7.006492321624085e-45,0.00433232681825757
0.011313249357044697,0.0030590950045734644,-0.009237568825483322,0.006165930535644293,-0.0,0.003998392727226019
0.011856917291879654,0.0024127718061208725,-0.008939091116189957,0.00667421193793416,-0.0,0.003963792696595192
0.01072630099952221,0.0024112872779369354,-0.009281308390200138,0.00666595995426178,-0.0,0.004142763093113899
0.011852405965328217,0.002731836400926113,-0.009158884175121784,0.006399070844054222,-0.0,0.004350962582975626
0.011502094566822052,0.0029955916106700897,-0.008450697176158428,0.0063743009231984615,-0.0,0.0037175032775849104
0.011550968512892723,0.003118731314316392,-0.009324106387794018,0.006388288922607899,-0.0,0.0034861343447118998
0.011866617947816849,0.0030730189755558968,-0.009020971134305,0.0061874110251665115,-0.0,0.003607746446505189
0.011119998060166836,0.0028001852333545685,-0.008691276423633099,0.0063019092194736,-0.0,0.0037717323284596205
0.01187228225171566,0.0027187466621398926,-0.008914710022509098,0.006261080969125032,-1.3409298844635487e-05,0.0037175840698182583
0.011267912574112415,0.0025037843734025955,-0.008927878923714161,0.006910023279488087,-8.755313842812029e-07,0.0036103897728025913
0.011780407279729843,0.0026131533086299896,-0.00901183020323515,0.0066436463966965675,-5.716594131399688e-08,0.003605584381148219
0.012087765149772167,0.002791814273223281,-0.008939760737121105,0.006392532028257847,-3.7325276203148405e-09,0.0035318073350936174
0.011403285898268223,0.0026609899941831827,-0.009350533597171307,0.006284754257649183,-2.437073598482442e-10,0.003333320142701268
0.01194151584059,0.0027573946863412857,-0.008671465329825878,0.006202943157404661,-1.591235129771995e-11,0.0035070080775767565
0.011615647003054619,0.00275737838819623,-0.008844727650284767,0.006960398517549038,-1.0389627526363743e-12,0.003742051078006625
0.01175400335341692,0.002843244932591915,-0.008818933740258217,0.006866821087896824,-6.783684264278708e-14,0.003866694401949644
0.012415126897394657,0.0028127057012170553,-0.008869357407093048,0.006446218583732843,-4.429261065585404e-15,0.0034447412472218275
0.011804979294538498,0.002894688630476594,-0.009051807224750519,0.00613529235124588,-2.8919912398880595e-16,0.0032868373673409224
0.011804979294538498,0.002894688630476594,-0.009051807224750519,0.00613529235124588,-2.8919912398880595e-16,0.0032868373673409224
0.012086055241525173,0.0028126942925155163,-0.00892198458313942,0.006110942456871271,-1.8882635832260425e-17,0.0032901351805776358
0.011931312270462513,0.0027766218408942223,-0.00872829183936119,0.006922753527760506,-1.232901122481712e-18,0.0031701510306447744
0.012071000412106514,0.002904407447203994,-0.008874032646417618,0.0067304265685379505,-5.256051418900772e-21,0.0031782761216163635
0.012071000412106514,0.002904407447203994,-0.008874032646417618,0.0067304265685379505,-5.256051418900772e-21,0.0031782761216163635
0.012153629213571548,0.002995873801410198,-0.009285355918109417,0.006366558372974396,-3.431825645975915e-22,0.0031150071881711483
0.012438971549272537,0.0030912780202925205,-0.009213795885443687,0.0069235279224812984,-2.2407371554027568e-23,0.0030235701706260443
0.011875511147081852,0.003406655043363571,-0.00890817865729332,0.007302536629140377,-1.4630412549531322e-24,0.002875987207517028
0.012556108646094799,0.0030632666312158108,-0.009183396585285664,0.006950552109628916,-9.552613756755854e-26,0.0030895816162228584
0.011791975237429142,0.0030921087600290775,-0.009175721555948257,0.006700948812067509,-6.2371741990766174e-27,0.0032405084930360317
0.012072572484612465,0.002955542877316475,-0.008228319697082043,0.007147100754082203,-4.07242942306785e-28,0.0031496863812208176
0.012545997276902199,0.002923322841525078,-0.009067382663488388,0.00712165841832757,-2.65900538598941e-29,0.0030803626868873835
0.012371827848255634,0.0029965892899781466,-0.008695332333445549,0.006605241447687149,-1.1335756345247893e-31,0.003058680798858404
0.012075674720108509,0.0031711733900010586,-0.009003771468997002,0.006480477750301361,-7.401439201183084e-33,0.002795282518491149
0.012142643332481384,0.0030444394797086716,-0.009137565270066261,0.00720071280375123,-4.832610641509008e-34,0.0028750700876116753
0.012221725657582283,0.0029828879050910473,-0.008937353268265724,0.007407108321785927,-3.155349122801349e-35,0.0028260836843401194
0.012238219380378723,0.0027856261003762484,-0.008640567772090435,0.0070470962673425674,-2.060217252427387e-36,0.0029065748676657677
0.012322267517447472,0.002930845133960247,-0.009850443340837955,0.007299507036805153,-1.345174779270451e-37,0.0028916546143591404
0.01198238879442215,0.0029654589015990496,-0.008952557109296322,0.007567467167973518,-8.783029087427338e-39,0.0026924721896648407
0.012366763316094875,0.0033505866304039955,-0.009025811217725277,0.007519566919654608,-5.734687848387525e-40,0.0025086565874516964
0.012089056894183159,0.003189587965607643,-0.008876770734786987,0.007290654815733433,-3.7444096265223437e-41,0.002616035519167781
0.012580126523971558,0.003012950997799635,-0.00866602174937725,0.006916485261172056,-2.4452658202468058e-42,0.00280669960193336
0.012146593071520329,0.0030235033482313156,-0.009120099246501923,0.007382624316960573,-1.5974802493302915e-43,0.00302711664699018
0.012202254496514797,0.0031916487496346235,-0.009308149106800556,0.007425779942423105,-9.80908925027372e-45,0.0028289479669183493
0.012202254496514797,0.0031916487496346235,-0.009308149106800556,0.007425779942423105,-9.80908925027372e-45,0.0028289479669183493
0.01274957973510027,0.003105409676209092,-0.009452445432543755,0.007416495122015476,-0.0,0.002622166182845831
0.01239057257771492,0.0027912550140172243,-0.008538618683815002,0.007241169922053814,-0.0,0.0024456882383674383
0.01239057257771492,0.0027912550140172243,-0.008538618683815002,0.007241169922053814,-0.0,0.0024456882383674383
0.012523443438112736,0.0034710310865193605,-0.008543325588107109,0.008123354986310005,-0.0,0.002852093428373337
0.012523443438112736,0.0034710310865193605,-0.008543325588107109,0.008123354986310005,-0.0,0.002852093428373337
0.012145653367042542,0.0033130075316876173,-0.009594655595719814,0.007657227106392384,-0.0,0.0028393245302140713
0.012000596150755882,0.0031700972467660904,-0.009745331481099129,0.00680094538256526,-0.0,0.0027516623958945274
0.0128824757412076,0.0032902683597058058,-0.008460191078484058,0.00705526489764452,-0.0,0.002543439855799079
0.01181522011756897,0.0030648347456008196,-0.008150587789714336,0.006949488539248705,-0.0,0.0024161790497601032
0.012297647073864937,0.003245534375309944,-0.00901428796350956,0.007123125251382589,-0.0,0.002448397222906351
0.01231326349079609,0.003248164663091302,-0.009267469868063927,0.007317485753446817,-0.0,0.0025354924146085978
0.012583781965076923,0.003032809356227517,-0.008420776575803757,0.0073731145821511745,-0.0,0.0024840356782078743
0.012844068929553032,0.0029682954773306847,-0.008794200606644154,0.00725170411169529,-0.0,0.002334509277716279
0.01255964394658804,0.003369436599314213,-0.009169470518827438,0.006609122268855572,-0.0,0.0022113430313766003
0.01263701356947422,0.003202325664460659,-0.008769222535192966,0.007226930931210518,-0.0,0.0022946344688534737
0.013079761527478695,0.00321259000338614,-0.008964204229414463,0.007544976659119129,-0.0,0.002412110799923539
0.01301132794469595,0.0030558339785784483,-0.009399722330272198,0.006969221867620945,-0.0,0.002480511087924242
0.013408320024609566,0.003461473621428013,-0.008816013112664223,0.006822601892054081,-0.0,0.002214962150901556
0.013204035349190235,0.0032619251869618893,-0.009638267569243908,0.007360605988651514,-0.0,0.0019431507680565119
0.013258280232548714,0.003527840133756399,-0.008942077867686749,0.0073315901681780815,-0.0,0.0018148251110687852
0.012907259166240692,0.003111304948106408,-0.008496521972119808,0.007301341276615858,-0.0,0.00176553416531533
0.01291557215154171,0.0031412579119205475,-0.00981596764177084,0.007374846842139959,-0.0,0.0017797575565055013
0.013633177615702152,0.0034194535110145807,-0.009346703067421913,0.00802697241306305,-0.0,0.002041110536083579
0.012957856059074402,0.003707215888425708,-0.008529298938810825,0.008192484267055988,-0.0,0.0020261488389223814
0.013127332553267479,0.003409547032788396,-0.009654042311012745,0.0073139783926308155,-6.211842992343009e-05,0.0022283296566456556
0.012494077906012535,0.0035441771615296602,-0.009634668007493019,0.00732469093054533,-7.39667666493915e-05,0.0020660110749304295
0.013055598363280296,0.003286259016022086,-0.008995265699923038,0.007645099423825741,-7.359743176493794e-05,0.002142544835805893
0.012983648106455803,0.0034677949734032154,-0.009309005923569202,0.007515475153923035,-7.246711174957454e-05,0.0020271597895771265
0.013470975682139397,0.0036493525840342045,-0.009519855491816998,0.006958420854061842,-7.132207247195765e-05,0.002022399101406336
0.01318548247218132,0.00331537495367229,-0.009085267782211304,0.0068385847844183445,-7.020953489700332e-05,0.0018007265171036124
0.01318548247218132,0.00331537495367229,-0.009085267782211304,0.0068385847844183445,-7.020953489700332e-05,0.0018007265171036124
0.013268955051898956,0.0032214706297963858,-0.009445426054298878,0.007474853191524744,-6.913096876814961e-05,0.0016602445393800735
0.01284908875823021,0.0033781123347580433,-0.0099743427708745,0.008001543581485748,-7.992292376002297e-05,0.0016844458878040314
0.013483766466379166,0.003592054359614849,-0.008934982120990753,0.007870902307331562,-8.036824874579906e-05,0.0016852009575814009
0.013647625222802162,0.003494233125820756,-0.009638027288019657,0.007803220767527819,-7.929473940748721e-05,0.001810051267966628
0.013357807882130146,0.0031993750017136335,-0.009952700696885586,0.007931463420391083,-8.947892638389021e-05,0.0020039232913404703
0.01331130601465702,0.0034086538944393396,-0.009394622407853603,0.007852490991353989,-8.97684512892738e-05,0.0019191172905266285
0.01299175526946783,0.0037100305780768394,-0.010615784674882889,0.007062267046421766,-8.860811067279428e-05,0.0016879994655027986
0.013466906733810902,0.003730285679921508,-0.010231692343950272,0.008108718320727348,-9.839719132287428e-05,0.0016051805578172207
0.013466906733810902,0.003730285679921508,-0.010231692343950272,0.008108718320727348,-9.839719132287428e-05,0.0016051805578172207
0.013690324500203133,0.0038104138802736998,-0.010402879677712917,0.008338910527527332,-9.71672052401118e-05,0.0017016149358823895
0.01317304465919733,0.0034265697468072176,-0.01099071279168129,0.007798634935170412,-0.00022636611538473517,0.0016385284252464771
0.013604823499917984,0.003575625130906701,-0.010174774564802647,0.008024579845368862,-0.0002550296485424042,0.0018861591815948486
0.013699937611818314,0.003386198077350855,-0.010933227837085724,0.007446748204529285,-0.00023154212976805866,0.0017220649169757962
0.013550021685659885,0.003169686533510685,-0.010605676099658012,0.006892453879117966,-0.0002583569730632007,0.0015954369446262717
0.013532501645386219,0.002941781422123313,-0.011606913059949875,0.007112571503967047,-0.0002515456289984286,0.0014545911690220237
0.013690865598618984,0.0032052211463451385,-0.01101027149707079,0.0081259086728096,-0.00024067294725682586,0.0012421178398653865
0.013649740256369114,0.0031706455629318953,-0.010917113162577152,0.00820064265280962,-0.0002304239897057414,0.0012595455627888441
0.013807721436023712,0.003556049894541502,-0.011106481775641441,0.007329436019062996,-0.0002529163029976189,0.0012626162497326732
0.014088359661400318,0.0032436244655400515,-0.010832861997187138,0.0078590027987957,-0.0002473668137099594,0.0014762067003175616
0.014222775585949421,0.003250304376706481,-0.01136792078614235,0.008580727502703667,-0.0002382950478931889,0.0014097649836912751
0.013798505067825317,0.002997861709445715,-0.011813742108643055,0.007845418527722359,-0.00022962717048358172,0.0014565574238076806
0.014101200737059116,0.0028909200336784124,-0.010432683862745762,0.007632160093635321,-0.00022155173064675182,0.001423308509401977
0.014027362689375877,0.003176931757479906,-0.011058405973017216,0.007725492585450411,-0.00024054608365986496,0.0014217374846339226
0.014142622239887714,0.0029305166099220514,-0.010983923450112343,0.007607882376760244,-0.00023629763745702803,0.0012717453064396977
0.014047618955373764,0.0031237625516951084,-0.010803897865116596,0.0073087760247290134,-0.00022901840566191822,0.001260230434127152
0.014440612867474556,0.003123367205262184,-0.010830778628587723,0.00804537907242775,-0.00022197274665813893,0.0011940437834709883
0.014440612867474556,0.003123367205262184,-0.010830778628587723,0.00804537907242775,-0.00022197274665813893,0.0011940437834709883
0.014026124030351639,0.0029195870738476515,-0.010584204457700253,0.0085317213088274,-0.00023591403441969305,0.0011456547072157264
0.014621419832110405,0.0027642915956676006,-0.011241454631090164,0.00810194667428732,-0.00024301202211063355,0.0010335426777601242
0.01423089299350977,0.002826940966770053,-0.010604890994727612,0.00746862543746829,-0.0002317891048733145,0.001060741487890482
0.014348886907100677,0.003118840279057622,-0.0100596584379673,0.007573297712951899,-0.00022051324776839465,0.0010368326911702752
0.013817379251122475,0.0030879478435963392,-0.011160330846905708,0.007852117531001568,-0.0002412559842923656,0.0010509439744055271
0.014508661814033985,0.0031102667562663555,-0.010690553113818169,0.007261115591973066,-0.0002402785321464762,0.0012765255523845553
0.013900351710617542,0.0028760971035808325,-0.01066656969487667,0.00691206892952323,-0.0002306518581463024,0.0012424146989360452
0.01423962414264679,0.0028990365099161863,-0.0104693453758955,0.007512561045587063,-0.00025320088025182486,0.0011872838949784636
0.013857148587703705,0.003111835103482008,-0.010117702186107635,0.007956457324326038,-0.00024763678084127605,0.001088606077246368
0.01412112545222044,0.0035219246055930853,-0.010964001528918743,0.007670112885534763,-0.0002385456464253366,0.0009282830869778991
0.013941953890025616,0.0034058347810059786,-0.011094197630882263,0.007338124793022871,-0.00022985940449871123,0.0008837791392579675
0.014543820172548294,0.003095906227827072,-0.010138954035937786,0.00755754578858614,-0.00023729058739263564,0.0007881163619458675
0.014271979220211506,0.003175920806825161,-0.01048729196190834,0.008374390192329884,-0.0002437749208183959,0.0007879629265516996
0.014561433345079422,0.002868644893169403,-0.010239852592349052,0.007923833094537258,-0.00023670843802392483,0.000712190696503967
0.014838267117738724,0.0034473284613341093,-0.010553678497672081,0.008134625852108002,-0.0002857122744899243,0.0006381893181242049
0.014653140679001808,0.0032921871170401573,-0.010718340054154396,0.008579112589359283,-0.00027749029686674476,0.0006369214970618486
0.01489789504557848,0.0032186296302825212,-0.010010016150772572,0.00834745541214943,-0.00026194541715085506,0.0006636988837271929
0.014446469023823738,0.003327347803860903,-0.010152445174753666,0.008316757157444954,-0.0002475690853316337,0.0006647752015851438
0.015079815872013569,0.0031711459159851074,-0.010138693265616894,0.008263430558145046,-0.0002752785512711853,0.0006454134709201753
0.014670849777758121,0.003105360781773925,-0.010319027118384838,0.008395927958190441,-0.00026721725589595735,0.0008038562955334783
0.01510989386588335,0.0031586047261953354,-0.011163676157593727,0.007636491674929857,-0.000254960497841239,0.0008141680154949427
0.01500484999269247,0.0030550684314221144,-0.0102176982909441,0.007511279545724392,-0.000243485119426623,0.0007363207405433059
0.015155082568526268,0.0031007800716906786,-0.0097433403134346,0.007835008203983307,-0.0002666250802576542,0.0006497317808680236
0.015519946813583374,0.003277211682870984,-0.010170521214604378,0.008115839213132858,-0.00026022683596238494,0.0006695447373203933
0.015419293195009232,0.0031127543188631535,-0.010458634234964848,0.008178808726370335,-0.00025019285385496914,0.0006104493513703346
0.015466837212443352,0.003205337794497609,-0.010023403912782669,0.007886890321969986,-0.0002406533167231828,0.0006306665018200874
0.014957526698708534,0.003222718136385083,-0.010704448446631432,0.007966349832713604,-0.00025629179435782135,0.0005842907121405005
0.015258357860147953,0.003071764251217246,-0.009789984673261642,0.007848240435123444,-0.0002549477503634989,0.0005227962392382324
0.014964776113629341,0.002927485853433609,-0.0103733129799366,0.007885290309786797,-0.0002467155281919986,0.0004661236598622054
0.014964776113629341,0.002927485853433609,-0.0103733129799366,0.007885290309786797,-0.0002467155281919986,0.0004661236598622054
0.015364431776106358,0.0033121618907898664,-0.010186245664954185,0.007936406880617142,-0.0002385724219493568,0.0004221697454340756
0.014988990500569344,0.003694916609674692,-0.009617967531085014,0.007981514558196068,-0.00025854172417894006,0.00038591137854382396
0.015553605742752552,0.0032136724330484867,-0.010657188482582569,0.008186600171029568,-0.0002535298408474773,0.0004167210136074573
0.015394746325910091,0.003132390324026346,-0.00992632657289505,0.007989165373146534,-0.0002405965788057074,0.0003946034412365407
0.015371162444353104,0.002994237234815955,-0.009886380285024643,0.008654001168906689,-0.0002621264138724655,0.0003682257665786892
0.014969673939049244,0.0031538461335003376,-0.01115183625370264,0.009008081629872322,-0.0002600798034109175,0.0003447411290835589
0.015746209770441055,0.003347916528582573,-0.010266296565532684,0.008243195712566376,-0.0002487872843630612,0.00037429973599500954
0.015419919975101948,0.0036581687163561583,-0.009632808156311512,0.008632122538983822,-0.0002671565453056246,0.0003563966020010412
0.01598847284913063,0.003208082402125001,-0.010464996099472046,0.008138356730341911,-0.00026513170450925827,0.0003375104861333966
0.015728924423456192,0.003174436278641224,-0.010587302967905998,0.00801358837634325,-0.0002550002245698124,0.00032035610638558865
0.0166949350386858,0.0032274918630719185,-0.010849745012819767,0.008386654779314995,-0.00023593813239131123,0.00029077596263960004
0.015249300748109818,0.0031182796228677034,-0.010116109624505043,0.008353633806109428,-0.0002555949322413653,0.0002779446367640048
0.01595684513449669,0.002894800156354904,-0.009976426139473915,0.008608355186879635,-0.0002505711163394153,0.0002661981270648539
0.015968546271324158,0.0029462003149092197,-0.01070636697113514,0.008586680516600609,-0.0002423871192149818,0.0002554035163484514
0.016139887273311615,0.0030915888492017984,-0.010186190716922283,0.008704337291419506,-0.000234508202993311,0.0002454514615237713
0.016150688752532005,0.0031551832798868418,-0.010384246706962585,0.0085884565487504,-0.0002271111006848514,0.00023624597815796733
0.01694425195455551,0.003282764693722129,-0.009856767021119595,0.008077829144895077,-0.00022016643197275698,0.00022770573559682816
0.01650618016719818,0.0031208309810608625,-0.010661276057362556,0.008226039819419384,-0.0002529820194467902,0.00021976171410642564
0.016291124746203423,0.002884151414036751,-0.011691110208630562,0.008391529321670532,-0.0002451784093864262,0.00021235321764834225
0.016123222187161446,0.0030597771983593702,-0.010778838768601418,0.008695575408637524,-0.00023287819931283593,0.00020542855781968683
0.01636413112282753,0.0033036505337804556,-0.01089883130043745,0.008566495962440968,-0.00022143992828205228,0.0001989407610381022
0.016780395060777664,0.0031831515952944756,-0.01135813258588314,0.008821970783174038,-0.0002476115187164396,0.00019285018788650632
0.016780395060777664,0.0031831515952944756,-0.01135813258588314,0.008821970783174038,-0.0002476115187164396,0.00019285018788650632
0.01639837585389614,0.0029626369941979647,-0.010968116112053394,0.008594798855483532,-0.0002415458729956299,0.00018712175369728357
0.01696963794529438,0.0028798433486372232,-0.011053843423724174,0.008258935995399952,-0.000231515325140208,0.00018172382260672748
0.016468802466988564,0.0029051422607153654,-0.010929788462817669,0.00871150940656662,-0.0002220163296442479,0.00017662897880654782
0.01644037291407585,0.0031629682052880526,-0.011045080609619617,0.00866686925292015,-0.0002132489753421396,0.00017181123257614672
0.016577569767832756,0.003260865341871977,-0.011495684273540974,0.007934261113405228,-0.00023701619647908956,0.0001153791745309718
0.016543053090572357,0.003355603199452162,-0.011409235186874866,0.008708182722330093,-0.00023042458633426577,6.290579767664894e-05
0.017224431037902832,0.0031564829405397177,-0.010341605171561241,0.009186205454170704,-0.00022242440900299698,5.771523137809709e-05
0.016868263483047485,0.0030370319727808237,-0.01104429829865694,0.008648775517940521,-0.0002148470375686884,5.57209896214772e-05
0.016737980768084526,0.0030370058957487345,-0.01106188539415598,0.008443864993751049,-0.00020776102610398084,5.4034531785873696e-05
0.016748949885368347,0.003145976224914193,-0.011084728874266148,0.009047449566423893,-0.0002152181405108422,5.245881766313687e-05
0.016796188428997993,0.0030734017491340637,-0.01091579720377922,0.009215348400175571,-0.000221792419324629,2.8850074158981442e-05
0.016768844798207283,0.0032265528570860624,-0.011866326443850994,0.009515330195426941,-0.0002097638789564371,1.228970995725831e-05
0.017229976132512093,0.0035518803633749485,-0.01116128172725439,0.009466791525483131,-0.00020382885122671723,8.024302360354341e-07
0.01683168299496174,0.003141554072499275,-0.01114664226770401,0.009430350735783577,-0.000225356561713852,5.239296285708406e-08
0.01699971593916416,0.0031470193061977625,-0.011303959414362907,0.009376565925776958,-0.00021859435946680605,3.4208862409457197e-09
0.017075031995773315,0.0034035544376820326,-0.01087114866822958,0.009772405959665775,-0.00020872575987596065,2.2335944205309488e-10
0.016846412792801857,0.0032889756839722395,-0.012042879126966,0.009198551066219807,-0.00019948914996348321,1.4583776894450118e-11
0.017352718859910965,0.0034263913985341787,-0.010982134379446507,0.009504345245659351,-0.00019101989164482802,9.522163873371126e-13
0.01683797687292099,0.0032150226179510355,-0.010629075579345226,0.009296259842813015,-0.00021739325893577188,6.217292983614134e-14
0.016991589218378067,0.003123900620266795,-0.011171870864927769,0.008956672623753548,-0.00021112056856509298,4.059447751363597e-15
0.017056768760085106,0.003101092530414462,-0.011053809896111488,0.008482066914439201,-0.00020331570704001933,2.650529410498848e-16
0.017212379723787308,0.003153993282467127,-0.011079523712396622,0.008796117268502712,-0.0001959463261300698,-0.0007622868870384991
0.017552385106682777,0.003076792461797595,-0.011515607126057148,0.008864063769578934,-0.00018908515630755574,-0.0008436425123363733
0.017552385106682777,0.003076792461797595,-0.011515607126057148,0.008864063769578934,-0.00018908515630755574,-0.0008436425123363733
0.017296558246016502,0.0030387486331164837,-0.011248636990785599,0.009088428691029549,-0.00020909943850710988,-0.0007484339876100421
0.01752491295337677,0.0032085799612104893,-0.011723591946065426,0.00902574323117733,-0.00020589635823853314,-0.0007525504915975034
0.017645439133048058,0.002928656293079257,-0.01139754243195057,0.009285984560847282,-0.00019960920326411724,-0.0006835912936367095
0.017410453408956528,0.003187265247106552,-0.011126741766929626,0.009906068444252014,-0.0001934931642608717,-0.0006991695845499635
0.0177408829331398,0.003392739687114954,-0.011790920980274677,0.009943927638232708,-0.00020759017206728458,-0.0006755721988156438
0.017388705164194107,0.0031879721209406853,-0.011638940311968327,0.009611847810447216,-0.0002078838151646778,-0.0007987933931872249
0.017275957390666008,0.002998227486386895,-0.011962324380874634,0.009785744361579418,-0.00020244902407284826,-0.001245178747922182
0.01777840219438076,0.002762134186923504,-0.012199529446661472,0.010172538459300995,-0.00019693822832778096,-0.001843692036345601
0.017901970073580742,0.0028285449370741844,-0.011696423403918743,0.009923324920237064,-0.00022861402248963714,-0.0019228779710829258
0.01788327470421791,0.003322938922792673,-0.011914737522602081,0.009338297881186008,-0.00022928501130081713,-0.0018515132833272219
0.017907846719026566,0.003307958133518696,-0.01239160168915987,0.009425737895071507,-0.00021893298253417015,-0.0015316373901441693
0.01759141869843006,0.003536936594173312,-0.012459592893719673,0.009314543567597866,-0.00020882367971353233,-0.001238109776750207
0.017326096072793007,0.0030875494703650475,-0.012659152038395405,0.009689372964203358,-0.00022862404875922948,-0.0009496451239101589
0.017712745815515518,0.003041725605726242,-0.012177830561995506,0.00942074041813612,-0.00023785435769241303,-0.0010424033971503377
0.017818506807088852,0.003180284984409809,-0.011425439268350601,0.00914420560002327,-0.0002453523629810661,-0.00169093138538301
0.01779351383447647,0.003120984183624387,-0.012676248326897621,0.009742998518049717,-0.00023720882018096745,-0.0023644105531275272
0.017612110823392868,0.003088741097599268,-0.012125236913561821,0.00979243777692318,-0.0002286693488713354,-0.002506241900846362
0.017311664298176765,0.0028582222294062376,-0.012484829872846603,0.009010637179017067,-0.0002206634817412123,-0.0021643133368343115
0.017998378723859787,0.0030038910917937756,-0.012036778964102268,0.009426586329936981,-0.00021319568622857332,-0.0019275485537946224
0.018425878137350082,0.003390067955479026,-0.011825001798570156,0.009573820978403091,-0.0002062163985101506,-0.0017661573365330696
0.017945775762200356,0.003285821061581373,-0.012624846771359444,0.009525724686682224,-0.00019967940170317888,-0.0017402177909389138
0.01783055067062378,0.003099654568359256,-0.012296309694647789,0.009745822288095951,-0.0002193312393501401,-0.0020083223935216665
0.018174748867750168,0.0029124924913048744,-0.01309889741241932,0.00962067861109972,-0.00021447862673085183,-0.0024634450674057007
0.018174748867750168,0.0029124924913048744,-0.01309889741241932,0.00962067861109972,-0.00021447862673085183,-0.0024634450674057007
0.017788587138056755,0.0029724386986345053,-0.012199831195175648,0.009264225140213966,-0.00020838029740843922,-0.0030610847752541304
0.017887398600578308,0.003212278475984931,-0.01265924982726574,0.010264229960739613,-0.00020252603280823678,-0.0030954633839428425
0.017811445519328117,0.003167956368997693,-0.012446004897356033,0.010316002182662487,-0.0001969849836314097,-0.002668453846126795
0.017850186675786972,0.0030579157173633575,-0.012477160431444645,0.00936161633580923,-0.00019173891632817686,-0.0024078786373138428
0.018431974574923515,0.0028972462750971317,-0.012516644783318043,0.009708922356367111,-0.00018704007379710674,-0.002460914896801114
0.01798948645591736,0.002957983873784542,-0.012210850603878498,0.009234643541276455,-0.0002086418680846691,-0.002644706517457962
0.018674267455935478,0.0032621563877910376,-0.012645721435546875,0.009431206621229649,-0.00020128721371293068,-0.0029071946628391743
0.018430164083838463,0.003251234767958522,-0.012333414517343044,0.009389681741595268,-0.0001927918492583558,-0.003188591217622161
0.018100108951330185,0.003469930961728096,-0.012719334103167057,0.00957367941737175,-0.00018487751367501915,-0.003068213816732168
0.018335094675421715,0.0031917858868837357,-0.012357085943222046,0.00921500101685524,-0.00017758105241227895,-0.0028592317830771208
0.01830332539975643,0.0029899778310209513,-0.012341578491032124,0.009447912685573101,-0.00017083882994484156,-0.0027751405723392963
0.01883770525455475,0.003174104494974017,-0.012035412713885307,0.009341585449874401,-0.0001894399174489081,-0.002829957753419876
0.018424075096845627,0.0030999723821878433,-0.013122549280524254,0.009581458754837513,-0.00018397023086436093,-0.002818639390170574
0.018438303843140602,0.0030206958763301373,-0.01243873592466116,0.010516735725104809,-0.00017797084001358598,-0.0027523182798177004
0.01866396889090538,0.0029127926100045443,-0.012587662786245346,0.010144026018679142,-0.0001722958986647427,-0.0028123813681304455
0.018384402617812157,0.0029953906778246164,-0.012373716570436954,0.010106099769473076,-0.0001669682824285701,-0.0028188165742903948
0.018312150612473488,0.0031725536100566387,-0.012961735017597675,0.010029692202806473,-0.00018713645113166422,-0.003424383932724595
0.018494993448257446,0.003148606512695551,-0.011457663960754871,0.010325327515602112,-0.00018333230400457978,-0.004219430964440107
0.018296949565410614,0.0030387795995920897,-0.013468456454575062,0.010035021230578423,-0.00017825189570430666,-0.004190889187157154
0.01890462078154087,0.0027866337914019823,-0.013164203613996506,0.009918195195496082,-0.0001733534736558795,-0.004148159176111221
0.018789654597640038,0.0027748558204621077,-0.012082476168870926,0.009920178912580013,-0.00016871161642484367,-0.003977386746555567
0.018315182998776436,0.002825893461704254,-0.012929387390613556,0.010547571815550327,-0.00018170668045058846,-0.0038251797668635845
0.0186054278165102,0.002994425129145384,-0.012819865718483925,0.010185930877923965,-0.00018261389050167054,-0.003558649681508541
0.018736043944954872,0.003227130277082324,-0.013051310554146767,0.009894383139908314,-0.00017844789545051754,-0.0035687375348061323
0.018522562459111214,0.0029541319236159325,-0.012689726427197456,0.010361400432884693,-0.00020441345986910164,-0.003950132057070732
0.018747253343462944,0.0030871396884322166,-0.01307020802050829,0.010192791000008583,-0.0002051847113762051,-0.004533715080469847
0.01876766048371792,0.0033798429649323225,-0.013194071128964424,0.010385262779891491,-0.00021611919510178268,-0.004304271657019854
0.01876766048371792,0.0033798429649323225,-0.013194071128964424,0.010385262779891491,-0.00021611919510178268,-0.004304271657019854
0.019843684509396553,0.00350406626239419,-0.013101755641400814,0.010417481884360313,-0.00021719257347285748,-0.004253143910318613
0.019843684509396553,0.00350406626239419,-0.013101755641400814,0.010417481884360313,-0.00021719257347285748,-0.004253143910318613
0.019537698477506638,0.00325453607365489,-0.013228019699454308,0.010228785686194897,-0.00023460786906071007,-0.0045387763530015945
0.018933067098259926,0.0030919532291591167,-0.013598787598311901,0.010662940330803394,-0.0002340157952858135,-0.004545147530734539
0.019548490643501282,0.003023708239197731,-0.012615897692739964,0.010644412599503994,-0.0002500501577742398,-0.004546130076050758
0.01942375861108303,0.003150971606373787,-0.01339014247059822,0.010053912177681923,-0.00024902919540181756,-0.004270585719496012
0.01935216411948204,0.0031373004894703627,-0.012935955077409744,0.010386700741946697,-0.00046284045674838126,-0.004025241360068321
0.01973404549062252,0.0030269634444266558,-0.013210407458245754,0.010504774749279022,-0.000508817087393254,-0.00443457905203104
0.019696786999702454,0.00336393597535789,-0.013108523562550545,0.010493915528059006,-0.00047521371743641794,-0.004605444148182869
0.019281385466456413,0.0031788870692253113,-0.013010400347411633,0.010623727925121784,-0.0005003033438697457,-0.004552545491605997
0.019717002287507057,0.003247726010158658,-0.013095175847411156,0.009516478516161442,-0.00047145216376520693,-0.004419481847435236
0.019780267030000687,0.0032294602133333683,-0.013067113235592842,0.009636083617806435,-0.0004933189484290779,-0.004455899354070425
0.020082194358110428,0.003433302976191044,-0.012670019641518593,0.009340589866042137,-0.0004414011782500893,-0.004721030592918396
0.020329326391220093,0.0032907624263316393,-0.013252487406134605,0.009858598001301289,-0.0005058805691078305,-0.004556945059448481
0.020368674769997597,0.003072722814977169,-0.013118612580001354,0.010471256449818611,-0.0005289851687848568,-0.0044670915231108665
0.020352516323328018,0.00296291196718812,-0.013716917484998703,0.009991186670958996,-0.0005011160974390805,-0.0048568663187325
0.0198411475867033,0.003248893655836582,-0.012919722124934196,0.010080121457576752,-0.0004968505818396807,-0.004918294958770275
0.01975724659860134,0.0032978595700114965,-0.013298423029482365,0.01008318830281496,-0.0004918216145597398,-0.004804394207894802
0.020096201449632645,0.003592313500121236,-0.0134371817111969,0.010480654425919056,-0.0005063588614575565,-0.005086548626422882
0.021036474034190178,0.0033931543584913015,-0.013700941577553749,0.010884213261306286,-0.0004871934652328491,-0.005129085388034582
0.020621245726943016,0.003358300309628248,-0.01351485401391983,0.010170376859605312,-0.0005107602919451892,-0.004908495116978884
0.020410235971212387,0.0030271944124251604,-0.013609824702143669,0.010094264522194862,-0.0005069588078185916,-0.005200559739023447
0.020993679761886597,0.0032077389769256115,-0.013436829671263695,0.010790269821882248,-0.0005377134075388312,-0.005172650329768658
0.021083295345306396,0.003320989664644003,-0.013396669179201126,0.010782992467284203,-0.0005599058931693435,-0.00494450842961669
0.020792420953512192,0.003541385754942894,-0.013932776637375355,0.010934185236692429,-0.0005321256467141211,-0.005194078199565411
0.020720019936561584,0.00368008716031909,-0.013681878335773945,0.010803651995956898,-0.000552461773622781,-0.005242559127509594
0.020720019936561584,0.00368008716031909,-0.013681878335773945,0.010803651995956898,-0.000552461773622781,-0.005242559127509594
0.020621711388230324,0.0037532055284827948,-0.012883485294878483,0.01113667618483305,-0.0005553028313443065,-0.005489038303494453
0.020195767283439636,0.003350510261952877,-0.013701887801289558,0.01082473061978817,-0.0005552256479859352,-0.005254116374999285
0.020195767283439636,0.003350510261952877,-0.013701887801289558,0.01082473061978817,-0.0005552256479859352,-0.005254116374999285
0.02085648477077484,0.003129212185740471,-0.013454696163535118,0.010665472596883774,-0.0004981812089681625,-0.004959944635629654
0.02150961197912693,0.0034847313072532415,-0.014250866137444973,0.011032345704734325,-0.0004919287166558206,-0.0053021907806396484
0.021037597209215164,0.003842913778498769,-0.013368682004511356,0.01064999308437109,-0.0004865661321673542,-0.005600173957645893
0.020824849605560303,0.0034293574281036854,-0.013793282210826874,0.010776382870972157,-0.00044866735697723925,-0.005756909493356943
0.02128906361758709,0.0033755183685570955,-0.013441542163491249,0.011521497741341591,-0.0004143741389270872,-0.005541560705751181
0.021175988018512726,0.003404335118830204,-0.014014234766364098,0.011725439690053463,-0.00044021563371643424,-0.005165534559637308
0.0211565550416708,0.0034253231715410948,-0.01360582560300827,0.011945118196308613,-0.000418515206547454,-0.005640055984258652
0.021144255995750427,0.003570044878870249,-0.01435617171227932,0.011210115626454353,-0.00039289507549256086,-0.005458326078951359
0.021566074341535568,0.0036593617405742407,-0.014114693738520145,0.011212554760277271,-0.00036985293263569474,-0.00578845851123333
0.021398719400167465,0.003701227717101574,-0.014428439550101757,0.011109222657978535,-0.00039579038275405765,-0.0058344402350485325
0.021408775821328163,0.0037616367917507887,-0.014127802103757858,0.010858808644115925,-0.0003780341940000653,-0.005986346397548914
0.02183859422802925,0.0036100484430789948,-0.014630441553890705,0.011083992198109627,-0.0003422817389946431,-0.005829303525388241
0.022070473060011864,0.00348901329562068,-0.01475447602570057,0.010988695546984673,-0.00032674698741175234,-0.0058783069252967834
0.021680090576410294,0.0036825756542384624,-0.014359580352902412,0.011377881281077862,-0.0003135202859994024,-0.005927471909672022
0.021632138639688492,0.0038092324975878,-0.015230950899422169,0.0114725511521101,-0.0002662020269781351,-0.006124326027929783
0.021958468481898308,0.0042296163737773895,-0.014814858324825764,0.011951128952205181,-0.00024954587570391595,-0.005870072171092033
0.022164342924952507,0.004140092991292477,-0.015172884799540043,0.011938647367060184,-0.0002363135718042031,-0.0057986462488770485
0.02183099463582039,0.0035724109038710594,-0.014528531581163406,0.011730151250958443,-0.00022451096447184682,-0.005943625699728727
0.02166229486465454,0.0035292773973196745,-0.014901756308972836,0.01194294635206461,-0.00025367437046952546,-0.0065712835639715195
0.022007739171385765,0.003730268217623234,-0.014429418370127678,0.011206197552382946,-0.0002447715087328106,-0.006366143003106117
0.022149913012981415,0.003434636862948537,-0.01490451954305172,0.011719920672476292,-0.00023431735462509096,-0.005844719707965851
0.021900156512856483,0.003535589901730418,-0.014459246769547462,0.011332018300890923,-0.0002522436552681029,-0.005991644691675901
0.02223506011068821,0.0036362309474498034,-0.01438781339675188,0.01109861396253109,-0.00025091093266382813,-0.006320122629404068
0.022188328206539154,0.003644057782366872,-0.01469938550144434,0.011947168037295341,-0.0002418475050944835,-0.006541811395436525
0.022188328206539154,0.003644057782366872,-0.01469938550144434,0.011947168037295341,-0.0002418475050944835,-0.006541811395436525
0.022641833871603012,0.0036989140789955854,-0.015113884583115578,0.011590642854571342,-0.00023294144193641841,-0.0063192774541676044
0.022708788514137268,0.0037704571150243282,-0.014173599891364574,0.01163050252944231,-0.00025455409195274115,-0.00676916865631938
0.02182697504758835,0.0034203417599201202,-0.014783259481191635,0.011743376031517982,-0.0002477457746863365,-0.006903560366481543
0.022243505343794823,0.0034005343914031982,-0.014556443318724632,0.011450016871094704,-0.00023962697014212608,-0.006827895063906908
0.022534281015396118,0.0034920834004878998,-0.015567061491310596,0.012716727331280708,-0.0002920141560025513,-0.006764652673155069
0.023359928280115128,0.0036182072944939137,-0.014502507634460926,0.011663303710520267,-0.0002826995914801955,-0.006686019245535135
0.02313784509897232,0.004280732478946447,-0.014686468988656998,0.011706638149917126,-0.0003126471710857004,-0.006790983956307173
0.02304820343852043,0.004122960846871138,-0.015140854753553867,0.011602186597883701,-0.00030152834369800985,-0.007674341090023518
0.0207440834492445,0.0034422301687300205,-0.015376225113868713,0.011355218477547169,-0.00028596995980478823,-0.00768882455304265
0.023084331303834915,0.0032925917766988277,-0.014582441188395023,0.012300197035074234,-0.0003107997472397983,-0.007251995615661144
0.023705465719103813,0.003356239991262555,-0.014908622950315475,0.01186271384358406,-0.0003013023524545133,-0.006769238039851189
0.023468557745218277,0.0035526740830391645,-0.01483816560357809,0.012485461309552193,-0.00031825434416532516,-0.0070015122182667255
0.0228774044662714,0.003649401245638728,-0.015233242884278297,0.012665611691772938,-0.0003139499167446047,-0.007166830822825432
0.0239757988601923,0.003871241118758917,-0.015092299319803715,0.01284873392432928,-0.0004213804204482585,-0.0070925867184996605
0.023920388892292976,0.0038731256499886513,-0.01518508791923523,0.012604025192558765,-0.0004275310202501714,-0.007102860603481531
0.02389112301170826,0.0035434819292277098,-0.015187801793217659,0.013082442805171013,-0.0004281945002730936,-0.007455104496330023
0.02282353676855564,0.003521054983139038,-0.015410760417580605,0.01268216036260128,-0.00039882006240077317,-0.007934685796499252
0.022656166926026344,0.003697470761835575,-0.014782530255615711,0.012868812307715416,-0.00037151065771467984,-0.007965504191815853
0.02364381216466427,0.0038492411840707064,-0.015248443000018597,0.012537939473986626,-0.0003976595471613109,-0.00773411151021719
0.0243337694555521,0.0038436453323811293,-0.01491962093859911,0.012747514061629772,-0.0003804742591455579,-0.0075410036370158195
0.02417374588549137,0.0038206973113119602,-0.015413624234497547,0.012554194778203964,-0.0003592197026591748,-0.007784348446875811
0.024359598755836487,0.003920961637049913,-0.014927560463547707,0.012572354637086391,-0.00036353064933791757,-0.00827531423419714
0.02382298931479454,0.004034121986478567,-0.015221575275063515,0.012561343610286713,-0.00036690375418402255,-0.008462317287921906
0.02353820390999317,0.004054101184010506,-0.014730796217918396,0.01222982257604599,-0.00035047376877628267,-0.008461708202958107
0.024064982309937477,0.004043259657919407,-0.015438481234014034,0.012225480750203133,-0.000360265898052603,-0.007839771918952465
0.024438805878162384,0.003518962301313877,-0.014575684443116188,0.01173323206603527,-0.0003422884619794786,-0.007918309420347214
0.024405462667346,0.0035623027943074703,-0.015186597593128681,0.012004566378891468,-0.00031865329947322607,-0.00824990589171648
0.024591227993369102,0.003720571519806981,-0.015027333982288837,0.012412158772349358,-0.0002976077375933528,-0.00831630825996399
0.024591227993369102,0.003720571519806981,-0.015027333982288837,0.012412158772349358,-0.0002976077375933528,-0.00831630825996399
0.024641379714012146,0.004075944889336824,-0.015341494232416153,0.01273417193442583,-0.0003274004557169974,-0.008280327543616295
0.02427816390991211,0.004226770717650652,-0.01465047150850296,0.01286185160279274,-0.0003148994583170861,-0.007924886420369148
0.02456052228808403,0.004079796839505434,-0.015057846903800964,0.012426896020770073,-0.00033456043456681073,-0.00794485304504633
0.025032805278897285,0.003901308635249734,-0.014971884898841381,0.012816326692700386,-0.00032860314240679145,-0.008027967065572739
0.024701427668333054,0.0035420344211161137,-0.015094690956175327,0.01226910762488842,-0.000313024123897776,-0.007792048156261444
0.024727918207645416,0.0034414532128721476,-0.014937419444322586,0.012325145304203033,-0.0003351501654833555,-0.007645545993000269
0.025208022445440292,0.0036345787812024355,-0.014735954813659191,0.012329816818237305,-0.00032507709693163633,-0.008159761317074299
0.024963563308119774,0.003810928203165531,-0.015160803683102131,0.012398646213114262,-0.0003801424172706902,-0.008379521779716015
0.024669965729117393,0.0033970156218856573,-0.014884715899825096,0.012609451077878475,-0.00041350044193677604,-0.00821844581514597
0.02497926726937294,0.0035385398659855127,-0.015751879662275314,0.012657283805310726,-0.00040001142770051956,-0.008340955711901188
0.02522660791873932,0.003727944102138281,-0.015085913240909576,0.013179875910282135,-0.00043134449515491724,-0.00864706002175808
0.0256038885563612,0.004160269163548946,-0.015000392682850361,0.013185654766857624,-0.0007036076276563108,-0.008285580202937126
0.02579820528626442,0.003946263808757067,-0.0156543105840683,0.012828677892684937,-0.0006847818149253726,-0.008403578773140907
0.025696927681565285,0.003400754416361451,-0.014916257001459599,0.012697441503405571,-0.0007019490585662425,-0.008670568466186523
0.02552824839949608,0.003489292459562421,-0.01561651099473238,0.012481949292123318,-0.0006336832884699106,-0.008481758646667004
0.02539064548909664,0.0036334546748548746,-0.0148859778419137,0.012856136076152325,-0.0006133726565167308,-0.008739039301872253
0.02566683478653431,0.004146564286202192,-0.01609756425023079,0.013113944791257381,-0.0005962459254078567,-0.008544730953872204
0.02523992583155632,0.004262240137904882,-0.01579640805721283,0.013339176774024963,-0.000584881694521755,-0.008761420845985413
0.024914545938372612,0.00406871410086751,-0.015252991579473019,0.01362328976392746,-0.0005728068063035607,-0.008677209727466106
0.026035791262984276,0.00350353866815567,-0.015448875725269318,0.013314362615346909,-0.0005363545496948063,-0.008414831943809986
0.025858862325549126,0.0036034653894603252,-0.015977179631590843,0.013723461888730526,-0.0004864499787800014,-0.008023934438824654
0.026201222091913223,0.004103859420865774,-0.01659793220460415,0.013383029960095882,-0.0005209414521232247,-0.00783119909465313
0.02634938433766365,0.004267299547791481,-0.016224360093474388,0.013835026882588863,-0.0005542791332118213,-0.008156505413353443
0.025467069819569588,0.0035772391129285097,-0.016296163201332092,0.013181916438043118,-0.0005681343609467149,-0.008935187943279743
0.0244479700922966,0.003542127087712288,-0.01555393636226654,0.012835013680160046,-0.0005442450055852532,-0.008466284722089767
0.025469064712524414,0.0037770073395222425,-0.016507588326931,0.012882926501333714,-0.0007230167393572628,-0.00848429836332798
0.02598080039024353,0.003927596844732761,-0.015875931829214096,0.012910458259284496,-0.0006379986880347133,-0.008616806007921696
0.02598080039024353,0.003927596844732761,-0.015875931829214096,0.012910458259284496,-0.0006379986880347133,-0.008616806007921696
0.025322837755084038,0.004016397055238485,-0.016145681962370872,0.013225425966084003,-0.0006632114527747035,-0.00874287262558937
0.0256386436522007,0.0035431201104074717,-0.015664972364902496,0.01307106576859951,-0.0005966718308627605,-0.00881150085479021
0.027013899758458138,0.0035038513597100973,-0.015779314562678337,0.012992712669074535,-0.0006207259139046073,-0.009114090353250504
0.026708442717790604,0.004158915486186743,-0.015589414164423943,0.012943042442202568,-0.000629640941042453,-0.008340539410710335
0.02613971196115017,0.004052809439599514,-0.015852827578783035,0.013598701916635036,-0.0005993112572468817,-0.008745587430894375
0.02551843598484993,0.0039413305930793285,-0.016169792041182518,0.013147800229489803,-0.0005714995786547661,-0.009152787737548351
0.02556108869612217,0.003510754555463791,-0.015248057432472706,0.013460389338433743,-0.0006043334142304957,-0.008838646113872528
0.02584383264183998,0.003449574811384082,-0.016145695000886917,0.013123358599841595,-0.0005491823540069163,-0.009448633529245853
0.026583237573504448,0.003509556408971548,-0.015782054513692856,0.013422220014035702,-0.0005704021314159036,-0.009295886382460594
0.026006117463111877,0.0037566644605249166,-0.016098111867904663,0.013506831601262093,-0.0005319557385519147,-0.009574158117175102
0.025893783196806908,0.004261169116944075,-0.015673214569687843,0.013843805529177189,-0.0005516269593499601,-0.009166978299617767
0.025856919586658478,0.004026610869914293,-0.015792911872267723,0.013700109906494617,-0.000613225856795907,-0.009591858834028244
0.02634606882929802,0.0034504171926528215,-0.016206499189138412,0.013720768503844738,-0.0005701539339497685,-0.00963878259062767
0.026226680725812912,0.003521297127008438,-0.016441548243165016,0.013711478561162949,-0.0005473166820593178,-0.010150180198252201
0.0264513548463583,0.003788700560107827,-0.015718359500169754,0.01349971815943718,-0.0005579395219683647,-0.00973648950457573
0.0264962799847126,0.0037238087970763445,-0.016386833041906357,0.013200084678828716,-0.0005297505995258689,-0.009549777023494244
0.02624744549393654,0.0036318155471235514,-0.01601850800216198,0.013677477836608887,-0.0005501419655047357,-0.01046544685959816
0.026214543730020523,0.0036767106503248215,-0.01639646477997303,0.013661521486938,-0.0005224100896157324,-0.010189596563577652
0.02597702294588089,0.003787469118833542,-0.01611430197954178,0.01419567596167326,-0.0005401581875048578,-0.009807056747376919
0.026206597685813904,0.003794285235926509,-0.016461806371808052,0.014128640294075012,-0.0005337485345080495,-0.010163897648453712
0.026304012164473534,0.0041978065855801105,-0.016702014952898026,0.014036943204700947,-0.0005242661572992802,-0.010335726663470268
0.026565546169877052,0.004176015499979258,-0.016067277640104294,0.013096812181174755,-0.000539046130143106,-0.010729112662374973
0.027291888371109962,0.00392623757943511,-0.016559630632400513,0.01394406147301197,-0.0005134068778716028,-0.010286888107657433
0.026879187673330307,0.003781908890232444,-0.01599998213350773,0.013686097227036953,-0.0005344772944226861,-0.010379359126091003
0.026660772040486336,0.003795809578150511,-0.016655437648296356,0.013541809283196926,-0.0005050419713370502,-0.010222588665783405
0.026812274008989334,0.0038522137328982353,-0.01641801744699478,0.012794853188097477,-0.0004728812782559544,-0.010836008936166763
0.026812274008989334,0.0038522137328982353,-0.01641801744699478,0.012794853188097477,-0.0004728812782559544,-0.010836008936166763
0.026778651401400566,0.004357498604804277,-0.01664414070546627,0.013320514932274818,-0.0004978874349035323,-0.010833277367055416
0.027056122198700905,0.004096126649528742,-0.016722125932574272,0.01345143187791109,-0.00045282201608642936,-0.010953581891953945
0.028318023309111595,0.00395063403993845,-0.01624724082648754,0.013935326598584652,-0.00041167918243445456,-0.011363128200173378
0.028270507231354713,0.003920387011021376,-0.016780918464064598,0.013939890079200268,-0.00044721364974975586,-0.011309289373457432
0.0274268239736557,0.003882717341184616,-0.01655416749417782,0.013644185848534107,-0.00041721039451658726,-0.011207510717213154
0.026448164135217667,0.003922571428120136,-0.01699577271938324,0.013289463706314564,-0.0003875461407005787,-0.010883260518312454
0.027130693197250366,0.0040142834186553955,-0.01715545728802681,0.013491247780621052,-0.0004176460497546941,-0.01087593287229538
0.027703994885087013,0.004136424046009779,-0.01674768701195717,0.013980785384774208,-0.0003950997779611498,-0.011565142311155796
0.027469677850604057,0.004025517497211695,-0.017015701159834862,0.013363051228225231,-0.0003978709573857486,-0.01152673177421093
0.02761644497513771,0.0043501765467226505,-0.016559859737753868,0.014169728383421898,-0.00039966413169167936,-0.011287637054920197
0.028260886669158936,0.004136916249990463,-0.01705946773290634,0.013697292655706406,-0.00039675249718129635,-0.011118133552372456
0.02791639417409897,0.003894214052706957,-0.017005758360028267,0.014006919227540493,-0.0004181636031717062,-0.011408647522330284
0.027450496330857277,0.0039495378732681274,-0.01723010651767254,0.014758042991161346,-0.0004551595775410533,-0.011469468474388123
0.0278115626424551,0.003951171413064003,-0.0166509710252285,0.013304121792316437,-0.00048320877249352634,-0.011445850133895874
0.028447238728404045,0.00438830628991127,-0.01744416169822216,0.013935615308582783,-0.0007607783190906048,-0.011648541316390038
0.028398441150784492,0.004146335646510124,-0.017018811777234077,0.013818851672112942,-0.0008065901347436011,-0.01155121996998787
0.02855624258518219,0.003927565645426512,-0.017363937571644783,0.014483274891972542,-0.0007607908919453621,-0.011565345339477062
0.028504706919193268,0.0038452488370239735,-0.017632262781262398,0.014619419351220131,-0.0007740866858512163,-0.011224348098039627
0.02843797579407692,0.0037684773560613394,-0.016705475747585297,0.014054050669074059,-0.000768088037148118,-0.011246907524764538
0.0283996369689703,0.0033411646727472544,-0.017784271389245987,0.015156487002968788,-0.0007144965347833931,-0.011467881500720978
0.027159228920936584,0.0032672362867742777,-0.01755468361079693,0.015490137971937656,-0.0006512764375656843,-0.011126428842544556
0.02926669642329216,0.0033860153052955866,-0.01772548258304596,0.014864008873701096,-0.0006033116369508207,-0.011424090713262558
0.02938597835600376,0.003673896426334977,-0.01779240183532238,0.014934289269149303,-0.0005367712001316249,-0.011349990032613277
0.028964659199118614,0.0037605862598866224,-0.01697581447660923,0.014674980193376541,-0.0004798030131496489,-0.010941751301288605
0.029223253950476646,0.003623277647420764,-0.01790807582437992,0.01475223433226347,-0.0005139681161381304,-0.0108628049492836
0.029177002608776093,0.003586940001696348,-0.018283523619174957,0.0144204031676054,-0.00047406222438439727,-0.01066439226269722
0.029604075476527214,0.003478492144495249,-0.01773582398891449,0.014767108485102654,-0.0005036054644733667,-0.010852687060832977
0.029549017548561096,0.003481015097349882,-0.018333252519369125,0.014983772300183773,-0.00047040756908245385,-0.011153577826917171
0.029549017548561096,0.003481015097349882,-0.018333252519369125,0.014983772300183773,-0.00047040756908245385,-0.011153577826917171
0.030048970133066177,0.0036407881416380405,-0.01828090287744999,0.015080147422850132,-0.0004961528466083109,-0.010817043483257294
0.0295790396630764,0.0038041872903704643,-0.018197093158960342,0.015154119580984116,-0.0005100813577882946,-0.011210172437131405
0.030427630990743637,0.004094970412552357,-0.017998186871409416,0.015442186035215855,-0.0005374309839680791,-0.01144834328442812
0.030427630990743637,0.004094970412552357,-0.017998186871409416,0.015442186035215855,-0.0005374309839680791,-0.01144834328442812
0.0304225105792284,0.004064391832798719,-0.018945688381791115,0.014992056414484978,-0.000567560491617769,-0.011421500705182552
0.030786821618676186,0.004011925309896469,-0.019542712718248367,0.014948694035410881,-0.0005901131080463529,-0.012089460156857967
0.03049592487514019,0.003927791956812143,-0.018152901902794838,0.014472470618784428,-0.0007087415433488786,-0.01117825135588646
0.03105626069009304,0.003758898703381419,-0.018644914031028748,0.015120639465749264,-0.0008462633704766631,-0.011055278591811657
0.030958451330661774,0.0036998295690864325,-0.018779320642352104,0.01478450745344162,-0.0008291185949929059,-0.011518076993525028
0.03105809912085533,0.0036740179639309645,-0.018243033438920975,0.015082962810993195,-0.0007826697546988726,-0.012185170315206051
0.03151072934269905,0.003975908737629652,-0.019221622496843338,0.015385671518743038,-0.0007186339935287833,-0.012122283689677715
0.03140588104724884,0.003978259861469269,-0.01886453665792942,0.01507328450679779,-0.000654057424981147,-0.012378780171275139
0.0316481739282608,0.004315955098718405,-0.018836189061403275,0.015626441687345505,-0.0006210589781403542,-0.012007939629256725
0.032489046454429626,0.0040290276519954205,-0.017186228185892105,0.015305939130485058,-0.0005513086798600852,-0.011999780312180519
0.03208392113447189,0.0038216160610318184,-0.01951778121292591,0.01562509685754776,-0.0005758655606769025,-0.012391011230647564
0.03075350634753704,0.0041579268872737885,-0.01987490989267826,0.015470490790903568,-0.0005306797684170306,-0.012295369058847427
0.03209767863154411,0.004269223194569349,-0.01922164484858513,0.01595163345336914,-0.0005586889456026256,-0.012107918038964272
0.032604459673166275,0.004051567986607552,-0.018873367458581924,0.016131054610013962,-0.0005534834344871342,-0.012341263704001904
0.031927287578582764,0.004311115946620703,-0.019398169592022896,0.015755822882056236,-0.0005445246351882815,-0.012436501681804657
0.03284413367509842,0.004326077178120613,-0.01870735175907612,0.015855224803090096,-0.0005495133809745312,-0.012555585242807865
0.03298671543598175,0.0042915730737149715,-0.018676722422242165,0.015222766436636448,-0.000603023509029299,-0.01287918258458376
0.03209478780627251,0.003927902318537235,-0.01974361762404442,0.015175794251263142,-0.0006474354886449873,-0.012631199322640896
0.031248606741428375,0.0037074938882142305,-0.01978827267885208,0.014709992334246635,-0.0006723651313222945,-0.012680813670158386
0.03274410590529442,0.003701852634549141,-0.018781429156661034,0.01532689668238163,-0.0009325082646682858,-0.012513956055045128
0.03294483572244644,0.003788142465054989,-0.019194208085536957,0.01567130535840988,-0.0008597540436312556,-0.01279645599424839
0.0330301858484745,0.003878065850585699,-0.019337452948093414,0.01698814332485199,-0.0007273004739545286,-0.012726826593279839
0.03289951756596565,0.004555110353976488,-0.01917734369635582,0.01674092561006546,-0.0006858124979771674,-0.012685463763773441
0.03254855424165726,0.0047556133940815926,-0.019422339275479317,0.016059987246990204,-0.0006551636615768075,-0.012525726109743118
0.032294392585754395,0.004330629017204046,-0.01980108954012394,0.015589890070259571,-0.0005872691399417818,-0.012629461474716663
0.032294392585754395,0.004330629017204046,-0.01980108954012394,0.015589890070259571,-0.0005872691399417818,-0.012629461474716663
0.03264850378036499,0.00394010916352272,-0.019017575308680534,0.01543172262609005,-0.0005723207723349333,-0.012930534780025482
0.03269137069582939,0.003825883148238063,-0.019554942846298218,0.01612607017159462,-0.0005598312127403915,-0.013093210756778717
0.03279896080493927,0.004151318687945604,-0.019643636420369148,0.016227195039391518,-0.0005164220929145813,-0.013150056824088097
0.0331384502351284,0.004259062465280294,-0.019389737397432327,0.016548093408346176,-0.0005408059223555028,-0.012964540161192417
0.03290282562375069,0.004040102940052748,-0.02014612965285778,0.015996359288692474,-0.0005068565951660275,-0.01311851479113102
0.033071499317884445,0.0043339356780052185,-0.019838040694594383,0.015826178714632988,-0.0004080496437381953,-0.013066725805401802
0.03284141421318054,0.004448355175554752,-0.019262658432126045,0.015555845573544502,-0.0003668844292405993,-0.01334985252469778
0.03267413377761841,0.004011280834674835,-0.01996416598558426,0.016181617975234985,-0.00033872792846523225,-0.013003419153392315
0.03149870038032532,0.0038373335264623165,-0.020113235339522362,0.016008155420422554,-0.00037353677907958627,-0.01283274032175541
0.03458747640252113,0.004251294303685427,-0.019942060112953186,0.01570967026054859,-0.0003792736097238958,-0.013057182542979717
0.0343509167432785,0.0039861262775957584,-0.020190654322504997,0.01555162388831377,-0.0003639052447397262,-0.013317491859197617
0.031845226883888245,0.004422400146722794,-0.01941443793475628,0.016438357532024384,-0.0003870086802635342,-0.013007516041398048
0.032243888825178146,0.004358434583991766,-0.01950576901435852,0.015415371395647526,-0.00044466680265031755,-0.01300610601902008
0.03358990699052811,0.004104760475456715,-0.020089976489543915,0.01577325165271759,-0.0005357339978218079,-0.013321652077138424
0.0334647074341774,0.003860204014927149,-0.020825212821364403,0.015826191753149033,-0.0005107281031087041,-0.013409676030278206
0.033993788063526154,0.0037055991124361753,-0.019864922389388084,0.016801742836833,-0.0005252896226011217,-0.013467387296259403
0.03383048251271248,0.003722524968907237,-0.020020995289087296,0.01729445345699787,-0.0005012696492485702,-0.013560639694333076
0.03356991708278656,0.00374037167057395,-0.01968611590564251,0.01674317568540573,-0.0005227852379903197,-0.013411452993750572
0.03272425755858421,0.004254343453794718,-0.019341737031936646,0.016887566074728966,-0.0004965646076016128,-0.013189231045544147
0.0329408273100853,0.004670018795877695,-0.02039816603064537,0.01644989475607872,-0.0006096707656979561,-0.013419084250926971
0.03326428681612015,0.004394944757223129,-0.020628197118639946,0.016840659081935883,-0.0006488424260169268,-0.013265116140246391
0.03401597961783409,0.0035331780090928078,-0.020352471619844437,0.017067575827240944,-0.0006570967962034047,-0.013743964955210686
0.03389310464262962,0.0035035437904298306,-0.02004893496632576,0.01721101440489292,-0.0006576906307600439,-0.013740839436650276
0.03345751017332077,0.0036465120501816273,-0.020566722378134727,0.0176200233399868,-0.0006433543749153614,-0.013767274096608162
0.0329093262553215,0.0037525419611483812,-0.0204538032412529,0.016675500199198723,-0.0008644309709779918,-0.013632271438837051
0.03347516059875488,0.0041441889479756355,-0.021026073023676872,0.016861502081155777,-0.0008988891495391726,-0.013754788786172867
0.03347516059875488,0.0041441889479756355,-0.021026073023676872,0.016861502081155777,-0.0008988891495391726,-0.013754788786172867
0.03380372375249863,0.004274907521903515,-0.021108297631144524,0.01651950553059578,-0.0008860152447596192,-0.013823105953633785
0.03369009122252464,0.004107772838324308,-0.021380601450800896,0.016686389222741127,-0.0008185271290130913,-0.013673348352313042
0.03370034322142601,0.0038889525458216667,-0.02087089978158474,0.016831060871481895,-0.0009018853306770325,-0.013548440299928188
0.0342535600066185,0.0042295814491808414,-0.020189138129353523,0.016434744000434875,-0.0008951916825026274,-0.013855095952749252
0.034330785274505615,0.004179906100034714,-0.021017372608184814,0.016692088916897774,-0.0007835583528503776,-0.013787376694381237
0.033870309591293335,0.004077457357198,-0.02190418913960457,0.01638372428715229,-0.0007681350107304752,-0.013811991550028324
0.03451213240623474,0.0036018763203173876,-0.02123999036848545,0.016636520624160767,-0.0007071674917824566,-0.01379968598484993
0.034290384501218796,0.004170300904661417,-0.021244585514068604,0.016822142526507378,-0.0006582938367500901,-0.013702550902962685
0.03464261442422867,0.004149160347878933,-0.021352915093302727,0.01725531555712223,-0.0006054811528883874,-0.013949205167591572
0.03462720662355423,0.004202333278954029,-0.020833080634474754,0.016665956005454063,-0.0005200121668167412,-0.013516029343008995
0.034751880913972855,0.003939102869480848,-0.021128946915268898,0.016974572092294693,-0.0004569156444631517,-0.0136929452419281
0.035244494676589966,0.003699631430208683,-0.0216816533356905,0.016845479607582092,-0.0004747614439111203,-0.014303764328360558
0.03500876948237419,0.0036037133540958166,-0.021390629932284355,0.017329545691609383,-0.0004535368352662772,-0.015080311335623264
0.03513282909989357,0.0035457387566566467,-0.02078547514975071,0.01738428883254528,-0.00047083920799195766,-0.014326244592666626
0.035277143120765686,0.003455411409959197,-0.02099265158176422,0.017360705882310867,-0.00045298560871742666,-0.014648595824837685
0.03543461859226227,0.0038816931191831827,-0.020948471501469612,0.01747066341340542,-0.0004798488807864487,-0.014522017911076546
0.03516511991620064,0.003942439332604408,-0.02077452279627323,0.017197832465171814,-0.0005584479658864439,-0.014324269257485867
0.03478086739778519,0.0037363050505518913,-0.020719636231660843,0.017161093652248383,-0.0005800615181215107,-0.014321615919470787
0.03589246794581413,0.0035743017215281725,-0.021289728581905365,0.017243705689907074,-0.0005670259706676006,-0.014315754175186157
0.0367807038128376,0.003534086747094989,-0.02134670689702034,0.017220286652445793,-0.0005159358843229711,-0.01403940562158823
0.03526000306010246,0.003470450872555375,-0.021142978221178055,0.017703019082546234,-0.00047108004218898714,-0.014398602768778801
0.03496740758419037,0.0035906864795833826,-0.021248020231723785,0.017143337056040764,-0.0005003440310247242,-0.014450046233832836
0.03636455908417702,0.003967122174799442,-0.021086737513542175,0.01728159748017788,-0.00046756354277022183,-0.014919618144631386
0.035944633185863495,0.004099227488040924,-0.020970821380615234,0.017293011769652367,-0.0004933595191687346,-0.014966369606554508
0.0369272343814373,0.0043471697717905045,-0.020719578489661217,0.01691456325352192,-0.00046525849029421806,-0.014710955321788788
0.03584716469049454,0.0041265604086220264,-0.02149539813399315,0.01718772016465664,-0.0004538518260233104,-0.014416148886084557
0.035939157009124756,0.0040341648273169994,-0.02156699262559414,0.01650361157953739,-0.00042943996959365904,-0.014830252155661583
0.035939157009124756,0.0040341648273169994,-0.02156699262559414,0.01650361157953739,-0.00042943996959365904,-0.014830252155661583
0.036813005805015564,0.004009632393717766,-0.020557507872581482,0.016954971477389336,-0.00043253586045466363,-0.015121799893677235
0.036813005805015564,0.004009632393717766,-0.020557507872581482,0.016954971477389336,-0.00043253586045466363,-0.015121799893677235
0.03555036336183548,0.003931665793061256,-0.02165677584707737,0.017148951068520546,-0.0004339756560511887,-0.015308533795177937
0.03689996153116226,0.003886030986905098,-0.021462619304656982,0.017914431169629097,-0.000433837209129706,-0.015405390411615372
0.037527263164520264,0.0044101630337536335,-0.021222302690148354,0.017695721238851547,-0.0004076986515428871,-0.014354521408677101
0.03643512725830078,0.004155998583883047,-0.02074834331870079,0.01791597157716751,-0.000433941138908267,-0.014638043940067291
0.03637220337986946,0.003970333840698004,-0.02086622826755047,0.01782621257007122,-0.00041240511927753687,-0.014476309530436993
0.0368407778441906,0.0043476661667227745,-0.021211568266153336,0.017717761918902397,-0.0004667491593863815,-0.014507187530398369
0.036280278116464615,0.004257736261934042,-0.020819954574108124,0.01799001730978489,-0.0004898171173408628,-0.014492557384073734
0.0369536392390728,0.003938398323953152,-0.021021218970417976,0.01783391460776329,-0.0005131002399139106,-0.01521478034555912
0.03694365918636322,0.00386216607876122,-0.021441930904984474,0.018299322575330734,-0.0004827171505894512,-0.0153114665299654
0.03624820336699486,0.003827859880402684,-0.020609181374311447,0.018027419224381447,-0.0005085068405605853,-0.015155309811234474
0.036984581500291824,0.0038651523645967245,-0.021395796909928322,0.017891796305775642,-0.0006314516067504883,-0.015103098936378956
0.038172647356987,0.004396306350827217,-0.02154206484556198,0.017731519415974617,-0.0007026899256743491,-0.014924920164048672
0.036457885056734085,0.004174513276666403,-0.02137228287756443,0.01755972020328045,-0.0007145840208977461,-0.015336737968027592
0.036025792360305786,0.003898011287674308,-0.0206143781542778,0.01832961104810238,-0.0007334923720918596,-0.01555447094142437
0.03737877681851387,0.004326699301600456,-0.021290434524416924,0.018583253026008606,-0.0008266035583801568,-0.015428250655531883
0.03698653355240822,0.0041463328525424,-0.021556604653596878,0.01811380870640278,-0.0008159065619111061,-0.015389367938041687
0.038222093135118484,0.003954708576202393,-0.022216595709323883,0.01832183450460434,-0.0008271776023320854,-0.015194357372820377
0.0380607545375824,0.003834516741335392,-0.021367225795984268,0.01808818243443966,-0.0007249269401654601,-0.015453396365046501
0.0367269366979599,0.004296775441616774,-0.022129828110337257,0.019173355773091316,-0.0007170976023189723,-0.01548239029943943
0.03621428459882736,0.00418988848105073,-0.02227877452969551,0.018975593149662018,-0.0006650692084804177,-0.015762602910399437
0.037859153002500534,0.0041319685988128185,-0.021561887115240097,0.01802530512213707,-0.0006770544569008052,-0.01572340726852417
0.037916768342256546,0.0039505260065197945,-0.02091231197118759,0.01836833730340004,-0.0006290203309617937,-0.01605980284512043
0.03744018077850342,0.0037883652839809656,-0.021693149581551552,0.017917614430189133,-0.0005620119627565145,-0.01571587286889553
0.03717886283993721,0.003816300770267844,-0.022469989955425262,0.01750871166586876,-0.0005928863538429141,-0.015913978219032288
0.03778890147805214,0.0038811289705336094,-0.022226857021450996,0.018103033304214478,-0.0006171140121296048,-0.01580059342086315
0.03781144320964813,0.0038653812371194363,-0.021742405369877815,0.018553948029875755,-0.0006424312596209347,-0.015337011776864529
0.03739747032523155,0.0042368876747787,-0.022037971764802933,0.019047802314162254,-0.000602410058490932,-0.01580795831978321
0.03739747032523155,0.0042368876747787,-0.022037971764802933,0.019047802314162254,-0.000602410058490932,-0.01580795831978321
0.03730881214141846,0.004547928925603628,-0.022777723148465157,0.01909879595041275,-0.0007598155061714351,-0.015288366936147213
0.037809230387210846,0.004159006755799055,-0.022860482335090637,0.01856823079288006,-0.0007278457633219659,-0.014787843450903893
0.03820440173149109,0.004174393601715565,-0.022331388667225838,0.018357468768954277,-0.000691284250933677,-0.015244849026203156
0.03806611895561218,0.004254619590938091,-0.02150232531130314,0.01878766529262066,-0.0007042241049930453,-0.01606406643986702
0.038124363869428635,0.004481928888708353,-0.021922748535871506,0.018237045034766197,-0.0007235777447931468,-0.01578262820839882
0.038272712379693985,0.004512887913733721,-0.02216535061597824,0.01837434247136116,-0.0007114426698535681,-0.015760168433189392
0.03779754787683487,0.00415351428091526,-0.022752417251467705,0.018313895910978317,-0.0007477995823137462,-0.01578596420586109
0.03920876979827881,0.004615115001797676,-0.022299353033304214,0.019267788156867027,-0.0007970535079948604,-0.01568911410868168
0.03836608678102493,0.0045816414058208466,-0.022285791113972664,0.019231298938393593,-0.0008803914533928037,-0.016371512785553932
0.038401439785957336,0.005052202846854925,-0.02251783013343811,0.018854636698961258,-0.0008560640853829682,-0.016345983371138573
0.03877955675125122,0.004498286172747612,-0.022667046636343002,0.018902486190199852,-0.0008610497461631894,-0.016132459044456482
0.03864432871341705,0.004008333198726177,-0.022178007289767265,0.018791088834404945,-0.0008412981405854225,-0.016258811578154564
0.03887491673231125,0.004261096473783255,-0.02237374149262905,0.018521958962082863,-0.0008194508263841271,-0.016189858317375183
0.0387059785425663,0.004596879705786705,-0.022501124069094658,0.018913134932518005,-0.0007793494733050466,-0.016081923618912697
0.038745082914829254,0.004738159012049437,-0.022788364440202713,0.01890895701944828,-0.0007183576817624271,-0.015532229095697403
0.03839770331978798,0.00464635482057929,-0.022416748106479645,0.01826072856783867,-0.0007394968415610492,-0.015577682293951511
0.03902484104037285,0.004631110467016697,-0.022543029859662056,0.01848151721060276,-0.0007096950430423021,-0.015601060353219509
0.04029420018196106,0.004499728325754404,-0.02267671748995781,0.018771769478917122,-0.0006802515708841383,-0.016309043392539024
0.0392971970140934,0.004181281663477421,-0.02306695654988289,0.01901889406144619,-0.0006811345811001956,-0.016409656032919884
0.03780731186270714,0.004448571242392063,-0.022698113694787025,0.01919248327612877,-0.0006405448657460511,-0.016446035355329514
0.0390288345515728,0.004258462227880955,-0.02221253328025341,0.018925175070762634,-0.00065431377151981,-0.016243861988186836
0.0390288345515728,0.004258462227880955,-0.02221253328025341,0.018925175070762634,-0.00065431377151981,-0.016243861988186836
0.04091242700815201,0.004585382994264364,-0.0231171827763319,0.019138982519507408,-0.0006932890391908586,-0.016506891697645187
0.04091242700815201,0.004585382994264364,-0.0231171827763319,0.019138982519507408,-0.0006932890391908586,-0.016506891697645187
0.03861339017748833,0.003992760553956032,-0.02215011604130268,0.01879625767469406,-0.0006690932787023485,-0.016396990045905113
0.039045028388500214,0.0039819288067519665,-0.022291138768196106,0.018820375204086304,-0.0008502607233822346,-0.016766970977187157
0.039045028388500214,0.0039819288067519665,-0.022291138768196106,0.018820375204086304,-0.0008502607233822346,-0.016766970977187157
0.04041590169072151,0.0040515814907848835,-0.023076288402080536,0.01832713559269905,-0.0009010030189529061,-0.016279170289635658
0.039672818034887314,0.00404810206964612,-0.023714939132332802,0.018555890768766403,-0.0009191110730171204,-0.0160016231238842
0.039940010756254196,0.003953578416258097,-0.02356468327343464,0.019030923023819923,-0.0010735341347754002,-0.016193045303225517
0.039960142225027084,0.0041310712695121765,-0.022764239460229874,0.019617224112153053,-0.0011010090820491314,-0.01666424795985222
0.03982074186205864,0.00451925303786993,-0.022525575011968613,0.01965828612446785,-0.0010495942551642656,-0.016401110216975212
0.04040705785155296,0.004231207072734833,-0.0231928713619709,0.01936071552336216,-0.0010263415751978755,-0.016341794282197952
0.03961840644478798,0.004208437167108059,-0.023782161995768547,0.018150195479393005,-0.0008538633701391518,-0.01624607853591442
