davideferrari95/blind_handover_controller/data/Test 287 - [2024-02-08 -- 13-57-17]/joint_states_data.csv
shoulder_pan_joint,shoulder_lift_joint,elbow_joint,wrist_1_joint,wrist_2_joint,wrist_3_joint
0.0031612813472747803,0.008462484925985336,-0.010688979178667068,0.0025543230585753918,0.00010244672012049705,0.0034716338850557804
0.0031612813472747803,0.008462484925985336,-0.010688979178667068,0.0025543230585753918,0.00010244672012049705,0.0034716338850557804
0.003308011218905449,0.009116282686591148,-0.01069058757275343,0.0027336436323821545,0.00010055676830234006,0.0034288340248167515
0.0032157888635993004,0.009037977084517479,-0.01109318807721138,0.0027138609439134598,9.872290684143081e-05,0.004084940534085035
0.0032581572886556387,0.008648522198200226,-0.011068006977438927,0.0030130709055811167,9.694752952782437e-05,0.004032105673104525
0.003390873782336712,0.009009967558085918,-0.01033672597259283,0.0029953571502119303,9.524066263111308e-05,0.003837715834379196
0.0031434388365596533,0.00858775433152914,-0.011114739812910557,0.0029957243241369724,9.358947863802314e-05,0.0037305508740246296
0.0031262324191629887,0.008662962354719639,-0.011305169202387333,0.002791754202917218,9.199332998832688e-05,0.0037192651070654392
0.0031262324191629887,0.008662962354719639,-0.011305169202387333,0.002791754202917218,9.199332998832688e-05,0.0037192651070654392
0.0035007616970688105,0.00872066430747509,-0.010880320332944393,0.002740515861660242,0.00010328959615435451,0.0036738691851496696
0.0036671319976449013,0.008297760970890522,-0.009936603717505932,0.0027737801428884268,0.00010207678860751912,0.0034361567813903093
0.0036671319976449013,0.008297760970890522,-0.009936603717505932,0.0027737801428884268,0.00010207678860751912,0.0034361567813903093
0.003354605520144105,0.008826186880469322,-0.010239561088383198,0.0027180626057088375,0.00010047887917608023,0.0033704338129609823
0.0032063822727650404,0.00898781605064869,-0.01103988941758871,0.002988446969538927,9.890282672131434e-05,0.0034191301092505455
0.0033171437680721283,0.008819912560284138,-0.010433336719870567,0.0029150773771107197,9.737259824760258e-05,0.0033530662767589092
0.003153454279527068,0.008529323153197765,-0.011162890121340752,0.002898384118452668,9.589260298525915e-05,0.003498334437608719
0.0033382284455001354,0.00949177611619234,-0.010444306768476963,0.0030116131529212,9.305986168328673e-05,0.0038413559086620808
0.0034516784362494946,0.008474179543554783,-0.01124055776745081,0.0031864081975072622,9.170465636998415e-05,0.0034330186899751425
0.0035820738412439823,0.008304134011268616,-0.01024437416344881,0.002842865651473403,9.038940333994105e-05,0.0031608196441084146
0.003664117306470871,0.008571634069085121,-0.009490791708230972,0.0026465586852282286,9.538294398225844e-05,0.0033761404920369387
0.003646519035100937,0.008253620937466621,-0.010363812558352947,0.002646602224558592,9.999890608014539e-05,0.0032502850517630577
0.0032899719662964344,0.00830804742872715,-0.00994475744664669,0.002537019085139036,9.900980512611568e-05,0.0033784841652959585
0.0030627241358160973,0.009099028073251247,-0.009821555577218533,0.0024598606396466494,9.769365715328604e-05,0.0034450578968971968
0.0033867736347019672,0.008652971126139164,-0.010616779327392578,0.002585845999419689,9.63875136221759e-05,0.0034805224277079105
0.003256916766986251,0.007672484964132309,-0.009841224178671837,0.0023984736762940884,9.511383541394025e-05,0.003483021631836891
0.0032416328322142363,0.007528230082243681,-0.009034339338541031,0.0023745857179164886,9.38742741709575e-05,0.0036463344004005194
0.0033537561539560556,0.00828185211867094,-0.009797918610274792,0.0027300657238811255,9.266602137358859e-05,0.003723986679688096
0.00337769603356719,0.008057085797190666,-0.01014034915715456,0.0029704589396715164,9.14886113605462e-05,0.0034296445082873106
0.0035010650753974915,0.007341341115534306,-0.010511251166462898,0.0029039832297712564,9.034072718350217e-05,0.0035113936755806208
0.003247875487431884,0.007438472006469965,-0.0109848128631711,0.0027265872340649366,0.00010898077016463503,0.0037093947175890207
0.003479346167296171,0.008795622736215591,-0.009848624467849731,0.0027728003915399313,0.00011270227696513757,0.0033728417474776506
0.003807353787124157,0.007987583056092262,-0.009403801523149014,0.00251727644354105,0.00011035973147954792,0.003132567275315523
0.00345060252584517,0.007696136832237244,-0.009624315425753593,0.0025395897682756186,0.00010774466500151902,0.0032091501634567976
0.0035369745455682278,0.007912944070994854,-0.00947964284569025,0.002829505130648613,0.0001052269508363679,0.0035766027867794037
0.0037606158293783665,0.008343842811882496,-0.009772561490535736,0.0028318234253674746,0.00010282266157446429,0.003764457069337368
0.003339743008837104,0.007663977798074484,-0.010580483824014664,0.0027395044453442097,0.00010052557627204806,0.004158657509833574
0.003339743008837104,0.007663977798074484,-0.010580483824014664,0.0027395044453442097,0.00010052557627204806,0.004158657509833574
0.003489474533125758,0.008157099597156048,-0.009666185826063156,0.002566895680502057,9.832901560002938e-05,0.0040819174610078335
0.0036962584126740694,0.007936758920550346,-0.009341041557490826,0.0025938572362065315,9.622627112548798e-05,0.003883644472807646
0.0036169823724776506,0.007759425789117813,-0.009833230637013912,0.0024501155130565166,0.00010831434337887913,0.003037240356206894
0.0035275344271212816,0.007557666394859552,-0.009349416010081768,0.002532348735257983,0.0001083521856344305,0.0030724506359547377
0.0036230641417205334,0.007753875106573105,-0.00964393001049757,0.002308228751644492,0.000106362349470146,0.0035992099437862635
0.0036785362754017115,0.007978756912052631,-0.009410680271685123,0.00218381080776453,0.00010431707050884143,0.004156928043812513
0.00416933000087738,0.007439449429512024,-0.009571151807904243,0.002308089751750231,0.00010234068031422794,0.004332087934017181
0.004071373958140612,0.007713274098932743,-0.010217837989330292,0.002321825362741947,0.00010043721704278141,0.003963034134358168
0.003502828534692526,0.008476819843053818,-0.009385649114847183,0.0026594146620482206,9.860326099442318e-05,0.003491268027573824
0.0034949160180985928,0.007914429530501366,-0.008922798559069633,0.002685151994228363,0.00011190041550435126,0.0035456079058349133
0.004241541959345341,0.008247455582022667,-0.009782412089407444,0.002547350013628602,0.00011091386841144413,0.0034136229660362005
0.004128582309931517,0.007852116599678993,-0.009887580759823322,0.002435128903016448,0.00010905804811045527,0.004010738804936409
0.0038190148770809174,0.008085536770522594,-0.009486790746450424,0.002258869120851159,0.00010720640420913696,0.004188285209238529
0.0037137193139642477,0.008195161819458008,-0.009814811870455742,0.0023415919858962297,0.00010541274969000369,0.0040496112778782845
0.0037321944255381823,0.007810246665030718,-0.01002569030970335,0.00241121556609869,0.00010367819777457044,0.0038978930097073317
0.004350618924945593,0.008237079717218876,-0.009081700816750526,0.0024028990883380175,0.00010199951066169888,0.0037547315005213022
0.004116982687264681,0.008226903155446053,-0.009800419211387634,0.0026673562824726105,0.00010037442552857101,0.0035345247015357018
0.0038785701617598534,0.008052792400121689,-0.009405270218849182,0.0025578655768185854,9.880039579002187e-05,0.0033912977669388056
0.004230207297950983,0.008133654482662678,-0.009309913031756878,0.002339528175070882,9.727480937726796e-05,0.0035788470413535833
0.004168048966675997,0.008586835116147995,-0.009708806872367859,0.0022060766350477934,9.579558536643162e-05,0.0037374687381088734
0.003944705706089735,0.008345219306647778,-0.009461812674999237,0.002073014620691538,0.000104370410554111,0.0038208873011171818
0.003879004158079624,0.00786644034087658,-0.009384091943502426,0.0023810279089957476,0.00010602294787531719,0.004219807218760252
0.0034269404131919146,0.0077636148780584335,-0.009170707315206528,0.002708884421736002,0.00010468962136656046,0.004234673455357552
0.003480335231870413,0.007885768078267574,-0.008948405273258686,0.00251958891749382,0.00010320275032427162,0.004002015572041273
0.003480335231870413,0.007885768078267574,-0.008948405273258686,0.00251958891749382,0.00010320275032427162,0.004002015572041273
0.0038142381235957146,0.007761548273265362,-0.009061318822205067,0.002552485093474388,0.0001017451286315918,0.003877695184201002
0.003530166344717145,0.007559291087090969,-0.009599953889846802,0.0023992208298295736,0.00010032748832600191,0.003930920269340277
0.003961864858865738,0.008211267180740833,-0.009157881140708923,0.002340060891583562,9.894872346194461e-05,0.003966410644352436
0.004217119421809912,0.008379299193620682,-0.00860731489956379,0.0025627370923757553,9.76072988123633e-05,0.004010680131614208
0.0034953204449266195,0.007849951274693012,-0.008785565383732319,0.0025481258053332567,9.630185377318412e-05,0.003982654772698879
0.0035222494043409824,0.007836034521460533,-0.009530572220683098,0.0026116713415831327,9.503077308181673e-05,0.0038985845167189837
0.004057842772454023,0.008186649531126022,-0.009127660654485226,0.002775713335722685,0.00011127923789899796,0.004144878126680851
0.0036682486534118652,0.008254580199718475,-0.009350340813398361,0.0023928082082420588,0.00011170511425007135,0.0038504675030708313
0.0035225520841777325,0.008570588193833828,-0.008763696998357773,0.0022638223599642515,0.00010902310896199197,0.003686012700200081
0.004212200175970793,0.008341308683156967,-0.008853301405906677,0.002532894955947995,0.00010644569556461647,0.0036477039102464914
0.004200686700642109,0.007635048124939203,-0.0091257244348526,0.0025027424562722445,0.0001039859707816504,0.003736016107723117
0.003954308573156595,0.007844341918826103,-0.009684566408395767,0.002502306830137968,0.00010163716797251254,0.004241081885993481
0.003940306603908539,0.008606918156147003,-0.008767740800976753,0.002185724675655365,9.939236770151183e-05,0.004207518883049488
0.003502411302179098,0.008539238944649696,-0.009303227066993713,0.0018350249156355858,9.724439587444067e-05,0.004006997216492891
0.004019151441752911,0.007927138358354568,-0.009402514435350895,0.0017942787380889058,9.518723527435213e-05,0.004168047569692135
0.004208635538816452,0.007767197676002979,-0.008895945735275745,0.0019342463929206133,9.321558172814548e-05,0.004268660210072994
0.004059182945638895,0.008004867471754551,-0.00919804722070694,0.002727615414187312,9.132367267739028e-05,0.004027239046990871
0.004240738693624735,0.008305980823934078,-0.009569741785526276,0.002639288315549493,8.950716437539086e-05,0.0038655304815620184
0.0042943200096488,0.007802128791809082,-0.009042400866746902,0.0023959435056895018,8.776149479672313e-05,0.0038638499099761248
0.004023295361548662,0.008142494596540928,-0.009252316318452358,0.0022663234267383814,8.60827203723602e-05,0.0043178447522223
0.003905295627191663,0.008426539599895477,-0.009607575833797455,0.0020562405698001385,8.446683932561427e-05,0.004226236138492823
0.0038841550704091787,0.00789081584662199,-0.009311462752521038,0.0021374025382101536,8.29105410957709e-05,0.004242830444127321
0.004076390527188778,0.007536791265010834,-0.008794421330094337,0.0020758279133588076,8.141060243360698e-05,0.004089914727956057
0.0039741466753184795,0.008065692149102688,-0.009664889425039291,0.0022176727652549744,9.18334408197552e-05,0.0038777566514909267
0.004359593149274588,0.008356206119060516,-0.009351718239486217,0.002182553755119443,9.401200077263638e-05,0.0037649108562618494
0.004230921156704426,0.008313572965562344,-0.008588388562202454,0.00217337254434824,9.264593245461583e-05,0.003783557564020157
0.003933032974600792,0.007762319874018431,-0.009138200432062149,0.002366275992244482,9.109893289860338e-05,0.004269026219844818
0.004373122006654739,0.008099150843918324,-0.009722128510475159,0.00230087386444211,8.958869148045778e-05,0.004214232321828604
0.004373122006654739,0.008099150843918324,-0.009722128510475159,0.00230087386444211,8.958869148045778e-05,0.004214232321828604
0.004180900752544403,0.007911046035587788,-0.009263018146157265,0.0023793764412403107,8.812677697278559e-05,0.003948156256228685
0.00390987703576684,0.007562745828181505,-0.00941404514014721,0.00225026230327785,8.671150135342032e-05,0.0038493045140057802
0.004257070366293192,0.007538797799497843,-0.009341473691165447,0.0021408197935670614,8.534123480785638e-05,0.004343482665717602
0.0042759752832353115,0.008197411894798279,-0.009268906898796558,0.0020828349515795708,8.272645209217444e-05,0.003988162614405155
0.00415791105479002,0.007729254197329283,-0.009504374116659164,0.0021330714225769043,8.147820335580036e-05,0.00409155385568738
0.0042849136516451836,0.008145949803292751,-0.009190382435917854,0.0020648969803005457,8.026709838304669e-05,0.004276957828551531
0.004466117825359106,0.007935650646686554,-0.009145793505012989,0.0021557947620749474,7.909145642770454e-05,0.004056202247738838
0.004308972042053938,0.007715292274951935,-0.00994027592241764,0.0020173299126327038,7.794972771080211e-05,0.0038621402345597744
0.0040010856464505196,0.007508518639951944,-0.009618459269404411,0.002116185612976551,7.684057345613837e-05,0.003837374271824956
0.004319050349295139,0.007709203753620386,-0.00959227979183197,0.0020990055054426193,7.576247298857197e-05,0.004139941651374102
0.004260757006704807,0.00789907667785883,-0.010273737832903862,0.0023077228106558323,7.471421849913895e-05,0.003967083524912596
0.004464372061192989,0.007551608141511679,-0.0097045311704278,0.002610518131405115,7.369459490291774e-05,0.0038115137722343206
0.004464049823582172,0.00832290668040514,-0.009542975574731827,0.0027691780123859644,7.270244532264769e-05,0.003832972375676036
0.00460508419200778,0.00875590555369854,-0.010084329172968864,0.0025803016033023596,7.173661288106814e-05,0.0038830917328596115
0.004591228906065226,0.00800371915102005,-0.00947283674031496,0.002370580332353711,7.07960789441131e-05,0.004836250562220812
0.004346848931163549,0.007685536984354258,-0.009599119424819946,0.002207460580393672,7.561993697891012e-05,0.0042584980838000774
0.004091870505362749,0.007815838791429996,-0.010214462876319885,0.0022405115887522697,8.00995112513192e-05,0.0033983630128204823
0.004300978034734726,0.007939350791275501,-0.009325231425464153,0.002206910401582718,7.944467506604269e-05,0.0032195195090025663
0.004482016898691654,0.0077842059545218945,-0.00947555247694254,0.002213043160736561,7.847828965168446e-05,0.003820314770564437
0.00457061966881156,0.007515258621424437,-0.010262696072459221,0.0022508029360324144,7.751418888801709e-05,0.004636627156287432
0.004358532838523388,0.007463488262146711,-0.009687794372439384,0.002188360085710883,7.65721924835816e-05,0.00478747533634305
0.0045493971556425095,0.007832207717001438,-0.009558303281664848,0.0024174433201551437,7.56527078920044e-05,0.004719336051493883
0.004126949235796928,0.007838323712348938,-0.009976404719054699,0.002388985129073262,7.475504389731213e-05,0.004485429730266333
0.004268741700798273,0.0074402992613613605,-0.009503315202891827,0.0025322556030005217,7.387840742012486e-05,0.0044836862944066525
0.005262911319732666,0.007199558429419994,-0.0097308699041605,0.0026501258835196495,7.302215090021491e-05,0.0046257153153419495
0.005085612181574106,0.007522080093622208,-0.00878614466637373,0.0024444700684398413,7.218542305054143e-05,0.004324287176132202
0.005085612181574106,0.007522080093622208,-0.00878614466637373,0.0024444700684398413,7.218542305054143e-05,0.004324287176132202
0.004561990033835173,0.007455198094248772,-0.009661746211349964,0.002288173884153366,7.136769272619858e-05,0.0044706352055072784
0.004271418787539005,0.007367458660155535,-0.009946230798959732,0.002044450491666794,7.056827598717064e-05,0.004228258039802313
0.004290383774787188,0.008206288330256939,-0.010049655102193356,0.001954327803105116,6.978662713663653e-05,0.004430411849170923
0.005034152884036303,0.007823722437024117,-0.009791728109121323,0.0020411843433976173,5.869395067747973e-07,0.004430958069860935
0.0045051248744130135,0.007742659188807011,-0.009910047985613346,0.002098648576065898,3.832295902839178e-08,0.004855139646679163
0.004419693257659674,0.007804736495018005,-0.009488106705248356,0.002150164917111397,2.5022153238296596e-09,0.0049667032435536385
0.004921427462249994,0.007674272637814283,-0.009422051720321178,0.002314406679943204,1.633767843234324e-10,0.004518482834100723
0.004496555309742689,0.007501958403736353,-0.0099962642416358,0.002092077862471342,1.0667335938185918e-11,0.004557108972221613
0.00455915043130517,0.007128038443624973,-0.00944522861391306,0.0020959479734301567,6.965007997433714e-13,0.004457373637706041
0.004639545455574989,0.007478044833987951,-0.00905712228268385,0.0019478945760056376,4.547652469985737e-14,0.004567243624478579
0.005080391652882099,0.007600474637001753,-0.009790756739675999,0.0022649771999567747,2.9692915725336054e-15,0.0046346853487193584
0.004953598603606224,0.00737362215295434,-0.009873041883111,0.0027102364692837,1.9387353317899456e-16,0.004597202874720097
0.0048435283824801445,0.007507580332458019,-0.00950359832495451,0.002604731125757098,1.2658555844955184e-17,0.0043455553241074085
0.005025194957852364,0.0077818529680371284,-0.009828338399529457,0.002656438620761037,8.265132328950622e-19,0.004391626454889774
0.004974956624209881,0.007774047553539276,-0.010007712058722973,0.002506842603906989,5.3965411796975844e-20,0.0044298795983195305
0.004804878029972315,0.007595579139888287,-0.00920401606708765,0.002388458698987961,3.523555553238267e-21,0.004314142744988203
0.005320433992892504,0.007014781702309847,-0.01010686531662941,0.00235522142611444,2.300629905018724e-22,0.0044636898674070835
0.005162103567272425,0.00736361276358366,-0.010264185257256031,0.0024487804621458054,1.5021472002278592e-23,0.004482921212911606
0.004862667992711067,0.008051238022744656,-0.00920331384986639,0.002296228427439928,9.8079470776581e-25,0.0048324959352612495
0.004799117334187031,0.007664476986974478,-0.010053330101072788,0.0021858345717191696,6.403889012112994e-26,0.004777400754392147
0.005121853202581406,0.007609394378960133,-0.010391635820269585,0.002197770867496729,4.181281731670153e-27,0.004917732905596495
0.0049528274685144424,0.007802298758178949,-0.009617503732442856,0.002503495430573821,2.7300781592830644e-28,0.0048215617425739765
0.004944423213601112,0.007880485616624355,-0.010003726929426193,0.002355569042265415,1.7825458141970983e-29,0.004721029661595821
0.005113118328154087,0.007694632280617952,-0.010000046342611313,0.0024071689695119858,1.1638748242632794e-30,0.005050725303590298
0.005106760188937187,0.007652048487216234,-0.009562218561768532,0.002707652049139142,7.599271227006629e-32,0.004941944498568773
0.005299683194607496,0.007729767356067896,-0.010287377052009106,0.002878087107092142,4.961781123946061e-33,0.005021409131586552
0.005080351606011391,0.007740431930869818,-0.009973240084946156,0.0028579470235854387,3.2396886039826294e-34,0.005180021282285452
0.005080351606011391,0.007740431930869818,-0.009973240084946156,0.0028579470235854387,3.2396886039826294e-34,0.005180021282285452
0.005005533806979656,0.007007300388067961,-0.010534844361245632,0.0026604468002915382,2.1152851521351022e-35,0.0048582470044493675
0.00580648984760046,0.0074956887401640415,-0.010183801874518394,0.002570855664089322,1.3811300799952371e-36,0.0048200758174061775
0.005788879934698343,0.007317324168980122,-0.01009435672312975,0.002513134852051735,5.887974486101552e-39,0.004823656287044287
0.0055083828046917915,0.007170975673943758,-0.010131141170859337,0.002528659999370575,3.844420297921206e-40,0.004752681590616703
0.005844352301210165,0.007075964938849211,-0.009896407835185528,0.0024946830235421658,2.510145939145045e-41,0.005197460763156414
0.005981886759400368,0.007155352272093296,-0.009831124916672707,0.002344471635296941,1.639519203260036e-42,0.005137607455253601
0.005902298726141453,0.007234432268887758,-0.010381950996816158,0.002264712005853653,1.064986832886861e-43,0.004675055854022503
0.0060100550763309,0.006603654008358717,-0.00967314001172781,0.0022433653939515352,7.006492321624085e-45,0.004816348198801279
0.005692815873771906,0.006360770668834448,-0.009607928805053234,0.0025903359055519104,0.0,0.005023600067943335
0.006015578750520945,0.0070903184823691845,-0.010080646723508835,0.00296602095477283,0.0,0.0053052352741360664
0.006173101253807545,0.00692066689953208,-0.0098150335252285,0.002975418930873275,0.0,0.0055333999916911125
0.005853272508829832,0.0070198336616158485,-0.010125492699444294,0.0027305549010634422,0.0,0.005132140126079321
0.005539431236684322,0.0065071191638708115,-0.01011877041310072,0.002508552046492696,0.0,0.004881223663687706
0.005662383511662483,0.006597904954105616,-0.00980212353169918,0.0024532692041248083,0.0,0.005156631115823984
0.005478468723595142,0.006629295647144318,-0.00975815113633871,0.002382455160841346,0.0,0.005300318822264671
0.005629353225231171,0.006703387480229139,-0.010173427872359753,0.002495204797014594,0.0,0.005451835226267576
0.0055605280213057995,0.006501512136310339,-0.010002106428146362,0.0023834258317947388,0.0,0.005632225889712572
0.005762625019997358,0.006435454357415438,-0.010180477984249592,0.00246731610968709,0.0,0.005575324408710003
0.005569068714976311,0.006041818298399448,-0.010751521214842796,0.0025520201306790113,0.0,0.005434711463749409
0.00568397669121623,0.006683812942355871,-0.009974553249776363,0.002708364510908723,0.0,0.0054248939268291
0.005301046650856733,0.00723521551117301,-0.010176235809922218,0.0028112372383475304,0.0,0.005120027344673872
0.005904791876673698,0.006688982713967562,-0.01040684711188078,0.00308797019533813,0.0,0.005758325569331646
0.0062051634304225445,0.006583054084330797,-0.009763326495885849,0.0031556610483676195,0.0,0.005470464937388897
0.005881187506020069,0.006662752479314804,-0.010773655027151108,0.0028095252346247435,0.0,0.005357976071536541
0.0062554762698709965,0.007288419175893068,-0.010377324186265469,0.0026377884205430746,0.0,0.0056486246176064014
0.0059234327636659145,0.006614468526095152,-0.010296938009560108,0.0026781647466123104,0.0,0.00553874671459198
0.0059234327636659145,0.006614468526095152,-0.010296938009560108,0.0026781647466123104,0.0,0.00553874671459198
0.006192294880747795,0.006364569067955017,-0.010465801693499088,0.002722769044339657,0.0,0.0056823669001460075
0.0064887055195868015,0.0061322953552007675,-0.0102233299985528,0.002791604259982705,0.0,0.005498276092112064
0.006690210662782192,0.007087962236255407,-0.010025352239608765,0.0026477137580513954,0.0,0.005586027633398771
0.0065068528056144714,0.006366835441440344,-0.010175862349569798,0.0027493638917803764,0.0,0.005728449672460556
0.006968616042286158,0.006509497761726379,-0.010154230520129204,0.0030273995362222195,0.0,0.005558333359658718
0.006987164728343487,0.007190237753093243,-0.010445739142596722,0.003585045225918293,0.0,0.005742255598306656
0.00639182748273015,0.007589010987430811,-0.010140225291252136,0.003370927646756172,0.0,0.005314516369253397
0.006482400000095367,0.007077835500240326,-0.010391362011432648,0.003314630128443241,0.0,0.005208796821534634
0.0070352316834032536,0.0065168277360498905,-0.010825447738170624,0.0030768325086683035,0.0,0.005202438682317734
0.006932761985808611,0.0063363430090248585,-0.009970514103770256,0.0029102133121341467,0.0,0.005647366400808096
0.00647495174780488,0.006798465270549059,-0.010397086851298809,0.0027865786105394363,0.0,0.005528314504772425
0.006379869766533375,0.0073852320201694965,-0.01029379665851593,0.002875834470614791,0.0,0.0059055001474916935
0.006773193366825581,0.006996726617217064,-0.009814748540520668,0.003064336720854044,0.0,0.00536611070856452
0.007190091069787741,0.006353386677801609,-0.010880868881940842,0.0034397782292217016,0.0,0.005307619925588369
0.006940014660358429,0.006745574995875359,-0.010094878263771534,0.0033326041884720325,0.0,0.005575286224484444
0.006473603658378124,0.0070429602637887,-0.00963856652379036,0.0034838083665817976,0.0,0.006083433981984854
0.006601234432309866,0.00681935204192996,-0.01074875146150589,0.003437105566263199,0.0,0.006254022475332022
0.007168324198573828,0.007240527309477329,-0.010260413400828838,0.0033739604987204075,0.0,0.0060813892632722855
0.007009620778262615,0.00705271540209651,-0.010354800149798393,0.0030870691407471895,0.0,0.006178703159093857
0.006809061858803034,0.006888241041451693,-0.009938218630850315,0.003015801776200533,0.0,0.005910076666623354
0.006641946732997894,0.006700769066810608,-0.009581631049513817,0.0029178757686167955,0.0,0.006226712372153997
0.006792072206735611,0.006445152219384909,-0.010064330883324146,0.002895589452236891,0.0,0.006705601699650288
0.0067750075832009315,0.00685845734551549,-0.010226979851722717,0.002738344483077526,0.0,0.006527615245431662
0.007079468108713627,0.0069723729975521564,-0.009756948798894882,0.0028366735205054283,0.0,0.00653114216402173
0.006689305417239666,0.006480662152171135,-0.009844841435551643,0.002981226658448577,0.0,0.006448107305914164
0.007203209679573774,0.0061526549980044365,-0.01030670665204525,0.0033933010417968035,0.0,0.006137203425168991
0.007203209679573774,0.0061526549980044365,-0.01030670665204525,0.0033933010417968035,0.0,0.006137203425168991
0.0073027340695261955,0.006797259207814932,-0.00966638419777155,0.0033649238757789135,0.0,0.006060005631297827
0.0073027340695261955,0.006797259207814932,-0.00966638419777155,0.0033649238757789135,0.0,0.006060005631297827
0.007003202103078365,0.007377149071544409,-0.010117918252944946,0.0030753808096051216,0.0,0.006310485303401947
0.007489101495593786,0.006484372075647116,-0.010242030955851078,0.0031757240649312735,0.0,0.006298692896962166
0.007642551325261593,0.006159521639347076,-0.009956208989024162,0.003313832450658083,0.0,0.007178024388849735
0.007181286346167326,0.007222948595881462,-0.010736236348748207,0.0034139344934374094,0.0,0.005942337214946747
0.007181286346167326,0.007222948595881462,-0.010736236348748207,0.0034139344934374094,0.0,0.005942337214946747
0.008221391588449478,0.0064742472022771835,-0.010889653116464615,0.003432982135564089,0.0,0.005769296549260616
0.007796700578182936,0.006453577894717455,-0.009988851845264435,0.004136197734624147,0.0,0.006466737017035484
0.00760938785970211,0.006979381199926138,-0.010208276100456715,0.004143422935158014,0.0,0.006569101009517908
0.007903517223894596,0.007061825133860111,-0.010346820577979088,0.0035602711141109467,0.0,0.007125987205654383
0.007226868066936731,0.00675068749114871,-0.010019120760262012,0.00354818650521338,0.0,0.006655468605458736
0.0071991016156971455,0.006303304340690374,-0.010630515404045582,0.003325501922518015,0.0,0.0065693603828549385
0.008111969567835331,0.006543126422911882,-0.010085050016641617,0.003291661851108074,0.0,0.0067479293793439865
0.007895296439528465,0.006846203468739986,-0.010368390008807182,0.0034920815378427505,0.0,0.006624974776059389
0.008268020115792751,0.006540617905557156,-0.011083049699664116,0.0036945997271686792,0.0,0.006687667686492205
0.007982227019965649,0.0062709697522223,-0.010419717989861965,0.0037185715045779943,0.0,0.006837414111942053
0.007633913308382034,0.006352711468935013,-0.009941580705344677,0.003544936189427972,0.0,0.007234814111143351
0.00815983023494482,0.006649950984865427,-0.010229918174445629,0.003519113641232252,0.0,0.006815441884100437
0.008255005814135075,0.006587991490960121,-0.010738952085375786,0.003635481931269169,0.0,0.006728106178343296
0.008275926113128662,0.006448344327509403,-0.01034629251807928,0.0036914267111569643,0.0,0.006623950321227312
0.008003909140825272,0.006216384936124086,-0.010686826892197132,0.0033959788270294666,0.0,0.007148661185055971
0.008496662601828575,0.006421326193958521,-0.009898632764816284,0.003436767728999257,0.0,0.007402802351862192
0.00799791794270277,0.006745305377990007,-0.01055624894797802,0.0036732079461216927,0.0,0.0075382208451628685
0.007836849428713322,0.007152105215936899,-0.010575002990663052,0.0037586381658911705,0.0,0.006807073950767517
0.007776613812893629,0.006487181875854731,-0.01046019047498703,0.003704372327774763,0.0,0.006673717405647039
0.007776613812893629,0.006487181875854731,-0.01046019047498703,0.003704372327774763,0.0,0.006673717405647039
0.008209683001041412,0.006354136858135462,-0.010215945541858673,0.003693818813189864,0.0,0.006991534028202295
0.008894731290638447,0.006875074002891779,-0.010144652798771858,0.0037117796018719673,0.0,0.006999752949923277
0.008067251183092594,0.007395382970571518,-0.009992934763431549,0.003762805601581931,0.0,0.007201092783361673
0.007830005139112473,0.006863775663077831,-0.010435439646244049,0.00338550191372633,0.0,0.007021375000476837
0.008501045405864716,0.006148821674287319,-0.01043673511594534,0.003396682208403945,0.0,0.007284102030098438
0.007945877499878407,0.006139211356639862,-0.009803524240851402,0.003091062419116497,0.0,0.0072704944759607315
0.008600801229476929,0.006628356408327818,-0.010879706591367722,0.0036798354703933,0.0,0.00717493100091815
0.008567703887820244,0.006444460712373257,-0.010110026225447655,0.0037630542647093534,0.0,0.007071545347571373
0.008208693005144596,0.0063633788377046585,-0.010812965221703053,0.003767936024814844,0.0,0.007096132263541222
0.007623032666742802,0.006566734053194523,-0.010497834533452988,0.003827420761808753,0.0,0.007203316781669855
0.008822669275105,0.0067141237668693066,-0.010510390624403954,0.0035983361303806305,0.0,0.006857443600893021
0.008233881555497646,0.006632199510931969,-0.010714562609791756,0.0035252689849585295,0.0,0.007034264504909515
0.007997976616024971,0.0065498570911586285,-0.01073938887566328,0.004132719244807959,0.0,0.007124781608581543
0.008152888156473637,0.006432255730032921,-0.01138035487383604,0.004231040831655264,0.0,0.0069405618123710155
0.008974983356893063,0.0064138928428292274,-0.010449858382344246,0.004411490634083748,0.0,0.007338486611843109
0.008455486968159676,0.006733355112373829,-0.009865527041256428,0.004117154981940985,0.0,0.008089357987046242
0.008048034273087978,0.006564660929143429,-0.010867857374250889,0.004235036671161652,0.0,0.007459058426320553
0.008435985073447227,0.006854668725281954,-0.010448894463479519,0.004189716186374426,0.0,0.0072223227471113205
0.008497407659888268,0.0069110700860619545,-0.010235621593892574,0.003996498417109251,1.4393616766028572e-05,0.0070120226591825485
0.008008241653442383,0.006577960215508938,-0.01069168746471405,0.00413683382794261,9.398003157912171e-07,0.007097885012626648
0.008200155571103096,0.006454512011259794,-0.010420644655823708,0.00417666882276535,6.136224328656681e-08,0.007851415313780308
0.008835065178573132,0.006736129056662321,-0.011041207239031792,0.004253990948200226,4.006516007848404e-09,0.007887416519224644
0.008480733260512352,0.006815980654209852,-0.011056623421609402,0.004203249700367451,2.615968552888148e-10,0.006982268765568733
0.008240069262683392,0.006473836954683065,-0.011185227893292904,0.004351620562374592,1.7080404798863746e-11,0.00715272594243288
0.008240069262683392,0.006473836954683065,-0.011185227893292904,0.004351620562374592,1.7080404798863746e-11,0.00715272594243288
0.009160773828625679,0.006447355262935162,-0.011529656127095222,0.004303606227040291,1.1152283523746531e-12,0.007465874310582876
0.008596904575824738,0.00610748864710331,-0.011159412562847137,0.004104174207895994,7.281644091947787e-14,0.008060003630816936
0.008527951315045357,0.006126907654106617,-0.011264068074524403,0.004001879598945379,4.75439381535602e-15,0.007940624840557575
0.00894396472722292,0.006196322850883007,-0.011522195301949978,0.003967548720538616,3.1042794016892606e-16,0.008143039420247078
0.008711999282240868,0.006856049410998821,-0.010408089496195316,0.004450795240700245,2.0268724186742057e-17,0.007853716611862183
0.008816836401820183,0.006451736204326153,-0.010792850516736507,0.004497807007282972,1.3234028499035622e-18,0.007847240194678307
0.008714375086128712,0.00623305793851614,-0.010838213376700878,0.004258772358298302,5.641874629107073e-21,0.007711128331720829
0.008549126796424389,0.006731265690177679,-0.011345043778419495,0.003617401234805584,3.683740613666938e-22,0.007949432358145714
0.008567648939788342,0.006875496823340654,-0.01085315365344286,0.004016798455268145,2.405219387306769e-23,0.008144145831465721
0.008937417529523373,0.00658359844237566,-0.010311179794371128,0.005230788141489029,1.5704363841594681e-24,0.008400660939514637
0.009138435125350952,0.0063567631877958775,-0.011539796367287636,0.005482396110892296,1.0253827901323736e-25,0.00808524340391159
0.008857456035912037,0.006487122271209955,-0.010395840741693974,0.004948298446834087,6.69501705066404e-27,0.008062767796218395
0.009158101864159107,0.006777772679924965,-0.010452072136104107,0.004523448180407286,4.371367935693262e-28,0.007976334542036057
0.009267686866223812,0.007118741981685162,-0.011220017448067665,0.004282929468899965,2.854190862689211e-29,0.007882713340222836
0.009115246124565601,0.006421784404665232,-0.01078738272190094,0.0044297464191913605,1.8635826644151024e-30,0.008602811954915524
0.009412283077836037,0.006428283639252186,-0.011303141713142395,0.004451521206647158,1.2167864110813623e-31,0.008230593986809254
0.009244339540600777,0.00679077859967947,-0.011373335495591164,0.004767448641359806,7.944746077977422e-33,0.008692548610270023
0.00991980079561472,0.006807336583733559,-0.01056315004825592,0.004865018650889397,5.187351418535654e-34,0.009204413741827011
0.009421471506357193,0.006408818997442722,-0.010935597121715546,0.004818756598979235,3.386969436562897e-35,0.008382407017052174
0.009655979461967945,0.0062811183743178844,-0.010158180259168148,0.005022808909416199,2.2114489700213898e-36,0.009250525385141373
0.009645777754485607,0.006659108679741621,-0.01027502678334713,0.004464394878596067,1.4439181163381778e-37,0.008670457638800144
0.010260227136313915,0.006926401052623987,-0.011080733500421047,0.004301005974411964,9.427753899177007e-39,0.008272883482277393
0.009737360291182995,0.00640995055437088,-0.010774057358503342,0.004240951035171747,6.155651920055343e-40,0.007792701944708824
0.009971301071345806,0.006368252448737621,-0.01076787430793047,0.004595879931002855,4.0192042553764403e-41,0.007635712623596191
0.009983653202652931,0.006395056843757629,-0.010909796692430973,0.005111098289489746,2.6246320236803824e-42,0.008249127306044102
0.009727844968438148,0.007266483269631863,-0.010516466572880745,0.005325633566826582,1.7095841264762768e-43,0.008738229982554913
0.0100944135338068,0.00677215913310647,-0.011208698153495789,0.005059180315583944,1.1210387714598537e-44,0.008497266098856926
0.010039275512099266,0.006229553371667862,-0.010958275757730007,0.004892253782600164,1.401298464324817e-45,0.008678227663040161
0.009771625511348248,0.006748440209776163,-0.010533766821026802,0.004780180752277374,0.0,0.009052783250808716
0.010071241296827793,0.006920425686985254,-0.011092215776443481,0.005102433264255524,0.0,0.008689453825354576
0.010071241296827793,0.006920425686985254,-0.011092215776443481,0.005102433264255524,0.0,0.008689453825354576
0.009846367873251438,0.006953978445380926,-0.010335742495954037,0.005463856738060713,0.0,0.008416339755058289
0.010036053135991096,0.0067428057081997395,-0.010741555131971836,0.005318968556821346,0.0,0.008734853006899357
0.009990383870899677,0.006403347477316856,-0.010667745023965836,0.005032104905694723,0.0,0.0087064104154706
0.010156407952308655,0.007191277574747801,-0.011349217966198921,0.004242567345499992,0.0,0.009386757388710976
0.00986393354833126,0.006656760815531015,-0.011255559511482716,0.004477039445191622,0.0,0.009613653644919395
0.010763445869088173,0.006308142561465502,-0.011247584596276283,0.0047090919688344,0.0,0.009255479089915752
0.010071810334920883,0.006296077743172646,-0.01134682446718216,0.004717587027698755,0.0,0.008498827926814556
0.00968964584171772,0.0062467921525239944,-0.010758783668279648,0.005072162952274084,0.0,0.009212024509906769
0.010123997926712036,0.006342323496937752,-0.011759498156607151,0.005149702075868845,0.0,0.008894624188542366
0.010474943555891514,0.006604439578950405,-0.01185008604079485,0.005046715959906578,0.0,0.008872845210134983
0.009890427812933922,0.005898612551391125,-0.011049973778426647,0.00528650963678956,0.0,0.009425336495041847
0.010621408000588417,0.006038396619260311,-0.011836547404527664,0.005379063077270985,0.0,0.009535015560686588
0.010862428694963455,0.006094797980040312,-0.01114573236554861,0.005341032985597849,0.0,0.009018980897963047
0.010405823588371277,0.006451719906181097,-0.011445208452641964,0.005425680428743362,0.0,0.009330677799880505
0.010196997784078121,0.006482838187366724,-0.011428783647716045,0.005552893970161676,0.0,0.008962678723037243
0.010293508879840374,0.006411532871425152,-0.010994802229106426,0.005222161300480366,0.0,0.008902066387236118
0.011341347359120846,0.005989974830299616,-0.011469433084130287,0.005021612159907818,0.0,0.009226994588971138
0.010788331739604473,0.0063200099393725395,-0.01130884699523449,0.005233743228018284,0.0,0.009228385984897614
0.010037986561655998,0.006690619979053736,-0.0112659502774477,0.005375250708311796,0.0,0.009174170903861523
0.010539756156504154,0.006210580933839083,-0.011646552011370659,0.005493378732353449,0.0,0.009316843003034592
0.010788757354021072,0.006077808327972889,-0.011317161843180656,0.005154035985469818,0.0,0.008790460415184498
0.009980854578316212,0.006048607174307108,-0.012254522182047367,0.005292208399623632,0.0,0.008887922391295433
0.010218903422355652,0.0061088670045137405,-0.011892279610037804,0.005663646850734949,0.0,0.008957979269325733
0.010340890847146511,0.0062126275151968,-0.011834219098091125,0.005681726615875959,0.0,0.009236627258360386
0.010340890847146511,0.0062126275151968,-0.011834219098091125,0.005681726615875959,0.0,0.009236627258360386
0.010502074845135212,0.0061805532313883305,-0.011747267097234726,0.0054906453005969524,0.0,0.009319933131337166
0.010502074845135212,0.0061805532313883305,-0.011747267097234726,0.0054906453005969524,0.0,0.009319933131337166
0.010663466528058052,0.005823073908686638,-0.012060548178851604,0.005602096673101187,0.0,0.00959846843034029
0.010203382931649685,0.006256887223571539,-0.011545318178832531,0.006077397149056196,0.0,0.00988037046045065
0.010655364952981472,0.006682251580059528,-0.011856338940560818,0.005605932325124741,0.0,0.00967099517583847
0.010370442643761635,0.006371422205120325,-0.012625106610357761,0.005663570947945118,0.0,0.009640374220907688
0.010116652585566044,0.0060494388453662395,-0.011444776318967342,0.005406479816883802,0.0,0.010155072435736656
0.010783946141600609,0.0061565060168504715,-0.0116708530113101,0.005915513262152672,0.0,0.009389406070113182
0.01024867594242096,0.006356813479214907,-0.012267672456800938,0.005621417425572872,0.0,0.009681956842541695
0.01086332742124796,0.006020569708198309,-0.012088516727089882,0.005433062557131052,0.0,0.009503314271569252
0.0101626580581069,0.006026033312082291,-0.01216466911137104,0.005513237323611975,-0.00018210227426607162,0.00992735754698515
0.010652188211679459,0.006036895327270031,-0.012549673207104206,0.005819504614919424,-0.0002931961789727211,0.009862100705504417
0.010687925852835178,0.006112979259341955,-0.011752447113394737,0.006202420219779015,-0.0002828112046699971,0.00969830621033907
0.010243847966194153,0.00596883287653327,-0.012160706333816051,0.0060822986997663975,-0.0002665775828063488,0.010071976110339165
0.010624137707054615,0.005514487624168396,-0.012036277912557125,0.005725951865315437,-0.0002952474169433117,0.010310253128409386
0.010721830651164055,0.005506003741174936,-0.012368276715278625,0.005574325565248728,-0.00028558948542922735,0.010876964777708054
0.011083850637078285,0.006208062171936035,-0.012180839665234089,0.005266635213047266,-0.0002937029057648033,0.01062745414674282
0.011586446315050125,0.0063493684865534306,-0.012142777442932129,0.005726736504584551,-0.0003002149751409888,0.01068818848580122
0.010428737848997116,0.006121342536062002,-0.012594559229910374,0.005786185152828693,-0.00028783720335923135,0.009894906543195248
0.010120262391865253,0.005991142708808184,-0.012056553736329079,0.005582635290920734,-0.00030440150294452906,0.010096398182213306
0.010925195179879665,0.005667392164468765,-0.01267621386796236,0.0052995202131569386,-0.00030083252931945026,0.010709090158343315
0.010446022264659405,0.005837067496031523,-0.012564226984977722,0.0056723495945334435,-0.0003716945939231664,0.010343360714614391
0.010527133010327816,0.0067024254240095615,-0.012153937481343746,0.006117505487054586,-0.0003685900301206857,0.010686764493584633
0.010817390866577625,0.006067649926990271,-0.012095982208848,0.006111310329288244,-0.00040597672341391444,0.010388516820967197
0.010688262060284615,0.005868349224328995,-0.011752857826650143,0.006037124898284674,-0.0003815474919974804,0.010502219200134277
0.011318202130496502,0.006567275617271662,-0.012345396913588047,0.005529200658202171,-0.0003854964452330023,0.010135386139154434
0.011010860092937946,0.006925683002918959,-0.011974752880632877,0.005482689011842012,-0.00038828718243166804,0.010595441795885563
0.010807063430547714,0.00635791290551424,-0.012379446066915989,0.005869794636964798,-0.00036737581831403077,0.011065197177231312
0.011211712844669819,0.006282103713601828,-0.011988294310867786,0.006484391167759895,-0.0003472339885775,0.010355557315051556
0.010971980169415474,0.005722531583160162,-0.011667769402265549,0.006028217729181051,-0.0003520245954860002,0.010028508491814137
0.010971980169415474,0.005722531583160162,-0.011667769402265549,0.006028217729181051,-0.0003520245954860002,0.010028508491814137
0.011416319757699966,0.006035885773599148,-0.012396587058901787,0.005987081211060286,-0.00035585928708314896,0.010474775917828083
0.011150624603033066,0.00632123090326786,-0.011483409442007542,0.006100522354245186,-0.00034041921026073396,0.010568361729383469
0.010350773110985756,0.006416867487132549,-0.012391539290547371,0.005835389718413353,-0.00038177939131855965,0.010314799845218658
0.01142519898712635,0.006037229206413031,-0.012553533539175987,0.0063318428583443165,-0.0003602768119890243,0.01046544685959816
0.011229127645492554,0.005969769787043333,-0.012589700520038605,0.006647028494626284,-0.00039621893665753305,0.010281486436724663
0.012022117152810097,0.0061000632122159,-0.012577379122376442,0.0064621055498719215,-0.00037293462082743645,0.01071305014193058
0.01111087016761303,0.006647895090281963,-0.012328775599598885,0.006812174804508686,-0.000382272235583514,0.01092823687940836
0.012652475386857986,0.006150395609438419,-0.011568604968488216,0.007235759403556585,-0.00040517860907129943,0.011641688644886017
0.013611278496682644,0.006334248930215836,-0.012372681871056557,0.006878812797367573,-0.00039152512908913195,0.011447521857917309
0.013634110800921917,0.00622353283688426,-0.012415564619004726,0.006121337879449129,-0.0005124856252223253,0.011245331726968288
0.013232854194939137,0.006730963010340929,-0.01254592090845108,0.006233379244804382,-0.0004698342818301171,0.011220105923712254
0.013187148608267307,0.006391797214746475,-0.01253578532487154,0.006782905664294958,-0.0005050791660323739,0.011204530484974384
0.013362928293645382,0.005852253641933203,-0.011882773600518703,0.0065541379153728485,-0.0005236505530774593,0.011527910828590393
0.013394954614341259,0.006273448001593351,-0.012674226425588131,0.006361115258187056,-0.000500054971780628,0.011296954937279224
0.013665062375366688,0.006742795929312706,-0.012062575668096542,0.006235162727534771,-0.0005216234712861478,0.010993614792823792
0.013491799123585224,0.006483960896730423,-0.01223798282444477,0.006263664457947016,-0.0004937215126119554,0.011081860400736332
0.013829940930008888,0.006427187938243151,-0.01211707852780819,0.006970514077693224,-0.0004625059955287725,0.011628296226263046
0.013663776218891144,0.0063869534060359,-0.012022973038256168,0.006823347415775061,-0.00043460866436362267,0.01144926156848669
0.014053723774850368,0.006025936920195818,-0.012255224399268627,0.006822539959102869,-0.00044495612382888794,0.011280505917966366
0.013505027629435062,0.006618383340537548,-0.011993530206382275,0.006667768582701683,-0.00041083237738348544,0.010817201808094978
0.013910442590713501,0.006460070610046387,-0.012676158919930458,0.007473672740161419,-0.0003768254246097058,0.011248543858528137
0.013896932825446129,0.006057584658265114,-0.012093598023056984,0.006833530962467194,-0.00034770811907947063,0.011203699745237827
0.014181270264089108,0.006018965505063534,-0.012382585555315018,0.006721118465065956,-0.00032275248668156564,0.010998900979757309
0.013567772693932056,0.006412545684725046,-0.012107949703931808,0.006905977614223957,-0.00033039713161997497,0.011248514987528324
0.014272079803049564,0.0063352808356285095,-0.012076209299266338,0.0072681838646531105,-0.00033666795934550464,0.01135966181755066
0.013834349811077118,0.0062842415645718575,-0.01246210653334856,0.006633714772760868,-0.0003185589157510549,0.0121079683303833
0.014352108351886272,0.006225703749805689,-0.011914893984794617,0.006419034209102392,-0.0003009156498592347,0.011705636978149414
0.014352108351886272,0.006225703749805689,-0.011914893984794617,0.006419034209102392,-0.0003009156498592347,0.011705636978149414
0.013958882540464401,0.005909727420657873,-0.01257992722094059,0.006640826351940632,-0.00030819937819615006,0.011649951338768005
0.014179117977619171,0.006076529622077942,-0.011841703206300735,0.007241492159664631,-0.000314270902890712,0.011902976781129837
0.013699949719011784,0.006110362708568573,-0.012261738069355488,0.007392451167106628,-0.0003006727492902428,0.011580856516957283
0.013541770167648792,0.006006975192576647,-0.012061010114848614,0.006680002436041832,-0.00030709849670529366,0.012633486650884151
0.01410509180277586,0.0060289460234344006,-0.012399767525494099,0.006883740425109863,-0.00030058034462854266,0.01094716414809227
0.013894402422010899,0.006085675675421953,-0.011812413111329079,0.007317223120480776,-0.0002886095317080617,0.011329863220453262
0.0137810492888093,0.0061940220184624195,-0.012263690121471882,0.006653814110904932,-0.0002725819358602166,0.01149323582649231
0.01413758285343647,0.006319645792245865,-0.012352237477898598,0.006598526146262884,-0.0002561012515798211,0.011511771008372307
0.014102177694439888,0.005997196771204472,-0.012668871320784092,0.007027909159660339,-0.00024224678054451942,0.011705842800438404
0.013815208338201046,0.005994003731757402,-0.01215068344026804,0.007099695038050413,-0.00022986454132478684,0.011889545246958733
0.014027333818376064,0.005931538995355368,-0.01198598276823759,0.007192931603640318,-0.000259424967225641,0.012458215467631817
0.014177358709275723,0.006329593248665333,-0.012700799852609634,0.007236646953970194,-0.0002500661357771605,0.011856095865368843
0.01398799754679203,0.006170334760099649,-0.012294352985918522,0.006865350529551506,-0.00023916120699141175,0.012056293897330761
0.014174005948007107,0.005854646675288677,-0.012648378498852253,0.007156667299568653,-0.00022902697673998773,0.012265769764780998
0.014231866225600243,0.006075102370232344,-0.012490293011069298,0.007966574281454086,-0.00025383319007232785,0.012583812698721886
0.013941035605967045,0.006470788735896349,-0.012946128845214844,0.007729466073215008,-0.0002461398544255644,0.01283404603600502
0.013921091333031654,0.0065543209202587605,-0.012507496401667595,0.006967467255890369,-0.0002536035608500242,0.0124277975410223
0.014495334587991238,0.006036787759512663,-0.012466762214899063,0.007362189702689648,-0.0002599427825771272,0.012654981575906277
0.01348171103745699,0.006095516961067915,-0.012952389195561409,0.007547835353761911,-0.0002518612309359014,0.012313932180404663
0.013960420154035091,0.005881889723241329,-0.012290922924876213,0.00746569549664855,-0.00024341224343515933,0.012590568512678146
0.01404220424592495,0.006282861810177565,-0.012812145054340363,0.007534291595220566,-0.00023590642376802862,0.012441696599125862
0.014130954630672932,0.006575683131814003,-0.01197831891477108,0.007140750996768475,-0.00028595924959518015,0.012527854181826115
0.014114855788648129,0.0062374453991651535,-0.012884271331131458,0.007727783638983965,-0.00027287358534522355,0.012394818477332592
0.013154951855540276,0.006061863154172897,-0.013659208081662655,0.007822715677320957,-0.0003020861477125436,0.012387683615088463
0.014307080768048763,0.00572559330612421,-0.013447137549519539,0.00770691130310297,-0.00029186750180087984,0.013037962839007378
0.015410012565553188,0.0055811419151723385,-0.01277889870107174,0.007859601639211178,-0.00027727606357075274,0.013101520948112011
0.014519509859383106,0.005216216668486595,-0.013125893659889698,0.0079577025026083,-0.00030181967304088175,0.01305269356817007
0.014519509859383106,0.005216216668486595,-0.013125893659889698,0.0079577025026083,-0.00030181967304088175,0.01305269356817007
0.014692234806716442,0.005403940100222826,-0.013431881554424763,0.007778551895171404,-0.00029299731249921024,0.01299739908427
0.01450624130666256,0.0051790280267596245,-0.012572898529469967,0.007381949573755264,-0.0002802996605169028,0.013289676047861576
0.014563442207872868,0.005881506018340588,-0.01334834098815918,0.00795263797044754,-0.00026837826590053737,0.012965342029929161
0.014445260167121887,0.005193047225475311,-0.013012510724365711,0.007609889842569828,-0.0002574121463112533,0.01277027279138565
0.014888124540448189,0.004883239045739174,-0.013107987120747566,0.0073291645385324955,-0.00024730488075874746,0.012805452570319176
0.014795700088143349,0.005256165284663439,-0.013002240099012852,0.007963372394442558,-0.00025983733939938247,0.013031751848757267
0.01471016276627779,0.005399544723331928,-0.013125472702085972,0.007658874616026878,-0.00025270768674090505,0.013112333603203297
0.015219843946397305,0.005101320333778858,-0.013157648965716362,0.007461956702172756,-0.00024426402524113655,0.01342171709984541
0.015107954852283001,0.004868338815867901,-0.013444897718727589,0.007983441464602947,-0.00023625667381566018,0.013496773317456245
0.014757676981389523,0.005654129199683666,-0.012877711094915867,0.00818704254925251,-0.00022874967544339597,0.013481850735843182
0.015043236315250397,0.005195741541683674,-0.013140643015503883,0.007661222014576197,-0.0002217051514890045,0.013042397797107697
0.014945771545171738,0.004509125370532274,-0.012711018323898315,0.007652936037629843,-0.00023505301214754581,0.013371005654335022
0.014944704249501228,0.005089992191642523,-0.013379269279539585,0.007987677119672298,-0.00022640197130385786,0.012765183113515377
0.014881703071296215,0.005087899509817362,-0.012812995351850986,0.007541506085544825,-0.00021575155551545322,0.013228748925030231
0.015226437710225582,0.0049331774935126305,-0.013436215929687023,0.007801811210811138,-0.0002058918180409819,0.01387043483555317
0.014966199174523354,0.00509530957788229,-0.013665716163814068,0.007878636009991169,-0.00019688188331201673,0.013202914968132973
0.015179858542978764,0.005254499614238739,-0.013274997472763062,0.007817109115421772,-0.00020707793009933084,0.01364143192768097
0.014956974424421787,0.004897215403616428,-0.01351393572986126,0.008172882720828056,-0.00021598624880425632,0.013858422636985779
0.015335962176322937,0.004999123048037291,-0.013785372488200665,0.00803358480334282,-0.00022579709184356034,0.013802723959088326
0.015010099858045578,0.0054140291176736355,-0.013737086206674576,0.007587677799165249,-0.00023340900952462107,0.013415839523077011
0.015435779467225075,0.005158980377018452,-0.012956835329532623,0.008089601993560791,-0.00022607657592743635,0.013972531072795391
0.015061520040035248,0.005736720282584429,-0.013350258581340313,0.008394193835556507,-0.0002183096221415326,0.01369615737348795
0.01567140407860279,0.005250774789601564,-0.012801763601601124,0.008378774859011173,-0.0002391080925008282,0.014095453545451164
0.015600110404193401,0.005465036723762751,-0.01333152037113905,0.008377143181860447,-0.00023319631873164326,0.013954677619040012
0.015991976484656334,0.005157449282705784,-0.012926027178764343,0.008943703025579453,-0.00022599584190174937,0.013931885361671448
0.015603382140398026,0.00531169306486845,-0.013705742545425892,0.008197071962058544,-0.00021912493684794754,0.0137023339048028
0.015603382140398026,0.00531169306486845,-0.013705742545425892,0.008197071962058544,-0.00021912493684794754,0.0137023339048028
0.016205785796046257,0.005650253966450691,-0.012795223854482174,0.007690499536693096,-0.00021341074898373336,0.014099281281232834
0.016084181144833565,0.005367340985685587,-0.01365257054567337,0.008350983262062073,-0.00026507978327572346,0.01404507551342249
0.015483887866139412,0.0056035565212368965,-0.013235444203019142,0.008565173484385014,-0.0002542995207477361,0.013909108936786652
0.015927739441394806,0.005386436823755503,-0.013209753669798374,0.008456278592348099,-0.0002826624258887023,0.013917931355535984
0.016341660171747208,0.005566230975091457,-0.013107786886394024,0.009038318879902363,-0.0002611592353787273,0.014460556209087372
0.016332117840647697,0.005469902418553829,-0.013777020387351513,0.00878503080457449,-0.00028781098080798984,0.0151772266253829
0.016833126544952393,0.005315491463989019,-0.013600156642496586,0.008822326548397541,-0.00030696752946823835,0.014853902161121368
0.01672361232340336,0.00550862168893218,-0.01364576444029808,0.00913382600992918,-0.0003034203837160021,0.01503064576536417
0.016591383144259453,0.0053058224730193615,-0.01307572703808546,0.009664813987910748,-0.0002917386300396174,0.01487682107836008
0.01678052358329296,0.0057341791689395905,-0.013592632487416267,0.008872905746102333,-0.00042557192500680685,0.015100815333425999
0.01656811311841011,0.0059378258883953094,-0.013207879848778248,0.008799787610769272,-0.0004083213279955089,0.014587954618036747
0.01703718490898609,0.0059668379835784435,-0.013836400583386421,0.00879543088376522,-0.00044540371163748205,0.01482911966741085
0.017246384173631668,0.005329399835318327,-0.013694397173821926,0.008361900225281715,-0.0004157383518759161,0.014773430302739143
0.01711416058242321,0.005391227081418037,-0.013847757130861282,0.008228128775954247,-0.0004461363423615694,0.015240116976201534
0.01750294119119644,0.005336862523108721,-0.013419587165117264,0.008719954639673233,-0.0004202837881166488,0.01515453401952982
0.017511647194623947,0.006323905196040869,-0.014072688296437263,0.008805145509541035,-0.00039422776899300516,0.014887288212776184
0.017863744869828224,0.005920005962252617,-0.013647296465933323,0.009375876747071743,-0.00041006156243383884,0.014709211885929108
0.017145460471510887,0.005288619082421064,-0.014027364552021027,0.00930707436054945,-0.0003995159058831632,0.015025164000689983
0.01708333194255829,0.0052935658022761345,-0.013685176149010658,0.008885947056114674,-0.0003817048273049295,0.014981693588197231
0.017961228266358376,0.00553111219778657,-0.014050123281776905,0.008446702733635902,-0.00041619554394856095,0.015105427242815495
0.017510095611214638,0.005655220244079828,-0.014063039794564247,0.008929664269089699,-0.00038513430627062917,0.015060486271977425
0.01833299733698368,0.006229458376765251,-0.014192056842148304,0.009008287452161312,-0.00041628183680586517,0.015474764630198479
0.017969461157917976,0.006229132879525423,-0.013978341594338417,0.00874839723110199,-0.00039423751877620816,0.017069809138774872
0.01740151271224022,0.005412006285041571,-0.01447268482297659,0.009336130693554878,-0.00041300884913653135,0.015072265639901161
0.018573617562651634,0.005412437953054905,-0.01410296093672514,0.009619850665330887,-0.0004008132091257721,0.014825765043497086
0.018364133313298225,0.005839717108756304,-0.014270980842411518,0.00948483869433403,-0.00042791393934749067,0.015125887468457222
0.01817266270518303,0.006625063251703978,-0.013828721828758717,0.009929555468261242,-0.0005177212879061699,0.015492674894630909
0.018266843631863594,0.0059246039018034935,-0.014143995940685272,0.009859627112746239,-0.0005463244742713869,0.015250548720359802
0.018266843631863594,0.0059246039018034935,-0.014143995940685272,0.009859627112746239,-0.0005463244742713869,0.015250548720359802
0.01818288490176201,0.005721145775169134,-0.014455888420343399,0.009303084574639797,-0.0005375266191549599,0.015828650444746017
0.018479282036423683,0.0060400571674108505,-0.013998791575431824,0.00957215391099453,-0.0005311016575433314,0.015576177276670933
0.018052753061056137,0.0059621878899633884,-0.014287808910012245,0.009792490862309933,-0.0005186697817407548,0.01570635475218296
0.01874900795519352,0.006005004979670048,-0.01479395106434822,0.009876357391476631,-0.0005125554162077606,0.015820970758795738
0.01959587261080742,0.005800145212560892,-0.015275292098522186,0.009720121510326862,-0.0004803614574484527,0.01570090837776661
0.019019586965441704,0.005825080908834934,-0.014348860830068588,0.009346268139779568,-0.0004894525627605617,0.016253655776381493
0.019480062648653984,0.00585037050768733,-0.014943069778382778,0.009483064524829388,-0.0005226276116445661,0.016334068030118942
0.019610995426774025,0.00609411858022213,-0.014870855957269669,0.010227908380329609,-0.0005799951613880694,0.01560167409479618
0.01849159225821495,0.006026734132319689,-0.01460614986717701,0.009629505686461926,-0.0006095378776080906,0.016234321519732475
0.01911810413002968,0.005843742284923792,-0.014829364605247974,0.00933897402137518,-0.0008062108536250889,0.016364077106118202
0.01911831460893154,0.005888006649911404,-0.014891424216330051,0.009581992402672768,-0.000944468891248107,0.016409937292337418
0.019069697707891464,0.005956543143838644,-0.014600073918700218,0.009580456651747227,-0.0008759390912018716,0.01602984592318535
0.01978866383433342,0.006715669296681881,-0.014800822362303734,0.009281177073717117,-0.0007582210819236934,0.016372574493288994
0.019644908607006073,0.006225250195711851,-0.014974966645240784,0.009895022958517075,-0.0007456107996404171,0.01664903573691845
0.019300881773233414,0.005854928866028786,-0.015174356289207935,0.009707518853247166,-0.0006886341725476086,0.01641862466931343
0.019739601761102676,0.006144602783024311,-0.01462381798774004,0.009826119989156723,-0.000687146675772965,0.0163449514657259
0.0200236476957798,0.005699505098164082,-0.015705976635217667,0.010077953338623047,-0.0006455996190197766,0.016006337478756905
0.020057888701558113,0.006459214258939028,-0.015236077830195427,0.010391118936240673,-0.0005745909293182194,0.016356416046619415
0.020023183897137642,0.006487424485385418,-0.016058556735515594,0.010109362192451954,-0.0004954463220201433,0.016527337953448296
0.020201195031404495,0.005753100384026766,-0.015813110396265984,0.010714169591665268,-0.0005219035665504634,0.016453396528959274
0.020011188462376595,0.005810130853205919,-0.01631142757833004,0.010367273353040218,-0.0005446263821795583,0.016923028975725174
0.0198547150939703,0.005764621775597334,-0.015632620081305504,0.010800576768815517,-0.0005187630886211991,0.017171168699860573
0.02047475427389145,0.0063868192955851555,-0.015836820006370544,0.010847119614481926,-0.0005308255203999579,0.017118055373430252
0.02030273899435997,0.0062793223187327385,-0.01571253314614296,0.010558739304542542,-0.0005090194754302502,0.01692267879843712
0.02024412713944912,0.005414814688265324,-0.016102934256196022,0.01057940162718296,-0.000600994739215821,0.017385168001055717
0.020523233339190483,0.005364769138395786,-0.016304470598697662,0.010344000533223152,-0.0005478287348523736,0.017457086592912674
0.020535141229629517,0.005640123970806599,-0.015546354465186596,0.010644393041729927,-0.0004894595476798713,0.01814977079629898
0.02071540616452694,0.006051500327885151,-0.015250617638230324,0.010627723298966885,-0.0004815621068701148,0.016428260132670403
0.02071540616452694,0.006051500327885151,-0.015250617638230324,0.010627723298966885,-0.0004815621068701148,0.016428260132670403
0.02107929438352585,0.005890806671231985,-0.015968287363648415,0.010713117197155952,-0.0004427242383826524,0.016800208017230034
0.020373353734612465,0.005595043301582336,-0.015125547535717487,0.010756079107522964,-0.00044224029988981783,0.016986539587378502
0.02066199854016304,0.005509380251169205,-0.01579844392836094,0.010115186683833599,-0.00045794551260769367,0.01761687360703945
0.02066199854016304,0.005509380251169205,-0.01579844392836094,0.010115186683833599,-0.00045794551260769367,0.01761687360703945
0.020336830988526344,0.005578171461820602,-0.01608932763338089,0.0102629279717803,-0.00044344947673380375,0.017761355265975
0.02084755152463913,0.005523517727851868,-0.016118992120027542,0.009965282864868641,-0.00041737681021913886,0.01788630522787571
0.02079026959836483,0.005558700300753117,-0.015885252505540848,0.010463781654834747,-0.00038358333404175937,0.017707906663417816
0.02167380228638649,0.005280271638184786,-0.01652388460934162,0.010742036625742912,-0.000414540059864521,0.01750446856021881
0.021451951935887337,0.005847076419740915,-0.015873605385422707,0.01018079835921526,-0.0003926956851501018,0.0171421580016613
0.02110108733177185,0.005609517451375723,-0.01587686873972416,0.01050333958119154,-0.0004233873914927244,0.016947763040661812
0.020768212154507637,0.005290292203426361,-0.015118509531021118,0.010195267386734486,-0.0004280408611521125,0.017569134011864662
0.021045632660388947,0.005218841601163149,-0.0160511527210474,0.009660156443715096,-0.00042840655078180134,0.01775851659476757
0.022038064897060394,0.00555818248540163,-0.015944283455610275,0.009910102933645248,-0.0005031878827139735,0.017702650278806686
0.021598173305392265,0.005273302085697651,-0.016143137589097023,0.009571252390742302,-0.0005357989575713873,0.01763165555894375
0.021185776218771935,0.005119249224662781,-0.016304519027471542,0.009429587982594967,-0.0005674908170476556,0.01746179908514023
0.0216506440192461,0.0056185415014624596,-0.016328705474734306,0.009744863957166672,-0.0005662118783220649,0.017822157591581345
0.02150343358516693,0.0051427423022687435,-0.01660565659403801,0.009981322102248669,-0.0005551200592890382,0.018253682181239128
0.02144673839211464,0.004914643708616495,-0.01585797406733036,0.01034754142165184,-0.0005756354075856507,0.018482690677046776
0.02174290083348751,0.005217114929109812,-0.01620965637266636,0.010834261775016785,-0.0006289208540692925,0.01849556528031826
0.021971216425299644,0.004976811818778515,-0.016323624178767204,0.01077648438513279,-0.0006277672364376485,0.018192479386925697
0.02129269391298294,0.005417031701654196,-0.01644696295261383,0.011143190786242485,-0.0006512129330076277,0.017688332125544548
0.020957114174962044,0.005106916651129723,-0.015927771106362343,0.011452807113528252,-0.0006404102896340191,0.017666831612586975
0.02154620550572872,0.004890683107078075,-0.01631404459476471,0.01059705950319767,-0.0006207489059306681,0.01790996454656124
0.02232320047914982,0.0049839443527162075,-0.01663774624466896,0.010775299742817879,-0.0005676186410710216,0.017897607758641243
0.022292951121926308,0.004914142657071352,-0.01622745767235756,0.010914675891399384,-0.0005899429670535028,0.018430359661579132
0.022098707035183907,0.004856469109654427,-0.016501128673553467,0.010363897308707237,-0.0005494157667271793,0.0184324961155653
0.021984998136758804,0.005102846771478653,-0.015651114284992218,0.01091042160987854,-0.0005420998786576092,0.01864977367222309
0.022054877132177353,0.0046830312348902225,-0.016201017424464226,0.011378439143300056,-0.0005332806031219661,0.018236912786960602
0.022322578355669975,0.005062933079898357,-0.01648399792611599,0.011360560543835163,-0.0005634291446767747,0.018630769103765488
0.022322578355669975,0.005062933079898357,-0.01648399792611599,0.011360560543835163,-0.0005634291446767747,0.018630769103765488
0.022057609632611275,0.00497054448351264,-0.016681132838129997,0.010919230990111828,-0.0005765544483438134,0.018762947991490364
0.02212739922106266,0.005200789775699377,-0.016011368483304977,0.010965973138809204,-0.0005497899255715311,0.018480082973837852
0.022568970918655396,0.005074482876807451,-0.016408687457442284,0.01086641289293766,-0.0006773489294573665,0.017916029319167137
0.022542404010891914,0.004804794676601887,-0.016180451959371567,0.010900251567363739,-0.0006120420875959098,0.018465612083673477
0.022244753316044807,0.004426291212439537,-0.016824495047330856,0.011641029268503189,-0.0006402272265404463,0.018884021788835526
0.022875769063830376,0.004811189603060484,-0.0160217322409153,0.01129282359033823,-0.0006486381171271205,0.018999656662344933
0.023136954754590988,0.004993287846446037,-0.016197340562939644,0.01124759204685688,-0.0006080339080654085,0.01899760589003563
0.022929800674319267,0.004775003995746374,-0.016360746696591377,0.011356035247445107,-0.000629507761914283,0.019192904233932495
0.022292930632829666,0.0046726372092962265,-0.016108036041259766,0.01108552422374487,-0.0006283504189923406,0.01903415285050869
0.022791145369410515,0.004513307474553585,-0.016756456345319748,0.011459567584097385,-0.00064888532506302,0.01883736625313759
0.023157501593232155,0.004528132267296314,-0.0163731686770916,0.010868612676858902,-0.0006269412115216255,0.018957525491714478
0.022941414266824722,0.0046210321597754955,-0.016864892095327377,0.011115843430161476,-0.0006521071773022413,0.01895780675113201
0.02308311127126217,0.004649756941944361,-0.016056539490818977,0.011518603190779686,-0.0006373481592163444,0.018904276192188263
0.023209789767861366,0.005090901628136635,-0.016239924356341362,0.011302338913083076,-0.0006199818453751504,0.01890430599451065
0.022674694657325745,0.005105268210172653,-0.01648944616317749,0.01170782744884491,-0.0006463158060796559,0.01922679878771305
0.02322262153029442,0.004861271008849144,-0.01673850417137146,0.011498880572617054,-0.0006870817742310464,0.01942250318825245
0.023597339168190956,0.004734788555651903,-0.016857467591762543,0.011386270634829998,-0.0006607672548852861,0.019446033984422684
0.023600731045007706,0.004675556439906359,-0.01634843833744526,0.011625775136053562,-0.0005920211551710963,0.01920723170042038
0.023319432511925697,0.00485840393230319,-0.016602708026766777,0.011518239974975586,-0.0006161766359582543,0.019376948475837708
0.023123042657971382,0.004743711091578007,-0.016699349507689476,0.0121310381218791,-0.0006052188691683114,0.019921675324440002
0.023702887818217278,0.0047543044202029705,-0.0170687735080719,0.011702428571879864,-0.000591268646530807,0.02047744207084179
0.023702887818217278,0.0047543044202029705,-0.0170687735080719,0.011702428571879864,-0.000591268646530807,0.02047744207084179
0.023790845647454262,0.004807665012776852,-0.017672717571258545,0.011398183181881905,-0.0005485364818014205,0.019832249730825424
0.023577634245157242,0.004792394116520882,-0.016840705648064613,0.011938193812966347,-0.0005259060999378562,0.019465956836938858
0.023255761712789536,0.004934370517730713,-0.016888124868273735,0.012058650143444538,-0.0005055208457633853,0.019173214212059975
0.023255761712789536,0.004934370517730713,-0.016888124868273735,0.012058650143444538,-0.0005055208457633853,0.019173214212059975
0.02428618259727955,0.004663849249482155,-0.0172819085419178,0.012614934705197811,-0.0004423759819474071,0.01996084488928318
0.02449904754757881,0.005305808503180742,-0.016785094514489174,0.012441110797226429,-0.0004089329740963876,0.020455846562981606
0.024364333599805832,0.005222144536674023,-0.017767025157809258,0.01165783777832985,-0.00038012920413166285,0.019457954913377762
0.023796796798706055,0.004741566721349955,-0.017252666875720024,0.012257407419383526,-0.0004101670638192445,0.01918375864624977
0.02299271523952484,0.004867006558924913,-0.01702818274497986,0.011783942580223083,-0.000388455722713843,0.019342949613928795
0.023647740483283997,0.004842433612793684,-0.017470048740506172,0.012036058120429516,-0.0003661056107375771,0.019958356395363808
0.024699795991182327,0.004809868987649679,-0.017125574871897697,0.012284590862691402,-0.00038877641782164574,0.019821912050247192
0.024314144626259804,0.005647266749292612,-0.0180447306483984,0.011604915373027325,-0.0003744065761566162,0.019662898033857346
0.024112168699502945,0.005386990960687399,-0.01731301099061966,0.012018028646707535,-0.00035625783493742347,0.019360963255167007
0.02486003004014492,0.004778004251420498,-0.017142487689852715,0.011468098498880863,-0.00034171357401646674,0.02029818296432495
0.02494020015001297,0.004910488612949848,-0.017678968608379364,0.012293634004890919,-0.00031935778679326177,0.020067017525434494
0.023969538509845734,0.005319197662174702,-0.017254460602998734,0.01191205158829689,-0.00032728567020967603,0.019957607612013817
0.024132832884788513,0.005302402190864086,-0.017701653763651848,0.011336850933730602,-0.00033370015444234014,0.020328616723418236
0.024127889424562454,0.005392743274569511,-0.01720612868666649,0.012353403493762016,-0.0003159153275191784,0.020547153428196907
0.024192411452531815,0.00494749378412962,-0.017404962331056595,0.011881912127137184,-0.00034487646189518273,0.02041294053196907
0.024674639105796814,0.005224301479756832,-0.01773589849472046,0.012142758816480637,-0.0003298427036497742,0.020228127017617226
0.024739334359765053,0.005089381709694862,-0.017427518963813782,0.012084840796887875,-0.00031361670698970556,0.02010737545788288
0.02474665641784668,0.004887276794761419,-0.017629705369472504,0.01218525692820549,-0.0003385066520422697,0.020196858793497086
0.024639898911118507,0.005162966903299093,-0.017131244763731956,0.012577571906149387,-0.00032578021637164056,0.020316841080784798
0.025013770908117294,0.005614994093775749,-0.01746557466685772,0.012301700189709663,-0.00036868327879346907,0.020382124930620193
0.025013770908117294,0.005614994093775749,-0.01746557466685772,0.012301700189709663,-0.00036868327879346907,0.020382124930620193
0.024883586913347244,0.005022318102419376,-0.017522865906357765,0.012640838511288166,-0.0003911343519575894,0.020334573462605476
0.02501252107322216,0.004796680063009262,-0.017123142257332802,0.011965270154178143,-0.00042581534944474697,0.02022714912891388
0.025126168504357338,0.0053389971144497395,-0.017847923561930656,0.012370347045361996,-0.00040280589018948376,0.020433099940419197
0.025155112147331238,0.005388158373534679,-0.017328549176454544,0.012234380468726158,-0.00040573393926024437,0.02047293819487095
0.024917373433709145,0.005363757722079754,-0.017502617090940475,0.012400051578879356,-0.00040738380630500615,0.020888974890112877
0.025157582014799118,0.0051687853410840034,-0.016927365213632584,0.012368687428534031,-0.0004122735117562115,0.020997963845729828
0.02498823031783104,0.005428435746580362,-0.01755679026246071,0.012998970225453377,-0.0005078220856375992,0.021134475246071815
0.02547772414982319,0.0050383261404931545,-0.01742592453956604,0.012447702698409557,-0.0005635839770548046,0.021587103605270386
0.025777453556656837,0.005393178202211857,-0.01739131659269333,0.012674841098487377,-0.000532660458702594,0.021299680694937706
0.024223996326327324,0.005301457829773426,-0.01802917942404747,0.012452609837055206,-0.0004862661298830062,0.021228717640042305
0.0264264103025198,0.005107806529849768,-0.017096584662795067,0.012808778323233128,-0.0005152203957550228,0.021722160279750824
0.025831671431660652,0.0051340279169380665,-0.017566315829753876,0.013197898864746094,-0.0005308514228090644,0.02147296443581581
0.025464696809649467,0.005082354880869389,-0.017735222354531288,0.012059242464601994,-0.0005092481151223183,0.021121567115187645
0.025010647252202034,0.005145497154444456,-0.017455197870731354,0.012470917776226997,-0.0005805522087030113,0.02114286832511425
0.0254984088242054,0.004853098187595606,-0.017859453335404396,0.012150178663432598,-0.0006068696966394782,0.021519538015127182
0.02533198893070221,0.00513095548376441,-0.01707576960325241,0.013366748578846455,-0.000567789189517498,0.0212764460593462
0.026374544948339462,0.005608404520899057,-0.017502039670944214,0.013136151246726513,-0.0005891124601475894,0.021438999101519585
0.02735717222094536,0.005161218345165253,-0.01784454472362995,0.012625367380678654,-0.0005479771643877029,0.021750159561634064
0.026866532862186432,0.004976424854248762,-0.017692625522613525,0.013296219520270824,-0.000539603119250387,0.022060876712203026
0.025871753692626953,0.005697756074368954,-0.01806614175438881,0.013940312899649143,-0.0005316039896570146,0.02191866561770439
0.025618046522140503,0.005562254227697849,-0.017696324735879898,0.013637816533446312,-0.000540735200047493,0.021932318806648254
0.0263808686286211,0.0058882166631519794,-0.017819931730628014,0.01323631126433611,-0.0005218902369961143,0.02206718735396862
0.02691449597477913,0.005596540868282318,-0.017671842128038406,0.013354619964957237,-0.00047017625183798373,0.022216107696294785
0.026465002447366714,0.005590129643678665,-0.01753374934196472,0.013435380533337593,-0.0005048337043263018,0.022058255970478058
0.026817001402378082,0.0054373848251998425,-0.018354382365942,0.01351663377135992,-0.0004663671716116369,0.022237740457057953
0.02746589668095112,0.005907451268285513,-0.01911320723593235,0.01315292064100504,-0.0004960919613949955,0.02248908020555973
0.02729124389588833,0.005642284639179707,-0.017999472096562386,0.013619529083371162,-0.0004960583755746484,0.022479718551039696
0.02729124389588833,0.005642284639179707,-0.017999472096562386,0.013619529083371162,-0.0004960583755746484,0.022479718551039696
0.026541460305452347,0.005460565444082022,-0.018255408853292465,0.013465937227010727,-0.0005377646302804351,0.02341114729642868
0.026541460305452347,0.005460565444082022,-0.018255408853292465,0.013465937227010727,-0.0005377646302804351,0.02341114729642868
0.026998870074748993,0.005859215743839741,-0.017727095633745193,0.012937439605593681,-0.000583463057409972,0.021884411573410034
0.02796926535665989,0.005414007697254419,-0.018407674506306648,0.013590889051556587,-0.0006091566174291074,0.021921616047620773
0.027926141396164894,0.00535473832860589,-0.018367299810051918,0.013508418574929237,-0.000565274793189019,0.023066960275173187
0.028238169848918915,0.005027035716921091,-0.018779892474412918,0.013346953317523003,-0.0005470543983392417,0.023363837972283363
0.027686841785907745,0.004713958129286766,-0.017555447295308113,0.01388379093259573,-0.0006604431546293199,0.02201504074037075
0.027967028319835663,0.004914852790534496,-0.01894116774201393,0.014102763496339321,-0.0007000162731856108,0.022086771205067635
0.02832510508596897,0.004842179827392101,-0.019641948863863945,0.014163252897560596,-0.0006839483976364136,0.02301163226366043
0.02813171222805977,0.004822887945920229,-0.018352169543504715,0.013957559131085873,-0.0006586486124433577,0.02347109653055668
0.029022030532360077,0.005171703640371561,-0.018286990001797676,0.013898336328566074,-0.0005989949568174779,0.022758852690458298
0.02861064299941063,0.0046284799464046955,-0.019097933545708656,0.014005529694259167,-0.0006144723738543689,0.022992294281721115
0.028709538280963898,0.004490279592573643,-0.01891978643834591,0.013836993835866451,-0.0005745772505179048,0.02397451363503933
0.028691831976175308,0.004477153532207012,-0.018415125086903572,0.013850153423845768,-0.0005599888972938061,0.02409442514181137
0.029007449746131897,0.005015209317207336,-0.018088752403855324,0.013707190752029419,-0.0005225372733548284,0.023336410522460938
0.028922105208039284,0.0048639215528965,-0.018638359382748604,0.014056847430765629,-0.0005568548222072423,0.02259419672191143
0.028895575553178787,0.004967097658663988,-0.019492441788315773,0.013781310059130192,-0.0005832588649354875,0.022511394694447517
0.029044169932603836,0.004792353138327599,-0.01870657503604889,0.014195123687386513,-0.0006002105656079948,0.023431850597262383
0.02865176647901535,0.004626472480595112,-0.01818026602268219,0.013620353303849697,-0.0005708984681405127,0.02401733584702015
0.029205322265625,0.004509299993515015,-0.018516596406698227,0.014144760556519032,-0.0006927601643837988,0.02388560026884079
0.029642978683114052,0.004366585984826088,-0.018170470371842384,0.013902585953474045,-0.0006235152832232416,0.0236847922205925
0.02946477197110653,0.004824716132134199,-0.01863078400492668,0.014210322871804237,-0.0005490420153364539,0.02362486906349659
0.029761843383312225,0.005003402940928936,-0.01903589628636837,0.013546350412070751,-0.0005607448401860893,0.02381998859345913
0.029516583308577538,0.004927881993353367,-0.018302269279956818,0.014284190721809864,-0.0005278080352582037,0.02400948293507099
0.02995157055556774,0.00502984831109643,-0.018901744857430458,0.014257537201046944,-0.0005409402074292302,0.023675156757235527
0.02984333597123623,0.004486722871661186,-0.019289229065179825,0.014926452189683914,-0.0005149808712303638,0.023977747187018394
0.02984333597123623,0.004486722871661186,-0.019289229065179825,0.014926452189683914,-0.0005149808712303638,0.023977747187018394
0.03027217648923397,0.004509570077061653,-0.018390752375125885,0.014977538026869297,-0.0005359845235943794,0.02397194318473339
0.030561842024326324,0.00459750322625041,-0.018993502482771873,0.01533154584467411,-0.000506366603076458,0.023864340037107468
0.030266081914305687,0.0053687188774347305,-0.019213417544960976,0.015235865488648415,-0.00047357246512547135,0.024049323052167892
0.03017469495534897,0.005318365525454283,-0.01866249553859234,0.015186600387096405,-0.00043579781777225435,0.02429850772023201
0.030589405447244644,0.004833855200558901,-0.01890929788351059,0.014611037448048592,-0.0003914096159860492,0.02418246679008007
0.031003138050436974,0.00481815030798316,-0.018498409539461136,0.014651276171207428,-0.0003819292178377509,0.02467557229101658
0.028959892690181732,0.004834997002035379,-0.01884208619594574,0.014832435175776482,-0.0003708972071763128,0.02466580644249916
0.031005622819066048,0.00522130262106657,-0.01865796372294426,0.014738364145159721,-0.0004019400803372264,0.0245683491230011
0.031489670276641846,0.0054045915603637695,-0.018726933747529984,0.01484986674040556,-0.00042831411701627076,0.02478826604783535
0.030871326103806496,0.004923398140817881,-0.019228633493185043,0.014950902201235294,-0.000412665685871616,0.024968251585960388
0.03171517327427864,0.004850395023822784,-0.018953837454319,0.015041378326714039,-0.000537603918928653,0.025015629827976227
0.03247704729437828,0.004785485100001097,-0.018721260130405426,0.014280571602284908,-0.0005815044278278947,0.02447506971657276
0.03171173483133316,0.0048784236423671246,-0.018909329548478127,0.013895641081035137,-0.0006071971147321165,0.024404261261224747
0.030688486993312836,0.00461271358653903,-0.018637139350175858,0.014352530241012573,-0.000622677500359714,0.024851439520716667
0.031461942940950394,0.004863558802753687,-0.018601849675178528,0.014652865938842297,-0.0005905316211283207,0.0251871757209301
0.03199931979179382,0.004809866659343243,-0.018919028341770172,0.01471166592091322,-0.0006433227681554854,0.02508736215531826
0.03178536519408226,0.004564304370433092,-0.018441351130604744,0.015170326456427574,-0.0006437829579226673,0.02441885881125927
0.03148244321346283,0.004317002836614847,-0.01899045705795288,0.015044252388179302,-0.000622791238129139,0.023773618042469025
0.031791090965270996,0.004279260989278555,-0.019232185557484627,0.014890153892338276,-0.0006020246655680239,0.024201709777116776
0.03176938742399216,0.004326686728745699,-0.01886194758117199,0.01547156274318695,-0.0006108057568781078,0.025290895253419876
0.031901195645332336,0.004876799415796995,-0.019060498103499413,0.014903906732797623,-0.0005755798774771392,0.025497611612081528
0.03167254477739334,0.004965081810951233,-0.019108444452285767,0.014683714136481285,-0.0005937083042226732,0.02555091306567192
0.031939584761857986,0.004782248288393021,-0.018922127783298492,0.014689655974507332,-0.0005567196640186012,0.025813773274421692
0.03198046609759331,0.004494579508900642,-0.01907661370933056,0.015554058365523815,-0.0005447637522593141,0.025390049442648888
0.03168300539255142,0.004635739605873823,-0.019461894407868385,0.015817295759916306,-0.0005631989915855229,0.02522505819797516
0.03140781447291374,0.004826939199119806,-0.018999936059117317,0.01659926399588585,-0.0005729748518206179,0.024616966024041176
0.03219151869416237,0.004784870892763138,-0.01937330886721611,0.015930986031889915,-0.0006008217460475862,0.024945631623268127
0.03202749416232109,0.005589508917182684,-0.020069822669029236,0.015907004475593567,-0.0005895692738704383,0.025682393461465836
0.03203669190406799,0.004956969525665045,-0.019103985279798508,0.01572401262819767,-0.0007572813192382455,0.026211068034172058
0.03128312528133392,0.004962112754583359,-0.018924793228507042,0.016032928600907326,-0.0007755602709949017,0.026196295395493507
0.03128312528133392,0.004962112754583359,-0.018924793228507042,0.016032928600907326,-0.0007755602709949017,0.026196295395493507
0.033036958426237106,0.004926932509988546,-0.019359461963176727,0.016272524371743202,-0.0007059858180582523,0.025797216221690178
0.03378294035792351,0.0048399013467133045,-0.019873660057783127,0.015900494530797005,-0.0007227454334497452,0.026012739166617393
0.031095784157514572,0.005545503925532103,-0.02021919935941696,0.016086606308817863,-0.000674548908136785,0.026478054001927376
0.03177747502923012,0.004783139564096928,-0.019625160843133926,0.016557205468416214,-0.0006737840594723821,0.026583705097436905
0.032900597900152206,0.004589549731463194,-0.019518831744790077,0.016002073884010315,-0.0007011765264905989,0.026129934936761856
0.03291981294751167,0.005009287502616644,-0.019882159307599068,0.016023147851228714,-0.0007241062703542411,0.026416946202516556
0.03360121324658394,0.0050047896802425385,-0.019909627735614777,0.016175299882888794,-0.0007239455007947981,0.026569077745079994
0.03347174823284149,0.005273943301290274,-0.019984658807516098,0.01598656363785267,-0.000677269184961915,0.026709316298365593
0.03335375338792801,0.005445342045277357,-0.019959963858127594,0.016263078898191452,-0.0007551470189355314,0.026226937770843506
0.03261096030473709,0.005018115509301424,-0.020588068291544914,0.016010047867894173,-0.0007812759722582996,0.026890985667705536
0.03255058825016022,0.004891916178166866,-0.020169265568256378,0.016370924189686775,-0.0007969668949954212,0.025928789749741554
0.033116232603788376,0.0047493926249444485,-0.020596077665686607,0.01573529653251171,-0.0007954206084832549,0.02568361535668373
0.03357696533203125,0.004675881005823612,-0.02033170871436596,0.01636979915201664,-0.000737781694624573,0.026358023285865784
0.033465608954429626,0.004528116434812546,-0.019419632852077484,0.01622214913368225,-0.0007681134156882763,0.026492053642868996
0.03325127810239792,0.004752822685986757,-0.019701888784766197,0.01603897474706173,-0.000804977840743959,0.026574164628982544
0.032971642911434174,0.004794559441506863,-0.02128969319164753,0.0156959667801857,-0.0008187295752577484,0.026880664750933647
0.03301174193620682,0.0046666390262544155,-0.02004535123705864,0.015387589111924171,-0.0007377332076430321,0.027000417932868004
0.03341148793697357,0.004596313461661339,-0.019788270816206932,0.015796130523085594,-0.0007487377733923495,0.026855209842324257
0.03363107144832611,0.004693812690675259,-0.021130887791514397,0.015734251588582993,-0.0006837864057160914,0.026901986449956894
0.03378065302968025,0.005191523116081953,-0.020647399127483368,0.01644223742187023,-0.0006886952323839068,0.026781665161252022
0.03422991558909416,0.004954366013407707,-0.019889170303940773,0.016518281772732735,-0.0007068433915264904,0.026426589116454124
0.03401576727628708,0.004920708481222391,-0.02034500241279602,0.016975075006484985,-0.0007290426292456686,0.026410570368170738
0.033961229026317596,0.004813801497220993,-0.020801376551389694,0.01670902408659458,-0.0007110227597877383,0.02661287412047386
0.03410358726978302,0.0048316423781216145,-0.020561102777719498,0.016606615856289864,-0.0006852883961983025,0.026457130908966064
0.03410358726978302,0.0048316423781216145,-0.020561102777719498,0.016606615856289864,-0.0006852883961983025,0.026457130908966064
0.03417643532156944,0.004786023870110512,-0.020247293636202812,0.016394279897212982,-0.0007555337506346405,0.026684321463108063
0.034026142209768295,0.004493305459618568,-0.020795060321688652,0.01584574766457081,-0.0007630125037394464,0.02681547962129116
0.03440908342599869,0.0048469663597643375,-0.020977521315217018,0.016457736492156982,-0.0007508961716666818,0.02699173614382744
0.034274592995643616,0.004531986080110073,-0.020469123497605324,0.016712253913283348,-0.0007321001030504704,0.02748125232756138
0.03493291139602661,0.004418059717863798,-0.020716266706585884,0.016369236633181572,-0.0007815457065589726,0.02666037157177925
0.03493925929069519,0.004648284520953894,-0.020699191838502884,0.016252249479293823,-0.0008101066341623664,0.026271291077136993
0.035222798585891724,0.004733592737466097,-0.0207380261272192,0.0163855142891407,-0.0008226054487749934,0.026855336502194405
0.03536069020628929,0.004906972870230675,-0.02085207961499691,0.01615196466445923,-0.0008245057542808354,0.02781965769827366
0.034926049411296844,0.004777615889906883,-0.02089662291109562,0.016519373282790184,-0.0008453108021058142,0.02740425243973732
0.03499322012066841,0.004757490009069443,-0.02038763463497162,0.016275495290756226,-0.0008686907822266221,0.027968354523181915
0.03477507829666138,0.004764133598655462,-0.020349642261862755,0.01686820015311241,-0.0008745000814087689,0.028702102601528168
0.03547694906592369,0.004848778713494539,-0.020616507157683372,0.01662217453122139,-0.0008780256030149758,0.02820618264377117
0.03655136004090309,0.0047675082460045815,-0.02059452421963215,0.016783535480499268,-0.0008306430536322296,0.02657623589038849
0.03575035557150841,0.0045343972742557526,-0.02062417007982731,0.01685393415391445,-0.0008629517396911979,0.02767425961792469
0.03471625968813896,0.004618638660758734,-0.021318946033716202,0.0165349543094635,-0.0008695225697010756,0.028511295095086098
0.03585142642259598,0.004651649855077267,-0.021216146647930145,0.016402030363678932,-0.00085718824993819,0.028519606217741966
0.03562066704034805,0.004572565201669931,-0.020186735317111015,0.016469396650791168,-0.0007801397587172687,0.02808534726500511
0.036741744726896286,0.004711885470896959,-0.020480448380112648,0.017191872000694275,-0.0007878702599555254,0.027845928445458412
0.03670510649681091,0.004791362676769495,-0.02096470259130001,0.017890267074108124,-0.0007490949355997145,0.02783823013305664
0.03564168140292168,0.004799928981810808,-0.020376821979880333,0.01689513586461544,-0.0007383656920865178,0.027995100244879723
0.0347214937210083,0.004285636357963085,-0.020289232954382896,0.01701895333826542,-0.0007574126939289272,0.027836952358484268
0.03602686896920204,0.004302330780774355,-0.02099929004907608,0.016712302342057228,-0.0007240010891109705,0.027771761640906334
0.03663993999361992,0.004612128250300884,-0.021629290655255318,0.0169281754642725,-0.0007389035890810192,0.02813943475484848
0.03540235757827759,0.004293801728636026,-0.020629310980439186,0.01675514690577984,-0.0007623980054631829,0.02820853888988495
0.03658740222454071,0.004498665686696768,-0.02085653878748417,0.017089063301682472,-0.0007972156745381653,0.02792077325284481
0.03658740222454071,0.004498665686696768,-0.02085653878748417,0.017089063301682472,-0.0007972156745381653,0.02792077325284481
0.03683044761419296,0.004624176770448685,-0.020637748762965202,0.01811351627111435,-0.0007525160326622427,0.028347423300147057
0.03617921844124794,0.00460973521694541,-0.020476629957556725,0.018502533435821533,-0.000766668701544404,0.028423186391592026
0.03627614676952362,0.004552608821541071,-0.020273659378290176,0.01853751949965954,-0.0007809734670445323,0.02866874821484089
0.03570961579680443,0.004692078568041325,-0.02116135135293007,0.018157437443733215,-0.0008581793517805636,0.02852643094956875
0.03635872155427933,0.004776689689606428,-0.02144600637257099,0.0177200548350811,-0.0008708814275451005,0.028818221762776375
0.03618824481964111,0.004200739320367575,-0.020760640501976013,0.019137054681777954,-0.0007753093377687037,0.02881760150194168
0.03618824481964111,0.004200739320367575,-0.020760640501976013,0.019137054681777954,-0.0007753093377687037,0.02881760150194168
0.03650218993425369,0.004394696559756994,-0.02145659364759922,0.018914777785539627,-0.0007104547112248838,0.028813224285840988
0.03737082704901695,0.00447472371160984,-0.020464541390538216,0.018143408000469208,-0.0006738599622622132,0.028517596423625946
0.036694787442684174,0.004658395890146494,-0.020800067111849785,0.01781359314918518,-0.0006544585339725018,0.029075095430016518
0.03546220809221268,0.004391114693135023,-0.02090081386268139,0.017727285623550415,-0.0006295209750533104,0.02995065227150917
0.03710315376520157,0.003993879072368145,-0.021256670355796814,0.017621269449591637,-0.0006543461349792778,0.029637804254889488
0.03671664372086525,0.004041573032736778,-0.02158264070749283,0.01804026961326599,-0.0006606661481782794,0.02860376611351967
0.03691420704126358,0.00412202812731266,-0.021836986765265465,0.018097972497344017,-0.0006235637119971216,0.028186578303575516
0.03787010908126831,0.0043493835255503654,-0.02186802588403225,0.017785899341106415,-0.0007032337598502636,0.029049839824438095
0.037558745592832565,0.004499772563576698,-0.021636107936501503,0.018126700073480606,-0.0006771587650291622,0.028829768300056458
0.03587082400918007,0.00432992447167635,-0.021312614902853966,0.017878910526633263,-0.00064863107400015,0.029333343729376793
0.03726286441087723,0.00446604797616601,-0.021626099944114685,0.0177622027695179,-0.0006529242382384837,0.030430855229496956
0.037818338721990585,0.004148909822106361,-0.02145882323384285,0.017801273614168167,-0.000653655908536166,0.029422622174024582
0.0367889441549778,0.004124851897358894,-0.02153068408370018,0.01724855788052082,-0.0006354807992465794,0.02898913249373436
0.037014760076999664,0.004070487339049578,-0.02144661918282509,0.017690373584628105,-0.0006517850561067462,0.028648095205426216
0.037246040999889374,0.003898582886904478,-0.021440116688609123,0.01813443750143051,-0.0007433209684677422,0.029091844335198402
0.037605904042720795,0.004357185214757919,-0.021970102563500404,0.018321944400668144,-0.0007652991334907711,0.0306604765355587
0.03713684901595116,0.004682323429733515,-0.022080542519688606,0.01857064850628376,-0.0009498891304247081,0.030651535838842392
0.03757129982113838,0.004342598374933004,-0.021450620144605637,0.018305866047739983,-0.0010924404487013817,0.030162112787365913
0.03757409378886223,0.00392040004953742,-0.021341856569051743,0.01828945055603981,-0.0010687849717214704,0.0304171834141016
0.03757409378886223,0.00392040004953742,-0.021341856569051743,0.01828945055603981,-0.0010687849717214704,0.0304171834141016
0.037442345172166824,0.0038009341806173325,-0.021834813058376312,0.018566906452178955,-0.0009459444554522634,0.02988641895353794
0.03835240751504898,0.004265694413334131,-0.021668745204806328,0.018159613013267517,-0.0009252525051124394,0.029766615480184555
0.038221798837184906,0.0042191618122160435,-0.021356090903282166,0.018227865919470787,-0.0008482976700179279,0.030540747568011284
0.03784843906760216,0.00392451835796237,-0.02153284288942814,0.018015030771493912,-0.0007370291277766228,0.030872005969285965
0.037082940340042114,0.003987078554928303,-0.02148369699716568,0.018091080710291862,-0.0008544570882804692,0.03077232651412487
0.03879886493086815,0.0038665051106363535,-0.021327003836631775,0.018682606518268585,-0.0010097268968820572,0.03070884197950363
0.03886944055557251,0.00427482882514596,-0.021319052204489708,0.018771076574921608,-0.001055572647601366,0.030679423362016678
0.03875616565346718,0.0041069346480071545,-0.021664444357156754,0.019000696018338203,-0.0010339465225115418,0.030912885442376137
0.03813209757208824,0.0039652432315051556,-0.021357744932174683,0.01899832859635353,-0.0010149212321266532,0.030704503878951073
0.038887206465005875,0.003924544434994459,-0.0208869781345129,0.019062910228967667,-0.0009735411149449646,0.030892467126250267
0.03894433006644249,0.003960400819778442,-0.021600883454084396,0.019122492522001266,-0.0009503642213530838,0.03150809556245804
0.039371415972709656,0.003885439829900861,-0.02182355895638466,0.018966685980558395,-0.0009419278358109295,0.031235065311193466
0.03926287963986397,0.0041797268204391,-0.021498698741197586,0.019029363989830017,-0.0009059770964086056,0.03153512254357338
0.03927798941731453,0.003637885209172964,-0.02098773792386055,0.01921991817653179,-0.000852071272674948,0.031737104058265686
0.03885207697749138,0.003993069287389517,-0.021404573693871498,0.01875058189034462,-0.0008381909574382007,0.03213397040963173
0.040720175951719284,0.004191869404166937,-0.021975092589855194,0.018609171733260155,-0.0008435057243332267,0.031321506947278976
0.04060109332203865,0.004067690577358007,-0.021770043298602104,0.019214686006307602,-0.0008037837105803192,0.03217745199799538
0.038334984332323074,0.003924153279513121,-0.02093794010579586,0.019731683656573296,-0.000812412123195827,0.031960513442754745
0.03910307213664055,0.003958846442401409,-0.021479791030287743,0.01951093226671219,-0.0007749820360913873,0.032479170709848404
0.039400722831487656,0.003960139583796263,-0.022040419280529022,0.019638849422335625,-0.0007731421501375735,0.033369459211826324
0.04061054065823555,0.004374179057776928,-0.022747205570340157,0.018824785947799683,-0.000685362087097019,0.032420527189970016
0.04141649976372719,0.004128339234739542,-0.021959668025374413,0.018406294286251068,-0.000706591468770057,0.03132732957601547
0.03960171714425087,0.003890173975378275,-0.021824879571795464,0.019108258187770844,-0.0007079081842675805,0.031262580305337906
0.03866857662796974,0.003919815644621849,-0.021794002503156662,0.01916155032813549,-0.0007266791653819382,0.032458748668432236
0.040521811693906784,0.0039072707295417786,-0.021607181057333946,0.019317667931318283,-0.0007556898053735495,0.032123807817697525
0.04077357053756714,0.003753658849745989,-0.02176659367978573,0.018848136067390442,-0.0008181209559552372,0.03345663100481033
0.04077357053756714,0.003753658849745989,-0.02176659367978573,0.018848136067390442,-0.0008181209559552372,0.03345663100481033
0.040341734886169434,0.003797271056100726,-0.02173311449587345,0.019287222996354103,-0.0008406507549807429,0.03203589841723442
0.040341734886169434,0.003797271056100726,-0.02173311449587345,0.019287222996354103,-0.0008406507549807429,0.03203589841723442
0.0405595600605011,0.0038048583082854748,-0.021846450865268707,0.019937772303819656,-0.0007768308860249817,0.030982134863734245
0.04097951576113701,0.003784873988479376,-0.021872520446777344,0.019874151796102524,-0.0008700280450284481,0.03176683187484741
0.04055163264274597,0.003801099956035614,-0.02243414893746376,0.019423486664891243,-0.0008126063621602952,0.03314058482646942
0.04033114016056061,0.003803214291110635,-0.022539349272847176,0.019353734329342842,-0.0007656498346477747,0.03261328861117363
0.04087233170866966,0.003781854407861829,-0.021678801625967026,0.01939191296696663,-0.000766821438446641,0.032531097531318665
0.041607875376939774,0.004318972583860159,-0.02147921919822693,0.019878175109624863,-0.0007397615117952228,0.032285191118717194
0.04072006046772003,0.0041490588337183,-0.02168603427708149,0.019587039947509766,-0.0007282690494321287,0.03284633532166481
0.039500366896390915,0.003949888050556183,-0.022722352296113968,0.019331717863678932,-0.0007482603541575372,0.03301623836159706
0.04065496101975441,0.0039195772260427475,-0.022612495347857475,0.019852004945278168,-0.0007162096444517374,0.033115923404693604
0.040553003549575806,0.003972504287958145,-0.021882832050323486,0.019803950563073158,-0.0007332692039199173,0.03273840248584747
0.041801467537879944,0.004347697831690311,-0.021810002624988556,0.019329456612467766,-0.0009568890673108399,0.03262977674603462
0.04140344634652138,0.00427877064794302,-0.02261798270046711,0.020292792469263077,-0.0009977886220440269,0.032887402921915054
0.03939346224069595,0.004354538396000862,-0.022599248215556145,0.019777415320277214,-0.0009872891241684556,0.0316312350332737
0.04119313135743141,0.004315132740885019,-0.022186461836099625,0.019133104011416435,-0.001092478632926941,0.03347419574856758
0.041750676929950714,0.00407831696793437,-0.0222758986055851,0.01943845860660076,-0.0012018413981422782,0.03378508985042572
0.04132620245218277,0.00395035557448864,-0.02271590568125248,0.019526232033967972,-0.001085989992134273,0.033438071608543396
0.0410117544233799,0.003976312931627035,-0.02264549769461155,0.019363023340702057,-0.0010539190843701363,0.03356561064720154
0.04098047688603401,0.004229648504406214,-0.022610433399677277,0.019822735339403152,-0.0009264190448448062,0.03352399915456772
0.04173646122217178,0.0041319867596030235,-0.022138508036732674,0.019485240802168846,-0.0008255128050222993,0.03351222723722458
0.04199199751019478,0.004391456954181194,-0.022473832592368126,0.018763208761811256,-0.0007690552738495171,0.03303533419966698
0.04138301685452461,0.004193400498479605,-0.022630153223872185,0.019108813256025314,-0.0007244047592394054,0.034492552280426025
0.04135451465845108,0.004477712791413069,-0.023542458191514015,0.019052870571613312,-0.0007410990656353533,0.03538060560822487
0.041979752480983734,0.004532336723059416,-0.0233761016279459,0.018960094079375267,-0.000757681904360652,0.03374546393752098
0.04202284663915634,0.004368465859442949,-0.0226259957998991,0.01975676789879799,-0.0007809493690729141,0.03254428878426552
0.041715867817401886,0.0040616486221551895,-0.023154089227318764,0.02034415304660797,-0.0008063361165113747,0.03358175605535507
0.04252117499709129,0.004191753454506397,-0.023592470213770866,0.020529864355921745,-0.0008190653170458972,0.03402700647711754
0.04252117499709129,0.004191753454506397,-0.023592470213770866,0.020529864355921745,-0.0008190653170458972,0.03402700647711754
0.0423702634871006,0.0046213907189667225,-0.023278696462512016,0.020973602309823036,-0.000828434363938868,0.03502320125699043
0.042302072048187256,0.004725146573036909,-0.022842224687337875,0.021032890304923058,-0.0009263064712285995,0.03532908111810684
0.04237312823534012,0.004365169908851385,-0.02353561297059059,0.020360158756375313,-0.0008782394579611719,0.033632539212703705
0.04237312823534012,0.004365169908851385,-0.02353561297059059,0.020360158756375313,-0.0008782394579611719,0.033632539212703705
0.04313868284225464,0.004278478212654591,-0.023753123357892036,0.020275311544537544,-0.0008279677713289857,0.034838899970054626
0.04297669231891632,0.00439265463501215,-0.0238226018846035,0.02016628347337246,-0.0007847092929296196,0.03371935710310936
0.04326985031366348,0.004456636495888233,-0.023146653547883034,0.02021985687315464,-0.000801712041720748,0.03522790968418121
0.043656982481479645,0.00451749749481678,-0.023330967873334885,0.02077454887330532,-0.0007911146967671812,0.03559291362762451
0.0438372828066349,0.004581999499350786,-0.0239749513566494,0.02071511372923851,-0.0008022116962820292,0.034963496029376984
0.043377865105867386,0.004291446879506111,-0.024800192564725876,0.020528245717287064,-0.0008357790065929294,0.03515614941716194
0.04508392885327339,0.0044015273451805115,-0.02450287714600563,0.020942028611898422,-0.001000147545710206,0.03514494374394417
0.04404010251164436,0.0044520278461277485,-0.023536337539553642,0.02112419344484806,-0.0010465793311595917,0.034785009920597076
0.041925251483917236,0.004571161232888699,-0.02285466156899929,0.021074695512652397,-0.0015083038015291095,0.03480933606624603
0.04384123906493187,0.004725929815322161,-0.023923024535179138,0.02121807262301445,-0.0014577467227354646,0.035108599811792374
0.0444626621901989,0.004270599223673344,-0.02471524477005005,0.021378986537456512,-0.001290270360186696,0.035530004650354385
0.04466714337468147,0.004185386933386326,-0.023953339084982872,0.021125858649611473,-0.0011545195011422038,0.03570449352264404
0.04521660879254341,0.00408354215323925,-0.023982709273695946,0.021381504833698273,-0.0009986456716433167,0.035570885986089706
0.04298870265483856,0.0043738544918596745,-0.024819577112793922,0.022218110039830208,-0.0008041566470637918,0.03587384521961212
0.04446801915764809,0.004606221802532673,-0.0248684324324131,0.022620847448706627,-0.0007921492797322571,0.035648465156555176
0.045024070888757706,0.00464326748624444,-0.023732539266347885,0.021976904943585396,-0.0008044762071222067,0.035849783569574356
0.04497893154621124,0.004575985949486494,-0.023640435189008713,0.020760906860232353,-0.0008153952076099813,0.03583168610930443
