davideferrari95/blind_handover_controller/data/Test 118 - [2024-02-07 -- 16-30-16]/joint_states_data.csv
shoulder_pan_joint,shoulder_lift_joint,elbow_joint,wrist_1_joint,wrist_2_joint,wrist_3_joint
0.004346057772636414,0.007140480447560549,-0.010848176665604115,0.006814839784055948,-3.863708734077516e-36,0.003918516915291548
0.004346057772636414,0.007140480447560549,-0.010848176665604115,0.006814839784055948,-3.863708734077516e-36,0.003918516915291548
0.004264267161488533,0.007629869971424341,-0.010589724406599998,0.0073442356660962105,-2.5227255636151044e-37,0.004296587314456701
0.004264267161488533,0.007629869971424341,-0.010589724406599998,0.0073442356660962105,-2.5227255636151044e-37,0.004296587314456701
0.004169722553342581,0.006989981979131699,-0.010663764551281929,0.006275740452110767,-1.0754769531907966e-39,0.004023644607514143
0.004169722553342581,0.006989981979131699,-0.010663764551281929,0.006275740452110767,-1.0754769531907966e-39,0.004023644607514143
0.004342690110206604,0.007491470780223608,-0.010228999890387058,0.006943649612367153,-7.022046734578091e-41,0.003951217979192734
0.0041516986675560474,0.007063610944896936,-0.010722815059125423,0.0076274811290204525,-4.5850485752708015e-42,0.004078120458871126
0.003919712267816067,0.0063207331113517284,-0.010491067543625832,0.007200883235782385,-2.9987787136551085e-43,0.004107377957552671
0.0037980182096362114,0.0061480579897761345,-0.010588057339191437,0.007084108889102936,-1.961817850054744e-44,0.004084639251232147
0.003737721359357238,0.0062699588015675545,-0.01122584193944931,0.007252123206853867,-1.401298464324817e-45,0.004011088516563177
0.0037010398227721453,0.007032882887870073,-0.010156061500310898,0.00690309377387166,-0.0,0.003975576255470514
0.0037440655287355185,0.007078392896801233,-0.010192765854299068,0.006604984402656555,-0.0,0.0039410837925970554
0.003772746305912733,0.006830453872680664,-0.010746888816356659,0.00738054933026433,-0.0,0.0037654780317097902
0.0038295628037303686,0.006387869827449322,-0.010033705271780491,0.007488425821065903,-0.0,0.0035436642356216908
0.003871118649840355,0.006741916295140982,-0.010428721085190773,0.00756618520244956,-0.0,0.0038722672034054995
0.0038923502434045076,0.006956337485462427,-0.011132065206766129,0.00699995830655098,-0.0,0.0041852048598229885
0.003457264043390751,0.006788055878132582,-0.010053470730781555,0.006564812269061804,-0.0,0.0043861414305865765
0.0034205547999590635,0.006621914450079203,-0.010261336341500282,0.006353320088237524,-0.0,0.004116563126444817
0.004163177218288183,0.006022872403264046,-0.01041619572788477,0.006778343580663204,-0.0,0.0037889587692916393
0.004177384544163942,0.0065175266936421394,-0.010134441778063774,0.0066747828386723995,-0.0,0.0037306733429431915
0.00391780911013484,0.006388088222593069,-0.010917946696281433,0.006477478891611099,-0.0,0.0041657378897070885
0.0033115644473582506,0.005631136242300272,-0.010765111073851585,0.006306089460849762,-0.0,0.0041475784964859486
0.0033082340378314257,0.00588298449292779,-0.011063371784985065,0.006628972943872213,-0.0,0.004003504756838083
0.003401912050321698,0.005737330764532089,-0.011513524688780308,0.006614568177610636,-0.0,0.003933460917323828
0.003512260038405657,0.006328458897769451,-0.01037439052015543,0.006224202457815409,-0.0,0.003909245599061251
0.003642190480604768,0.006066503934562206,-0.010680911131203175,0.006145213730633259,-0.0,0.004118753131479025
0.0037091609556227922,0.005926801823079586,-0.010535716079175472,0.0057230195961892605,-0.0,0.004222443327307701
0.003660770831629634,0.005912368651479483,-0.010851339437067509,0.00648074084892869,-0.0,0.004304159432649612
0.0035857227630913258,0.0064062150195240974,-0.011141384951770306,0.0061611998826265335,-0.0,0.00410507433116436
0.003696057479828596,0.006350275129079819,-0.010319841094315052,0.005957968067377806,-0.0,0.003901506308466196
0.003696057479828596,0.006350275129079819,-0.010319841094315052,0.005957968067377806,-0.0,0.003901506308466196
0.003809324698522687,0.005646723788231611,-0.01070745661854744,0.0063920337706804276,-0.0,0.00381530006416142
0.0037859869189560413,0.005824074149131775,-0.010672236792743206,0.0067444536834955215,-0.0,0.00387160899117589
0.003741639666259289,0.005626164376735687,-0.010515602305531502,0.006669891998171806,-0.0,0.0038448648992925882
0.003980805166065693,0.006211492232978344,-0.010638057254254818,0.006201427895575762,-0.0,0.0038583397399634123
0.003966829739511013,0.005718664266169071,-0.010847662575542927,0.00604243203997612,-0.0,0.003820661222562194
0.0038192791398614645,0.005900313146412373,-0.01051565445959568,0.006045395042747259,-0.0,0.0037399837747216225
0.0037383551243692636,0.005701866466552019,-0.0107160285115242,0.006495312787592411,-0.0,0.0036260238848626614
0.0042176865972578526,0.005680875387042761,-0.010551840998232365,0.006732964422553778,-0.0,0.0036887426394969225
0.003675919957458973,0.0061366320587694645,-0.010917597450315952,0.006466550286859274,-0.0,0.003756274003535509
0.003403133014217019,0.006005002185702324,-0.011286933906376362,0.005866571795195341,-0.0,0.004103606566786766
0.003484451910480857,0.005999652668833733,-0.010100197046995163,0.006432557012885809,-0.0,0.004008149728178978
0.003767626825720072,0.0064703025855124,-0.010957767255604267,0.006634918972849846,-0.0,0.0038613080978393555
0.004337663296610117,0.0059030912816524506,-0.01042169239372015,0.00633093761280179,-0.0,0.004150188062340021
0.004035940393805504,0.0064302547834813595,-0.010412069968879223,0.005946408491581678,-0.0,0.0035732185933738947
0.003400190966203809,0.00584403146058321,-0.01102970540523529,0.005559853278100491,-0.0,0.0031655130442231894
0.003405081806704402,0.005931269843131304,-0.010265865363180637,0.005993281491100788,-0.0,0.0033449523616582155
0.003673308063298464,0.005754263140261173,-0.010541284456849098,0.006264235824346542,-0.0,0.0035027607809752226
0.00374309322796762,0.005855271592736244,-0.01078497339040041,0.005924812518060207,-0.0,0.004081666469573975
0.00365194003097713,0.006538222543895245,-0.009970560669898987,0.005564201157540083,-0.0,0.0041073039174079895
0.0036482778377830982,0.005740993656218052,-0.010466465726494789,0.005293047055602074,-0.0,0.003576717572286725
0.00429367134347558,0.005326173733919859,-0.010568094439804554,0.005625338759273291,-0.0,0.0034841352608054876
0.004030001815408468,0.005550836678594351,-0.010399896651506424,0.006071874871850014,-0.0,0.003752866992726922
0.0034103761427104473,0.006173080299049616,-0.010065781883895397,0.005884072743356228,-0.0,0.003425826318562031
0.0034349034540355206,0.0060041057877242565,-0.010465933941304684,0.005471026990562677,-0.0,0.0030844761058688164
0.004214172251522541,0.006010484416037798,-0.010711497627198696,0.0052647958509624004,-0.0,0.0029998370446264744
0.00398379098623991,0.005583999212831259,-0.010618805885314941,0.005502782762050629,-0.0,0.0033346933778375387
0.0034613143652677536,0.00581369549036026,-0.010333670303225517,0.005363448057323694,-0.0,0.0037190380971878767
0.004154361318796873,0.005907929968088865,-0.011777554638683796,0.005681351758539677,-0.0,0.0035717152059078217
0.004154361318796873,0.005907929968088865,-0.011777554638683796,0.005681351758539677,-0.0,0.0035717152059078217
0.004498310852795839,0.005909441504627466,-0.010368944145739079,0.005360871087759733,-0.0,0.0034089938271790743
0.004356276709586382,0.005810432136058807,-0.010132966563105583,0.005361448507755995,-0.0,0.0031065905932337046
0.0035100243985652924,0.005803515203297138,-0.01010141521692276,0.005770674906671047,-0.0,0.0030317010823637247
0.003536937292665243,0.005610356107354164,-0.01015896163880825,0.006090656388550997,-0.0,0.0034250873140990734
0.004278357606381178,0.0057301283814013,-0.010345770977437496,0.005773425102233887,-0.0,0.0037840292789041996
0.004186232108622789,0.006189310923218727,-0.010521510615944862,0.005584399215877056,-0.0,0.0034811566583812237
0.003986528608947992,0.005525775253772736,-0.01011450495570898,0.005339715629816055,-0.0,0.003431937890127301
0.0034820260480046272,0.005970092490315437,-0.010572245344519615,0.005905228666961193,-0.0,0.0035109224263578653
0.003959022928029299,0.0054813288152217865,-0.010035826824605465,0.006223199423402548,-0.0,0.0036084961611777544
0.004242653027176857,0.006064688786864281,-0.010431155562400818,0.0062887053936719894,-0.0,0.0037229922600090504
0.0040103173814713955,0.0055728997103869915,-0.010148883797228336,0.005713921971619129,-0.0,0.0037088387180119753
0.004234861116856337,0.005892276763916016,-0.009920629672706127,0.005260165315121412,-0.0,0.0034797764383256435
0.004160779528319836,0.005368076730519533,-0.010139558464288712,0.0052846684120595455,-0.0,0.003463590517640114
0.004051718860864639,0.00535884452983737,-0.010583127848803997,0.006000691093504429,-0.0,0.0034774288069456816
0.003918841946870089,0.005680357106029987,-0.01038229838013649,0.005890717729926109,-0.0,0.003469436429440975
0.004164537414908409,0.006079489830881357,-0.010172978043556213,0.005859155673533678,-0.0,0.003587566316127777
0.004600662272423506,0.005702496971935034,-0.01068563386797905,0.005543442443013191,-0.0,0.003712159814313054
0.004247170872986317,0.0054689268581569195,-0.00991611648350954,0.005380385089665651,-0.0,0.003771951189264655
0.0044301412999629974,0.005466772709041834,-0.010448604822158813,0.005411243066191673,-0.0,0.0038235378451645374
0.004157402087002993,0.005629523657262325,-0.010072697885334492,0.005922897253185511,-0.0,0.003418324515223503
0.004477374721318483,0.005651630461215973,-0.009601965546607971,0.006219957023859024,-0.0,0.00351884332485497
0.004265966825187206,0.006275696214288473,-0.010369490832090378,0.0055801402777433395,-0.0,0.003170874435454607
0.004303727298974991,0.005468166898936033,-0.010112730786204338,0.0053860764019191265,-0.0,0.0031505220104008913
0.004318995401263237,0.005236768629401922,-0.010863193310797215,0.005772249307483435,-0.0,0.003333409782499075
0.0045096054673194885,0.00559272849932313,-0.010237939655780792,0.005818840116262436,-0.0,0.0034533245489001274
0.004606341943144798,0.005845502018928528,-0.009800130501389503,0.005493758711963892,-0.0,0.003238291945308447
0.0042593651451170444,0.005168855655938387,-0.010483486577868462,0.005358576308935881,-0.0,0.0031941444613039494
0.0042593651451170444,0.005168855655938387,-0.010483486577868462,0.005358576308935881,-0.0,0.0031941444613039494
0.00434123445302248,0.005191978067159653,-0.009826776571571827,0.005324868950992823,-0.0,0.003217551624402404
0.004586789757013321,0.005154643207788467,-0.009526090696454048,0.0059017036110162735,-0.0,0.003433102974668145
0.004628963302820921,0.005373036488890648,-0.010611291043460369,0.005594407208263874,-0.0,0.0036023955326527357
0.004821851849555969,0.005688575096428394,-0.010595484636723995,0.005123200826346874,-0.0,0.0032215795945376158
0.004372019786387682,0.005940958391875029,-0.010036187246441841,0.005230652168393135,-0.0,0.0027891581412404776
0.004311334807425737,0.005314586218446493,-0.010542322881519794,0.005481650121510029,-0.0,0.0026699381414800882
0.0046347747556865215,0.0048604258336126804,-0.010123999789357185,0.005346791353076696,-0.0,0.0027753899339586496
0.004922304302453995,0.0052300007082521915,-0.010929523967206478,0.005809661000967026,-0.0,0.0030198651365935802
0.004763811826705933,0.0050831930711865425,-0.01111658476293087,0.005509606562554836,-0.0,0.0032315461430698633
0.004703016486018896,0.005975752603262663,-0.01031058095395565,0.005665132310241461,-0.0,0.0031689645256847143
0.004698805510997772,0.005571627523750067,-0.010836522094905376,0.005316995084285736,-0.0,0.003041613847017288
0.004629150032997131,0.005257442593574524,-0.01055907178670168,0.005335234571248293,-0.0,0.002937227487564087
0.004727447871118784,0.0049551017582416534,-0.010127102956175804,0.0056940000504255295,-0.0,0.0029856550972908735
0.005129958037286997,0.004865219816565514,-0.01090796384960413,0.006128733512014151,-0.0,0.002822273410856724
0.005326678045094013,0.005750942975282669,-0.010595174506306648,0.005652185529470444,-0.0,0.002847396768629551
0.005044265650212765,0.005455478094518185,-0.0102479737251997,0.005364749580621719,-0.0,0.00290405610576272
0.004927953239530325,0.0053910305723547935,-0.010490771383047104,0.005454901605844498,-0.0,0.0030697560869157314
0.004640526138246059,0.005007681902498007,-0.01047344971448183,0.0053791385143995285,-0.0,0.0030637041199952364
0.0047203670255839825,0.005130878649652004,-0.010145250707864761,0.005428623408079147,-0.0,0.003024308942258358
0.004839083179831505,0.005577308125793934,-0.010726945474743843,0.005445085931569338,-0.0,0.003355740336701274
0.004963764920830727,0.005390591453760862,-0.01016112882643938,0.0055275484919548035,-0.0,0.0033059215638786554
0.0048364195972681046,0.005263796541839838,-0.010462591424584389,0.005635539069771767,-0.0,0.0031391363590955734
0.0050646280869841576,0.004822985734790564,-0.009999061934649944,0.005435445345938206,-0.0,0.002808814635500312
0.00485406257212162,0.004812035709619522,-0.010728786699473858,0.005515934433788061,-0.0,0.0027027970645576715
0.004885675385594368,0.005183723755180836,-0.010690009221434593,0.005506861489266157,-0.0,0.0027899700216948986
0.004941658116877079,0.0050805616192519665,-0.009976264089345932,0.005239528138190508,-0.0,0.0030424215365201235
0.005215091165155172,0.005378030240535736,-0.010879994370043278,0.005501652602106333,-0.0,0.0030556826386600733
0.005215091165155172,0.005378030240535736,-0.010879994370043278,0.005501652602106333,-0.0,0.0030556826386600733
0.005078394431620836,0.005066489335149527,-0.010717794299125671,0.005257328040897846,-0.0,0.002991926623508334
0.004391027148813009,0.004859392996877432,-0.01089311670511961,0.005395035725086927,-0.0,0.0029030099976807833
0.004451863933354616,0.005102616734802723,-0.0109358886256814,0.005279830191284418,-0.0,0.003158264560624957
0.005034536588937044,0.005058611743152142,-0.009951334446668625,0.005068136844784021,-0.0,0.003273826092481613
0.005137360189110041,0.0049711307510733604,-0.010451829060912132,0.005158617161214352,-0.0,0.00344142341054976
0.00508905528113246,0.005143916234374046,-0.010706410743296146,0.0049679032526910305,-0.0,0.003267790423706174
0.0053205471485853195,0.004938703030347824,-0.010393834672868252,0.005526352673768997,-0.0,0.003083854680880904
0.004803216550499201,0.004645159468054771,-0.010988477617502213,0.005427260417491198,-0.0,0.0026715220883488655
0.0050793783739209175,0.004756741225719452,-0.010694613680243492,0.005067786201834679,-0.0,0.0025013796985149384
0.005445426795631647,0.004798542242497206,-0.01096154935657978,0.005195367615669966,-0.0,0.0024161525070667267
0.005463712848722935,0.0049774255603551865,-0.011329579167068005,0.005144339520484209,-0.0,0.002556795487180352
0.00552061153575778,0.004994003102183342,-0.010397419333457947,0.004971903748810291,-0.0,0.0028650176245719194
0.005276112351566553,0.005113556049764156,-0.01057169958949089,0.0051918611861765385,-0.0,0.0029262069147080183
0.005361669696867466,0.0048629846423864365,-0.010957900434732437,0.005192577373236418,-0.0,0.0027629975229501724
0.0051038614474236965,0.004404755309224129,-0.010305153205990791,0.005024908110499382,-0.0,0.00266019394621253
0.005958557594567537,0.004471527878195047,-0.010924816131591797,0.00522035313770175,-0.0,0.0027102886233478785
0.005410609766840935,0.005102245137095451,-0.01104972418397665,0.005021804478019476,-0.0,0.0024438544642180204
0.005431733559817076,0.005077816545963287,-0.010632550343871117,0.004893985576927662,-0.0,0.0025525379460304976
0.005599688738584518,0.004866208415478468,-0.011211930774152279,0.005439928267151117,-0.0,0.002501901239156723
0.005810316652059555,0.0050702705048024654,-0.01079325471073389,0.005333115346729755,-0.0,0.002438161987811327
0.005375005770474672,0.004856546875089407,-0.01143044326454401,0.005267315544188023,-0.0,0.002408510772511363
0.005629634950309992,0.005205146968364716,-0.010892188176512718,0.005211984738707542,-0.0,0.0023534675128757954
0.005370552185922861,0.005104271695017815,-0.011236785911023617,0.00581352086737752,-0.0,0.0023791235871613026
0.005326158367097378,0.005143837071955204,-0.01085231639444828,0.00561420526355505,-0.0,0.0024916636757552624
0.005594741553068161,0.004931841045618057,-0.010811409913003445,0.005350877530872822,-0.0,0.0024508018977940083
0.006272746715694666,0.004793460015207529,-0.01132673118263483,0.00503546604886651,-0.0,0.0025148678105324507
0.005763381253927946,0.0046377782709896564,-0.011049843393266201,0.004902378190308809,-0.0,0.002589720068499446
0.005763381253927946,0.0046377782709896564,-0.011049843393266201,0.004902378190308809,-0.0,0.002589720068499446
0.005804971791803837,0.00515799829736352,-0.01190157886594534,0.00519132986664772,-0.0,0.002515889937058091
0.005343170370906591,0.00521169975399971,-0.011179937981069088,0.005433161277323961,-0.0,0.0025049049872905016
0.005665676202625036,0.004950876347720623,-0.010865114629268646,0.006028112955391407,-0.0,0.0022864765487611294
0.0059218741953372955,0.0052411179058253765,-0.011259541846811771,0.005645327270030975,-1.3551817573898006e-05,0.0022834043484181166
0.005807815585285425,0.005041126627475023,-0.010939696803689003,0.005392511375248432,-8.848369361658115e-07,0.002098645316436887
0.006119310390204191,0.004607779439538717,-0.010883853770792484,0.004909098614007235,-5.7773526407345344e-08,0.0020470484159886837
0.005490237381309271,0.005084450822323561,-0.011250022798776627,0.004695488605648279,-3.7721985535199565e-09,0.001846164814196527
0.006065069232136011,0.005044823978096247,-0.010516536422073841,0.00495770201086998,-2.4629762118699716e-10,0.0019274551887065172
0.005809256341308355,0.004848398268222809,-0.010922262445092201,0.00531820859760046,-1.6081474693563358e-11,0.0022940419148653746
0.006339807529002428,0.005054067354649305,-0.010660002008080482,0.0054865675047039986,-1.0500053517631391e-12,0.0023667241912335157
0.005713969003409147,0.005395625717937946,-0.010534048080444336,0.005341081880033016,-6.855784386375352e-14,0.00258559244684875
0.005816885270178318,0.004790309816598892,-0.01126958429813385,0.005002390127629042,-4.47633703921143e-15,0.002281626919284463
0.005549699533730745,0.00505355279892683,-0.011075159534811974,0.00517263263463974,-2.922728742054938e-16,0.002133212285116315
0.006100914441049099,0.005578894633799791,-0.010604389011859894,0.005482575856149197,-1.9083331355561716e-17,0.0019579140935093164
0.006157680880278349,0.005247949156910181,-0.010813460685312748,0.006137925665825605,-1.246005110950624e-18,0.0020913921762257814
0.006202827673405409,0.005073673091828823,-0.010639104060828686,0.005767056252807379,-8.13552359596819e-20,0.0022411008831113577
0.006138633005321026,0.004934727679938078,-0.01146752666682005,0.005335494875907898,-5.311915190816511e-21,0.0021984081249684095
0.00601993640884757,0.005294968374073505,-0.01042014081031084,0.005059816408902407,-3.468301564491376e-22,0.0023060075473040342
0.006434617564082146,0.00552640575915575,-0.009929687716066837,0.005337746348232031,-2.2645530239035602e-23,0.0020710297394543886
0.006123911123722792,0.005246178712695837,-0.009613941423594952,0.005668352358043194,-1.4785912811168488e-24,0.001841553719714284
0.00597224710509181,0.004755591042339802,-0.011737284250557423,0.006038506515324116,-9.654144469340874e-26,0.001760464976541698
0.00615400355309248,0.005021699704229832,-0.010921439155936241,0.005829689558595419,-4.115713254120495e-28,0.0015782167902216315
0.006783643737435341,0.005405794363468885,-0.010712248273193836,0.005737795494496822,-2.6872669032905236e-29,0.0015245653921738267
0.006786390207707882,0.0052955010905861855,-0.010880622081458569,0.006624213419854641,-1.7545932732351096e-30,0.0018410672200843692
0.00651762867346406,0.005752999801188707,-0.011229045689105988,0.0064265248365700245,-1.1456239814229774e-31,0.0022222164552658796
0.00618172949180007,0.0052482374012470245,-0.010782869532704353,0.005654718726873398,-7.480106221875989e-33,0.0021930576767772436
0.006722768768668175,0.005233719013631344,-0.01111674401909113,0.005397094413638115,-4.883974693687653e-34,0.0020988318137824535
0.00643535703420639,0.005475238896906376,-0.01080989558249712,0.005650062579661608,-3.188886585040471e-35,0.0020286759827286005
0.007061806041747332,0.005032433662563562,-0.009896229021251202,0.0064534349367022514,-2.0821153547397785e-36,0.0020454043988138437
0.007061806041747332,0.005032433662563562,-0.009896229021251202,0.0064534349367022514,-2.0821153547397785e-36,0.0020454043988138437
0.0063607292249798775,0.00539027713239193,-0.010828308761119843,0.00588778592646122,-1.3594723956577728e-37,0.0019118007039651275
0.0063361553475260735,0.00511385640129447,-0.010584176518023014,0.0058667766861617565,-8.876383591120657e-39,0.0018733878387138247
0.006660423707216978,0.004903167020529509,-0.010625379160046577,0.005614694207906723,-5.795644331585654e-40,0.0017543456051498652
0.006368414033204317,0.0050593591295182705,-0.010911937803030014,0.005873865447938442,-3.7842065029091685e-41,0.0017145187593996525
0.006325230933725834,0.005129347555339336,-0.010211807675659657,0.006403819192200899,-2.4704891926046525e-42,0.0019473026040941477
0.0065887621603906155,0.00568490382283926,-0.010867318138480186,0.0062200576066970825,-1.6114932339735396e-43,0.0020623286254704
0.00678635761141777,0.005372772924602032,-0.010773089714348316,0.005710803437978029,-1.1210387714598537e-44,0.0020494412165135145
0.006624497938901186,0.005269924644380808,-0.010384752415120602,0.005582547280937433,-0.0,0.0020531658083200455
0.006539337802678347,0.0054244473576545715,-0.010972412303090096,0.0060354541055858135,-0.0,0.0018928678473457694
0.006721233017742634,0.005078187678009272,-0.010863113217055798,0.005753173492848873,-0.0,0.00175617472268641
0.006511009763926268,0.005498001351952553,-0.01103338971734047,0.00572905782610178,-0.0,0.0015810395125299692
0.007210724055767059,0.00527062825858593,-0.011137237772345543,0.005819435231387615,-0.0,0.0015902220038697124
0.006794551387429237,0.005087777506560087,-0.010376855731010437,0.005910142790526152,-0.0,0.0015616483287885785
0.006648631766438484,0.0052420031279325485,-0.01100448239594698,0.006096598692238331,-0.0,0.0016240961849689484
0.00655299611389637,0.0052168527618050575,-0.011223722249269485,0.005908614490181208,-0.0,0.00158380635548383
0.006855863146483898,0.00501312967389822,-0.01072764303535223,0.00561387836933136,-0.0,0.0016606466379016638
0.006920293904840946,0.005056071560829878,-0.010697439312934875,0.005543324165046215,-0.0,0.0013832951663061976
0.006504877004772425,0.005457933060824871,-0.010708765126764774,0.005647942423820496,-0.0,0.0012891398509964347
0.006504877004772425,0.005457933060824871,-0.010708765126764774,0.005647942423820496,-0.0,0.0012891398509964347
0.006813396234065294,0.005109130870550871,-0.011197574436664581,0.006021345034241676,-0.0,0.0012137580197304487
0.0073466054163873196,0.004854525439441204,-0.010712417773902416,0.005808984860777855,-0.0,0.0011621200246736407
0.006831286009401083,0.005096061620861292,-0.01128409244120121,0.005754587706178427,-0.0,0.0010131850140169263
0.007027596700936556,0.0057346937246620655,-0.010156158357858658,0.005520392209291458,-0.0,0.0010812092805281281
0.007027596700936556,0.0057346937246620655,-0.010156158357858658,0.005520392209291458,-0.0,0.0010812092805281281
0.0076141273602843285,0.00530534703284502,-0.01088855043053627,0.0058075543493032455,-0.0,0.0012886949116364121
0.007719017565250397,0.005800925195217133,-0.011052670888602734,0.005629550199955702,-0.0,0.001325436751358211
0.007095890585333109,0.005383708514273167,-0.011203370057046413,0.005574566777795553,-0.0,0.0012778490781784058
0.006480763666331768,0.005339868366718292,-0.011388194747269154,0.005288292653858662,-0.0,0.0014022851828485727
0.007195944432169199,0.005431954748928547,-0.010590496473014355,0.0058245412074029446,-1.4577080946764909e-05,0.0013707026373595
0.007025670725852251,0.00520027382299304,-0.010907999239861965,0.00607264693826437,-7.600700337206945e-05,0.0013104885583743453
0.006897930521517992,0.0051934304647147655,-0.01038137637078762,0.005782006774097681,-7.760777225485072e-05,0.0013000596081838012
0.006897930521517992,0.0051934304647147655,-0.01038137637078762,0.005782006774097681,-7.760777225485072e-05,0.0013000596081838012
0.0068556685000658035,0.00577923096716404,-0.01117592491209507,0.005778410471975803,-7.630889012943953e-05,0.0012541491305455565
0.00790398195385933,0.00533005315810442,-0.011299476027488708,0.005412053782492876,-7.50375838833861e-05,0.0011838487116619945
0.007271306123584509,0.005457988940179348,-0.010493484325706959,0.00600178400054574,-7.380684110103175e-05,0.0012423108564689755
0.006555414292961359,0.005555407609790564,-0.010642604902386665,0.005986706353724003,-8.617524144938216e-05,0.0012503971811383963
0.006703617051243782,0.005202454049140215,-0.01048880536109209,0.005896224174648523,-8.569226338295266e-05,0.0013718410627916455
0.007281027268618345,0.005374711938202381,-0.011098564602434635,0.0056402129121124744,-8.44106325530447e-05,0.0013469557743519545
0.006834738422185183,0.004543164744973183,-0.0108433086425066,0.005837994161993265,-8.311515557579696e-05,0.0012291109887883067
0.006627120077610016,0.0045253681018948555,-0.010463790968060493,0.0061486344784498215,-8.185548358596861e-05,0.0011095621157437563
0.007262152153998613,0.004705418366938829,-0.011016899719834328,0.0062632313929498196,-9.061220771400258e-05,0.0009649928542785347
0.007833578623831272,0.005090758204460144,-0.010583608411252499,0.006413890514522791,-9.246218542102724e-05,0.0008065399015322328
0.007738616783171892,0.004943090956658125,-0.010614855214953423,0.006210391875356436,-9.132947161560878e-05,0.000783371739089489
0.007330752909183502,0.005448427516967058,-0.01098449993878603,0.005927360150963068,-9.501810563961044e-05,0.0008229861268773675
0.007330752909183502,0.005448427516967058,-0.01098449993878603,0.005927360150963068,-9.501810563961044e-05,0.0008229861268773675
0.007330752909183502,0.005448427516967058,-0.01098449993878603,0.005927360150963068,-9.501810563961044e-05,0.0008229861268773675
0.007624885067343712,0.00491755735129118,-0.010869843885302544,0.006402605213224888,-9.864345338428393e-05,0.0009950301609933376
0.007510916795581579,0.0052879853174090385,-0.01012370828539133,0.006319238338619471,-9.733515616972e-05,0.0010019425535574555
0.007325408048927784,0.004833964165300131,-0.011919653043150902,0.005577322095632553,-9.603846410755068e-05,0.001130295917391777
0.008033022284507751,0.004883054178208113,-0.010837823152542114,0.0050966935232281685,-0.00015374906070064753,0.00111524504609406
0.00796613097190857,0.004819944966584444,-0.011883015744388103,0.005699611734598875,-0.00020228933135513216,0.0009631059947423637
0.0078316954895854,0.004687999840825796,-0.011364414356648922,0.0063554272055625916,-0.00019705503655131906,0.0009362019482068717
0.007122804410755634,0.004646365996450186,-0.010260128416121006,0.005966681055724621,-0.00018901324074249715,0.0008286678930744529
0.00819161906838417,0.0046601369976997375,-0.01186782494187355,0.005884580314159393,-0.00018140816246159375,0.0008300688932649791
0.008054771460592747,0.004555126652121544,-0.011492234654724598,0.005657769739627838,-0.00017437819042243063,0.0007554670446552336
0.007590222638100386,0.004357778932899237,-0.011304969899356365,0.0062241568230092525,-0.00016787188360467553,0.0006215894245542586
0.007366965524852276,0.00458788825199008,-0.011477624997496605,0.006312540266662836,-0.00019200806855224073,0.000637610733974725
0.00796197634190321,0.004680944141000509,-0.010875665582716465,0.006214825436472893,-0.00018731510499492288,0.000664776423946023
0.007979759946465492,0.0047563291154801846,-0.010977542027831078,0.006101581268012524,-0.0001811591355362907,0.00067629583645612
0.007697476074099541,0.005164188798516989,-0.01090540736913681,0.006191935855895281,-0.0001752860116539523,0.0006369539769366384
0.007397593930363655,0.004599649924784899,-0.01062640082091093,0.006411168724298477,-0.00016977546329144388,0.0006662174127995968
0.008215958252549171,0.0045256102457642555,-0.011428425088524818,0.00626608170568943,-0.0001645994489081204,0.0006483046454377472
0.008382518775761127,0.005080802831798792,-0.01131561677902937,0.006443518679589033,-0.00018283518147654831,0.0006541275652125478
0.007771544624119997,0.005081691313534975,-0.01096136961132288,0.0061853546649217606,-0.0001807679800549522,0.0006062611355446279
0.007707707583904266,0.00472991494461894,-0.011906000785529613,0.006218673195689917,-0.000175927605596371,0.000590343086514622
0.007912226021289825,0.004860447254031897,-0.011052406392991543,0.006737048272043467,-0.0001711611548671499,0.0005759478663094342
0.007886395789682865,0.004713827278465033,-0.01222706213593483,0.006327110808342695,-0.00016663451970089227,0.0005855901399627328
0.00753661897033453,0.004614464472979307,-0.011534972116351128,0.005753322504460812,-0.00018397753592580557,0.000557584862690419
0.008180826902389526,0.00454567139968276,-0.01104815024882555,0.005889086984097958,-0.0001807696680771187,0.0005460928077809513
0.008358245715498924,0.005231459625065327,-0.01151764765381813,0.006395055912435055,-0.0001764316693879664,0.0005769674899056554
0.008131584152579308,0.005062002222985029,-0.010840189643204212,0.006590744014829397,-0.00017221774032805115,0.0006083613843657076
0.008243551477789879,0.004994810093194246,-0.011365051381289959,0.006385833956301212,-0.00016819480515550822,0.0006345433066599071
0.009051564149558544,0.004815397784113884,-0.011682005599141121,0.006414873991161585,-0.00016482174396514893,0.000841048953589052
0.007597415242344141,0.004696887917816639,-0.011719360016286373,0.006526676006615162,-0.0001785759232006967,0.0008017782238312066
0.007597415242344141,0.004696887917816639,-0.011719360016286373,0.006526676006615162,-0.0001785759232006967,0.0008017782238312066
0.00852181389927864,0.004744710400700569,-0.011280924081802368,0.006750387139618397,-0.00017186603508889675,0.0006992312264628708
0.008324856869876385,0.005102861672639847,-0.011663508601486683,0.0063756112940609455,-0.00015967516810633242,0.0005552400834858418
0.008324856869876385,0.005102861672639847,-0.011663508601486683,0.0063756112940609455,-0.00015967516810633242,0.0005552400834858418
0.007961461320519447,0.004938914440572262,-0.01136904675513506,0.006462732795625925,-0.00017702531476970762,0.0005034051719121635
0.008518407121300697,0.004580456297844648,-0.012203752063214779,0.00669250451028347,-0.00017838827625382692,0.0004604320856742561
0.008397888392210007,0.004512859974056482,-0.011382358148694038,0.0061223446391522884,-0.00017313969146925956,0.0004242238646838814
0.008271894417703152,0.004601581487804651,-0.011365564540028572,0.005975555628538132,-0.00016778997087385505,0.0003933022089768201
0.00824489165097475,0.005305355880409479,-0.011068024672567844,0.00644261809065938,-0.00016273466462735087,0.0003665839321911335
0.008228528313338757,0.005589387379586697,-0.011207977309823036,0.0068192859180271626,-0.000157973772729747,0.0003964882926084101
0.00831529963761568,0.005194772034883499,-0.011732413433492184,0.006576854269951582,-0.00017734480206854641,0.0003762695996556431
0.008387205190956593,0.004778420086950064,-0.011487781070172787,0.0064016543328762054,-0.00017400237265974283,0.00035526877036318183
0.008863873779773712,0.004670761059969664,-0.011838006787002087,0.006312043406069279,-0.00016942461661528796,0.0003363117575645447
0.00920234713703394,0.004805906675755978,-0.01153645757585764,0.006613666657358408,-0.000164993733051233,0.00031926308292895555
0.00861969031393528,0.004782064352184534,-0.010880660265684128,0.006837148685008287,-0.00016078323824331164,0.00030385993886739016
0.008661084808409214,0.00505958404392004,-0.011516929604113102,0.006687984801828861,-0.00015678154886700213,0.00028987490804865956
0.008733891882002354,0.005442032124847174,-0.01154876034706831,0.006595459766685963,-0.00015297465142793953,0.000277120852842927
0.008428149856626987,0.005019339732825756,-0.011561864987015724,0.006476516369730234,-0.00014934792125131935,0.00026544209686107934
0.009054102934896946,0.005130114033818245,-0.011693362146615982,0.007228911388665438,-0.00015613340656273067,0.0002547078765928745
0.008722343482077122,0.004994772374629974,-0.011105518788099289,0.006887359078973532,-0.00016226523439399898,0.00024480841238982975
0.008797095157206059,0.004827520810067654,-0.011343950405716896,0.0065439622849226,-0.00015930521476548165,0.00023564958246424794
0.008363512344658375,0.005612295586615801,-0.011196333914995193,0.006481550633907318,-0.00015589690883643925,0.00022715200611855835
0.00926763005554676,0.005429835524410009,-0.011276408098638058,0.006110975053161383,-0.00015259557403624058,0.00014790156274102628
0.009726504795253277,0.00518136378377676,-0.011724352836608887,0.006470701657235622,-0.00014942861162126064,7.563114195363596e-05
0.00878752488642931,0.004919692873954773,-0.011366146616637707,0.006462213583290577,-0.00014639027358498424,6.842289440101013e-05
0.008990732952952385,0.004769593942910433,-0.011612644419074059,0.005974960047751665,-0.00014066997391637415,6.33158560958691e-05
0.008901546709239483,0.005730016622692347,-0.011271516792476177,0.006404756102710962,-0.00013797424617223442,6.11629438935779e-05
0.009942293167114258,0.005508347414433956,-0.01155855879187584,0.007202177308499813,-0.00013538009079638869,5.9152567700948566e-05
0.009942293167114258,0.005508347414433956,-0.01155855879187584,0.007202177308499813,-0.00013538009079638869,5.9152567700948566e-05
0.008888640441000462,0.0052111162804067135,-0.010969948954880238,0.006557920016348362,-0.00013290724018588662,5.727035386371426e-05
0.009054191410541534,0.00451835710555315,-0.011472199112176895,0.0061102863401174545,-0.00013986237172503024,5.550415880861692e-05
0.008687219582498074,0.004553962033241987,-0.01146205235272646,0.0063428510911762714,-0.00013634837523568422,5.384372343542054e-05
0.009645714424550533,0.0046737608499825,-0.011157314293086529,0.007325834594666958,-0.00013238440442364663,5.227977817412466e-05
0.009165127761662006,0.0056498851627111435,-0.011363567784428596,0.0073124500922858715,-0.00012860364222433418,5.0804032071027905e-05
0.009511209093034267,0.005380811169743538,-0.011679796501994133,0.006957374047487974,-0.0001250303175766021,4.940934741171077e-05
0.00960626732558012,0.00539335748180747,-0.011540571227669716,0.006688382942229509,-0.00012165015505161136,4.808924131793901e-05
0.009305988438427448,0.004574534948915243,-0.011575659736990929,0.0073658498004078865,-0.00011844788969028741,4.683782754000276e-05
0.008852816186845303,0.004538244102150202,-0.010968819260597229,0.00699708191677928,-0.00011540987907210365,3.443679815973155e-05
0.0094687445089221,0.004651135299354792,-0.0114647401496768,0.006405260413885117,-0.000112523979623802,2.3018541469355114e-05
0.00963441003113985,0.005180323496460915,-0.010988200083374977,0.006550334393978119,-0.00012605474330484867,2.177255373680964e-05
0.00923929549753666,0.00556868314743042,-0.011088473722338676,0.006694872863590717,-0.00012822634016629308,2.1214300431893207e-05
0.010095111094415188,0.005422360263764858,-0.011719168163836002,0.007174855563789606,-0.00012558176240418106,2.072284769383259e-05
0.009359938092529774,0.004475869704037905,-0.011654346249997616,0.006764877121895552,-0.00012274907203391194,2.0256229618098587e-05
0.009367250837385654,0.004467491060495377,-0.011395931243896484,0.006325171794742346,-0.00012002215953543782,2.6018574317276943e-06
0.009486568160355091,0.004600554704666138,-0.011108160950243473,0.006456112489104271,-0.00011741248454200104,1.6988269635476172e-07
0.009702030569314957,0.005112817976623774,-0.010810740292072296,0.007154734339565039,-0.00011491373152239248,1.1092126328549057e-08
0.009164680726826191,0.005102525930851698,-0.011323676444590092,0.007052688393741846,-0.00012642989167943597,7.24236504101583e-10
0.009196789935231209,0.004885132424533367,-0.010898957960307598,0.006498981267213821,-0.00012827680620830506,4.7287469079337896e-11
0.009723249822854996,0.0049836463294923306,-0.011328470893204212,0.00618386548012495,-0.00012599989713635296,3.0875337009295123e-12
0.00986856035888195,0.00485721230506897,-0.011439989320933819,0.006267229560762644,-0.0001235479285242036,2.015938956566321e-13
0.009664340876042843,0.0044762627221643925,-0.010612842626869678,0.007213241420686245,-0.00012117267760913819,1.316264127857944e-14
0.010412468574941158,0.005025566089898348,-0.011114072985947132,0.006583210080862045,-0.00011668420484056696,5.61143975083805e-17
0.009346242994070053,0.005015170201659203,-0.010986313223838806,0.006736245006322861,-0.00011456247739261016,3.663869137489303e-18
0.009745257906615734,0.0048278942704200745,-0.010965528897941113,0.007008431013673544,-0.00012042799789924175,2.392244847100628e-19
0.009745257906615734,0.0048278942704200745,-0.010965528897941113,0.007008431013673544,-0.00012042799789924175,2.392244847100628e-19
0.009763642214238644,0.004575865808874369,-0.010430067777633667,0.006933724973350763,-0.00012580079783219844,1.5619648275664554e-20
0.009771419689059258,0.004493840504437685,-0.011090788058936596,0.006557515822350979,-0.00012412044452503324,-0.0003784967993851751
0.010174432769417763,0.004265977535396814,-0.011070353910326958,0.006380744278430939,-0.00012204825907247141,-0.0006610830896534026
0.009896327741444111,0.004523188807070255,-0.010264089331030846,0.007042808923870325,-0.00012001594586763531,-0.0006267613498494029
0.010264860466122627,0.004673744086176157,-0.01110205240547657,0.007267410401254892,-0.00011804841051343828,-0.0006326793227344751
0.01054783072322607,0.0047285668551921844,-0.011350074782967567,0.007064743898808956,-0.00011614407412707806,-0.0005942356074228883
0.009833943098783493,0.004660238046199083,-0.011225907132029533,0.006964046973735094,-0.00011430033191572875,-0.0006112661212682724
0.010165815241634846,0.004141086246818304,-0.012042233720421791,0.006990147288888693,-0.00011251412070123479,-0.000639707432128489
0.01035231165587902,0.0044086952693760395,-0.011373595334589481,0.00797172263264656,-0.00012162825441919267,-0.0007082296069711447
0.009976798668503761,0.004468943458050489,-0.011267360299825668,0.007668351288884878,-0.00012869836064055562,-0.0007480487693101168
0.01037481427192688,0.004792842082679272,-0.011001979000866413,0.007261670660227537,-0.00012579007307067513,-0.0007656324305571616
0.010244577191770077,0.004826088435947895,-0.011156358756124973,0.007438866421580315,-0.00012241279182489961,-0.0009523355984129012
0.009832643903791904,0.004765640012919903,-0.011642729863524437,0.0071115270256996155,-0.00011917372466996312,-0.0010066982358694077
0.010398400016129017,0.004536153748631477,-0.011434545740485191,0.007260633632540703,-0.00011609922512434423,-0.0009937107097357512
0.010100598447024822,0.004682788625359535,-0.01190457958728075,0.007034648675471544,-0.00011317904863972217,-0.0009808926843106747
0.010048952884972095,0.004779373295605183,-0.011670143343508244,0.006910067982971668,-0.00011040215031243861,-0.000954137125518173
0.010048952884972095,0.004779373295605183,-0.011670143343508244,0.006910067982971668,-0.00011040215031243861,-0.000954137125518173
0.010045920498669147,0.004396829288452864,-0.012019556015729904,0.007310030981898308,-0.0001052382358466275,-0.0009303250117227435
0.010477759875357151,0.004395445808768272,-0.01234831940382719,0.007246494293212891,-0.00010283305891789496,-0.000954955059569329
0.010278548114001751,0.004988658707588911,-0.011743550188839436,0.007456068880856037,-0.00011791871656896546,-0.0010137888602912426
0.009894992224872112,0.004780646413564682,-0.011829030700027943,0.007431915961205959,-0.0001154768469859846,-0.0010097201447933912
0.01029397826641798,0.004625502973794937,-0.01198924332857132,0.007264327723532915,-0.00011306411761324853,-0.0009865593165159225
0.010632727295160294,0.005142317619174719,-0.010426606051623821,0.007812799885869026,-0.00011074571375502273,-0.0010061595821753144
0.01003839448094368,0.004707669839262962,-0.012584596872329712,0.007882282137870789,-0.00010852012201212347,-0.0011474275961518288
0.01003839448094368,0.004707669839262962,-0.012584596872329712,0.007882282137870789,-0.00010852012201212347,-0.0011474275961518288
0.009999964386224747,0.004631941672414541,-0.011697467416524887,0.008014083839952946,-0.00010638210369506851,-0.0014322329079732299
0.009869091212749481,0.004900921136140823,-0.011943508870899677,0.007747297640889883,-0.00010432684939587489,-0.0018500251462683082
0.010632307268679142,0.004798521753400564,-0.012059608474373817,0.007755875587463379,-0.00011827240086859092,-0.002101978985592723
0.011184291914105415,0.0044545456767082214,-0.012400931678712368,0.007697169203311205,-0.00011711237311828882,-0.0019643830601125956
0.010134506970643997,0.004587349947541952,-0.012598378583788872,0.007636719383299351,-0.00011504175927257165,-0.0017777453176677227
0.010493340902030468,0.004925069399178028,-0.011703483760356903,0.00754759693518281,-0.00011298287427052855,-0.0017220036825165153
0.010644014924764633,0.004464219324290752,-0.012434573844075203,0.007524358108639717,-0.00011099262337666005,-0.0016389472875744104
0.010284727439284325,0.004582539200782776,-0.012400621548295021,0.008057001046836376,-0.00010907116666203365,-0.001699544838629663
0.010333234444260597,0.004489840939640999,-0.012308538891375065,0.007741130422800779,-0.0001072148879757151,-0.0017560216365382075
0.01031107734888792,0.004754472989588976,-0.012453276664018631,0.007169321179389954,-0.0001054208041750826,-0.0021535789128392935
0.01084878295660019,0.00481496611610055,-0.012015992775559425,0.0074658808298408985,-0.00011751468991860747,-0.0024417699314653873
0.011455157771706581,0.0049107931554317474,-0.012367633171379566,0.00804425310343504,-0.0001165150897577405,-0.002459841314703226
0.010494878515601158,0.004725430626422167,-0.012031299993395805,0.007719978224486113,-0.00011471768084447831,-0.0025585670955479145
0.010796013288199902,0.004622930195182562,-0.012427480891346931,0.00740591948851943,-0.00011292230919934809,-0.0022563845850527287
0.011047488078474998,0.004688918124884367,-0.012148909270763397,0.008026228286325932,-0.00011117883695987985,-0.0021245323587208986
0.01026824675500393,0.004722712095826864,-0.012129179202020168,0.008317890577018261,-0.00010958983330056071,-0.001962026348337531
0.01066245511174202,0.004693301860243082,-0.012307612225413322,0.007686927914619446,-0.00013435783330351114,-0.0019449054962024093
0.01076059602200985,0.005108489189296961,-0.011967280879616737,0.007394302636384964,-0.00013224089343566447,-0.0021732470486313105
0.010510391555726528,0.004981222562491894,-0.012705383822321892,0.00805716309696436,-0.00012858177069574594,-0.0022043813951313496
0.010760056786239147,0.004556851927191019,-0.012175246141850948,0.008051615208387375,-0.00012501701712608337,-0.002549826866015792
0.010516714304685593,0.004359961021691561,-0.01249170582741499,0.007520405575633049,-0.00013358354044612497,-0.0030275448225438595
0.011412673629820347,0.005083915777504444,-0.012182923965156078,0.008516197092831135,-0.00013842590851709247,-0.0029026393312960863
0.012655614875257015,0.004733734298497438,-0.012590068392455578,0.008017737418413162,-0.00013501271314453334,-0.002873430261388421
0.013368225656449795,0.004820958711206913,-0.012362293899059296,0.007918844930827618,-0.00015220692148432136,-0.0028840668965131044
0.012432534247636795,0.0047691017389297485,-0.01293037086725235,0.007855737581849098,-0.00014992093201726675,-0.0033877426758408546
0.01266997866332531,0.004913671873509884,-0.012309719808399677,0.008233682252466679,-0.00014652140089310706,-0.0033370396122336388
0.01266997866332531,0.004913671873509884,-0.012309719808399677,0.008233682252466679,-0.00014652140089310706,-0.0033370396122336388
0.012826773338019848,0.004777370486408472,-0.01275815349072218,0.00840560719370842,-0.00014319656474981457,-0.003244510618969798
0.012741613201797009,0.004844927694648504,-0.01235823892056942,0.007911483757197857,-0.00014001427916809916,-0.003130774013698101
0.012818221934139729,0.00478256493806839,-0.01235418301075697,0.008200331591069698,-0.0001552313333377242,-0.0031153762247413397
0.012522349134087563,0.004746329039335251,-0.01213340274989605,0.008428622037172318,-0.00015312127652578056,-0.0032750226091593504
0.013418960385024548,0.004639557097107172,-0.01224274467676878,0.008174031041562557,-0.00015000856365077198,-0.0033638738095760345
0.013265659101307392,0.004895789083093405,-0.012162808328866959,0.00837007723748684,-0.00014401294174604118,-0.003340470837429166
0.013265659101307392,0.004895789083093405,-0.012162808328866959,0.00837007723748684,-0.00014401294174604118,-0.003340470837429166
0.012999225407838821,0.004534758627414703,-0.012780952267348766,0.008323910646140575,-0.00014118877879809588,-0.0036259747575968504
0.013010052964091301,0.0046451156958937645,-0.012428957968950272,0.007705282419919968,-0.00020294732530601323,-0.0033490799833089113
0.01267046295106411,0.005634907633066177,-0.012748987413942814,0.007546497043222189,-0.00021417865355033427,-0.0034147955011576414
0.013257166370749474,0.005159805994480848,-0.01274676714092493,0.008132449351251125,-0.0002057512174360454,-0.0033190385438501835
0.013340522535145283,0.004518560133874416,-0.012341034598648548,0.008326920680701733,-0.00019683854770846665,-0.00343697308562696
0.012801708653569221,0.004560592584311962,-0.012866230681538582,0.007688233163207769,-0.00018859274860005826,-0.00332397292368114
0.01353255845606327,0.00465526944026351,-0.012370285578072071,0.00805510301142931,-0.00021474406821653247,-0.003505293745547533
0.01280309073626995,0.004748539067804813,-0.012829242274165154,0.008233478292822838,-0.00020864589896518737,-0.0033067483454942703
0.012976773083209991,0.005108867771923542,-0.012538242153823376,0.008175493218004704,-0.00020102136477362365,-0.0034238360822200775
0.01306003425270319,0.004786733537912369,-0.012546565383672714,0.00798040721565485,-0.00019381445599719882,-0.003603316145017743
0.013429839164018631,0.004586886614561081,-0.012496283277869225,0.007767843548208475,-0.0001870994601631537,-0.003702708287164569
0.012759325094521046,0.00454086484387517,-0.012290291488170624,0.008085712790489197,-0.00020313897402957082,-0.0036867279559373856
0.01310521736741066,0.004787791054695845,-0.012735506519675255,0.007941082119941711,-0.00020362349459901452,-0.004168812185525894
0.01287869643419981,0.004770905245095491,-0.012401828542351723,0.008093477226793766,-0.00019170765881426632,-0.004004843067377806
0.013253132812678814,0.004597300197929144,-0.012294062413275242,0.008194353431463242,-0.00020911484898533672,-0.003914138302206993
0.013475719839334488,0.004605657886713743,-0.012653302401304245,0.007735427003353834,-0.0002062974963337183,-0.0039213052950799465
0.012529989704489708,0.004805890843272209,-0.012753442861139774,0.008189001120626926,-0.00020075235806871206,-0.003921233583241701
0.012529989704489708,0.004805890843272209,-0.012753442861139774,0.008189001120626926,-0.00020075235806871206,-0.003921233583241701
0.013010584749281406,0.00478984834626317,-0.012639373540878296,0.008321856148540974,-0.0002505880838725716,-0.004269218072295189
0.0140706617385149,0.004398738499730825,-0.012502053752541542,0.007776291109621525,-0.0002451211621519178,-0.004172492306679487
0.013151290826499462,0.004499373957514763,-0.012276827357709408,0.008005131967365742,-0.00023296380823012441,-0.00392532953992486
0.013568906113505363,0.00493569066748023,-0.013295700773596764,0.008815381675958633,-0.0002598896680865437,-0.004116008058190346
0.013345392420887947,0.00492123095318675,-0.012531044892966747,0.008657966740429401,-0.00025297084357589483,-0.003952775616198778
0.012984850443899632,0.004644612781703472,-0.012686950154602528,0.008144066669046879,-0.00027955276891589165,-0.0037536821328103542
0.01297812256962061,0.004754258785396814,-0.012682235799729824,0.008364366367459297,-0.00027004105504602194,-0.0036506541073322296
0.013228914700448513,0.004800750873982906,-0.013244402594864368,0.009039348922669888,-0.00029358972096815705,-0.00375545141287148
0.013397417031228542,0.004796144086867571,-0.01348771434277296,0.008222240954637527,-0.00028500668122433126,-0.003988712560385466
0.0136735700070858,0.0045038023963570595,-0.012965785339474678,0.007850319147109985,-0.00045839446829631925,-0.0044499668292701244
0.013658837415277958,0.004610684234648943,-0.013008078560233116,0.007978695444762707,-0.0005076916422694921,-0.004742037039250135
0.013511528261005878,0.004441167693585157,-0.012493393383920193,0.008169478736817837,-0.0005269892862997949,-0.004785312805324793
0.01383545994758606,0.004514556843787432,-0.013287262991070747,0.008178719319403172,-0.0005379284266382456,-0.004373182076960802
0.013560859486460686,0.0046471417881548405,-0.012638566084206104,0.008197403512895107,-0.0005317689501680434,-0.004058282356709242
0.01386318076401949,0.004657086916267872,-0.013245035894215107,0.008221367374062538,-0.0007428093813359737,-0.004074658267199993
0.013726484961807728,0.004777975380420685,-0.013038995675742626,0.008195200003683567,-0.0007756233680993319,-0.004757850896567106
0.013854648917913437,0.005197288002818823,-0.013737690635025501,0.008261105045676231,-0.0007920337375253439,-0.005020245909690857
0.01324265543371439,0.004642338026314974,-0.013180260546505451,0.00849495641887188,-0.0007973471074365079,-0.004982002079486847
0.01394871436059475,0.0045142085291445255,-0.014035227708518505,0.008794964291155338,-0.0008754184818826616,-0.004812600556761026
0.013245433568954468,0.004494343418627977,-0.013463139533996582,0.008595048449933529,-0.0009116761502809823,-0.004507378675043583
0.013952401466667652,0.004983601160347462,-0.01329182367771864,0.008562776260077953,-0.0009120667236857116,-0.004475968424230814
0.013759280554950237,0.004679365549236536,-0.01384449377655983,0.0082215815782547,-0.0008955015218816698,-0.004564426373690367
0.014057526364922523,0.005064493510872126,-0.013400338590145111,0.008193659596145153,-0.0009019123972393572,-0.004702156875282526
0.013866955414414406,0.0048561058938503265,-0.013705885037779808,0.008082835003733635,-0.0009442369919270277,-0.0051323967054486275
0.013835957273840904,0.0046989149414002895,-0.013505499809980392,0.008739042095839977,-0.0009053452522493899,-0.005084676202386618
0.014035197906196117,0.0049722748808562756,-0.013309230096638203,0.009889857843518257,-0.0008399833459407091,-0.005002178717404604
0.013942869380116463,0.0048839980736374855,-0.014128265902400017,0.009296410717070103,-0.0008462515543214977,-0.004901417531073093
0.014382590539753437,0.004953167866915464,-0.013530855998396873,0.009358851239085197,-0.0008686194196343422,-0.004640395753085613
0.014148633927106857,0.004841225687414408,-0.013922465033829212,0.00939728133380413,-0.0008254622225649655,-0.00507226912304759
0.014412390999495983,0.004679456818848848,-0.013412189669907093,0.009078145027160645,-0.0007781944004818797,-0.005268953740596771
0.014324454590678215,0.004720021039247513,-0.014286315068602562,0.009421546943485737,-0.00078785908408463,-0.00533794891089201
0.014324454590678215,0.004720021039247513,-0.014286315068602562,0.009421546943485737,-0.00078785908408463,-0.00533794891089201
0.014314582571387291,0.005031539127230644,-0.013944203034043312,0.009012974798679352,-0.0008004020201042295,-0.0056209503673017025
0.014317754656076431,0.0051071858033537865,-0.014072061516344547,0.009287342429161072,-0.0008244994096457958,-0.0047607626765966415
0.014317754656076431,0.0051071858033537865,-0.014072061516344547,0.009287342429161072,-0.0008244994096457958,-0.0047607626765966415
0.014448104426264763,0.004892229568213224,-0.014614011161029339,0.009489844553172588,-0.0007539630751125515,-0.0050839511677622795
0.014407076872885227,0.004082255531102419,-0.0140606127679348,0.009002627804875374,-0.0006749139865860343,-0.005374921951442957
0.014493996277451515,0.003367247525602579,-0.014502475969493389,0.009303392842411995,-0.0006096302531659603,-0.00580488471314311
0.014527521096169949,0.0032511288300156593,-0.013744658790528774,0.00903596356511116,-0.0006294982740655541,-0.0063145761378109455
0.014573277905583382,0.003691042074933648,-0.014546297490596771,0.008877505548298359,-0.0005832751630805433,-0.006135366857051849
0.01448966283351183,0.004319608677178621,-0.013739772140979767,0.009032879956066608,-0.0005398205830715597,-0.00574310589581728
0.014596202410757542,0.0045023029670119286,-0.014336662366986275,0.009142222814261913,-0.00048308781697414815,-0.005513900425285101
0.014962904155254364,0.0043745799921453,-0.013782460242509842,0.009059320203959942,-0.0004354091943241656,-0.005578966345638037
0.014811533503234386,0.0041036345064640045,-0.01451884489506483,0.00950722023844719,-0.0003969004610553384,-0.005893065128475428
0.015300163067877293,0.0040596891194581985,-0.013994901441037655,0.009688363410532475,-0.00036469759652391076,-0.005579223856329918
0.015188094228506088,0.00407383032143116,-0.014670482836663723,0.009677483700215816,-0.0003373344079591334,-0.005650910548865795
0.015215623192489147,0.004065398592501879,-0.013961730524897575,0.010465163737535477,-0.00031379456049762666,-0.0068551055155694485
0.015331316739320755,0.004022339824587107,-0.014324055053293705,0.009371336549520493,-0.00029332656413316727,-0.00645982613787055
0.015807893127202988,0.003992239013314247,-0.014196809381246567,0.008781902492046356,-0.0002753671142272651,-0.006305502261966467
0.015771634876728058,0.004002597648650408,-0.014147371053695679,0.008964542299509048,-0.00025948131224140525,-0.005646641831845045
0.01622893661260605,0.004015241749584675,-0.013847826980054379,0.010059439577162266,-0.000245330244069919,-0.0058861393481493
0.016074271872639656,0.00390707328915596,-0.014195196330547333,0.008545721881091595,-0.0002638873120304197,-0.005867653992027044
0.015567133203148842,0.003947357647120953,-0.014387751929461956,0.009135783649981022,-0.0002529005869291723,-0.0065184724517166615
0.015462550334632397,0.004043600521981716,-0.014157128520309925,0.008892722427845001,-0.00024167084484361112,-0.006202041637152433
0.01626218482851982,0.004098637495189905,-0.014366031624376774,0.008483022451400757,-0.00023132078058551997,-0.006044057197868824
0.01626218482851982,0.004098637495189905,-0.014366031624376774,0.008483022451400757,-0.00023132078058551997,-0.006044057197868824
0.015991009771823883,0.004098440054804087,-0.014315767213702202,0.009574252180755138,-0.00022181736130733043,-0.006124456878751516
0.01652413047850132,0.004146366845816374,-0.01449913065880537,0.009736654348671436,-0.0002130636275978759,-0.006871808785945177
0.01612822525203228,0.00413710018619895,-0.014098770916461945,0.009324914775788784,-0.00020497446530498564,-0.0067736865021288395
0.01604331098496914,0.003939056769013405,-0.014251396991312504,0.009756753221154213,-0.00019747756596188992,-0.006468569859862328
0.016246840357780457,0.004138094373047352,-0.014331040903925896,0.01020159013569355,-0.00019050980336032808,-0.006739867851138115
0.016681523993611336,0.00423157075420022,-0.014127233065664768,0.010108700022101402,-0.0001840167969930917,-0.006628961768001318
0.01682256907224655,0.004287384450435638,-0.014395429752767086,0.0101355891674757,-0.00017795199528336525,-0.006428292486816645
0.016679303720593452,0.004309436306357384,-0.014292958192527294,0.009859844110906124,-0.00017227405623998493,-0.006786023266613483
0.016935111954808235,0.004432998597621918,-0.014219245873391628,0.009991036728024483,-0.0001669476623646915,-0.0067992969416081905
0.01605716347694397,0.004613649565726519,-0.013638042844831944,0.010237869806587696,-0.00016194065392483026,-0.006915578152984381
0.016854019835591316,0.0046699680387973785,-0.014435390010476112,0.010189090855419636,-0.0001572251203469932,-0.006949430797249079
0.01659245230257511,0.004218780901283026,-0.014652815647423267,0.009327786043286324,-0.00015277642523869872,-0.007459843531250954
0.01656818389892578,0.004256533924490213,-0.014565386809408665,0.010511411353945732,-0.00014857272617518902,-0.007054735906422138
0.016730617731809616,0.004759203642606735,-0.013813513331115246,0.010388041846454144,-0.00014459426165558398,-0.006739384960383177
0.01705198548734188,0.0047645107842981815,-0.014429963193833828,0.009423121809959412,-0.0001408233802067116,-0.006386189255863428
0.01762004941701889,0.004872945137321949,-0.014354890212416649,0.01015729084610939,-0.0001372440019622445,-0.007037623785436153
0.01686714217066765,0.004742882680147886,-0.01446609664708376,0.009817725047469139,-0.00013384202611632645,-0.007423744536936283
0.016917362809181213,0.004594604019075632,-0.014056599698960781,0.009174972772598267,-0.00013060495257377625,-0.0070732771418988705
0.01747666858136654,0.004706846550107002,-0.014521674253046513,0.00945363286882639,-0.0001275203685509041,-0.007114885840564966
0.017691360786557198,0.004586261231452227,-0.014593398198485374,0.00947429146617651,-0.00014188590284902602,-0.007578421384096146
0.017691360786557198,0.004586261231452227,-0.014593398198485374,0.00947429146617651,-0.00014188590284902602,-0.007578421384096146
0.017307927832007408,0.0050771189853549,-0.014354545623064041,0.010674877092242241,-0.00013891943672206253,-0.007769306190311909
0.01746249943971634,0.005036828573793173,-0.014438964426517487,0.010115609504282475,-0.0001359323796350509,-0.007479298394173384
0.01771567203104496,0.0047920034267008305,-0.01426564622670412,0.009405096992850304,-0.00013306207256391644,-0.007088270504027605
0.017413809895515442,0.00443761283531785,-0.014212898910045624,0.010253199376165867,-0.00013030978152528405,-0.007159826811403036
0.01766432635486126,0.004304181318730116,-0.013963708654046059,0.010008689947426319,-0.00012766907457262278,-0.007085253484547138
0.01775933988392353,0.00442325696349144,-0.01450902596116066,0.009559307247400284,-0.00012513311230577528,-0.007172135636210442
0.017542194575071335,0.004588540177792311,-0.014452559873461723,0.010086831636726856,-0.00012269604485481977,-0.007937478832900524
0.018042026087641716,0.004713424481451511,-0.014731323346495628,0.009818020276725292,-0.00012035208783345297,-0.00787599291652441
0.018108617514371872,0.004759522620588541,-0.014119327999651432,0.009720869362354279,-0.00011809618445113301,-0.00795975886285305
0.01802671328186989,0.00491423811763525,-0.014484974555671215,0.01020793430507183,-0.00013031419075559825,-0.007593051064759493
0.017713358625769615,0.004379110876470804,-0.014529560692608356,0.010201949626207352,-0.00012994813732802868,-0.007446945179253817
0.017733115702867508,0.004500238224864006,-0.014779707416892052,0.009668543934822083,-0.00012777170923072845,-0.007441670633852482
0.018163947388529778,0.004531933460384607,-0.014346825890243053,0.00986210536211729,-0.00012555201828945428,-0.007657343056052923
0.017991134896874428,0.00476518739014864,-0.01441060658544302,0.00988682359457016,-0.00012340079410932958,-0.007640107534825802
0.018321091309189796,0.004961791448295116,-0.014238872565329075,0.010408530943095684,-0.0001213214491144754,-0.007795139215886593
0.018626585602760315,0.0048745484091341496,-0.014713983982801437,0.010387229733169079,-0.00011931100743822753,-0.00792644638568163
0.018434962257742882,0.00459108455106616,-0.014401930384337902,0.009924517944455147,-0.00011736610031221062,-0.008147354237735271
0.018481019884347916,0.004419666714966297,-0.014951078221201897,0.009964773431420326,-0.00011548361362656578,-0.007696913089603186
0.018595565110445023,0.004492726176977158,-0.014502939768135548,0.01026040967553854,-9.046976629178971e-05,-0.007655762135982513
0.018332820385694504,0.004771227017045021,-0.014465199783444405,0.009973974898457527,-8.143207378452644e-05,-0.007742128800600767
0.01860692910850048,0.004973278380930424,-0.014334108680486679,0.010376453399658203,-7.950979488668963e-05,-0.0078003015369176865
0.01899036020040512,0.004839675966650248,-0.01528045441955328,0.010217812843620777,-9.267959831049666e-05,-0.007668930571526289
0.01840258575975895,0.004657756071537733,-0.015237778425216675,0.009812292642891407,-9.204891830449924e-05,-0.008129804395139217
0.018804937601089478,0.004690550267696381,-0.014618906192481518,0.010754554532468319,-9.799934923648834e-05,-0.008051016367971897
0.019219379872083664,0.004509687889367342,-0.014982489868998528,0.010384110733866692,-0.00010342316090827808,-0.008145320229232311
0.019156312569975853,0.00532384542748332,-0.015725446864962578,0.00954507477581501,-0.00011472892947494984,-0.0080282436683774
0.019339561462402344,0.005100755486637354,-0.014661991968750954,0.010184344835579395,-0.000376009673345834,-0.008155501447618008
0.019339561462402344,0.005100755486637354,-0.014661991968750954,0.010184344835579395,-0.000376009673345834,-0.008155501447618008
0.019001662731170654,0.004882759880274534,-0.01523575372993946,0.009629609994590282,-0.00048600893933326006,-0.007643456105142832
0.01982739195227623,0.004746914841234684,-0.014646842144429684,0.010222211480140686,-0.000468628917587921,-0.007752950303256512
0.01956232823431492,0.004740189295262098,-0.015363570302724838,0.010138520039618015,-0.0004996884381398559,-0.007791439536958933
0.018956834450364113,0.004867199342697859,-0.014414596371352673,0.00950163695961237,-0.00046709872549399734,-0.00760697154328227
0.018743783235549927,0.006259914021939039,-0.015022124163806438,0.010384355671703815,-0.0004888016264885664,-0.007624308578670025
0.01845928654074669,0.005881707649677992,-0.014767337590456009,0.010344788432121277,-0.0004645932058338076,-0.007853128015995026
0.019999053329229355,0.0038626238238066435,-0.015611291863024235,0.009961140342056751,-0.0005900276592001319,-0.008112072944641113
0.019968438893556595,0.004976686090230942,-0.015230267308652401,0.010206271894276142,-0.0005427218857221305,-0.008258897811174393
0.01937793754041195,0.005344088189303875,-0.015406331047415733,0.010741797275841236,-0.0005756715545430779,-0.007830128073692322
0.018795723095536232,0.005172009579837322,-0.014930595643818378,0.010738748125731945,-0.0005678001907654107,-0.00762784993276
0.020074423402547836,0.004848541226238012,-0.015585207380354404,0.010841057635843754,-0.0005561736179515719,-0.007913678884506226
0.01994858682155609,0.004775404464453459,-0.015402229502797127,0.010474955663084984,-0.0005766095709986985,-0.007456194143742323
0.019704768434166908,0.004942757543176413,-0.015899231657385826,0.010660133324563503,-0.0006321287946775556,-0.007046104874461889
0.01998555287718773,0.005290843080729246,-0.015613317489624023,0.011142702773213387,-0.0006389971822500229,-0.0069369846023619175
0.020412733778357506,0.004966967739164829,-0.015202793292701244,0.010983170010149479,-0.0006176388706080616,-0.007272689137607813
0.019303973764181137,0.004887622315436602,-0.015725990757346153,0.01124025322496891,-0.000637131102848798,-0.007293601520359516
0.019318122416734695,0.005402074195444584,-0.015364942140877247,0.011152418330311775,-0.000650236732326448,-0.007241326849907637
0.019968565553426743,0.005174608435481787,-0.015576648525893688,0.010193999856710434,-0.0006144490907900035,-0.007964550517499447
0.020264262333512306,0.004955269396305084,-0.014952685683965683,0.01082396600395441,-0.0006765317521058023,-0.007847961969673634
0.02001349814236164,0.005179890431463718,-0.015530992299318314,0.010454949922859669,-0.0006046987837180495,-0.007594223599880934
0.020371444523334503,0.004882072564214468,-0.015407123602926731,0.010198636911809444,-0.0006257198401726782,-0.007480123080313206
0.020266806706786156,0.004941241350024939,-0.01598542183637619,0.01061184611171484,-0.0006177331670187414,-0.007608513347804546
0.01982077769935131,0.0049962555058300495,-0.015253109857439995,0.010929678566753864,-0.0006008295458741486,-0.007717770058661699
0.020139146596193314,0.00515130115672946,-0.01571347750723362,0.010967418551445007,-0.0006241053342819214,-0.008445129729807377
0.020384252071380615,0.004983380436897278,-0.015163518488407135,0.011577037163078785,-0.0006504676421172917,-0.008450428955256939
0.020360620692372322,0.004911351483315229,-0.015612641349434853,0.010733921080827713,-0.0006794650689698756,-0.007930010557174683
0.02040986716747284,0.004204820841550827,-0.015531547367572784,0.011327167972922325,-0.0006517693982459605,-0.007806221954524517
0.020237764343619347,0.004259242210537195,-0.015697656199336052,0.011069366708397865,-0.0006369427428580821,-0.007682858034968376
0.0202786847949028,0.004993262700736523,-0.015355612151324749,0.01075525302439928,-0.0006196146714501083,-0.00807933323085308
0.0202786847949028,0.004993262700736523,-0.015355612151324749,0.01075525302439928,-0.0006196146714501083,-0.00807933323085308
0.020724501460790634,0.004927198868244886,-0.016057951375842094,0.010716450400650501,-0.0006738672382198274,-0.008352261036634445
0.02084631472826004,0.004515317268669605,-0.015276470221579075,0.01073127705603838,-0.0006181014468893409,-0.008370361290872097
0.02080252580344677,0.004422201309353113,-0.015982316806912422,0.011080543510615826,-0.0005976753309369087,-0.008467487059533596
0.020779529586434364,0.004704204387962818,-0.015360726974904537,0.010729827918112278,-0.0005801153602078557,-0.008295564912259579
0.02108745276927948,0.004231661092489958,-0.016037682071328163,0.010947015136480331,-0.0006021121516823769,-0.00842647161334753
0.020649142563343048,0.004441678524017334,-0.015673896297812462,0.011462987400591373,-0.0005590888322331011,-0.008366872556507587
0.020774945616722107,0.0046719154343008995,-0.015733394771814346,0.011051050387322903,-0.0005679870373569429,-0.008292313665151596
0.020912621170282364,0.004577605053782463,-0.015801453962922096,0.011774072423577309,-0.0005419559893198311,-0.007860513404011726
0.020905762910842896,0.004290034528821707,-0.01582994870841503,0.011322406120598316,-0.00051922257989645,-0.008017883636057377
0.020960120484232903,0.004359059035778046,-0.01573389209806919,0.011333647184073925,-0.00047890140558592975,-0.008260569535195827
0.02097436971962452,0.0046016802079975605,-0.01555937621742487,0.011434461921453476,-0.00043367542093619704,-0.008786297403275967
0.02136882394552231,0.004687273409217596,-0.016282742843031883,0.01143686380237341,-0.0004690209461841732,-0.00950873363763094
0.021333517506718636,0.004471792373806238,-0.0158919058740139,0.012044878676533699,-0.0004359280865173787,-0.007634769659489393
0.02129547670483589,0.004336245357990265,-0.01585702784359455,0.011638101190328598,-0.00040363078005611897,-0.007962968200445175
0.021233530715107918,0.004442913923412561,-0.01503657829016447,0.011728529818356037,-0.00042962163570337,-0.009042343124747276
0.02203262969851494,0.004092498682439327,-0.016240090131759644,0.012103712186217308,-0.0004090887669008225,-0.008427063003182411
0.021627090871334076,0.00440699327737093,-0.01572626642882824,0.011591271497309208,-0.0003845874744001776,-0.008566793985664845
0.02120855823159218,0.0045846994034945965,-0.016167346388101578,0.011622839607298374,-0.00036248081596568227,-0.008969228714704514
0.021791432052850723,0.004564632195979357,-0.01643156260251999,0.011595328338444233,-0.00034275473444722593,-0.008778355084359646
0.021904759109020233,0.004741695709526539,-0.015989622101187706,0.012635258957743645,-0.0003477158024907112,-0.008905069902539253
0.021876806393265724,0.004242828581482172,-0.016296207904815674,0.011768605560064316,-0.00035171365016140044,-0.008665451779961586
0.02123955637216568,0.004575151484459639,-0.015934305265545845,0.01190034206956625,-0.00032168428879231215,-0.00842236913740635
0.022815026342868805,0.004412107635289431,-0.015584065578877926,0.011775744147598743,-0.00030792917823418975,-0.008950665593147278
0.022815026342868805,0.004412107635289431,-0.015584065578877926,0.011775744147598743,-0.00030792917823418975,-0.008950665593147278
0.02254301682114601,0.004337611608207226,-0.016264375299215317,0.011869493871927261,-0.00029529663152061403,-0.00920088030397892
0.0221137385815382,0.004148405976593494,-0.01613806188106537,0.011366617865860462,-0.0002836610365193337,-0.008990907110273838
0.02159278653562069,0.0044725630432367325,-0.0163325984030962,0.011683205142617226,-0.00025018397718667984,-0.00894839596003294
0.021955367177724838,0.004186723381280899,-0.016703514382243156,0.01205586176365614,-0.00023443852842319757,-0.009135454893112183
0.021517658606171608,0.00444309925660491,-0.016297616064548492,0.011941520497202873,-0.0002443928678985685,-0.008794598281383514
0.021176720038056374,0.004659097176045179,-0.016444941982626915,0.011509386822581291,-0.00025308714248239994,-0.009189868345856667
0.021764064207673073,0.0045401048846542835,-0.01563202776014805,0.011648350395262241,-0.0002430130261927843,-0.009022089652717113
0.022704245522618294,0.0043780128471553326,-0.016275450587272644,0.011520612053573132,-0.00023262811009772122,-0.009079872630536556
0.022158853709697723,0.004910939838737249,-0.015744313597679138,0.011942582204937935,-0.00024120703164953738,-0.008838142268359661
0.02162100560963154,0.004588716197758913,-0.01649358496069908,0.011251109652221203,-0.0002486331795807928,-0.008945118635892868
0.022191468626260757,0.00454736640676856,-0.016585344448685646,0.011726351454854012,-0.0002402575482847169,-0.009088515304028988
0.0228753499686718,0.004164841957390308,-0.01598415896296501,0.011621990241110325,-0.00024769824813120067,-0.008841879665851593
0.022105148062109947,0.004334045108407736,-0.016313064843416214,0.011461938731372356,-0.00025409701629541814,-0.00892553385347128
0.0221449863165617,0.004546148236840963,-0.016613254323601723,0.012477311305701733,-0.00024639052571728826,-0.009312734939157963
0.022293152287602425,0.00459682522341609,-0.017590319737792015,0.011784633621573448,-0.0003393748193047941,-0.00907162670046091
0.021929806098341942,0.004599766340106726,-0.01653273031115532,0.011497809551656246,-0.00032945035491138697,-0.00905404333025217
0.021949121728539467,0.004256401211023331,-0.016222413629293442,0.011350376531481743,-0.0003610801068134606,-0.009123893454670906
0.02275773510336876,0.003916274756193161,-0.016705090180039406,0.01118405256420374,-0.0003453057142905891,-0.009396746754646301
0.022872216999530792,0.003774814773350954,-0.017192481085658073,0.011855858378112316,-0.00035136000951752067,-0.009282448329031467
0.022200046107172966,0.004025318659842014,-0.01673160493373871,0.010869195684790611,-0.00035584563738666475,-0.009231527335941792
0.022378992289304733,0.004647502209991217,-0.01586008630692959,0.010949920862913132,-0.0003801652928814292,-0.009215169586241245
0.022480148822069168,0.0043193018063902855,-0.016736192628741264,0.011660691350698471,-0.0003666328266263008,-0.008838970214128494
0.0225356537848711,0.004118148237466812,-0.017075033858418465,0.011580167338252068,-0.0005541317514143884,-0.009008049964904785
0.022497262805700302,0.003830822417512536,-0.016901953145861626,0.011341199278831482,-0.000555303122382611,-0.008997165597975254
0.022667204961180687,0.004216016735881567,-0.016430290415883064,0.011896668933331966,-0.0005454207421280444,-0.009318526834249496
0.023327136412262917,0.004146960563957691,-0.016886813566088676,0.013201999478042126,-0.0005663964548148215,-0.009662660770118237
0.02302824705839157,0.004286875948309898,-0.016651958227157593,0.01206980086863041,-0.0005339333438314497,-0.009550586342811584
0.02302824705839157,0.004286875948309898,-0.016651958227157593,0.01206980086863041,-0.0005339333438314497,-0.009550586342811584
0.022584905847907066,0.004101193975657225,-0.016644585877656937,0.012047694064676762,-0.0006639049388468266,-0.009450745768845081
0.022868651896715164,0.0043574487790465355,-0.016654925420880318,0.011958664283156395,-0.0005904764984734356,-0.010298464447259903
0.022877836599946022,0.004672116134315729,-0.01685265265405178,0.012210112065076828,-0.0006124090868979692,-0.009582077153027058
0.02274286560714245,0.004164706915616989,-0.017139343544840813,0.012025061063468456,-0.0005609139334410429,-0.009469090960919857
0.023153817281126976,0.0037714384961873293,-0.01634751446545124,0.012032575905323029,-0.000581814965698868,-0.009549649432301521
0.02297230437397957,0.0041923196986317635,-0.0170823335647583,0.011910535395145416,-0.0005417167558334768,-0.009623798541724682
0.023052772507071495,0.004197802394628525,-0.016667470335960388,0.011620590463280678,-0.0005517514073289931,-0.009859993122518063
0.024001922458410263,0.004218689166009426,-0.016894426196813583,0.012157958000898361,-0.0005275869043543935,-0.010425398126244545
0.023623591288924217,0.004239631816744804,-0.01669977605342865,0.012135122902691364,-0.0005076696397736669,-0.009353402070701122
0.023714324459433556,0.0049476781859993935,-0.016455965116620064,0.012767031788825989,-0.0005454239435493946,-0.009475525468587875
0.023436451330780983,0.0045157684944570065,-0.017088646069169044,0.01286607701331377,-0.0005781737272627652,-0.009967634454369545
0.023221852257847786,0.003956995904445648,-0.016540220007300377,0.01281335111707449,-0.0006054891855455935,-0.009691339917480946
0.023235462605953217,0.004191510379314423,-0.017089899629354477,0.012843298725783825,-0.0008557221735827625,-0.00991924200206995
0.02433324046432972,0.0041568698361516,-0.016820715740323067,0.012748956680297852,-0.0009186904644593596,-0.009854772128164768
0.024955840781331062,0.004038102459162474,-0.016428707167506218,0.013027841225266457,-0.0008854546467773616,-0.009446937590837479
0.024719977751374245,0.003945339936763048,-0.01698903925716877,0.012878425419330597,-0.000828643562272191,-0.010014289990067482
0.02405722066760063,0.004296611528843641,-0.016844090074300766,0.01333966851234436,-0.0008258973248302937,-0.009905297309160233
0.023021364584565163,0.004421043675392866,-0.01727079227566719,0.012546559795737267,-0.000751983723603189,-0.009847111068665981
0.024267442524433136,0.0040148585103452206,-0.016781309619545937,0.012595230713486671,-0.0006815264350734651,-0.009931657463312149
0.024697603657841682,0.0037648542784154415,-0.016704650595784187,0.012293475680053234,-0.0005955271772108972,-0.010786466300487518
0.02470606565475464,0.0042046490125358105,-0.01653226837515831,0.012626017443835735,-0.0005781986401416361,-0.010333736427128315
0.024723034352064133,0.004228018689900637,-0.017217863351106644,0.0122539596632123,-0.0005249773385003209,-0.010325750336050987
0.025332167744636536,0.004482329357415438,-0.016507301479578018,0.012929147109389305,-0.0005526478635147214,-0.009839185513556004
0.024806275963783264,0.004223593510687351,-0.01686728559434414,0.012579753063619137,-0.0005662452313117683,-0.010065984912216663
0.02478930540382862,0.004196917172521353,-0.01682090014219284,0.012978583574295044,-0.0005406808922998607,-0.009965568780899048
0.02478930540382862,0.004196917172521353,-0.01682090014219284,0.012978583574295044,-0.0005406808922998607,-0.009965568780899048
0.024617718532681465,0.003961625974625349,-0.016973434016108513,0.012747182510793209,-0.0005734799196943641,-0.009897129610180855
0.025234203785657883,0.0037814932875335217,-0.017097508534789085,0.012730540707707405,-0.0005313739529810846,-0.010188977234065533
0.02583840861916542,0.004318002611398697,-0.01638946495950222,0.012815304100513458,-0.0005463157431222498,-0.010208272375166416
0.025856008753180504,0.004144810140132904,-0.01702594757080078,0.012283872812986374,-0.0005156007828190923,-0.009765850380063057
0.02549600601196289,0.004453256726264954,-0.01663772389292717,0.012796338647603989,-0.0005099116242490709,-0.00974078755825758
0.025887243449687958,0.0046774232760071754,-0.01716674491763115,0.012509067542850971,-0.000503716291859746,-0.010226469486951828
0.025723731145262718,0.004563556518405676,-0.017341122031211853,0.013207197189331055,-0.0004685016465373337,-0.00994552206248045
0.025502648204565048,0.004232096951454878,-0.01673262007534504,0.012781652621924877,-0.00046644589747302234,-0.009931848384439945
0.025933803990483284,0.004334343131631613,-0.017220253124833107,0.013336699455976486,-0.00046412210213020444,-0.010616469196975231
0.024967703968286514,0.004209935199469328,-0.016813350841403008,0.013078712858259678,-0.00045654369750991464,-0.010638046078383923
0.026431769132614136,0.004493318032473326,-0.01695835404098034,0.013141589239239693,-0.0004330099618528038,-0.010419604368507862
0.02713402733206749,0.004680410027503967,-0.017579417675733566,0.013395450077950954,-0.0004697712720371783,-0.010498967953026295
0.026329590007662773,0.004588648211210966,-0.01711852103471756,0.012746352702379227,-0.00043665070552378893,-0.010786530561745167
0.026731887832283974,0.004622864071279764,-0.017394255846738815,0.013232165016233921,-0.0004042537766508758,-0.01114114560186863
0.02672852948307991,0.004647992551326752,-0.01713082194328308,0.012929420918226242,-0.00042218592716380954,-0.010966097936034203
0.026714395731687546,0.0043669031001627445,-0.017455199733376503,0.013561717234551907,-0.000409113010391593,-0.010342633351683617
0.026548165827989578,0.004511905834078789,-0.018128080293536186,0.01323763094842434,-0.0003850386419799179,-0.010723902843892574
0.026992112398147583,0.004594631027430296,-0.017027582973241806,0.013742080889642239,-0.00041116197826340795,-0.010757229290902615
0.02745652012526989,0.005102555733174086,-0.01754186302423477,0.013127883896231651,-0.00039192443364299834,-0.010532911866903305
0.026942837983369827,0.004844616632908583,-0.01755611039698124,0.013295036740601063,-0.00040612262091599405,-0.010928649455308914
0.02704581245779991,0.0044611054472625256,-0.017910903319716454,0.013552287593483925,-0.0004031906137242913,-0.011106486432254314
0.027374539524316788,0.004303848370909691,-0.01806185208261013,0.013652598485350609,-0.0004266226023901254,-0.011554519645869732
0.02723301760852337,0.004810181446373463,-0.017341354861855507,0.013901347294449806,-0.00041118249646387994,-0.01178977731615305
0.02739626355469227,0.0048136417753994465,-0.018172098323702812,0.014384932816028595,-0.0004382617480587214,-0.011456218548119068
0.0277510117739439,0.004895196761935949,-0.01784662716090679,0.014164234511554241,-0.00046071878750808537,-0.011337700299918652
0.027978913858532906,0.00469610933214426,-0.01838279329240322,0.013804417103528976,-0.0005671724793501198,-0.011383075267076492
0.02805061638355255,0.004666412249207497,-0.018071357160806656,0.013703792355954647,-0.000547729607205838,-0.01134274248033762
0.028618184849619865,0.0048370398581027985,-0.018531328067183495,0.013614240102469921,-0.0005383160896599293,-0.011579508893191814
0.028754286468029022,0.004692160524427891,-0.018181471154093742,0.013340449891984463,-0.0005281800986267626,-0.011725885793566704
0.028345635160803795,0.004654329735785723,-0.01737513579428196,0.013508690521121025,-0.0005530962371267378,-0.011318877339363098
0.02844695746898651,0.004811198450624943,-0.01849994994699955,0.012803500518202782,-0.000553079298697412,-0.011779909022152424
0.028735259547829628,0.004754329565912485,-0.018210144713521004,0.013359379954636097,-0.0005444608977995813,-0.011459487490355968
0.028735259547829628,0.004754329565912485,-0.018210144713521004,0.013359379954636097,-0.0005444608977995813,-0.011459487490355968
0.029734989628195763,0.004694834351539612,-0.01833588257431984,0.013149358332157135,-0.0005842904793098569,-0.011879745870828629
0.029621265828609467,0.004629285540431738,-0.017900053411722183,0.013650608249008656,-0.0005943194264546037,-0.011761313304305077
0.02707991749048233,0.004602359142154455,-0.018051590770483017,0.013155790977180004,-0.0005789035931229591,-0.011768379248678684
0.028786664828658104,0.004665779415518045,-0.018203048035502434,0.013443371281027794,-0.0006010974757373333,-0.011666053906083107
0.02979213371872902,0.004654497839510441,-0.017675356939435005,0.013634049333631992,-0.0006167419487610459,-0.011660018004477024
0.02890762872993946,0.0047117057256400585,-0.017488349229097366,0.014154254458844662,-0.0005853408947587013,-0.0118471160531044
0.02949046529829502,0.004211955238133669,-0.01840791292488575,0.014043294824659824,-0.0006880603614263237,-0.012216650880873203
0.030040329322218895,0.004356720019131899,-0.0185050331056118,0.013626830652356148,-0.0007234984659589827,-0.011676261201500893
0.030029164627194405,0.00473412498831749,-0.017916880548000336,0.013580724596977234,-0.000745293393265456,-0.012081844732165337
0.028913715854287148,0.00447876425459981,-0.018216222524642944,0.013426003977656364,-0.000725222984328866,-0.012090899981558323
0.028774648904800415,0.004307791590690613,-0.017872270196676254,0.013865265063941479,-0.0006976596778258681,-0.011808296665549278
0.02963113971054554,0.00408739922568202,-0.01832009106874466,0.01326590497046709,-0.0007605722057633102,-0.01190510205924511
0.02951955236494541,0.0039063687436282635,-0.01861082762479782,0.013747869059443474,-0.0007840998587198555,-0.011904987506568432
0.02965199202299118,0.004300952423363924,-0.018055232241749763,0.013591752387583256,-0.0007550260052084923,-0.01224180031567812
0.030069230124354362,0.004530500154942274,-0.018832508474588394,0.014092153869569302,-0.0007192910998128355,-0.012027506716549397
0.030218634754419327,0.00434145238250494,-0.01886996254324913,0.013928616419434547,-0.000734410248696804,-0.011994746513664722
0.029489172622561455,0.004468461498618126,-0.018022475764155388,0.014361729845404625,-0.0007616337388753891,-0.012086953036487103
0.029963120818138123,0.00414924556389451,-0.018592888489365578,0.0136738745495677,-0.0007992472965270281,-0.012135995551943779
0.03019499033689499,0.004303382709622383,-0.01853884570300579,0.013858482241630554,-0.000878494291100651,-0.012424910441040993
0.030211316421628,0.004595198202878237,-0.018280526623129845,0.013633247464895248,-0.0010685038287192583,-0.012323388829827309
0.030484333634376526,0.004479043651372194,-0.018696609884500504,0.013611803762614727,-0.0012676807818934321,-0.012348784133791924
0.030768467113375664,0.004227178171277046,-0.018510354682803154,0.014315277338027954,-0.0011486863950267434,-0.012481321580708027
0.030768467113375664,0.004227178171277046,-0.018510354682803154,0.014315277338027954,-0.0011486863950267434,-0.012481321580708027
0.030842231586575508,0.004465833306312561,-0.01814175769686699,0.014272800646722317,-0.0010326753836125135,-0.012465358711779118
0.030460581183433533,0.00469135120511055,-0.018474740907549858,0.014109984040260315,-0.000883955042809248,-0.012728306464850903
0.03030145727097988,0.004640461411327124,-0.018853850662708282,0.014666394330561161,-0.0008688541129231453,-0.012861031107604504
0.03009098209440708,0.0043424940668046474,-0.018794354051351547,0.014438822865486145,-0.0007762782042846084,-0.013125471770763397
0.030736073851585388,0.004044061992317438,-0.018828604370355606,0.01473359577357769,-0.0006918294820934534,-0.012846172787249088
0.030736073851585388,0.004044061992317438,-0.018828604370355606,0.01473359577357769,-0.0006918294820934534,-0.012846172787249088
0.031630322337150574,0.004370822571218014,-0.0188511461019516,0.014430355280637741,-0.0006999514298513532,-0.012993444688618183
0.030802052468061447,0.004147038795053959,-0.018575821071863174,0.01486649364233017,-0.0006473564426414669,-0.012630637735128403
0.029562022536993027,0.004212945234030485,-0.018922606483101845,0.014606793411076069,-0.0005343622760847211,-0.012642527930438519
0.030409151688218117,0.004540822934359312,-0.018581382930278778,0.014925137162208557,-0.0004631824267562479,-0.012474444694817066
0.031393490731716156,0.004530865233391523,-0.0182944405823946,0.014278260059654713,-0.0004966760752722621,-0.01249497476965189
0.030713234096765518,0.0043152677826583385,-0.01917886547744274,0.014583941549062729,-0.0004593916528392583,-0.012724981643259525
0.03091632016003132,0.004065175075083971,-0.019729377701878548,0.014440430328249931,-0.0004845635558012873,-0.01227610744535923
0.03130379691720009,0.004419524688273668,-0.018587330356240273,0.015091091394424438,-0.0004894168814644217,-0.01300281472504139
0.032000135630369186,0.004584960639476776,-0.019163167104125023,0.014508561231195927,-0.00048598574358038604,-0.012739934958517551
0.030793732032179832,0.004795277025550604,-0.018773389980196953,0.014856609515845776,-0.0005284225917421281,-0.013134273700416088
0.03081333450973034,0.004808424040675163,-0.01825306937098503,0.014561287127435207,-0.0005867399158887565,-0.013299139216542244
0.03147079050540924,0.004212553612887859,-0.01893044449388981,0.014877350069582462,-0.0005749897682107985,-0.01313572097569704
0.031583692878484726,0.004325947258621454,-0.018961438909173012,0.014297572895884514,-0.0005863563856109977,-0.012636607512831688
0.03159889951348305,0.00421118875965476,-0.0191594660282135,0.014644738286733627,-0.0005545669118873775,-0.01279443595558405
0.031650230288505554,0.004505894146859646,-0.018971901386976242,0.014939336106181145,-0.0005644098855555058,-0.013294856995344162
0.03139806166291237,0.004945219028741121,-0.018673734739422798,0.015394073911011219,-0.0005388365825638175,-0.013345031067728996
0.031449127942323685,0.004905048757791519,-0.01912548765540123,0.01513031404465437,-0.0005621419986709952,-0.013565054163336754
0.03192339837551117,0.004499916918575764,-0.020287489518523216,0.01515570841729641,-0.0005513437208719552,-0.013366696424782276
0.03209097683429718,0.004268198739737272,-0.019934281706809998,0.014890270307660103,-0.0005861979443579912,-0.013471749611198902
0.032229915261268616,0.004160041455179453,-0.019087523221969604,0.014829578809440136,-0.0005772903678007424,-0.012962514534592628
0.03247229382395744,0.004206654615700245,-0.019255714491009712,0.014636998064815998,-0.0005846682470291853,-0.013000617735087872
0.032430894672870636,0.004479001276195049,-0.01881619542837143,0.014803064987063408,-0.0005489609320648015,-0.012866546399891376
0.0320824570953846,0.004622666165232658,-0.019772250205278397,0.015213863924145699,-0.0006072954274713993,-0.013497864827513695
0.03262589871883392,0.004614859353750944,-0.020139040425419807,0.015492576174438,-0.0006022942252457142,-0.013921965844929218
0.032386962324380875,0.004253992345184088,-0.019302543252706528,0.015353339724242687,-0.0005850355955772102,-0.013819451443850994
0.032285843044519424,0.004290036391466856,-0.01972130686044693,0.01596212573349476,-0.0005953341606073081,-0.013998525217175484
0.03267653286457062,0.004507099743932486,-0.01961715705692768,0.015583393163979053,-0.0006011786172166467,-0.013326331973075867
0.032947197556495667,0.004407953470945358,-0.018853086978197098,0.015745099633932114,-0.0005886005237698555,-0.01371467113494873
0.032947197556495667,0.004407953470945358,-0.018853086978197098,0.015745099633932114,-0.0005886005237698555,-0.01371467113494873
0.03292021527886391,0.004519270267337561,-0.01978013664484024,0.014995142817497253,-0.0005486870068125427,-0.013843727298080921
0.03279268741607666,0.004267714451998472,-0.019897907972335815,0.015389909967780113,-0.0005839100340381265,-0.01386462152004242
0.03314674645662308,0.004411492496728897,-0.019333751872181892,0.015283511020243168,-0.000573154422454536,-0.014308813959360123
0.0328500010073185,0.004518069326877594,-0.019766174256801605,0.01558433473110199,-0.0005590755608864129,-0.014180878177285194
0.03331659361720085,0.004175948444753885,-0.01957450993359089,0.015308702364563942,-0.0005823796964250505,-0.01395426131784916
0.033834170550107956,0.004377579782158136,-0.01861310563981533,0.015572371892631054,-0.0005423313705250621,-0.01389586366713047
0.033748019486665726,0.004337494261562824,-0.01909581944346428,0.01633772999048233,-0.000566279049962759,-0.014277990907430649
0.0332208126783371,0.004433698486536741,-0.019790051504969597,0.016295917332172394,-0.0006168122636154294,-0.014201469719409943
0.03320096805691719,0.004324058070778847,-0.01929047331213951,0.016154460608959198,-0.0006544178468175232,-0.013991717249155045
0.03417053446173668,0.004432417452335358,-0.019663536921143532,0.015001805499196053,-0.0006569892284460366,-0.013823702931404114
0.03519171103835106,0.004516883287578821,-0.02049390785396099,0.01501952763646841,-0.0006361112464219332,-0.014180787838995457
0.03352402150630951,0.004227438010275364,-0.01969437301158905,0.014456376433372498,-0.0006574228755198419,-0.014143546111881733
0.0330037958920002,0.003971069119870663,-0.01916392892599106,0.016174526885151863,-0.0008886204450391233,-0.014277958311140537
0.03414005786180496,0.004378872457891703,-0.019845398142933846,0.015087643638253212,-0.0009188143303617835,-0.014106852002441883
0.03379740193486214,0.004602319095283747,-0.020034700632095337,0.016089368611574173,-0.0009490300435572863,-0.014555268920958042
0.03464151546359062,0.004493451211601496,-0.019548742100596428,0.015991657972335815,-0.0008702074410393834,-0.014479584991931915
0.03520696610212326,0.004314977675676346,-0.01993693970143795,0.01585792750120163,-0.0009387680911459029,-0.01440451294183731
0.03435751795768738,0.004020489286631346,-0.019709883257746696,0.015735600143671036,-0.0009040371514856815,-0.013882976025342941
0.03345242515206337,0.0042373244650661945,-0.01914040558040142,0.01612098142504692,-0.0009016410913318396,-0.014079558663070202
0.034067943692207336,0.00463090417906642,-0.019595639780163765,0.016105130314826965,-0.0008163576130755246,-0.014038298279047012
0.033065829426050186,0.004340390674769878,-0.019444728270173073,0.016297893598675728,-0.0007415509899146855,-0.01409809198230505
0.03541499376296997,0.004462923854589462,-0.02017335593700409,0.01577158272266388,-0.0006761649856343865,-0.014379416592419147
0.03526031970977783,0.00501279067248106,-0.01999257318675518,0.016251401975750923,-0.0005775417084805667,-0.014360573142766953
0.03424165025353432,0.00448244996368885,-0.01913662627339363,0.015497585758566856,-0.0005110294441692531,-0.01492294017225504
0.03452213481068611,0.004469861276447773,-0.019454602152109146,0.01586657389998436,-0.0005438686930574477,-0.014455952681601048
0.03529062867164612,0.004171171225607395,-0.01992628164589405,0.016423655673861504,-0.0005392663879320025,-0.014346297830343246
0.03529062867164612,0.004171171225607395,-0.01992628164589405,0.016423655673861504,-0.0005392663879320025,-0.014346297830343246
0.0346822515130043,0.004184754565358162,-0.0196505319327116,0.01673923246562481,-0.0005673915729857981,-0.014395353384315968
0.034922633320093155,0.004274079576134682,-0.02003706805408001,0.017082352191209793,-0.0005592139204964042,-0.014716523699462414
0.03504127636551857,0.00488475663587451,-0.019953152164816856,0.01667063683271408,-0.0006347486050799489,-0.014492206275463104
0.03516583517193794,0.004937292542308569,-0.019226204603910446,0.016899356618523598,-0.0006792942294850945,-0.014464281499385834
0.03505687788128853,0.004324001260101795,-0.019700339064002037,0.01669045351445675,-0.000704964913893491,-0.014107774011790752
0.035180848091840744,0.004205205012112856,-0.020442280918359756,0.01694449596107006,-0.0007275728858076036,-0.01437443122267723
0.03629777953028679,0.004617547150701284,-0.020752090960741043,0.016418959945440292,-0.0010286833858117461,-0.014262456446886063
0.03546680882573128,0.004743447992950678,-0.019614340737462044,0.016003938391804695,-0.0010240814881399274,-0.014538252726197243
0.034505486488342285,0.004905586130917072,-0.019972974434494972,0.016254771500825882,-0.0010066975373774767,-0.014517431147396564
0.035623520612716675,0.004848933313041925,-0.02017064206302166,0.015956666320562363,-0.0009367109159938991,-0.014475751668214798
0.035338785499334335,0.004604089539498091,-0.01954479329288006,0.016202343627810478,-0.0008999067940749228,-0.014372661709785461
0.035989485681056976,0.004443150945007801,-0.019988616928458214,0.015449478290975094,-0.0007739111315459013,-0.014687168411910534
0.03638602793216705,0.004264460410922766,-0.0204414464533329,0.016422675922513008,-0.000774758867919445,-0.014711142517626286
0.03671250864863396,0.004517639521509409,-0.02013118751347065,0.016545161604881287,-0.0007896443130448461,-0.014920265413820744
0.03449144959449768,0.004613506142050028,-0.019838634878396988,0.017054472118616104,-0.0007888460531830788,-0.015056496486067772
0.03583941236138344,0.005236287601292133,-0.02051556669175625,0.0171595998108387,-0.0007690310594625771,-0.015165964141488075
0.03681723028421402,0.004571819212287664,-0.020128732547163963,0.016855619847774506,-0.0006938728620298207,-0.014981203712522984
0.03611935302615166,0.0044009070843458176,-0.02005145512521267,0.01684693805873394,-0.0007068346603773534,-0.015080192126333714
0.036125849932432175,0.004298127721995115,-0.020274735987186432,0.016525516286492348,-0.0006883625173941255,-0.01496494747698307
0.03589266166090965,0.004434347152709961,-0.02039245143532753,0.016937147825956345,-0.0006623663357459009,-0.01536201499402523
0.036548491567373276,0.004592458251863718,-0.0195559561252594,0.016581393778324127,-0.0006761073018424213,-0.015283787623047829
0.036302268505096436,0.004808272235095501,-0.020227447152137756,0.0165786761790514,-0.0007248290930874646,-0.015101069584488869
0.03620737046003342,0.004468326922506094,-0.02001699060201645,0.016589637845754623,-0.0007199410465545952,-0.01518466416746378
0.03647344931960106,0.004301212262362242,-0.020551759749650955,0.017049826681613922,-0.0007628701278008521,-0.01468280516564846
0.03673982620239258,0.004418416880071163,-0.02080627717077732,0.016647137701511383,-0.0008742036297917366,-0.014912411570549011
0.03645683079957962,0.0045753405429422855,-0.020017122849822044,0.01671055518090725,-0.0009907756466418505,-0.014733689837157726
0.0364653579890728,0.004623874090611935,-0.019922899082303047,0.016637159511446953,-0.0009470281074754894,-0.015085600316524506
0.0364653579890728,0.004623874090611935,-0.019922899082303047,0.016637159511446953,-0.0009470281074754894,-0.015085600316524506
0.03706344589591026,0.004759526811540127,-0.020209642127156258,0.016506467014551163,-0.0009385843295603991,-0.0155037771910429
0.036553557962179184,0.005031784530729055,-0.020180055871605873,0.016861597076058388,-0.0008808429120108485,-0.015216703526675701
0.03688308224081993,0.004442967474460602,-0.0198855921626091,0.016353175044059753,-0.0008747160318307579,-0.01558700855821371
0.03794294595718384,0.004505443386733532,-0.020417137071490288,0.016511278226971626,-0.0008757124887779355,-0.01589593105018139
0.0370279885828495,0.004279788117855787,-0.020426088944077492,0.016396934166550636,-0.0008621844463050365,-0.015917161479592323
0.03714558109641075,0.004368975758552551,-0.019971545785665512,0.016504161059856415,-0.0008378164493478835,-0.015894820913672447
0.03753479942679405,0.004626901354640722,-0.020226377993822098,0.016431991010904312,-0.0008019754895940423,-0.015500899404287338
0.03742269054055214,0.004751226864755154,-0.02065363898873329,0.016272198408842087,-0.0008730824920348823,-0.015631722286343575
0.03732916712760925,0.004705248400568962,-0.020549351349473,0.01716056652367115,-0.00088097172556445,-0.015746409073472023
0.03777943179011345,0.00452940259128809,-0.02071891352534294,0.017768288031220436,-0.0008271268452517688,-0.016016189008951187
0.03782092034816742,0.004571941681206226,-0.02117735706269741,0.01778869889676571,-0.0007848890381865203,-0.0164318960160017
0.03750249743461609,0.004734688904136419,-0.021295838057994843,0.018126441165804863,-0.000748426653444767,-0.016207171604037285
0.03726718947291374,0.00495925173163414,-0.021107038483023643,0.01817142590880394,-0.0007346138008870184,-0.01564103364944458
0.03903388977050781,0.004680843558162451,-0.020825419574975967,0.018510939553380013,-0.0007629419560544193,-0.01581599749624729
0.03880356252193451,0.004401322454214096,-0.02121739834547043,0.017670676112174988,-0.0007806200301274657,-0.015949714928865433
0.03671715036034584,0.004377010278403759,-0.020981626585125923,0.01655823364853859,-0.0007809481467120349,-0.01596776582300663
0.037039220333099365,0.004458245821297169,-0.020310603082180023,0.016578804701566696,-0.000973428541328758,-0.01592346280813217
0.03789455443620682,0.0048299129121005535,-0.020654253661632538,0.016779446974396706,-0.0009792691562324762,-0.01588575355708599
0.03782454878091812,0.004422093275934458,-0.021261639893054962,0.017817098647356033,-0.000968018954154104,-0.015577545389533043
0.039261117577552795,0.004413331393152475,-0.021339785307645798,0.01770062744617462,-0.000854171346873045,-0.01614236645400524
0.03707854449748993,0.004544167313724756,-0.02107146941125393,0.0179427620023489,-0.0007958473870530725,-0.01571001671254635
0.03834376111626625,0.004460841882973909,-0.021580733358860016,0.01781361922621727,-0.0007911503198556602,-0.016225038096308708
0.038905899971723557,0.004284818656742573,-0.021491341292858124,0.018704665824770927,-0.0007744839531369507,-0.016573281958699226
0.038331832736730576,0.004088613670319319,-0.020931147038936615,0.018588831648230553,-0.0007365701603703201,-0.016799550503492355
0.03870256990194321,0.004312191158533096,-0.021216735243797302,0.018275635316967964,-0.0007438743487000465,-0.01644519902765751
0.03853009641170502,0.005003534257411957,-0.021610040217638016,0.019175928086042404,-0.0007971590384840965,-0.016601810231804848
0.038464587181806564,0.004549667239189148,-0.022066740319132805,0.018398167565464973,-0.0008363024680875242,-0.016309181228280067
0.038464587181806564,0.004549667239189148,-0.022066740319132805,0.018398167565464973,-0.0008363024680875242,-0.016309181228280067
0.0389845073223114,0.0044997865334153175,-0.021656842902302742,0.01788085326552391,-0.0008550335187464952,-0.01638169214129448
0.03824348375201225,0.004160837735980749,-0.021474085748195648,0.017589008435606956,-0.0008610477671027184,-0.016725467517971992
0.03854237496852875,0.0041662645526230335,-0.02137087658047676,0.018013956025242805,-0.0009506760980002582,-0.016495300456881523
0.038541968911886215,0.004040757659822702,-0.021343745291233063,0.018511038273572922,-0.000981512595899403,-0.01654883660376072
0.03859236463904381,0.0038707079365849495,-0.02144707553088665,0.01835409551858902,-0.000952689500991255,-0.01665567420423031
0.03934711590409279,0.004353425465524197,-0.0222532507032156,0.017745863646268845,-0.0008555192034691572,-0.016943328082561493
0.038688357919454575,0.004737492185086012,-0.02165916934609413,0.018181171268224716,-0.000854779384098947,-0.016355890780687332
0.037424057722091675,0.004432366229593754,-0.02124815247952938,0.018434876576066017,-0.00080832903040573,-0.01644199527800083
0.03884826973080635,0.004019991494715214,-0.02165897749364376,0.018480855971574783,-0.0008036677027121186,-0.016731226816773415
0.03874305635690689,0.0037965704686939716,-0.022756382822990417,0.01865580677986145,-0.000785200740210712,-0.016632039099931717
0.039789047092199326,0.00428144633769989,-0.02219385653734207,0.018176885321736336,-0.0007455824525095522,-0.01678367331624031
0.03924046829342842,0.004148045554757118,-0.021255549043416977,0.01783067360520363,-0.0007584335398860276,-0.016429483890533447
0.03802599385380745,0.004343762062489986,-0.02145898900926113,0.01839199848473072,-0.0008932976052165031,-0.016418039798736572
0.03829170763492584,0.0045210933312773705,-0.02222551219165325,0.017973298206925392,-0.0009124185889959335,-0.01740945130586624
0.03927122429013252,0.004457417875528336,-0.021564984694123268,0.017984114587306976,-0.0009426300530321896,-0.01679287478327751
0.0397200882434845,0.004283829126507044,-0.0218692347407341,0.01785031333565712,-0.0011337035102769732,-0.01621229387819767
0.039345525205135345,0.004074801690876484,-0.022404564544558525,0.01832130365073681,-0.0012590064434334636,-0.016353759914636612
0.03949505090713501,0.004007277544587851,-0.0221621785312891,0.01880640722811222,-0.0011296935845166445,-0.016943156719207764
0.039167389273643494,0.004411583300679922,-0.02240775339305401,0.018568353727459908,-0.0010898548644036055,-0.016765670850872993
0.039446692913770676,0.00425267918035388,-0.021859316155314445,0.018159864470362663,-0.000987102510407567,-0.016883905977010727
0.039069902151823044,0.004203367978334427,-0.022250492125749588,0.018221547827124596,-0.0007987706921994686,-0.01660040207207203
0.03919932246208191,0.004352182615548372,-0.02239663526415825,0.01819179393351078,-0.0007798188016749918,-0.016866598278284073
0.03985728695988655,0.004134444519877434,-0.022381655871868134,0.018581662327051163,-0.0007409884128719568,-0.017111532390117645
0.03985728695988655,0.004134444519877434,-0.022381655871868134,0.018581662327051163,-0.0007409884128719568,-0.017111532390117645
0.03985661268234253,0.004220509435981512,-0.022031934931874275,0.01866556704044342,-0.0006886487826704979,-0.01709902100265026
