davideferrari95/blind_handover_controller/data/Test 139 - [2024-02-07 -- 17-23-35]/joint_states_data.csv
shoulder_pan_joint,shoulder_lift_joint,elbow_joint,wrist_1_joint,wrist_2_joint,wrist_3_joint
0.0034163694363087416,-0.0018669274868443608,-0.01297240424901247,0.011876149103045464,-0.0,0.003460982581600547
0.0034163694363087416,-0.0018669274868443608,-0.01297240424901247,0.011876149103045464,-0.0,0.003460982581600547
0.0038050280418246984,-0.001940384623594582,-0.013549476861953735,0.011707738041877747,-0.0,0.003693949431180954
0.0034156925976276398,-0.0016912155551835895,-0.012892105616629124,0.011220610700547695,-0.0,0.0038990131579339504
0.0035306040663272142,-0.00152827228885144,-0.013599791564047337,0.011935999616980553,-0.0,0.003950751852244139
0.0035306040663272142,-0.00152827228885144,-0.013599791564047337,0.011935999616980553,-0.0,0.003950751852244139
0.003434067824855447,-0.0009525876375846565,-0.013968463987112045,0.011596604250371456,-0.0,0.0035464479587972164
0.003423040732741356,-0.0003175563469994813,-0.013291584327816963,0.011829430237412453,-0.0,0.004099230747669935
0.0034485107753425837,-0.00034977507311850786,-0.01346692256629467,0.011446166783571243,-0.0,0.004053590353578329
0.0034485107753425837,-0.00034977507311850786,-0.01346692256629467,0.011446166783571243,-0.0,0.004053590353578329
0.003642578609287739,-0.0004321516607888043,-0.013708001002669334,0.01171922404319048,-0.0,0.0034096362069249153
0.003642578609287739,-0.0004321516607888043,-0.013708001002669334,0.01171922404319048,-0.0,0.0034096362069249153
0.0035540417302399874,-0.00036025416920892894,-0.013459758833050728,0.012015855871140957,-0.0,0.003526355605572462
0.003579039592295885,-0.0003002477460540831,-0.013622093014419079,0.012752838432788849,-0.0,0.004178802948445082
0.003861555363982916,-0.0002572754165157676,-0.013722162693738937,0.011870256625115871,-0.0,0.004511836916208267
0.0036338448990136385,-0.00022507425455842167,-0.013605809770524502,0.012248492799699306,-0.0,0.004399577155709267
0.0035978977102786303,-0.00020004299585707486,-0.013682101853191853,0.011778011918067932,-0.0,0.004307322204113007
0.0032912667375057936,-0.0002590571530163288,-0.012956085614860058,0.011990508995950222,-0.0,0.004255111329257488
0.0035593993961811066,-0.00024532683892175555,-0.013341924175620079,0.01210919301956892,-0.0,0.0036950979847460985
0.0038319018203765154,-0.0002250075340270996,-0.012987462803721428,0.012156637385487556,-0.0,0.0035583467688411474
0.0039262669160962105,-0.0002076961100101471,-0.013976363465189934,0.011945818550884724,-0.0,0.0036488689947873354
0.0034019050654023886,-0.0001928566925926134,-0.013194546103477478,0.01162667665630579,-0.0,0.004155158996582031
0.0034811703953891993,-0.0001799976162146777,-0.013772179372608662,0.011903038248419762,-0.0,0.0041730101220309734
0.003615904599428177,-0.00016874611901585013,-0.013322441838681698,0.012268243357539177,-0.0,0.004031032789498568
0.0036537942942231894,-0.0001588183076819405,-0.013421077281236649,0.011969764716923237,-0.0,0.003489566035568714
0.0036456699017435312,-0.00019793548563029617,-0.013069242238998413,0.01229904405772686,-0.0,0.0035252824891358614
0.003709555370733142,-0.00018943866598419845,-0.01206421572715044,0.011581107042729855,-0.0,0.003669142723083496
0.003498175647109747,-0.00017142080469056964,-0.013393345288932323,0.011479814536869526,-0.0,0.004015570972114801
0.0034246291033923626,-0.0001636289816815406,-0.013489999808371067,0.011858123354613781,-0.0,0.0041719586588442326
0.0034999847412109375,-0.00015651446301490068,-0.012937082909047604,0.012598294764757156,-0.0,0.004080385435372591
0.004320970736443996,-0.00014999289123807102,-0.013614160940051079,0.011441309005022049,-0.0,0.003992168698459864
0.004132246132940054,-0.00014399336942005903,-0.012888315133750439,0.01136507373303175,-0.0,0.003835186595097184
0.0034733153879642487,-0.00013845493958797306,-0.013956433162093163,0.011012754403054714,-0.0,0.003736778162419796
0.0034733153879642487,-0.00013845493958797306,-0.013956433162093163,0.011012754403054714,-0.0,0.003736778162419796
0.003216603072360158,-0.00013332709204405546,-0.01316785253584385,0.011469585821032524,-0.0,0.0036884788423776627
0.00329248677007854,-0.00012856567627750337,-0.01332931686192751,0.011964927427470684,-0.0,0.0033700799103826284
0.003611175809055567,-0.00014451034076046199,-0.012856424786150455,0.011959626339375973,-0.0,0.0034274058416485786
0.0035724949557334185,-0.000145153229823336,-0.012716036289930344,0.011960206553339958,-0.0,0.00443740701302886
0.0035724949557334185,-0.000145153229823336,-0.012716036289930344,0.011960206553339958,-0.0,0.00443740701302886
0.0037822923623025417,-0.00014061912952456623,-0.013280767016112804,0.01259621512144804,-0.0,0.003958965186029673
0.0039009321480989456,-0.00013635802315548062,-0.013456215150654316,0.01203865371644497,-0.0,0.003778281155973673
0.0037228253204375505,-0.00013234764628577977,-0.013008558191359043,0.012018274515867233,-0.0,0.00346419308334589
0.0034841520246118307,-0.00012856644752901047,-0.013319175690412521,0.01238223072141409,-0.0,0.0035148782189935446
0.0036067876499146223,-0.0001249954366357997,-0.012914416380226612,0.01201398391276598,-0.0,0.004195829853415489
0.0037786345928907394,-0.00012161714403191581,-0.0135252820327878,0.012815432623028755,-0.0,0.0036905035376548767
0.003865193109959364,-0.00011841681407531723,-0.012850805185735226,0.012319633737206459,-0.0,0.0035798740573227406
0.003819455625489354,-0.00011538069520611316,-0.013389581814408302,0.01234792172908783,-0.0,0.003956213593482971
0.003918293863534927,-0.00011249618546571583,-0.012910578399896622,0.012117531150579453,-0.0,0.004501417279243469
0.00396117614582181,-0.00010975252371281385,-0.013667654246091843,0.011958029121160507,-0.0,0.004400668200105429
0.003999593202024698,-0.00010713966912589967,-0.013276907615363598,0.012495401315391064,-0.0,0.004040599334985018
0.003962081391364336,-0.00010464796650921926,-0.013469506986439228,0.011806969530880451,-0.0,0.003800251055508852
0.004012427758425474,-0.00010892828140640631,-0.012889432720839977,0.012377469800412655,-0.0,0.0038629313930869102
0.004144927021116018,-0.00010636730439728126,-0.013090989552438259,0.012681988999247551,-0.0,0.00392103660851717
0.003988373558968306,-0.00010391145769972354,-0.013150211423635483,0.012705860659480095,-0.0,0.003936095628887415
0.003875385969877243,-0.0001015660964185372,-0.01385214552283287,0.011927442625164986,-0.0,0.004053768236190081
0.004120209254324436,-9.932423563441262e-05,-0.012860744260251522,0.01213845144957304,-0.0,0.004044739995151758
0.003986895550042391,-9.717942884890363e-05,-0.013104138895869255,0.01167074404656887,-0.0,0.0036130198277533054
0.0038596917875111103,-9.512512770015746e-05,-0.012675553560256958,0.012049396522343159,-0.0,0.0035277740098536015
0.004299798049032688,-9.315594797953963e-05,-0.013412006199359894,0.012072457000613213,-0.0,0.0036769278813153505
0.004093015566468239,-0.00010327545896871015,-0.01323192659765482,0.011734035797417164,-0.0,0.0040490166284143925
0.004093015566468239,-0.00010327545896871015,-0.01323192659765482,0.011734035797417164,-0.0,0.0040490166284143925
0.003868933068588376,-0.00010725919128162786,-0.013193846680223942,0.012464074417948723,-0.0,0.003950299695134163
0.004188086837530136,-0.00010524970275582746,-0.013166340067982674,0.01148550771176815,-0.0,0.00381582323461771
0.004290605895221233,-0.00010323871538275853,-0.01306871883571148,0.012319156900048256,-0.0,0.0037874821573495865
0.004088134970515966,-0.0001013020591926761,-0.012964567169547081,0.012562450021505356,-0.0,0.003823823295533657
0.0038389628753066063,-9.943666373146698e-05,-0.012970794923603535,0.012193994596600533,-0.0,0.003824397688731551
0.003666479140520096,-9.763888374436647e-05,-0.013566195033490658,0.012064495123922825,-0.0,0.004252430982887745
0.004113045521080494,-9.590474655851722e-05,-0.013044925406575203,0.01235928200185299,-0.0,0.004133433569222689
0.004193841014057398,-9.423118171980605e-05,-0.013505224138498306,0.012450462207198143,-0.0,0.003934921231120825
0.003976121544837952,-9.261516242986545e-05,-0.012944773770868778,0.012268472462892532,-0.0,0.004141752142459154
0.003919636830687523,-9.105350181926042e-05,-0.012777615338563919,0.01254335232079029,-0.0,0.004263372626155615
0.003989001736044884,-8.954367513069883e-05,-0.012738187797367573,0.012952020391821861,-0.0,0.004075204022228718
0.004093814175575972,-8.808311395114288e-05,-0.013395155780017376,0.012267752550542355,-0.0,0.0039576874114573
0.004022712353616953,-8.66694754222408e-05,-0.013179122470319271,0.012125936336815357,-0.0,0.003941142465919256
0.004009859170764685,-8.53003584779799e-05,-0.013163086958229542,0.011683722957968712,-0.0,0.0043391212821006775
0.003999092150479555,-8.39740750961937e-05,-0.013275284320116043,0.012113469652831554,-0.0,0.004263782408088446
0.0038473326712846756,-8.14411323517561e-05,-0.013187991455197334,0.01180719118565321,-0.0,0.004188425373286009
0.0038090692833065987,-8.023112604860216e-05,-0.012311161495745182,0.01170254684984684,-0.0,0.004479001741856337
0.0040342858992516994,-7.905659003881738e-05,-0.01302123349159956,0.01214920450001955,-0.0,0.004259606823325157
0.00398228457197547,-7.791590178385377e-05,-0.012715616263449192,0.012928547337651253,-0.0,0.003959596157073975
0.0038250377401709557,-8.943476132117212e-05,-0.013547406531870365,0.012122657150030136,-0.0,0.003787555266171694
0.0037438846193253994,-8.835004700813442e-05,-0.013164741918444633,0.012857547961175442,-0.0,0.0037611571606248617
0.004261894151568413,-8.71304000611417e-05,-0.013240629807114601,0.012499967589974403,-0.0,0.0038128728047013283
0.0044456408359110355,-8.594185783294961e-05,-0.013112976215779781,0.01242437120527029,-0.0,0.004181821830570698
0.0043419296853244305,-8.478535892209038e-05,-0.013122104108333588,0.012580384500324726,-0.0,0.004262662958353758
0.003565580816939473,-8.36594044812955e-05,-0.013980022631585598,0.012403598055243492,-0.0,0.003997119143605232
0.003565580816939473,-8.36594044812955e-05,-0.013980022631585598,0.012403598055243492,-0.0,0.003997119143605232
0.0039255511946976185,-8.256312139565125e-05,-0.013415618799626827,0.012908815406262875,-0.0,0.0037875922862440348
0.00421368470415473,-8.149518544087186e-05,-0.013927021995186806,0.012586064636707306,-0.0,0.003923405893146992
0.004438126925379038,-8.045441063586622e-05,-0.012992729432880878,0.012778202071785927,-0.0,0.004154276102781296
0.004303653724491596,-7.943998207338154e-05,-0.013212841004133224,0.012510284781455994,-0.0,0.004073984920978546
0.004259809851646423,-7.845078653190285e-05,-0.012985600158572197,0.012511621229350567,-0.0,0.004001853987574577
0.003984075505286455,-7.748589996481314e-05,-0.014033789746463299,0.012258222326636314,-0.0,0.004198767710477114
0.0038444139063358307,-7.654450018890202e-05,-0.01363649033010006,0.011985466815531254,-0.0,0.004185617435723543
0.003853184636682272,-7.562571408925578e-05,-0.013881511054933071,0.012107757851481438,-0.0,0.0039216745644807816
0.004268311429768801,-7.472870493074879e-05,-0.013143937103450298,0.011958087794482708,-0.0,0.00420417869463563
0.004433257970958948,-7.38526796340011e-05,-0.013434592634439468,0.012886444106698036,-0.0,0.004410044755786657
0.004632658325135708,-7.299705612240359e-05,-0.013614426366984844,0.012311466038227081,-0.0,0.0043141660280525684
0.004448435734957457,-7.216089579742402e-05,-0.013668074272572994,0.012576451525092125,-0.0,0.004023122601211071
0.004304948728531599,-7.134376937756315e-05,-0.013503414578735828,0.012430127710103989,-0.0,0.00429619150236249
0.0041220346465706825,-7.054492016322911e-05,-0.013451102189719677,0.012571737170219421,-0.0,0.004257645457983017
0.004210778512060642,-4.82667819596827e-05,-0.013307806104421616,0.012273527681827545,-0.0,0.004349924623966217
0.004482127260416746,-3.442853267188184e-05,-0.01322865765541792,0.012587620876729488,-0.0,0.004222332965582609
0.004591444507241249,-3.361227209097706e-05,-0.01324926782399416,0.012015944346785545,-0.0,0.004028258845210075
0.004532861057668924,-3.2993866625474766e-05,-0.013745930045843124,0.01205651368945837,-0.0,0.004287476185709238
0.00421364838257432,-3.239999932702631e-05,-0.013185305520892143,0.012006167322397232,-0.0,0.004614199977368116
0.004399111960083246,-3.182712316629477e-05,-0.013946267776191235,0.012093869969248772,-0.0,0.004627627786248922
0.004703531041741371,-3.1274128559743986e-05,-0.013233652338385582,0.01266815047711134,-0.0,0.004724901635199785
0.004703531041741371,-3.1274128559743986e-05,-0.013233652338385582,0.01266815047711134,-0.0,0.004724901635199785
0.004627026151865721,-3.074004780501127e-05,-0.013665011152625084,0.012111655436456203,-0.0,0.004350685048848391
0.004367570858448744,-3.0223935027606785e-05,-0.012905792333185673,0.01260675024241209,-8.784075362200383e-06,0.00443408265709877
0.004478795919567347,-2.9724822525167838e-05,-0.013593162409961224,0.01214296743273735,-5.73537363379728e-07,0.004216362256556749
0.004558962304145098,-2.9241933589219116e-05,-0.013623631559312344,0.012281968258321285,-3.744788656945275e-08,0.0039695692248642445
0.0046767136082053185,-2.8774487873306498e-05,-0.013607253320515156,0.012445815838873386,-2.4450794722241653e-09,0.003878404386341572
0.004780133254826069,-2.832175960065797e-05,-0.01314852386713028,0.012350519187748432,-1.5964621291608694e-10,0.004384507425129414
0.004344904329627752,-2.788304118439555e-05,-0.01316219475120306,0.012726212851703167,-1.0423757343391848e-11,0.0044759116135537624
0.004410303197801113,-2.7457732358016074e-05,-0.01327956560999155,0.011932197026908398,-6.805969633358333e-13,0.00419700937345624
0.004538215231150389,-2.7045174647355452e-05,-0.012963797897100449,0.012395343743264675,-4.443811990476401e-14,0.00425072992220521
0.004637471400201321,-2.6644844183465466e-05,-0.01362009346485138,0.012104799039661884,-2.901491667303582e-15,0.004214911721646786
0.00458923727273941,-2.6256200726493262e-05,-0.012974290177226067,0.012017471715807915,-1.8944667429884757e-16,0.004475922789424658
0.004634491167962551,-2.5878729502437636e-05,-0.013246583752334118,0.012392405420541763,-1.2369514950691392e-17,0.004213378764688969
0.004545463249087334,-2.551194302213844e-05,-0.01274590939283371,0.01199814397841692,-8.076409521233001e-19,0.0044066705740988255
0.004552731290459633,-2.5155419280054048e-05,-0.013231175020337105,0.012342642992734909,-5.273318087173606e-20,0.004624407738447189
0.004680912010371685,-2.4808723537717015e-05,-0.012865041382610798,0.011941671371459961,-3.443099717867197e-21,0.004713060799986124
0.004648108966648579,-2.4471464712405577e-05,-0.013461451977491379,0.012064032256603241,-2.2480980796182465e-22,0.00463293120265007
0.004883493296802044,-2.4143233531503938e-05,-0.013051695190370083,0.012266496196389198,-1.4678475280688496e-23,0.004347141366451979
0.005208385642617941,-2.3823717128834687e-05,-0.01330849714577198,0.011814055033028126,-9.583995383122645e-25,0.0044588265009224415
0.004942466504871845,-2.351252260268666e-05,-0.013435209169983864,0.012342898175120354,-6.257664398866547e-26,0.004441483877599239
0.004884225782006979,-2.320933526789304e-05,-0.013025759719312191,0.012073387391865253,-4.085807606537045e-27,0.004749292507767677
0.004926817025989294,-2.262588714074809e-05,-0.012577892281115055,0.011903510428965092,-1.7418442940880122e-29,0.004457495175302029
0.005105563905090094,-2.2345015167957172e-05,-0.013072719797492027,0.012184247374534607,-1.1372999062567255e-30,0.004548982717096806
0.005269296001642942,-2.207103716500569e-05,-0.012761656194925308,0.01242093089967966,-7.425755918134576e-32,0.004623002372682095
0.005070771090686321,-2.1803698473377153e-05,-0.013142749667167664,0.01245587132871151,-4.848487713097778e-33,0.005048340652137995
0.004740482661873102,-2.15427644434385e-05,-0.013025638647377491,0.01289669144898653,-3.165716030182329e-34,0.005041894502937794
0.005164236295968294,-2.1288009520503692e-05,-0.01303314883261919,0.012341031804680824,-2.066986425325248e-35,0.004714938346296549
0.004972539842128754,-2.1039180865045637e-05,-0.012806128710508347,0.012727043591439724,-1.3495945418892577e-36,0.004822835326194763
0.0054993522353470325,-2.0796111130039208e-05,-0.012667943723499775,0.012361026369035244,-8.811887708261336e-38,0.004869529977440834
0.0052914866246283054,-2.0558591131702997e-05,-0.013106996193528175,0.012772164307534695,-5.753533911434229e-39,0.004767416976392269
0.004844121169298887,-2.0326460798969492e-05,-0.012585939839482307,0.012287819758057594,-3.756642962115899e-40,0.004734262824058533
0.004844121169298887,-2.0326460798969492e-05,-0.012585939839482307,0.012287819758057594,-3.756642962115899e-40,0.004734262824058533
0.00529870018362999,-2.0099485482205637e-05,-0.012715588323771954,0.012080591171979904,-2.45283283195416e-41,0.004910521674901247
0.005296714138239622,-1.987753603316378e-05,-0.012446051463484764,0.012346317991614342,-1.601684144723266e-42,0.005082898773252964
0.005144625436514616,-2.666824912012089e-07,-0.012704196386039257,0.012081910856068134,-1.0509738482436128e-43,0.005146953277289867
0.005124778486788273,-3.577885765437827e-09,-0.012557917274534702,0.012707634828984737,-7.006492321624085e-45,0.005388105288147926
0.00526270130649209,-4.800190453457809e-11,-0.012360502034425735,0.012501496821641922,-0.0,0.004849581513553858
0.005073481239378452,-6.440069289480321e-13,-0.012215966358780861,0.012609509751200676,-0.0,0.004870261065661907
0.005215605720877647,-8.640173978027594e-15,-0.012066532857716084,0.011920934543013573,-0.0,0.0048789833672344685
0.005062888842076063,-1.1591896022592336e-16,-0.013104461133480072,0.012068296782672405,-0.0,0.004843854811042547
0.005443033762276173,-1.5552006744295766e-18,-0.012397414073348045,0.012799586169421673,-0.0,0.00505698099732399
0.0051763481460511684,-2.086500248825504e-20,-0.012838393449783325,0.012614819221198559,-0.0,0.005262328777462244
0.0057124788872897625,-2.7993063698791418e-22,-0.012354400008916855,0.013198423199355602,-0.0,0.004658851772546768
0.005402868147939444,-3.755627141377013e-24,-0.012850066646933556,0.012686601839959621,-0.0,0.00455707311630249
0.0051050796173512936,-5.038653357616863e-26,-0.012382522225379944,0.012871605344116688,-0.0,0.004978590179234743
0.005658081267029047,-6.759996771429698e-28,-0.012294980697333813,0.01294952817261219,-0.0,0.005059264600276947
0.0058789923787117004,-9.069397453430317e-30,-0.012980276718735695,0.012662908993661404,-0.0,0.0049226656556129456
0.005863880272954702,-1.2167754789838997e-31,-0.011855637654662132,0.012946558184921741,-0.0,0.005237219389528036
0.005735971499234438,-2.1901528924342026e-35,-0.01244150660932064,0.014151647686958313,-0.0,0.004601488821208477
0.0053632487542927265,-2.9383695215852057e-37,-0.013067351654171944,0.011675829067826271,-0.0,0.0049799345433712006
0.005672212690114975,-3.942197299567934e-39,-0.013202350586652756,0.012311073020100594,-0.0,0.005932957865297794
0.005448502954095602,-5.288920793901157e-41,-0.013213414698839188,0.01285624224692583,-0.0,0.005867986474186182
0.005681784823536873,-7.090570229483574e-43,-0.013032631948590279,0.013051477260887623,-0.0,0.004863501526415348
0.005380349699407816,-9.80908925027372e-45,-0.012595636770129204,0.012745460495352745,-0.0,0.004658032674342394
0.00573533633723855,-0.0,-0.013096194714307785,0.012545185163617134,-6.51876543997787e-05,0.004949947819113731
0.00573533633723855,-0.0,-0.013096194714307785,0.012545185163617134,-6.51876543997787e-05,0.004949947819113731
0.005916287191212177,0.0,-0.011212402954697609,0.0128029715269804,-8.213140245061368e-05,0.005040881223976612
0.005761510692536831,0.0,-0.013632366433739662,0.012488140724599361,-8.182215970009565e-05,0.005297502037137747
0.005596844479441643,0.0,-0.012970671989023685,0.012822715565562248,-8.043687557801604e-05,0.005137700121849775
0.00573798967525363,0.0,-0.012906307354569435,0.012373553588986397,-7.902934157755226e-05,0.004926259163767099
0.0060366797260940075,0.0,-0.012781799770891666,0.012964049354195595,-7.766560884192586e-05,0.005290799308568239
0.005852911621332169,0.0,-0.013489635661244392,0.013228761963546276,-7.634795474587008e-05,0.0052361395210027695
0.006297328509390354,0.0,-0.013292220421135426,0.0127106299623847,-7.507416739827022e-05,0.0054095895029604435
0.006148726679384708,0.0,-0.01318717934191227,0.012349720112979412,-7.38423113944009e-05,0.005571967456489801
0.005857129115611315,0.0,-0.013382668606936932,0.012051393277943134,-8.528027683496475e-05,0.005102534778416157
0.005992822349071503,0.0,-0.012787950225174427,0.012690871953964233,-8.567092299927026e-05,0.005088525824248791
0.005736066028475761,0.0,-0.013116634450852871,0.012208990752696991,-8.444512059213594e-05,0.00504223583266139
0.006319154519587755,0.0,-0.012773171067237854,0.012568681500852108,-8.315230661537498e-05,0.005310705862939358
0.006178815849125385,0.0,-0.013275997713208199,0.012493032030761242,-8.189173240680248e-05,0.0057265060022473335
0.006031031720340252,0.0,-0.012796739116311073,0.01233682967722416,-8.06683674454689e-05,0.005326427984982729
0.006005856674164534,0.0,-0.013112212531268597,0.012435308657586575,-7.948107668198645e-05,0.005067225079983473
0.005892436020076275,0.0,-0.01289445348083973,0.012744679115712643,-7.832826668163761e-05,0.0053728804923594
0.006414938718080521,0.0,-0.01289441343396902,0.013066813349723816,-7.720832218183205e-05,0.005540350917726755
0.006776624359190464,0.0,-0.012749540619552135,0.012506043538451195,-8.796638576313853e-05,0.005693384911864996
0.005799350328743458,0.0,-0.01304316520690918,0.012600732035934925,-8.751727000344545e-05,0.005946127697825432
0.006403043866157532,0.0,-0.012411651201546192,0.012461414560675621,-8.520321716787294e-05,0.00585127342492342
0.006341291591525078,0.0,-0.013411641120910645,0.012088083662092686,-8.406647975789383e-05,0.005893363151699305
0.006124985869973898,0.0,-0.012967502698302269,0.011929158121347427,-8.295958105009049e-05,0.005568076856434345
0.006059254053980112,0.0,-0.013445988297462463,0.012609966099262238,-8.188129140762612e-05,0.005841648206114769
0.006017629522830248,0.0,-0.012616011314094067,0.012091415002942085,-8.083070133579895e-05,0.005738845560699701
0.006368706934154034,0.0,-0.012868189252912998,0.012414224445819855,-7.980687223607674e-05,0.0060808975249528885
0.006112226285040379,0.0,-0.012720976956188679,0.012055983766913414,-7.880851626396179e-05,0.005467084236443043
0.005935116671025753,0.0,-0.012659250758588314,0.011643568053841591,-7.783484761603177e-05,0.005419034976512194
0.006259871181100607,0.0,-0.012886419892311096,0.011623840779066086,-7.688494224566966e-05,0.0055772289633750916
0.006819939706474543,0.0,-0.012354002334177494,0.011731580831110477,-7.595801434945315e-05,0.005597887095063925
0.006819939706474543,0.0,-0.012354002334177494,0.011731580831110477,-7.595801434945315e-05,0.005597887095063925
0.006786047946661711,0.0,-0.013151790015399456,0.012824653647840023,-8.033870835788548e-05,0.005643082782626152
0.006428619846701622,0.0,-0.012734678573906422,0.012730470858514309,-8.441022509941831e-05,0.00557646295055747
0.006153381895273924,0.0,-0.013385229744017124,0.012755049392580986,-8.375567995244637e-05,0.0056688967160880566
0.006277342326939106,0.0,-0.012446315959095955,0.012786840088665485,-8.28136908239685e-05,0.0061767129227519035
0.006716390606015921,0.0,-0.01255813892930746,0.012218890711665154,-8.095299563137814e-05,0.0057226018980145454
0.006716390606015921,0.0,-0.01255813892930746,0.012218890711665154,-8.095299563137814e-05,0.0057226018980145454
0.006409764755517244,0.0,-0.01282455027103424,0.011673586443066597,-8.005293784663081e-05,0.006026027258485556
0.006480776239186525,0.0,-0.013256791047751904,0.01228172704577446,-2.034241333603859e-05,0.006009883247315884
0.006468457635492086,0.0,-0.012739129364490509,0.012273245491087437,-1.3282142390380614e-06,0.0062947943806648254
0.006960763130337,0.0,-0.013257109560072422,0.012363320216536522,-8.672289197875216e-08,0.005911895539611578
0.006674945820122957,0.0,-0.012623492628335953,0.012211764231324196,-5.6623856714566045e-09,0.005761614069342613
0.006802529562264681,0.0,-0.013348058797419071,0.012530538253486156,-9.738727385411039e-05,0.006058875471353531
0.006663964129984379,0.0,-0.012755949050188065,0.012561356648802757,-0.00010346138151362538,0.0061035845428705215
0.007383158430457115,0.0,-0.013124360702931881,0.012071661651134491,-0.00010166697029490024,0.006405828986316919
0.006739723030477762,0.0,-0.013079201802611351,0.012419799342751503,-9.945518104359508e-05,0.006267239339649677
0.006609729491174221,0.0,-0.01321366149932146,0.012722673825919628,-9.524758934276178e-05,0.005615295842289925
0.006609729491174221,0.0,-0.01321366149932146,0.012722673825919628,-9.524758934276178e-05,0.005615295842289925
0.007401329930871725,0.0,-0.012913107872009277,0.01293885800987482,-9.137921006185934e-05,0.006180624011904001
0.007401329930871725,0.0,-0.012913107872009277,0.01293885800987482,-9.137921006185934e-05,0.006180624011904001
0.006305736023932695,0.0,-0.01319894939661026,0.012409111484885216,-0.00010420558101031929,0.0061124456115067005
0.006664108019322157,0.0,-0.0127031235024333,0.012540019117295742,-0.0001032817890518345,0.006406167987734079
0.007514469791203737,0.0,-0.012990855611860752,0.012305176816880703,-0.00010141212260350585,0.006450763903558254
0.007010515313595533,0.0,-0.012746024876832962,0.012853799387812614,-9.954714914783835e-05,0.006964866071939468
0.007026371546089649,0.0,-0.013032590039074421,0.012603488750755787,-9.774553473107517e-05,0.006538338493555784
0.007202669978141785,0.0,-0.012893044389784336,0.012591838836669922,-9.600770135875791e-05,0.006537571549415588
0.007484563626348972,0.0,-0.01262738835066557,0.012660607695579529,-9.433052036911249e-05,0.0067672282457351685
0.007484563626348972,0.0,-0.01262738835066557,0.012660607695579529,-9.433052036911249e-05,0.0067672282457351685
0.007119937799870968,0.0,-0.013040625490248203,0.012735274620354176,-9.27109140320681e-05,0.006627697963267565
0.007369416765868664,0.0,-0.012744173407554626,0.013166512362658978,-9.114615386351943e-05,0.006589110009372234
0.0074861180037260056,0.0,-0.013308397494256496,0.013715019449591637,-8.963324944488704e-05,0.006418706849217415
0.0076388209126889706,0.0,-0.012629150412976742,0.014092645607888699,-8.816965419100598e-05,0.0064473990350961685
0.007466376293450594,0.0,-0.013399509713053703,0.012649072334170341,-9.387340833200142e-05,0.0065165916457772255
0.0074044400826096535,0.0,-0.012776834890246391,0.012527244165539742,-9.913260873872787e-05,0.006394061725586653
0.00756816053763032,0.0,-0.013528007082641125,0.011875096708536148,-9.803007560549304e-05,0.00609623733907938
0.007844142615795135,0.0,-0.01263493113219738,0.011836452409625053,-9.655634494265541e-05,0.006322489120066166
0.007656256668269634,0.0,-0.012619544751942158,0.011882009916007519,-9.51006222749129e-05,0.006509104743599892
0.0076348669826984406,0.0,-0.01314546074718237,0.011698453687131405,-9.368643077323213e-05,0.006843386683613062
0.007660184986889362,0.0,-0.013052166439592838,0.012419680133461952,-9.231377043761313e-05,0.006757691968232393
0.007723345421254635,0.0,-0.013351473025977612,0.012157103046774864,-9.098060399992391e-05,0.006896883714944124
0.007802824955433607,0.0,-0.013065788894891739,0.012833788990974426,-9.92002387647517e-05,0.006511137820780277
0.007484144065529108,0.0,-0.013522876426577568,0.013682740740478039,-0.000100843702966813,0.006497594527900219
0.007173335645347834,0.0,-0.012637579813599586,0.012399555183947086,-9.964613855117932e-05,0.006898254621773958
0.007840637117624283,0.0,-0.013557866215705872,0.011556523852050304,-9.829862392507493e-05,0.0072518084198236465
0.008313395082950592,0.0,-0.01354028657078743,0.011518020182847977,-9.697544010123238e-05,0.007192990742623806
0.007970018312335014,0.0,-0.013736840337514877,0.012476549483835697,-0.00011433906911406666,0.006715912837535143
0.008290186524391174,0.0,-0.013395996764302254,0.012743966653943062,-0.00012639288615901023,0.007293990347534418
0.007867470383644104,0.0,-0.01349003054201603,0.013055961579084396,-0.00012301356764510274,0.0071027386002242565
0.00769850006327033,0.0,-0.013755070976912975,0.012627444230020046,-0.00011974491644650698,0.007288261782377958
0.007875006645917892,3.367971658008173e-05,-0.013756858184933662,0.01271515991538763,-0.00011664122575893998,0.00759071484208107
0.008835814893245697,0.0001543637627037242,-0.013332769274711609,0.012272144667804241,-0.00013490964192897081,0.00752401165664196
0.008601055480539799,0.0001508262794231996,-0.01326606422662735,0.012819710187613964,-0.00013297134137246758,0.006529744248837233
0.007816473953425884,0.00014595591346733272,-0.013318219222128391,0.01232467032968998,-0.00012986367801204324,0.006459538359194994
0.007902557030320168,0.0001413710560882464,-0.014138218015432358,0.012472910806536674,-0.00012681943189818412,0.007191614247858524
0.008493687026202679,0.00013706494064535946,-0.013505339622497559,0.01241765171289444,-0.0001239097910001874,0.007511966396123171
0.008419633843004704,0.00013301364379003644,-0.014275162480771542,0.012411809526383877,-0.00013866613153368235,0.007146350108087063
0.007904465310275555,0.00012919469736516476,-0.01372966356575489,0.012870793230831623,-0.00013804483751300722,0.007294625975191593
0.008403714746236801,0.00014969543553888798,-0.01455122884362936,0.01272603776305914,-0.000135239286464639,0.00748479226604104
0.008403714746236801,0.00014969543553888798,-0.01455122884362936,0.01272603776305914,-0.000135239286464639,0.00748479226604104
0.00872775912284851,0.0001466012909077108,-0.014003573916852474,0.013102099299430847,-0.00013240723637863994,0.007988750003278255
0.008323372341692448,0.000142739198054187,-0.014416113495826721,0.012434715405106544,-0.00012968233204446733,0.007874286733567715
0.008521167561411858,0.00013906364620197564,-0.013234883546829224,0.012828417122364044,-0.00012706655252259225,0.007815095596015453
0.008584563620388508,0.00013557224883697927,-0.014370200224220753,0.012368282303214073,-0.0001245544699486345,0.00811974797397852
0.008663474582135677,0.00013225189468357712,-0.01370212808251381,0.012631380930542946,-0.00012213949230499566,0.007881393656134605
0.008664282038807869,0.00014974168152548373,-0.014455849304795265,0.012527519837021828,-0.00013469021359924227,0.00812285766005516
0.00867440365254879,0.0001470774004701525,-0.01370630320161581,0.012699970044195652,-0.00013423128984868526,0.00797913409769535
0.008926906622946262,0.00014373309386428446,-0.014311539009213448,0.012838861905038357,-0.00013190589379519224,0.007804305758327246
0.008487609215080738,0.00014052730693947524,-0.013857836835086346,0.012558282352983952,-0.00012965411588083953,0.007609078660607338
0.008584385737776756,0.00015479838475584984,-0.014187052845954895,0.0126982182264328,-0.00018960129818879068,0.007462806534022093
0.008585822768509388,0.0001537128846393898,-0.013565301895141602,0.012368523515760899,-0.0001860360207501799,0.007378730457276106
0.008714503608644009,0.00015052902745082974,-0.014250664040446281,0.012435209937393665,-0.00017891735478769988,0.007833853363990784
0.008659712970256805,0.00019113287271466106,-0.013809607364237309,0.01210711244493723,-0.00020417400810401887,0.00765952980145812
0.009191903285682201,0.00020437293278519064,-0.013969586230814457,0.011867751367390156,-0.00019875164434779435,0.007470025680959225
0.008672349154949188,0.00019577609782572836,-0.013676801696419716,0.011785636655986309,-0.0001918269117595628,0.0075248852372169495
0.008183210156857967,0.0002207009820267558,-0.013683813624083996,0.011455967091023922,-0.00020810237037949264,0.007870889268815517
0.008836546912789345,0.00020781034254468977,-0.014135025441646576,0.012107744812965393,-0.0002022177941398695,0.007512728683650494
0.008799278177320957,0.00020010989101137966,-0.013804624788463116,0.012275089509785175,-0.00021668527915608138,0.008133786730468273
0.009324656799435616,0.000221325593884103,-0.013549969531595707,0.013061224482953548,-0.00021672327420674264,0.00850133690983057
0.008967237547039986,0.0002173007815144956,-0.01402186043560505,0.012866178527474403,-0.0002108065818902105,0.008061783388257027
0.00872341264039278,0.00022981375514063984,-0.013854707591235638,0.013457881286740303,-0.00020483623666223139,0.007850120775401592
0.008766857907176018,0.00023222964955493808,-0.013971519656479359,0.013141205534338951,-0.00019969046115875244,0.008102240972220898
0.00947615783661604,0.0003371173806954175,-0.013413839973509312,0.013404442928731441,-0.00029519901727326214,0.008018354885280132
0.008995353244245052,0.00036520895082503557,-0.013914946466684341,0.012788246385753155,-0.00028369357460178435,0.008570564910769463
0.009315119124948978,0.0003980266919825226,-0.013309151865541935,0.013036343269050121,-0.00026730046374723315,0.008204969577491283
0.009638569317758083,0.0003776571829803288,-0.013941694982349873,0.012781627476215363,-0.0002523352741263807,0.008752153255045414
0.009791445918381214,0.00035305938217788935,-0.013587262481451035,0.01317806076258421,-0.0002389335131738335,0.008431325666606426
0.009791445918381214,0.00035305938217788935,-0.013587262481451035,0.01317806076258421,-0.0002389335131738335,0.008431325666606426
0.009175168350338936,0.00038434017915278673,-0.014069427736103535,0.012994942255318165,-0.00022688345052301884,0.00837110448628664
0.009386945515871048,0.0003642341762315482,-0.013326014392077923,0.012937222607433796,-0.00025339899002574384,0.0080728679895401
0.009749562479555607,0.00034435137058608234,-0.014032931998372078,0.012937478721141815,-0.0002469364844728261,0.008520697243511677
0.009469845332205296,0.0003724867128767073,-0.013939223252236843,0.012579950504004955,-0.00023645609326194972,0.008878596127033234
0.009338748641312122,0.00035474984906613827,-0.014140911400318146,0.012786777690052986,-0.0002544588060118258,0.00858970358967781
0.00916952732950449,0.0003392111393623054,-0.013473638333380222,0.01242328155785799,-0.00025302820722572505,0.008490080013871193
0.009494949132204056,0.00039998197462409735,-0.01416101586073637,0.012705682776868343,-0.0002608604554552585,0.008226323872804642
0.00976641196757555,0.0004332427342887968,-0.013779440894722939,0.01236282754689455,-0.00026713652187027037,0.007777253165841103
0.009790098294615746,0.00040856815758161247,-0.014335001818835735,0.012604236602783203,-0.0002585841284599155,0.008225482888519764
0.009698747657239437,0.000442333344835788,-0.013748331926763058,0.0126052750274539,-0.00024968356592580676,0.00848783552646637
0.009918195195496082,0.0004140944220125675,-0.014020553790032864,0.012318919412791729,-0.0002608328068163246,0.008206450380384922
0.010204064659774303,0.0004417737654875964,-0.01380852423608303,0.012438800185918808,-0.0002644362102728337,0.00842222385108471
0.00974289420992136,0.0004182374686934054,-0.014155515469610691,0.012153039686381817,-0.00025092510622926056,0.008550743572413921
0.010084712877869606,0.0003972628037445247,-0.014019988477230072,0.012466943822801113,-0.00023774451983626932,0.008535593748092651
0.009694085456430912,0.0004993727197870612,-0.014201384969055653,0.012445411644876003,-0.00026787378010340035,0.008422400802373886
0.009891457855701447,0.000530499208252877,-0.013763763941824436,0.012847185134887695,-0.00025782414013519883,0.008762934245169163
0.010033798404037952,0.000492010498419404,-0.01403992809355259,0.012769841589033604,-0.0002462445409037173,0.00841841846704483
0.009643585421144962,0.0005000637611374259,-0.01382250152528286,0.01301639899611473,-0.0002695236471481621,0.008534533903002739
0.01022404246032238,0.00045086501631885767,-0.013994526118040085,0.012042093090713024,-0.00025269557954743505,0.009403005242347717
0.009857162833213806,0.0004736526752822101,-0.013904932886362076,0.012548215687274933,-0.00025995957548730075,0.009302265010774136
0.00975617952644825,0.0004506525001488626,-0.014071383513510227,0.012429735623300076,-0.0002662093611434102,0.00897679477930069
0.010768218897283077,0.0004959786310791969,-0.013519834727048874,0.012972698546946049,-0.00025771657237783074,0.009168289601802826
0.01013061311095953,0.0005384656833484769,-0.01392272301018238,0.012730618938803673,-0.0002488751779310405,0.008949716575443745
0.009987631812691689,0.0005690893740393221,-0.013606386259198189,0.012477126903831959,-0.00024056351685430855,0.00951259583234787
0.010052592493593693,0.0005966280004940927,-0.014138332568109035,0.0124709103256464,-0.0002327847178094089,0.009242309257388115
0.010229370556771755,0.0008915651706047356,-0.013288049027323723,0.012376789003610611,-0.0002254942519357428,0.00879582203924656
0.010090074501931667,0.000917973171453923,-0.013975830748677254,0.01272871345281601,-0.00021864543668925762,0.008666500449180603
0.010328912176191807,0.0007991427555680275,-0.013349669985473156,0.01272601168602705,-0.00024232291616499424,0.009099748916924
0.010328912176191807,0.0007991427555680275,-0.013349669985473156,0.01272601168602705,-0.00024232291616499424,0.009099748916924
0.010061530396342278,0.0008104851585812867,-0.014078468084335327,0.013230976648628712,-0.00023433403111994267,0.009156106039881706
0.010341727174818516,0.0007861653575673699,-0.013519138097763062,0.013166869059205055,-0.0002230195386800915,0.009129785932600498
0.010640948079526424,0.0007374192937277257,-0.013920191675424576,0.013947349973022938,-0.00021250458667054772,0.008857388980686665
0.010786643251776695,0.000691522320266813,-0.013427620753645897,0.013789549469947815,-0.00023807852994650602,0.009406791999936104
0.010457975789904594,0.0007160681416280568,-0.014128416776657104,0.013562889769673347,-0.000232641541515477,0.009304211474955082
0.010676548816263676,0.000740657327696681,-0.013513672165572643,0.013753841631114483,-0.00022333320521283895,0.009681889787316322
0.010988919995725155,0.0007643436547368765,-0.014040248468518257,0.013118647038936615,-0.00021448195911943913,0.009878069162368774
0.0106344660744071,0.001118365442380309,-0.014213794842362404,0.012932374142110348,-0.00022312012151814997,0.0094514861702919
0.009959252551198006,0.0010846327058970928,-0.01408419944345951,0.012464608065783978,-0.00023066687572281808,0.009216411039233208
0.01051350962370634,0.001057158107869327,-0.013632784597575665,0.013426936231553555,-0.00022350935614667833,0.009472754783928394
0.011297706514596939,0.0009514886187389493,-0.014071804471313953,0.01241891086101532,-0.00021591548284050077,0.009951676242053509
0.01045616902410984,0.0010148772271350026,-0.013734366744756699,0.012457418255507946,-0.00023657387646380812,0.00927761010825634
0.010355529375374317,0.0010313158854842186,-0.014645085670053959,0.01222738903015852,-0.00023080290702637285,0.009519215673208237
0.010657291859388351,0.001013051369227469,-0.013979743234813213,0.012840619310736656,-0.0002245511714136228,0.009834087453782558
0.010510829277336597,0.0010719288839027286,-0.013768615201115608,0.012608961202204227,-0.00028244193526916206,0.009698908776044846
0.010841600596904755,0.0012154271826148033,-0.014202785678207874,0.012631473131477833,-0.00027019125991500914,0.010240321978926659
0.010318189859390259,0.001680941553786397,-0.014432130381464958,0.012093907222151756,-0.0002414933842374012,0.009772860445082188
0.010881943628191948,0.0015681415097787976,-0.01419861800968647,0.012499202974140644,-0.00022919125331100076,0.01048495713621378
0.010734437964856625,0.0014294617576524615,-0.014509637840092182,0.012334140948951244,-0.000218079803744331,0.010161290876567364
0.010792936198413372,0.001314345863647759,-0.014278932474553585,0.012853985652327538,-0.0002079974947264418,0.009841707535088062
0.011326011270284653,0.001351528218947351,-0.014462364837527275,0.012495657429099083,-0.00023325429356191307,0.009932664223015308
0.010692231357097626,0.0012671173317357898,-0.014014787040650845,0.01248568668961525,-0.00022812405950389802,0.010263516567647457
0.011047924868762493,0.0012272341409698129,-0.0139378746971488,0.0128649165853858,-0.0002191725798184052,0.00993366725742817
0.011350370943546295,0.001317828195169568,-0.013979064300656319,0.01235942356288433,-0.00021064166503492743,0.009901657700538635
0.010510300286114216,0.0015721800737082958,-0.014297510497272015,0.012782321311533451,-0.000202733397600241,0.0099067073315382
0.010983631946146488,0.0015166059602051973,-0.014230887405574322,0.012756704352796078,-0.00019539693312253803,0.009719607420265675
0.011076705530285835,0.0016037208260968328,-0.014949321746826172,0.012974923476576805,-0.00021787447622045875,0.010064986534416676
0.011076705530285835,0.0016037208260968328,-0.014949321746826172,0.012974923476576805,-0.00021787447622045875,0.010064986534416676
0.011212239973247051,0.0015063568716868758,-0.014376201666891575,0.012855666689574718,-0.00021243766241241246,0.010338475927710533
0.011549036018550396,0.0015062359161674976,-0.014418160542845726,0.013177587650716305,-0.00020562802092172205,0.009909030981361866
0.010798764415085316,0.00137093267403543,-0.014173507690429688,0.012738613411784172,-0.00019913587311748415,0.009800738655030727
0.011129645630717278,0.0014280343893915415,-0.014583993703126907,0.012415450066328049,-0.0001930341386469081,0.010268321260809898
0.011969887651503086,0.0013735255924984813,-0.014129400253295898,0.012745432555675507,-0.00021225097589194775,0.00955261941999197
0.011670496314764023,0.00159945129416883,-0.014448244124650955,0.01269635371863842,-0.00020775318262167275,0.010180666111409664
0.011414514854550362,0.0016003407072275877,-0.013994760811328888,0.013240722008049488,-0.0002020296815317124,0.010125629603862762
0.010987487621605396,0.0018483202438801527,-0.014316138811409473,0.012789621017873287,-0.00019652170885819942,0.010631052777171135
0.01121898926794529,0.00186667509842664,-0.014234290458261967,0.013255477882921696,-0.00019130062719341367,0.010330041870474815
0.011392302811145782,0.0019497486064210534,-0.014440818689763546,0.013192652724683285,-0.000187085650395602,0.010030839592218399
0.011260181665420532,0.0017473381012678146,-0.01425761729478836,0.013436947949230671,-0.000180158342118375,0.009854842908680439
0.011730967089533806,0.001713937846943736,-0.01458645612001419,0.013475448824465275,-0.00017325747467111796,0.010450317524373531
0.011379634030163288,0.0017131509957835078,-0.01400736253708601,0.012897155247628689,-0.0001668356853770092,0.010182080790400505
0.011654947884380817,0.0016108585987240076,-0.01433336641639471,0.013064811937510967,-0.00016087060794234276,0.010133525356650352
0.011465084739029408,0.0017031497554853559,-0.014691020362079144,0.013199135661125183,-0.00017989282787311822,0.010091840289533138
0.013043946586549282,0.002044434193521738,-0.014236534014344215,0.012504334561526775,-0.00017432680760975927,0.010467375628650188
0.013182726688683033,0.001885121688246727,-0.014327500015497208,0.012963410466909409,-0.00018973136320710182,0.011817998252809048
0.013595130294561386,0.002049750881269574,-0.01438844483345747,0.01297625433653593,-0.00019058585166931152,0.010439272969961166
0.013170093297958374,0.002046682871878147,-0.014565706253051758,0.013108179904520512,-0.00020839978242293,0.009990386664867401
0.01365669071674347,0.00204862910322845,-0.014402667060494423,0.013091638684272766,-0.00029505841666832566,0.010476350784301758
0.013332357630133629,0.0019573539029806852,-0.014429401606321335,0.013094696216285229,-0.0003910291998181492,0.010534732602536678
0.013541058637201786,0.0019544074311852455,-0.014290077611804008,0.013358566910028458,-0.0004488741687964648,0.011007174849510193
0.013651985675096512,0.0018792052287608385,-0.014329805970191956,0.013268452137708664,-0.00048150078509934247,0.011347409337759018
0.013508317060768604,0.0020869008731096983,-0.013961069285869598,0.013489440083503723,-0.0004661469138227403,0.011283522471785545
0.013508317060768604,0.0020869008731096983,-0.013961069285869598,0.013489440083503723,-0.0004661469138227403,0.011283522471785545
0.01398213766515255,0.002129282569512725,-0.014345417730510235,0.01310899667441845,-0.0008597068372182548,0.011409617960453033
0.013246944174170494,0.00211914605461061,-0.014363745227456093,0.013818339444696903,-0.0007486114045605063,0.011687464080750942
0.013947543688118458,0.0023771582636982203,-0.01447487622499466,0.01303959172219038,-0.0006433553644455969,0.011540221981704235
0.013849210925400257,0.0022998906206339598,-0.01410637516528368,0.013160859234631062,-0.0006166088278405368,0.011414147913455963
0.014091085642576218,0.0024245113600045443,-0.014360835775732994,0.012928067706525326,-0.0005963146104477346,0.011503590270876884
0.013572543859481812,0.0023028200957924128,-0.01383628323674202,0.012923370115458965,-0.0005397803615778685,0.011773860082030296
0.014023905619978905,0.0022395665291696787,-0.014577391557395458,0.012781091034412384,-0.0005303404177539051,0.011318180710077286
0.013633023016154766,0.002402580576017499,-0.013943685218691826,0.012706716544926167,-0.0005221509491093457,0.011722755618393421
0.014031294733285904,0.002307609422132373,-0.014253620058298111,0.012738046236336231,-0.0004843291244469583,0.011482720263302326
0.013472684659063816,0.0024236172903329134,-0.013496403582394123,0.01245598029345274,-0.0005096204113215208,0.011338304728269577
0.013735456392168999,0.0022868094965815544,-0.014438756741583347,0.012844201177358627,-0.0004795673885382712,0.011418338865041733
0.013670489192008972,0.002224486554041505,-0.013981969095766544,0.012831083498895168,-0.000399689277401194,0.011600039899349213
0.013773657381534576,0.002307063201442361,-0.01449266541749239,0.01315079815685749,-0.00035388744436204433,0.012324240989983082
0.013593204319477081,0.002073039300739765,-0.014002888463437557,0.013135305605828762,-0.0003589265688788146,0.012070192955434322
0.014117948710918427,0.002107364358380437,-0.014466776512563229,0.013529345393180847,-0.00036373164039105177,0.012009603902697563
0.01380483154207468,0.0023947046138346195,-0.013984481804072857,0.01327410526573658,-0.00034254862111993134,0.01206858828663826
0.014262840151786804,0.002382060047239065,-0.014863179065287113,0.013534598052501678,-0.00037219832302071154,0.011700700968503952
0.013878959231078625,0.002637052210047841,-0.014062180183827877,0.013258603401482105,-0.0003792029747273773,0.012119393795728683
0.014031373895704746,0.0023577180691063404,-0.013834760524332523,0.013515009544789791,-0.0003642729134298861,0.012072857469320297
0.013794328086078167,0.0021836061496287584,-0.014550548978149891,0.013437580317258835,-0.000346819288097322,0.012511522509157658
0.013843640685081482,0.00219385395757854,-0.014291474595665932,0.01349877379834652,-0.000331339193508029,0.012124727480113506
0.014134330675005913,0.0026623508892953396,-0.01513832900673151,0.012671445496380329,-0.00039015812217257917,0.012141332030296326
0.014206643216311932,0.0025209463201463223,-0.014278051443397999,0.013095913454890251,-0.00036430056206882,0.012070680968463421
0.01374767441302538,0.0023959209211170673,-0.01503437478095293,0.0130186527967453,-0.0003373475337866694,0.011818815022706985
0.01374767441302538,0.0023959209211170673,-0.01503437478095293,0.0130186527967453,-0.0003373475337866694,0.011818815022706985
0.014000147581100464,0.0022343399468809366,-0.01484176516532898,0.013429653830826283,-0.00034991977736353874,0.01200777105987072
0.013556918129324913,0.002365078078582883,-0.014613116160035133,0.013681704178452492,-0.0003571347624529153,0.012097068130970001
0.013556918129324913,0.002365078078582883,-0.014613116160035133,0.013681704178452492,-0.0003571347624529153,0.012097068130970001
0.013501442037522793,0.002591674216091633,-0.015273449011147022,0.013339200057089329,-0.0003614534216467291,0.012145339511334896
0.014252019114792347,0.002794022671878338,-0.01505631860345602,0.01360175758600235,-0.0003433707170188427,0.012509318068623543
0.014127496629953384,0.002645800355821848,-0.015418760478496552,0.013408242724835873,-0.00036599551094695926,0.012079915963113308
0.01480031292885542,0.0027488169725984335,-0.015444418415427208,0.013122406788170338,-0.0003535424475558102,0.012554041109979153
0.013956239446997643,0.0027651507407426834,-0.014753773808479309,0.012846505269408226,-0.00033733542659319937,0.01200307346880436
0.013887143693864346,0.0026161624118685722,-0.015187161043286324,0.0125298285856843,-0.0003222564118914306,0.011918408796191216
0.014118188992142677,0.0027450588531792164,-0.015459896065294743,0.012737590819597244,-0.00034467686782591045,0.012886624783277512
0.014694049023091793,0.0027857415843755007,-0.015705697238445282,0.0125190494582057,-0.00032575754448771477,0.011517509818077087
0.01393886748701334,0.0028546489775180817,-0.015027616173028946,0.014068029820919037,-0.00033366968273185194,0.012126844376325607
0.014130862429738045,0.002645834581926465,-0.01511779148131609,0.013915621675550938,-0.00033982039894908667,0.01200557965785265
0.014043904840946198,0.0019686431623995304,-0.01504343468695879,0.013772730715572834,-0.0003213666786905378,0.012615932151675224
0.01450440939515829,0.0015452250372618437,-0.01613670401275158,0.012963018380105495,-0.00030341892852447927,0.012818984687328339
0.014383191242814064,0.001271683955565095,-0.014961746521294117,0.013406704179942608,-0.0003225877007935196,0.012895871885120869
0.014644366689026356,0.001080531976185739,-0.014947929419577122,0.013592037372291088,-0.00031740343547426164,0.013117250986397266
0.013846229761838913,0.0007452361169271171,-0.014569011516869068,0.013834740966558456,-0.0003028643550351262,0.012743947096168995
0.014965035952627659,0.0008188099600374699,-0.015286538749933243,0.014230718836188316,-0.00028901436598971486,0.013045369647443295
0.014088908210396767,0.0008685342618264258,-0.015071661211550236,0.01394175086170435,-0.00031311652855947614,0.012505434453487396
0.01418362744152546,0.0017295860452577472,-0.01519255805760622,0.013466794043779373,-0.0003023641766048968,0.012876829132437706
0.01425638422369957,0.0016240851255133748,-0.014980310574173927,0.013094048947095871,-0.00029032668680883944,0.012931868433952332
0.01471736840903759,0.0017345839878544211,-0.015233327634632587,0.013615382835268974,-0.0002790817234199494,0.01307772658765316
0.014867357909679413,0.0014044239651411772,-0.015053916722536087,0.013122010976076126,-0.0002892096235882491,0.01329096034169197
0.014726823195815086,0.0012200382770970464,-0.01498451828956604,0.013182373717427254,-0.00031216046772897243,0.013325395993888378
0.014927282929420471,0.0009326537838205695,-0.0150994211435318,0.013535192236304283,-0.0003069638623856008,0.012598068453371525
0.014789639972150326,0.0010201771510764956,-0.015389014966785908,0.013132264837622643,-0.00029122523847036064,0.012891929596662521
0.015312560833990574,0.0010340692242607474,-0.01530392561107874,0.013582902029156685,-0.00031035105348564684,0.013098630122840405
0.015085149556398392,0.001281547243706882,-0.01555133331567049,0.013253304176032543,-0.00030594287090934813,0.013420320115983486
0.015162637457251549,0.001276543247513473,-0.015112603083252907,0.013649017550051212,-0.00029243555036373436,0.013201650232076645
0.015226690098643303,0.001225597457960248,-0.015735246241092682,0.01341299619525671,-0.0002795036416500807,0.013464580290019512
0.014939551241695881,0.0014143182197585702,-0.014780665747821331,0.01356644369661808,-0.00029588027973659337,0.013261406682431698
0.015390030108392239,0.0013576502678915858,-0.015289937146008015,0.014867638237774372,-0.0002927450113929808,0.01344250701367855
0.015390030108392239,0.0013576502678915858,-0.015289937146008015,0.014867638237774372,-0.0002927450113929808,0.01344250701367855
0.015202922746539116,0.0012759071541950107,-0.014842121861875057,0.014009173959493637,-0.0002818646898958832,0.013528481125831604
0.015285175293684006,0.001152601558715105,-0.015106899663805962,0.01339931320399046,-0.00027128090732730925,0.013360518030822277
0.01493322104215622,0.0012695579789578915,-0.01455620862543583,0.013553248718380928,-0.00026143123977817595,0.0133985485881567
0.015138184651732445,0.0012420052662491798,-0.015244356356561184,0.01398099958896637,-0.0002794289030134678,0.013329271227121353
0.01501146424561739,0.0016556441551074386,-0.01444279681891203,0.013965262100100517,-0.0002879546082112938,0.01333392970263958
0.015556354075670242,0.0015654534799978137,-0.015158767811954021,0.014505434781312943,-0.00027225539088249207,0.013656431809067726
0.015204327180981636,0.0017384252278134227,-0.01448220107704401,0.01459708996117115,-0.0002568242489360273,0.01392139308154583
0.015668800100684166,0.001709790900349617,-0.014994081109762192,0.014718027785420418,-0.00024295944604091346,0.013793284073472023
0.015187641605734825,0.0015234557213261724,-0.014858555980026722,0.014543856494128704,-0.00023051019525155425,0.014048847369849682
0.015734296292066574,0.0015478827990591526,-0.015316524542868137,0.01450895331799984,-0.00025724867009557784,0.013681227341294289
0.0157608799636364,0.0015017868718132377,-0.01489398255944252,0.014456151984632015,-0.000250516168307513,0.013622840866446495
0.01613345369696617,0.0017636583652347326,-0.015097476541996002,0.014360962435603142,-0.0002397320349700749,0.01339858490973711
0.015783442184329033,0.0017079311655834317,-0.014608267694711685,0.014165551401674747,-0.00022956065367907286,0.01476457342505455
0.016135115176439285,0.001973876263946295,-0.014952914789319038,0.014311502687633038,-0.00022019933385308832,0.01421984564512968
0.0160107109695673,0.0018078448483720422,-0.014865702018141747,0.014159856364130974,-0.00023764136130921543,0.01414131186902523
0.01572144590318203,0.0017040726961567998,-0.01502341777086258,0.014210298657417297,-0.00023692437389399856,0.014093073084950447
0.016149060800671577,0.0017256973078474402,-0.015308150090277195,0.014076467603445053,-0.00022885393991600722,0.014478571712970734
0.015786536037921906,0.0017957837553694844,-0.015100286342203617,0.014129194431006908,-0.00022086486569605768,0.014043525792658329
0.01667439006268978,0.0018030055798590183,-0.015081594698131084,0.013718335889279842,-0.00021338534133974463,0.01456395722925663
0.016881003975868225,0.0018482910236343741,-0.01528427004814148,0.013446765020489693,-0.0002278952597407624,0.014750855043530464
0.01680034212768078,0.001838989439420402,-0.014866975136101246,0.013823457062244415,-0.00022133986931294203,0.014817943796515465
0.01657894253730774,0.0016857670852914453,-0.015210253186523914,0.013311685062944889,-0.00021476611436810344,0.014794854447245598
0.016967622563242912,0.0016869164537638426,-0.014838095754384995,0.013675371184945107,-0.00020854698959738016,0.014312786981463432
0.016804464161396027,0.0017635440453886986,-0.015284533612430096,0.013294980861246586,-0.00020307324302848428,0.014737616293132305
0.01723216101527214,0.00205437489785254,-0.014800461009144783,0.013820123858749866,-0.0002028245071414858,0.014500470831990242
0.017441002652049065,0.0020672553218901157,-0.015241066925227642,0.013591350987553596,-0.00019463288481347263,0.014410672709345818
0.01719812862575054,0.0020990262273699045,-0.014676379971206188,0.013869003392755985,-0.00018659808847587556,0.014427629299461842
0.01719812862575054,0.0020990262273699045,-0.014676379971206188,0.013869003392755985,-0.00018659808847587556,0.014427629299461842
0.017499461770057678,0.0020334154833108187,-0.01516403816640377,0.013984608463943005,-0.00017916983051691204,0.0150385070592165
0.017343619838356972,0.0019961460493505,-0.014608805999159813,0.01416467409580946,-0.00020442977256607264,0.014819822274148464
0.017761530354619026,0.0020201473962515593,-0.01563558541238308,0.013661972247064114,-0.00019899039762094617,0.015396196395158768
0.017361192032694817,0.002297844970598817,-0.015268356539309025,0.014184188097715378,-0.00019204938143957406,0.015063497237861156
0.017045089974999428,0.002241128124296665,-0.015190278179943562,0.013865523040294647,-0.00021227338584139943,0.015284854918718338
0.018040496855974197,0.002388519002124667,-0.015227030031383038,0.013718229718506336,-0.00020891946041956544,0.01511759590357542
0.017751304432749748,0.0023393426090478897,-0.01561350654810667,0.013778124935925007,-0.00020244609913788736,0.015419690869748592
0.01814601570367813,0.002269903663545847,-0.015474840998649597,0.01372302882373333,-0.0001961578382179141,0.015303478576242924
0.018063491210341454,0.002397830132395029,-0.015549744479358196,0.014026880264282227,-0.00021036052203271538,0.015280652791261673
0.017495933920145035,0.0022949555423110723,-0.016167014837265015,0.013879735954105854,-0.00021057810226920992,0.015206077136099339
0.018559155985713005,0.002411025110632181,-0.016088897362351418,0.0142728416249156,-0.00020537109230645,0.01585274562239647
0.018599074333906174,0.0023807878606021404,-0.016650207340717316,0.014053503051400185,-0.00029474266921170056,0.015653103590011597
0.018125304952263832,0.0023049814626574516,-0.015331258997321129,0.014650401659309864,-0.00032466722768731415,0.015210247598588467
0.0186565350741148,0.0024195858277380466,-0.01574927754700184,0.014112129807472229,-0.0003189589479006827,0.015279336832463741
0.018245156854391098,0.002484524855390191,-0.015072152018547058,0.014007499441504478,-0.00030199644970707595,0.015468772500753403
0.018451737239956856,0.00242093438282609,-0.015798481181263924,0.013541456311941147,-0.0003092990373261273,0.01578562706708908
0.018249988555908203,0.002797886962071061,-0.01594144105911255,0.013986513949930668,-0.00031533994479104877,0.01549560111016035
0.018071623519062996,0.0026406205724924803,-0.01615378074347973,0.0133088743314147,-0.0003016464179381728,0.015416785143315792
0.01844501681625843,0.0024875637609511614,-0.016289260238409042,0.014508462511003017,-0.00028794785612262785,0.015410437248647213
0.01937621831893921,0.0024201120249927044,-0.0160777997225523,0.014099580235779285,-0.00030944886384531856,0.01574740745127201
0.01900028996169567,0.0023386895190924406,-0.015599623322486877,0.013384235091507435,-0.00034798638080246747,0.015053591690957546
0.019060565158724785,0.0026680820155888796,-0.016402829438447952,0.014038022607564926,-0.00037505131331272423,0.015500876121222973
0.01894974149763584,0.002709389431402087,-0.015893878415226936,0.012931973673403263,-0.0003834696835838258,0.0159166157245636
0.019420713186264038,0.002573092468082905,-0.016353154554963112,0.014111761003732681,-0.0003871504741255194,0.016273416578769684
0.019391527399420738,0.0025393797550350428,-0.016201389953494072,0.013291777111589909,-0.00036314461613073945,0.01633840799331665
0.019232284277677536,0.0024945875629782677,-0.01604801043868065,0.013650120235979557,-0.0003894134715665132,0.016143126413226128
0.019661324098706245,0.002369087655097246,-0.016146138310432434,0.01356822345405817,-0.0004123641992919147,0.015858061611652374
0.019626282155513763,0.002598988590762019,-0.015661031007766724,0.014226250350475311,-0.00040233577601611614,0.016198258846998215
0.019626282155513763,0.002598988590762019,-0.015661031007766724,0.014226250350475311,-0.00040233577601611614,0.016198258846998215
0.01920166425406933,0.00277162017300725,-0.01629098877310753,0.014110755175352097,-0.0005416892236098647,0.016336623579263687
0.019471442326903343,0.002634529024362564,-0.015442272648215294,0.014256573282182217,-0.0005667783552780747,0.016844211146235466
0.01965414732694626,0.0027089116629213095,-0.015393396839499474,0.014240548014640808,-0.0005337001639418304,0.016963761299848557
0.019791286438703537,0.0025007701478898525,-0.015255809761583805,0.014429810456931591,-0.0005623855977319181,0.01674751751124859
0.019837116822600365,0.0023964850697666407,-0.01614709012210369,0.014115599915385246,-0.0005754800513386726,0.016993993893265724
0.020104268565773964,0.002616425510495901,-0.01574523374438286,0.014201813377439976,-0.000548838113900274,0.016745498403906822
0.020056655630469322,0.002553952392190695,-0.01596844755113125,0.014101734384894371,-0.0005109920166432858,0.016687380149960518
0.01968792825937271,0.0024762465618550777,-0.016758842393755913,0.014362017624080181,-0.0005481871776282787,0.016388660296797752
0.020438402891159058,0.002639635931700468,-0.0162681732326746,0.014648957177996635,-0.000512086960952729,0.016884298995137215
0.02002054639160633,0.0027781184762716293,-0.016332345083355904,0.015167323872447014,-0.00046125520020723343,0.017073707655072212
0.019484058022499084,0.0028990493156015873,-0.015262296423316002,0.014683612622320652,-0.00047967443242669106,0.016641581431031227
0.020045604556798935,0.0027250705752521753,-0.015848934650421143,0.014938345178961754,-0.00045788672287017107,0.01680663786828518
0.020260829478502274,0.002743629738688469,-0.015740077942609787,0.01451593916863203,-0.0004232131177559495,0.016751931980252266
0.020181380212306976,0.002600498963147402,-0.016672149300575256,0.014341783709824085,-0.0004533196915872395,0.016937559470534325
0.02009700983762741,0.0024827346205711365,-0.016139434650540352,0.013683464378118515,-0.0004265813040547073,0.01679246500134468
0.020490864291787148,0.0027370338793843985,-0.01616765186190605,0.013796558603644371,-0.0004491219879128039,0.016565419733524323
0.02013997919857502,0.0029449565336108208,-0.016421424224972725,0.014014468528330326,-0.0004291059449315071,0.01730111986398697
0.020171888172626495,0.002969501307234168,-0.015912272036075592,0.014552205801010132,-0.0004053784068673849,0.017295967787504196
0.020821481943130493,0.0028988642152398825,-0.01638127863407135,0.014389339834451675,-0.00039704490336589515,0.017346540465950966
0.020242149010300636,0.0029894644394516945,-0.01592419110238552,0.014171569608151913,-0.0003675709303934127,0.017239198088645935
0.020465390756726265,0.002727392828091979,-0.01612040586769581,0.014167306013405323,-0.00037899237941019237,0.017304696142673492
0.021573349833488464,0.0026323117781430483,-0.01629968360066414,0.014508436433970928,-0.0004093147872481495,0.018655236810445786
0.020894421264529228,0.0027594633866101503,-0.01640976220369339,0.014528227038681507,-0.0003877148556057364,0.017177267000079155
0.0209023579955101,0.0029007482808083296,-0.016077149659395218,0.01458127424120903,-0.00041404025978408754,0.0166644174605608
0.020726576447486877,0.002899262821301818,-0.016316112130880356,0.01446787640452385,-0.00048270748811773956,0.017220022156834602
0.020572785288095474,0.002773719374090433,-0.016074692830443382,0.014384368434548378,-0.0005870513850823045,0.017498059198260307
0.021723559126257896,0.0028453897684812546,-0.01670631766319275,0.014432664029300213,-0.0005552911898121238,0.017492426559329033
0.02128036692738533,0.0028703147545456886,-0.01608908735215664,0.01452494878321886,-0.0005833167233504355,0.017874356359243393
0.02128036692738533,0.0028703147545456886,-0.01608908735215664,0.01452494878321886,-0.0005833167233504355,0.017874356359243393
0.02096233330667019,0.0028682725969702005,-0.0162490326911211,0.014553851447999477,-0.0005758446641266346,0.01804090104997158
0.02117963135242462,0.0027833026833832264,-0.015717975795269012,0.014659537002444267,-0.0005648154765367508,0.017682258039712906
0.021371420472860336,0.002794373780488968,-0.016011618077754974,0.014672525227069855,-0.0006690784939564764,0.018288789317011833
0.02169373258948326,0.0028058888856321573,-0.016717184334993362,0.014614489860832691,-0.0007168219890445471,0.018039625138044357
0.021992169320583344,0.0027999095618724823,-0.016383759677410126,0.014584418386220932,-0.0006600748747587204,0.017498422414064407
0.021853428333997726,0.0026238716673105955,-0.01636412739753723,0.014454361982643604,-0.0006810134509578347,0.017684951424598694
0.0209012683480978,0.0028790689539164305,-0.0158966314047575,0.014871194027364254,-0.000620001635979861,0.01807309314608574
0.021047988906502724,0.0029994428623467684,-0.016453687101602554,0.014827102422714233,-0.0006238465430215001,0.01850138045847416
0.021850232034921646,0.0030272214207798243,-0.015669357031583786,0.0153632378205657,-0.0005908995517529547,0.018445350229740143
0.022331539541482925,0.0027581462636590004,-0.01592765562236309,0.01491502020508051,-0.0005471569020301104,0.017878582701086998
0.022201593965291977,0.0026475596241652966,-0.016756923869252205,0.014710266143083572,-0.0005103221046738327,0.01830347068607807
0.0221982654184103,0.0022129006683826447,-0.016433417797088623,0.014188184402883053,-0.0004753722751047462,0.018373887985944748
0.02216368354856968,0.0018464024178683758,-0.01689154841005802,0.014736686833202839,-0.00043103040661662817,0.018535451963543892
0.022097187116742134,0.0018701513763517141,-0.015761224552989006,0.014455405995249748,-0.0003933850966859609,0.018847854807972908
0.021934807300567627,0.002383927349001169,-0.01688898168504238,0.014632019214332104,-0.00039675142033956945,0.01856049709022045
0.021964002400636673,0.0033186785876750946,-0.0160384438931942,0.014340228401124477,-0.0003993236750829965,0.018233325332403183
0.022418983280658722,0.0029830310959368944,-0.015979604795575142,0.014746015891432762,-0.00037376227555796504,0.01816549152135849
0.02212301269173622,0.0026324421633034945,-0.016578972339630127,0.015245706774294376,-0.0003925702185370028,0.018189452588558197
0.02248360589146614,0.002329236827790737,-0.016714004799723625,0.014691666699945927,-0.0003821425780188292,0.01848697103559971
0.02239166386425495,0.0023224351461976767,-0.016379235312342644,0.014635480009019375,-0.0003899203729815781,0.018807150423526764
0.022928688675165176,0.0027919013518840075,-0.01651628129184246,0.015113278292119503,-0.0004016042221337557,0.019063632935285568
0.023158522322773933,0.002983581041917205,-0.016117651015520096,0.015460589900612831,-0.00037938752211630344,0.018975142389535904
0.022826114669442177,0.002771372441202402,-0.01658748649060726,0.014524553902447224,-0.0004157302319072187,0.018950695171952248
0.02256685122847557,0.0026017739437520504,-0.01737799122929573,0.014995494857430458,-0.00038999170647002757,0.01903008669614792
0.02317115291953087,0.0022930405102670193,-0.017568886280059814,0.014568716287612915,-0.0004203880962450057,0.01905355416238308
0.023138366639614105,0.002438219962641597,-0.01723254844546318,0.01502514723688364,-0.0004393807321321219,0.01896064169704914
0.023065736517310143,0.0027253495063632727,-0.01689007692039013,0.014591717161238194,-0.00042664268403314054,0.018510499969124794
0.02311084233224392,0.00314927170984447,-0.017259029671549797,0.01539619266986847,-0.0005768996197730303,0.018974842503666878
0.02345460280776024,0.002734244102612138,-0.016824623569846153,0.015158204361796379,-0.0006271961610764265,0.019159609451889992
0.023357123136520386,0.0026988626923412085,-0.016527429223060608,0.015079723671078682,-0.0006207230617292225,0.018991611897945404
0.023549159988760948,0.00240943836979568,-0.017274998128414154,0.015147106721997261,-0.0006035754922777414,0.019056495279073715
0.023767556995153427,0.0025810953229665756,-0.017293119803071022,0.015644941478967667,-0.0006112323608249426,0.019423354417085648
0.023767556995153427,0.0025810953229665756,-0.017293119803071022,0.015644941478967667,-0.0006112323608249426,0.019423354417085648
0.024143502116203308,0.00276017258875072,-0.01768837496638298,0.0155176455155015,-0.0005800573853775859,0.019667429849505424
0.023715056478977203,0.0028807087801396847,-0.0172431543469429,0.01512193400412798,-0.0006052186363376677,0.019388748332858086
0.02336590178310871,0.003141433000564575,-0.01656585931777954,0.014921320602297783,-0.0005908133462071419,0.01931609772145748
0.02404523454606533,0.0027171927504241467,-0.017138849943876266,0.014795313589274883,-0.0006162878125905991,0.01962214708328247
0.02455669827759266,0.0027745822444558144,-0.016495516523718834,0.01467681210488081,-0.0005643126205541193,0.01970755308866501
0.024196483194828033,0.0030901816207915545,-0.017412731423974037,0.014924929477274418,-0.0005907228332944214,0.019823508337140083
0.02442459762096405,0.003161113476380706,-0.0175849050283432,0.01554806251078844,-0.0005448106094263494,0.02020607516169548
0.023764250800013542,0.0030508108902722597,-0.017160536721348763,0.015417230315506458,-0.0005543255829252303,0.0201500803232193
0.024455221369862556,0.0027149487286806107,-0.01754147559404373,0.015520351938903332,-0.0005298497271724045,0.01980634219944477
0.024830371141433716,0.002643762854859233,-0.016647547483444214,0.014817781746387482,-0.0005310349515639246,0.019920140504837036
0.02477129176259041,0.003083971096202731,-0.016941232606768608,0.015283117070794106,-0.000535700237378478,0.02011716552078724
0.024846430867910385,0.00310914171859622,-0.016851801425218582,0.014855566434562206,-0.0005692068953067064,0.02068648859858513
0.024183053523302078,0.0029952526092529297,-0.017237935215234756,0.015428652055561543,-0.0005986865144222975,0.020856061950325966
0.023772116750478745,0.0029404053930193186,-0.01790298894047737,0.01475252490490675,-0.0005919214454479516,0.020689472556114197
0.024325132369995117,0.0031860375311225653,-0.016724279150366783,0.015108826570212841,-0.0009113356354646385,0.019614608958363533
0.024359170347452164,0.003566602012142539,-0.01730719581246376,0.015720058232545853,-0.0008364303503185511,0.019826626405119896
0.024631183594465256,0.003272390691563487,-0.017427431419491768,0.014393164776265621,-0.0007627929444424808,0.020293697714805603
0.025699660181999207,0.0029622011352330446,-0.017347170040011406,0.01506633311510086,-0.0007530111470259726,0.021052062511444092
0.025457240641117096,0.0029334414284676313,-0.016740014776587486,0.015288149937987328,-0.0007015052833594382,0.020821018144488335
0.024718469008803368,0.002934721764177084,-0.017618708312511444,0.015564769506454468,-0.0006456248229369521,0.020767532289028168
0.02464374713599682,0.0033671671990305185,-0.017506694421172142,0.016035879030823708,-0.0005688831442967057,0.020833000540733337
0.024723634123802185,0.003269416745752096,-0.017275767400860786,0.01599479466676712,-0.0005536844837479293,0.021337216719985008
0.024491097778081894,0.0034393887035548687,-0.01759122684597969,0.01621030829846859,-0.000541555171366781,0.021024642512202263
0.02515643648803234,0.0031444616615772247,-0.01665937341749668,0.015502138994634151,-0.0005551373469643295,0.020647060126066208
0.025674616917967796,0.0032700279261916876,-0.017242973670363426,0.015879053622484207,-0.0005274679278954864,0.020179424434900284
0.025674616917967796,0.0032700279261916876,-0.017242973670363426,0.015879053622484207,-0.0005274679278954864,0.020179424434900284
0.02545061707496643,0.0033047981560230255,-0.017355863004922867,0.015707632526755333,-0.0005390007281675935,0.021267319098114967
0.025132300332188606,0.003278951160609722,-0.01726257987320423,0.01508872676640749,-0.0004834172723349184,0.020546013489365578
0.025132300332188606,0.003278951160609722,-0.01726257987320423,0.01508872676640749,-0.0004834172723349184,0.020546013489365578
0.02511150762438774,0.0031250272877514362,-0.01663677953183651,0.015646668151021004,-0.0004991973401047289,0.0209692120552063
0.025159139186143875,0.0034125340171158314,-0.01741929166018963,0.015324288047850132,-0.00045341262011788785,0.021455109119415283
0.025249850004911423,0.0032206308096647263,-0.01680862158536911,0.015531372278928757,-0.00045190699165686965,0.021115576848387718
0.025432948023080826,0.0036333107855170965,-0.016802269965410233,0.01532669086009264,-0.00045025910367257893,0.020789090543985367
0.0251785758882761,0.003625648096203804,-0.0172159131616354,0.015394220128655434,-0.00046890522935427725,0.020957771688699722
0.02570441924035549,0.0030042852740734816,-0.017002351582050323,0.01515036541968584,-0.0004826957010664046,0.021408936008810997
0.025560609996318817,0.0029319615568965673,-0.017339201644062996,0.015879420563578606,-0.0004802671610377729,0.021545128896832466
0.02522166818380356,0.0033705411478877068,-0.017078697681427002,0.015122462995350361,-0.0005576736875809729,0.02116255648434162
0.025537759065628052,0.0036933906376361847,-0.017487064003944397,0.014971463941037655,-0.0005996919353492558,0.021353643387556076
0.025307219475507736,0.0037917860317975283,-0.017382388934493065,0.015440442599356174,-0.0005514614749699831,0.02156594954431057
0.02533239684998989,0.0032929731532931328,-0.016672693192958832,0.015133529901504517,-0.0005010839668102562,0.021969106048345566
0.026391074061393738,0.0033122911117970943,-0.017535317689180374,0.015360862948000431,-0.0005244194762781262,0.02214534394443035
0.026066284626722336,0.003490614937618375,-0.01821323111653328,0.01487234327942133,-0.0005264842766337097,0.022439535707235336
0.025809500366449356,0.0034805014729499817,-0.018430126830935478,0.015485062263906002,-0.0005201513413339853,0.022241346538066864
0.02558428980410099,0.0039983331225812435,-0.017826486378908157,0.015624976716935635,-0.0005179379368200898,0.021623414009809494
0.026179267093539238,0.0037248795852065086,-0.018423166126012802,0.015136263333261013,-0.0005502758431248367,0.021796708926558495
0.027154725044965744,0.003543814877048135,-0.018806999549269676,0.015230805613100529,-0.0005096229142509401,0.02184504270553589
0.02632230892777443,0.0034551171120256186,-0.017773786559700966,0.014596134424209595,-0.0005333005101419985,0.02239612117409706
0.02680405043065548,0.0035815213341265917,-0.01819448731839657,0.014921767637133598,-0.0005000981618650258,0.022149335592985153
0.025385240092873573,0.0037302167620509863,-0.018412280827760696,0.015482272021472454,-0.0005210564122535288,0.021838221698999405
0.025981176644563675,0.003978492226451635,-0.018408704549074173,0.015456567518413067,-0.0004952463204972446,0.02221854217350483
0.026841413229703903,0.003931054379791021,-0.018405800685286522,0.015784379094839096,-0.0005637267604470253,0.022491369396448135
0.026188788935542107,0.003727567382156849,-0.018006714060902596,0.015563923865556717,-0.0005085511947982013,0.02232605777680874
0.026513373479247093,0.00363381439819932,-0.01845666952431202,0.01609516330063343,-0.0005241965409368277,0.022143909707665443
0.02765749953687191,0.0036891482304781675,-0.018949439749121666,0.015629081055521965,-0.00053660839330405,0.022056320682168007
0.02765749953687191,0.0036891482304781675,-0.018949439749121666,0.015629081055521965,-0.00053660839330405,0.022056320682168007
0.027592994272708893,0.0037446636706590652,-0.01826927252113819,0.01562713086605072,-0.0005658905138261616,0.02223122864961624
0.027550892904400826,0.0037474301643669605,-0.01827351003885269,0.015184742398560047,-0.0005579149001277983,0.02269001677632332
0.02657882310450077,0.003726077498868108,-0.018667761236429214,0.015950115397572517,-0.0006332432967610657,0.022763853892683983
0.0267676692456007,0.003641376970335841,-0.017442570999264717,0.015749307349324226,-0.0006776964874006808,0.02306068129837513
0.027379687875509262,0.003496157471090555,-0.017889833077788353,0.016213463619351387,-0.0007522345404140651,0.023036429658532143
0.027940338477492332,0.0033410934265702963,-0.0180735532194376,0.016076602041721344,-0.00073539576260373,0.022803641855716705
0.02755553461611271,0.003462891560047865,-0.017729584127664566,0.015955030918121338,-0.0010638248641043901,0.022919276729226112
0.02745162323117256,0.0032387971878051758,-0.01870144158601761,0.016062142327427864,-0.001055204658769071,0.022832440212368965
0.027323251590132713,0.003445576410740614,-0.017812950536608696,0.016318298876285553,-0.0009362843702547252,0.022827357053756714
0.027476154267787933,0.0036235216539353132,-0.01791662536561489,0.016945134848356247,-0.0008170577348209918,0.02287980355322361
0.02771751396358013,0.0036561901215463877,-0.017752477899193764,0.016567125916481018,-0.000811917008832097,0.022986751049757004
0.0261159036308527,0.0036167476791888475,-0.01768784038722515,0.016536889597773552,-0.0007403330528177321,0.0222484078258276
0.0284342709928751,0.0036988069768995047,-0.018281886354088783,0.015872299671173096,-0.0006719366065226495,0.022586453706026077
0.02833091840147972,0.0037751749623566866,-0.018093962222337723,0.016038212925195694,-0.0006145702209323645,0.023492194712162018
0.028212301433086395,0.003433480393141508,-0.01830025389790535,0.015896866098046303,-0.0004515993350651115,0.02293369360268116
0.027854682877659798,0.0036187325604259968,-0.01809632033109665,0.0163298137485981,-0.0004495778412092477,0.022246945649385452
0.02820548228919506,0.003855455666780472,-0.017968209460377693,0.016502749174833298,-0.0004480881616473198,0.0230797678232193
0.028346378356218338,0.0033896223176270723,-0.018099047243595123,0.0170009583234787,-0.0004757382266689092,0.024369768798351288
0.02891889400780201,0.003144086105749011,-0.017895540222525597,0.016604304313659668,-0.0004500439390540123,0.023923605680465698
0.028733715415000916,0.0032863724045455456,-0.018434079363942146,0.016545288264751434,-0.0004724407335743308,0.02394288219511509
0.028898319229483604,0.0032648907508701086,-0.01792997494339943,0.016093401238322258,-0.0004533772589638829,0.024510525166988373
0.029312869533896446,0.0035498503129929304,-0.017890088260173798,0.016027934849262238,-0.0005205116467550397,0.02536771260201931
0.028794141486287117,0.003696485422551632,-0.018248755484819412,0.016677936539053917,-0.0005550902569666505,0.024175625294446945
0.029222959652543068,0.0037644044496119022,-0.017863556742668152,0.01629967987537384,-0.0005765584064647555,0.023068154230713844
0.02963927946984768,0.0033829689491540194,-0.017825530841946602,0.016563741490244865,-0.0005466131842695177,0.022881655022501945
0.029909860342741013,0.0035140083637088537,-0.017916519194841385,0.01612556353211403,-0.0005570141365751624,0.023876378312706947
0.029981084167957306,0.0037011150270700455,-0.01765074022114277,0.016585344448685646,-0.0005322923534549773,0.024829883128404617
0.02974228747189045,0.003805997548624873,-0.0185377299785614,0.016314037144184113,-0.0006004986935295165,0.02475913241505623
0.02974228747189045,0.003805997548624873,-0.0185377299785614,0.016314037144184113,-0.0006004986935295165,0.02475913241505623
0.030201928690075874,0.003897072048857808,-0.018438437953591347,0.01569836400449276,-0.0006438246346078813,0.024741418659687042
0.030834225937724113,0.003972675651311874,-0.017818370833992958,0.0160879734903574,-0.0006858592969365418,0.024364689365029335
0.030143657699227333,0.003966675139963627,-0.018142012879252434,0.015948312357068062,-0.000696572766173631,0.024207478389143944
0.030406109988689423,0.003975476138293743,-0.01792716048657894,0.016663627699017525,-0.000895971548743546,0.024454791098833084
0.03136514127254486,0.0039670225232839584,-0.01824176125228405,0.016906417906284332,-0.0009376108646392822,0.02441508136689663
0.03181023150682449,0.003983779344707727,-0.018628934398293495,0.015836898237466812,-0.0008998714038170874,0.02497602254152298
0.029162492603063583,0.004025053698569536,-0.018001539632678032,0.015682771801948547,-0.0008402939420193434,0.0250827856361866
0.030412133783102036,0.003925960976630449,-0.0180678553879261,0.016406895592808723,-0.0008433116599917412,0.02458144724369049
0.031595759093761444,0.0042276219464838505,-0.018734460696578026,0.01631471887230873,-0.0007607787847518921,0.024667220190167427
0.031043028458952904,0.004262823611497879,-0.018139904364943504,0.01605254039168358,-0.0006883770111016929,0.024900861084461212
0.031170113012194633,0.004106254782527685,-0.018580066040158272,0.01631544716656208,-0.0006314569036476314,0.024660922586917877
0.032011162489652634,0.0035282291937619448,-0.01790141500532627,0.01610148698091507,-0.0005468099843710661,0.024969488382339478
0.0314849428832531,0.0035776784643530846,-0.01833810657262802,0.016238432377576828,-0.0005337760085240006,0.024938035756349564
0.030779680237174034,0.0036754035390913486,-0.019071590155363083,0.015931982547044754,-0.0005239037564024329,0.02499556727707386
0.03200973942875862,0.00367155228741467,-0.018839119002223015,0.016263015568256378,-0.0005092548672109842,0.02519872784614563
0.032161399722099304,0.003709507407620549,-0.019050760194659233,0.015977412462234497,-0.0004752797249238938,0.02489643730223179
0.03227298706769943,0.0037336989771574736,-0.018637094646692276,0.016359372064471245,-0.0005009246524423361,0.025079265236854553
0.03174189478158951,0.00381041900254786,-0.018483569845557213,0.01599455252289772,-0.00047192530473694205,0.02484479546546936
0.031625617295503616,0.003442459972575307,-0.0190473310649395,0.01600518822669983,-0.0004431177512742579,0.02534346841275692
0.03180649131536484,0.0034140862990170717,-0.01905481331050396,0.015835244208574295,-0.0004345999623183161,0.026013223454356194
0.03193126246333122,0.0035918266512453556,-0.019505785778164864,0.016341598704457283,-0.00041323035839013755,0.026222987100481987
0.03166742995381355,0.004267232026904821,-0.0193338580429554,0.016274189576506615,-0.00037956060259602964,0.025467094033956528
0.03153620660305023,0.004027749411761761,-0.01844176836311817,0.01637936197221279,-0.0004104972758796066,0.02441934496164322
0.03233979642391205,0.003824659390375018,-0.019444571807980537,0.01639917865395546,-0.0003891355008818209,0.024158185347914696
0.03233979642391205,0.003824659390375018,-0.019444571807980537,0.01639917865395546,-0.0003891355008818209,0.024158185347914696
0.03215876221656799,0.00417740922421217,-0.019536092877388,0.016555020585656166,-0.0004246524185873568,0.025971680879592896
0.03215876221656799,0.00417740922421217,-0.019536092877388,0.016555020585656166,-0.0004246524185873568,0.025971680879592896
0.03268029913306236,0.0039475760422647,-0.01900462433695793,0.01635383628308773,-0.00042521790601313114,0.026100605726242065
0.03229584917426109,0.003861836390569806,-0.0195112656801939,0.016885798424482346,-0.0005111995269544423,0.026138510555028915
0.03114313632249832,0.004193449858576059,-0.019201770424842834,0.01672421582043171,-0.0005400218069553375,0.02625710889697075
0.03286539390683174,0.004281310830265284,-0.019582228735089302,0.016528170555830002,-0.000574885867536068,0.025823378935456276
0.033863671123981476,0.0040754033252596855,-0.019325250759720802,0.01648898236453533,-0.0005650388775393367,0.0254658330231905
0.03402594476938248,0.003898855298757553,-0.019058190286159515,0.016405947506427765,-0.0005852169124409556,0.025091491639614105
0.03216816112399101,0.0038448453415185213,-0.019566800445318222,0.017172953113913536,-0.0006849133060313761,0.025447120890021324
0.03233778476715088,0.003813187126070261,-0.01991451345384121,0.01743539422750473,-0.0008103058207780123,0.026530444622039795
0.03366929292678833,0.004088730551302433,-0.01977739855647087,0.017672156915068626,-0.0008450021268799901,0.026706065982580185
0.03339727222919464,0.0041327630169689655,-0.0194749366492033,0.0176303219050169,-0.0008531265775673091,0.02635410986840725
0.033106960356235504,0.004327930510044098,-0.01975899562239647,0.017173614352941513,-0.0009122674819082022,0.026254964992403984
0.03365863114595413,0.0040057143196463585,-0.01979135535657406,0.017479881644248962,-0.0008738074684515595,0.026474740356206894
0.03277971222996712,0.004217459820210934,-0.019798336550593376,0.01784299686551094,-0.0008786100661382079,0.026910588145256042
0.0325724259018898,0.003950411453843117,-0.020081663504242897,0.01795075833797455,-0.0008735501323826611,0.026781847700476646
0.0329110324382782,0.004313888028264046,-0.019441287964582443,0.017494792118668556,-0.0007908962434157729,0.026979081332683563
0.0331495925784111,0.004161190241575241,-0.01958424784243107,0.017677538096904755,-0.0007410867256112397,0.026627257466316223
0.033395878970623016,0.004285862669348717,-0.02015010640025139,0.01749557815492153,-0.0007044499507173896,0.026704560965299606
0.03364218771457672,0.004513886757194996,-0.019762810319662094,0.017535414546728134,-0.0006713045295327902,0.026630189269781113
0.03329942375421524,0.0042081670835614204,-0.020268185064196587,0.017948554828763008,-0.000686135608702898,0.027842668816447258
0.033605534583330154,0.004431452602148056,-0.02026394009590149,0.01703263446688652,-0.0006727057043462992,0.02650289237499237
0.03332775458693504,0.004592769779264927,-0.019617965444922447,0.017634760588407516,-0.0006516663706861436,0.02631799690425396
0.033447265625,0.004273012280464172,-0.019608085975050926,0.017162717878818512,-0.0006627312977798283,0.02668815478682518
0.033731285482645035,0.004042848479002714,-0.020171979442238808,0.016866430640220642,-0.0006897839484736323,0.02691110037267208
0.03425733000040054,0.0042077419348061085,-0.020292311906814575,0.01686428301036358,-0.0007003783248364925,0.027314240112900734
0.03458992391824722,0.004467303864657879,-0.01999751664698124,0.01683780923485756,-0.0006520180031657219,0.027558308094739914
0.03458992391824722,0.004467303864657879,-0.01999751664698124,0.01683780923485756,-0.0006520180031657219,0.027558308094739914
0.03357500210404396,0.0042232125997543335,-0.020207928493618965,0.018041260540485382,-0.0006541447364725173,0.027407843619585037
0.03421516343951225,0.004501552786678076,-0.020145639777183533,0.017948564141988754,-0.0006172488792799413,0.02705894596874714
0.03428681939840317,0.0041686780750751495,-0.019557878375053406,0.017606990411877632,-0.0006216702749952674,0.027105923742055893
0.03410709649324417,0.00401541730388999,-0.020374709740281105,0.017669830471277237,-0.0005939205875620246,0.027071915566921234
0.03437158465385437,0.0040640924125909805,-0.02082103304564953,0.017461227253079414,-0.0006255204789340496,0.026898100972175598
0.034644827246665955,0.0040333508513867855,-0.020001428201794624,0.01812373474240303,-0.0006476795533671975,0.026944216340780258
0.03424970805644989,0.004453723318874836,-0.02014118991792202,0.01790524087846279,-0.0006601633504033089,0.02721206657588482
0.03486702963709831,0.0044960742816329,-0.020665770396590233,0.0175932589918375,-0.0006263856776058674,0.027043411508202553
0.03514900431036949,0.004726522136479616,-0.02077750489115715,0.01765304245054722,-0.0007303665624931455,0.026839548721909523
0.035408250987529755,0.004724137485027313,-0.020312493667006493,0.016363635659217834,-0.0007495976169593632,0.02721792459487915
0.03510674089193344,0.00423719035461545,-0.020651215687394142,0.017163490876555443,-0.0006718627410009503,0.02779315412044525
0.03516578674316406,0.004447026178240776,-0.020746329799294472,0.016459966078400612,-0.0005983035080134869,0.02821401134133339
0.03507552668452263,0.004650580231100321,-0.020076105371117592,0.01695011928677559,-0.000621856190264225,0.02813384123146534
0.03528117015957832,0.004729805048555136,-0.020764194428920746,0.01712612621486187,-0.0005999068962410092,0.02688538283109665
0.03625224530696869,0.004749407060444355,-0.02093096822500229,0.01704449951648712,-0.0005693164421245456,0.027551624923944473
0.03605122119188309,0.004626796580851078,-0.02059216983616352,0.01731041446328163,-0.0005820380174554884,0.028114477172493935
0.034452151507139206,0.0044625019654631615,-0.021007735282182693,0.017594149336218834,-0.0005460286047309637,0.02804667316377163
0.035723987966775894,0.004609875380992889,-0.020820165053009987,0.017970724031329155,-0.0005741243367083371,0.029191667214035988
0.03536779433488846,0.004750455264002085,-0.01991710066795349,0.01772424392402172,-0.0006013017264194787,0.02896946668624878
0.03536779433488846,0.004750455264002085,-0.01991710066795349,0.01772424392402172,-0.0006013017264194787,0.02896946668624878
0.036044444888830185,0.004745339509099722,-0.020441614091396332,0.018063200637698174,-0.000733600405510515,0.02746959775686264
0.03700952231884003,0.0051580616272985935,-0.022495055571198463,0.01780080981552601,-0.0007771559176035225,0.027641694992780685
0.0361141636967659,0.004948512651026249,-0.02112475037574768,0.017448395490646362,-0.0007940417272038758,0.028549034148454666
0.03510596603155136,0.00462996494024992,-0.01972859911620617,0.01769152283668518,-0.0008060560212470591,0.02916863188147545
0.03545109182596207,0.004586191847920418,-0.02097555622458458,0.01831722818315029,-0.000939203251618892,0.02896728180348873
0.03679436445236206,0.004674333147704601,-0.021764976903796196,0.01798156648874283,-0.0009562348714098334,0.028511883690953255
0.0356307327747345,0.0047096675261855125,-0.02145717665553093,0.018080193549394608,-0.0009216545149683952,0.028761809691786766
0.03674658387899399,0.005192476324737072,-0.019906355068087578,0.018259510397911072,-0.0008306647650897503,0.028666293248534203
0.03651045262813568,0.004935590550303459,-0.021357057616114616,0.01843755692243576,-0.0007858304888941348,0.028812211006879807
0.036082882434129715,0.004666694439947605,-0.02139345183968544,0.018117159605026245,-0.0007631461485289037,0.028725842013955116
0.03660986199975014,0.004471113905310631,-0.0200834721326828,0.01752203330397606,-0.0007729855133220553,0.02877730131149292
0.03640998527407646,0.004716038703918457,-0.020593969151377678,0.017910460010170937,-0.0008604678441770375,0.029018063098192215
0.036320097744464874,0.0052102310582995415,-0.02130134031176567,0.017396830022335052,-0.0011103703873232007,0.02879062481224537
0.036805037409067154,0.005055191460996866,-0.020653899759054184,0.01728758215904236,-0.0012666549300774932,0.02890666574239731
0.03678201511502266,0.0049501946195960045,-0.020603567361831665,0.01806989125907421,-0.001078040455467999,0.028994815424084663
0.03642920404672623,0.0046951486729085445,-0.020898006856441498,0.01816791296005249,-0.0010400217724964023,0.02912028692662716
0.03644764423370361,0.0046224226243793964,-0.02114219404757023,0.018762236461043358,-0.0009614618611522019,0.02908090129494667
0.03802653029561043,0.0046262252144515514,-0.020612036809325218,0.018417196348309517,-0.0008961625280790031,0.02925083041191101
0.035659465938806534,0.005092906299978495,-0.020915357396006584,0.01737106591463089,-0.0007319109281525016,0.0293454360216856
0.037113845348358154,0.005341163836419582,-0.02090270444750786,0.017185639590024948,-0.0006686398410238326,0.029320476576685905
0.036994051188230515,0.0051007200963795185,-0.020143939182162285,0.017783498391509056,-0.0006885843467898667,0.029237400740385056
0.037413645535707474,0.004829164128750563,-0.02057148702442646,0.018292836844921112,-0.0006916431593708694,0.029073281213641167
0.038231462240219116,0.004551622085273266,-0.020993808284401894,0.018250640481710434,-0.0007260786951519549,0.029396090656518936
0.03832727670669556,0.004808870144188404,-0.020700646564364433,0.018035784363746643,-0.0007599083473905921,0.030498405918478966
0.03832727670669556,0.004808870144188404,-0.020700646564364433,0.018035784363746643,-0.0007599083473905921,0.030498405918478966
0.03557677939534187,0.005390907172113657,-0.020622432231903076,0.017818080261349678,-0.0007793784025125206,0.030189726501703262
0.0373353436589241,0.005103353410959244,-0.02083577588200569,0.017480507493019104,-0.0007938270573504269,0.029013091698288918
0.03859373554587364,0.00487747834995389,-0.020766843110322952,0.018497372046113014,-0.0007593468180857599,0.028557943180203438
0.03718598559498787,0.0048395609483122826,-0.020181993022561073,0.018356991931796074,-0.0008572083315812051,0.029632285237312317
0.03756508231163025,0.00479466188699007,-0.02062327228486538,0.018052374944090843,-0.0007448039832524955,0.029405824840068817
0.037546172738075256,0.004702042322605848,-0.02071785181760788,0.018460452556610107,-0.0007587803993374109,0.029364127665758133
0.03778541833162308,0.005361013114452362,-0.020188137888908386,0.017778828740119934,-0.0007535798940807581,0.0306245069950819
0.03788089007139206,0.0053541287779808044,-0.020257718861103058,0.018033931031823158,-0.0007683428120799363,0.03000486269593239
0.03804202005267143,0.004769147839397192,-0.020861422643065453,0.01823992095887661,-0.0007158443913795054,0.029799053445458412
0.037807025015354156,0.004843487869948149,-0.020769959315657616,0.01787700317800045,-0.0006697633070871234,0.029301229864358902
0.037583619356155396,0.004759830888360739,-0.01984727941453457,0.018849870190024376,-0.0005915779620409012,0.029599925503134727
0.038459412753582,0.0048461174592375755,-0.020250720903277397,0.01839824952185154,-0.0006202273652888834,0.031077951192855835
0.038709115236997604,0.004666051361709833,-0.020615622401237488,0.01807170733809471,-0.0006939660524949431,0.030936358496546745
0.03829636424779892,0.005442323628813028,-0.020100649446249008,0.01844245009124279,-0.0006781543488614261,0.03017623908817768
0.03781710937619209,0.005147695541381836,-0.02008293941617012,0.01795627363026142,-0.0008898655069060624,0.030321961268782616
0.03707760199904442,0.004775754176080227,-0.020330093801021576,0.01818409375846386,-0.0009032226516865194,0.030343614518642426
0.03930968791246414,0.004895543679594994,-0.02049652487039566,0.018367420881986618,-0.0008457422372885048,0.03046591207385063
0.03941887989640236,0.0047893100418150425,-0.02041872963309288,0.01802835613489151,-0.0008004544069990516,0.030818874016404152
0.03886006772518158,0.0047028036788105965,-0.020839747041463852,0.018462497740983963,-0.0007617021328769624,0.030901852995157242
0.03856278583407402,0.004945509601384401,-0.020120294764637947,0.017611104995012283,-0.0007534004980698228,0.03073951043188572
0.039024196565151215,0.0047913710586726665,-0.02025844343006611,0.018013162538409233,-0.0007723283488303423,0.03092159889638424
0.03893791884183884,0.004736689850687981,-0.021029656752943993,0.018487224355340004,-0.0007614273345097899,0.03092097118496895
0.03886612132191658,0.004434645641595125,-0.020509731024503708,0.018352949991822243,-0.0007298224372789264,0.031141430139541626
0.03902210667729378,0.004398265853524208,-0.020617112517356873,0.01849764585494995,-0.0008297724998556077,0.030722135677933693
0.03825591877102852,0.0047345831990242004,-0.02066185139119625,0.018599651753902435,-0.0008490810287185013,0.030724311247467995
0.040322694927453995,0.005257831886410713,-0.020809482783079147,0.01872316747903824,-0.0008403647225350142,0.03138960152864456
0.039829131215810776,0.004663920029997826,-0.020774124190211296,0.01854785531759262,-0.000846654234919697,0.03125026449561119
0.039829131215810776,0.004663920029997826,-0.020774124190211296,0.01854785531759262,-0.000846654234919697,0.03125026449561119
0.03785384073853493,0.004596169572323561,-0.02108057402074337,0.017936091870069504,-0.0009189937263727188,0.03138798847794533
0.03854391723871231,0.004927461035549641,-0.02092149667441845,0.01879747398197651,-0.0009590089321136475,0.031441036611795425
0.03860055282711983,0.004946285858750343,-0.021110549569129944,0.018642697483301163,-0.0010180067038163543,0.031696073710918427
0.03958285599946976,0.004600441548973322,-0.020174318924546242,0.01829960010945797,-0.0011328082764521241,0.03080827370285988
0.04022695869207382,0.004966083914041519,-0.02054692804813385,0.018389664590358734,-0.0012283402029424906,0.03162769973278046
0.03902588039636612,0.005268724635243416,-0.02090371400117874,0.018162516877055168,-0.001152766402810812,0.03155859187245369
0.038095973432064056,0.0046057384461164474,-0.02143031544983387,0.018450239673256874,-0.0011112912325188518,0.03242919594049454
0.039888106286525726,0.004436728544533253,-0.02091219834983349,0.018761450424790382,-0.0009972926927730441,0.032798852771520615
0.03958606347441673,0.0047030881978571415,-0.02095976285636425,0.01840778812766075,-0.0008691096445545554,0.03177761286497116
0.03989686444401741,0.004727561958134174,-0.02098749205470085,0.01885158009827137,-0.0008563443552702665,0.030804216861724854
0.039454758167266846,0.004727242048829794,-0.020821677520871162,0.018915707245469093,-0.000844832684379071,0.030700966715812683
0.039336297661066055,0.004616518970578909,-0.020676353946328163,0.018565496429800987,-0.00077018141746521,0.03212574124336243
0.04005849361419678,0.004672173410654068,-0.021138295531272888,0.018567470833659172,-0.0007789185037836432,0.03174488991498947
0.03964095190167427,0.004810845945030451,-0.021366408094763756,0.018968544900417328,-0.0007505014655180275,0.032909151166677475
0.04007365554571152,0.004800231661647558,-0.02100515179336071,0.01872958056628704,-0.0007222702261060476,0.03250189498066902
0.03987814486026764,0.004364906344562769,-0.02105117030441761,0.01888306252658367,-0.0007418220047838986,0.03175070881843567
0.03935457393527031,0.004317328333854675,-0.021189307793974876,0.019831210374832153,-0.0007596557261422276,0.030773933976888657
0.04093394801020622,0.0045172953978180885,-0.0211802925914526,0.018866445869207382,-0.0008520247647538781,0.03152613714337349
0.0407208688557148,0.004528537392616272,-0.02117324061691761,0.01950347051024437,-0.0010386935900896788,0.0327264703810215
0.03989642113447189,0.004460671916604042,-0.021274108439683914,0.019385963678359985,-0.0009640853386372328,0.03244180604815483
0.03964618965983391,0.00458584725856781,-0.02116983011364937,0.019573211669921875,-0.0010187451262027025,0.03240120783448219
0.04060802981257439,0.00452420674264431,-0.021263448521494865,0.01896706037223339,-0.000880769279319793,0.0317060723900795
0.04104165732860565,0.004540079273283482,-0.021880052983760834,0.018764793872833252,-0.0008758809417486191,0.03208085149526596
0.03920179232954979,0.004692083224654198,-0.02235078252851963,0.01920071430504322,-0.0008533353102393448,0.03236072510480881
0.039209358394145966,0.005186290945857763,-0.022644372656941414,0.019384069368243217,-0.0008574381936341524,0.03273114934563637
0.039209358394145966,0.005186290945857763,-0.022644372656941414,0.019384069368243217,-0.0008574381936341524,0.03273114934563637
0.04087880998849869,0.005448156502097845,-0.02205934375524521,0.01930234581232071,-0.0007922674412839115,0.03268079087138176
0.04110660031437874,0.00497188325971365,-0.021765587851405144,0.019879916682839394,-0.0006937411380931735,0.03298602253198624
0.0405380055308342,0.0049708131700754166,-0.022158365696668625,0.019793737679719925,-0.0006596425664611161,0.03326806053519249
0.04089725762605667,0.004863840062171221,-0.022369472309947014,0.018992573022842407,-0.0006331644835881889,0.031957097351551056
0.04081268236041069,0.004820900969207287,-0.02215309627354145,0.0189944040030241,-0.0006512856925837696,0.032985858619213104
0.041137389838695526,0.0047114272601902485,-0.02221655286848545,0.01920587383210659,-0.0006743837730027735,0.03383368253707886
0.04081999883055687,0.0049378527328372,-0.022509483620524406,0.018675023689866066,-0.0006939227459952235,0.033001434057950974
0.04085548222064972,0.005046561360359192,-0.02264259196817875,0.018565135076642036,-0.000721145246643573,0.03341902419924736
0.04145866259932518,0.004948464222252369,-0.022288378328084946,0.01859503984451294,-0.0006888586794957519,0.03357747942209244
0.04175223782658577,0.005299604032188654,-0.022154491394758224,0.018815556541085243,-0.0006889692740514874,0.0336562804877758
0.041458260267972946,0.004968448542058468,-0.022887786850333214,0.019670842215418816,-0.000641829683445394,0.03265272080898285
0.041538968682289124,0.004505634307861328,-0.02311781607568264,0.019545624032616615,-0.0006556333974003792,0.03379242122173309
0.04223982244729996,0.005017450079321861,-0.02264486439526081,0.018713485449552536,-0.0006855924730189145,0.03507198020815849
0.04224821925163269,0.005470136646181345,-0.02212315797805786,0.018799427896738052,-0.0007116843480616808,0.03437364846467972
0.04199155792593956,0.0050247968174517155,-0.022596923634409904,0.019037723541259766,-0.0007486959802918136,0.03276332840323448
0.04240163043141365,0.005035447422415018,-0.022749952971935272,0.018778715282678604,-0.0007660632254555821,0.033646922558546066
0.04215126112103462,0.005341277923434973,-0.023310476914048195,0.019587866961956024,-0.0008545877644792199,0.034022290259599686
0.042367905378341675,0.0049418555572628975,-0.02326234057545662,0.019981464371085167,-0.0009660400683060288,0.034568119794130325
0.04250527545809746,0.004934688098728657,-0.022793952375650406,0.01940288580954075,-0.0009625428938306868,0.03563891723752022
0.04222091659903526,0.0047304667532444,-0.022594736889004707,0.02031354419887066,-0.001073900144547224,0.033603962510824203
0.04317338019609451,0.0051730964332818985,-0.023291215300559998,0.020454803481698036,-0.001064693322405219,0.03381442278623581
0.0428457036614418,0.005605165846645832,-0.02336863987147808,0.02006201446056366,-0.0010385516798123717,0.03528052568435669
0.04292278364300728,0.004806592594832182,-0.022413652390241623,0.020167995244264603,-0.0010097883641719818,0.03437402844429016
0.04409022256731987,0.004867279436439276,-0.023258758708834648,0.019628455862402916,-0.0009755785576999187,0.034829530864953995
0.04409022256731987,0.004867279436439276,-0.023258758708834648,0.019628455862402916,-0.0009755785576999187,0.034829530864953995
0.043214429169893265,0.005522383842617273,-0.024164758622646332,0.019506601616740227,-0.000968871230725199,0.03519880771636963
0.04149811342358589,0.005342255346477032,-0.023626355454325676,0.01982802525162697,-0.0009584976942278445,0.03484991192817688
