davideferrari95/blind_handover_controller/data/Test 203 - [2024-02-08 -- 11-59-26]/joint_states_data.csv
shoulder_pan_joint,shoulder_lift_joint,elbow_joint,wrist_1_joint,wrist_2_joint,wrist_3_joint
0.004037011880427599,0.01160366926342249,-0.01596428081393242,0.0068891593255102634,-0.0,0.005507812835276127
0.004037011880427599,0.01160366926342249,-0.01596428081393242,0.0068891593255102634,-0.0,0.005507812835276127
0.004301395267248154,0.011118999682366848,-0.01624141074717045,0.0066593061201274395,-0.0,0.005766927730292082
0.004251011647284031,0.01083527784794569,-0.01568983495235443,0.006419504061341286,-0.0,0.005397030618041754
0.004502752795815468,0.010885250754654408,-0.016129521653056145,0.0054731532000005245,-0.0,0.0051009561866521835
0.004233737010508776,0.010411694645881653,-0.01557424757629633,0.004976488649845123,-0.0,0.004938109777867794
0.0042756847105920315,0.010791366919875145,-0.015806421637535095,0.00538489269092679,-0.0,0.004955519922077656
0.004565419163554907,0.010194077156484127,-0.015680287033319473,0.005230988375842571,-0.0,0.005211899988353252
0.004198315553367138,0.010546541772782803,-0.016021428629755974,0.005194518715143204,-0.0,0.005015001632273197
0.004337228834629059,0.011044790036976337,-0.016243381425738335,0.005064781289547682,-0.0,0.005077596753835678
0.004664624575525522,0.011049874126911163,-0.015591139905154705,0.005694232881069183,-0.0,0.004955291748046875
0.00451662065461278,0.011421122588217258,-0.015547169372439384,0.005495250690728426,-0.0,0.00419933395460248
0.004579881206154823,0.011405806988477707,-0.015789834782481194,0.005343845579773188,-0.0,0.004859082866460085
0.004497517831623554,0.011283758096396923,-0.01593170501291752,0.0052100419998168945,-0.0,0.005700300447642803
0.0046132951974868774,0.010530342347919941,-0.015066777355968952,0.0048932041972875595,-0.0,0.0053653293289244175
0.00466197868809104,0.010583951137959957,-0.015602083876729012,0.0050022052600979805,-0.0,0.004953153431415558
0.004416058771312237,0.01023097988218069,-0.014909467659890652,0.005425885785371065,-0.0,0.004686559550464153
0.004324724897742271,0.010774885304272175,-0.01560857892036438,0.00547564635053277,-0.0,0.004232545383274555
0.004987205378711224,0.01044251024723053,-0.015091653913259506,0.005484048742800951,-0.0,0.004496458452194929
0.004987205378711224,0.01044251024723053,-0.015091653913259506,0.005484048742800951,-0.0,0.004496458452194929
0.004598652012646198,0.010623070411384106,-0.014822187833487988,0.005316453520208597,-0.0,0.005318921525031328
0.004517972934991121,0.0107874171808362,-0.015355177223682404,0.005083263386040926,-0.0,0.005136456340551376
0.004517972934991121,0.0107874171808362,-0.015355177223682404,0.005083263386040926,-0.0,0.005136456340551376
0.004671933129429817,0.010292199440300465,-0.014698991551995277,0.005234327632933855,-0.0,0.004914044868201017
0.0047615603543818,0.011717583052814007,-0.014734144322574139,0.005647037178277969,-0.0,0.004676567390561104
0.0048860348761081696,0.010527567006647587,-0.0149648142978549,0.005527235567569733,-0.0,0.004829768091440201
0.005073230247944593,0.0107156652957201,-0.015175238251686096,0.005204947665333748,-0.0,0.0048630679957568645
0.004986184183508158,0.010053961537778378,-0.014683595858514309,0.005285287741571665,-0.0,0.005309784784913063
0.004567099269479513,0.01039095874875784,-0.014813514426350594,0.005433827172964811,-0.0,0.004857509396970272
0.004572027828544378,0.01052028313279152,-0.014814929105341434,0.0059961010701954365,-0.0,0.004580504260957241
0.004919734783470631,0.010563771240413189,-0.015080532059073448,0.005542279686778784,-0.0,0.004453974310308695
0.004997655749320984,0.011177793145179749,-0.014824559912085533,0.005303109064698219,-0.0,0.004437686409801245
0.004860303830355406,0.0104691656306386,-0.014899712055921555,0.005245215259492397,-0.0,0.0046884105540812016
0.005109383258968592,0.010373733937740326,-0.014385546557605267,0.005125494208186865,-0.0,0.004869435448199511
0.004973486997187138,0.010725106112658978,-0.014716959558427334,0.005667874589562416,-0.0,0.004934929311275482
0.0048252008855342865,0.009997004643082619,-0.01450007501989603,0.005831513088196516,-0.0,0.0046526421792805195
0.0051359981298446655,0.010226026177406311,-0.015106669627130032,0.005698534660041332,-0.0,0.0042972625233232975
0.005073515698313713,0.010577434673905373,-0.014610419981181622,0.005012116394937038,-0.0,0.0045413547195494175
0.004898311570286751,0.010779550299048424,-0.015517610125243664,0.004767400678247213,-0.0,0.005032024346292019
0.005138454493135214,0.01157194934785366,-0.015060543082654476,0.0050458116456866264,-0.0,0.005321449600160122
0.004990285728126764,0.010460840538144112,-0.015570387244224548,0.005251170601695776,-0.0,0.005195011384785175
0.0047563728876411915,0.009879774414002895,-0.014575221575796604,0.00532841682434082,-0.0,0.00476476876065135
0.005012677516788244,0.01062721572816372,-0.014969242736697197,0.004985417239367962,-0.0,0.004263469949364662
0.005121021065860987,0.010327321477234364,-0.014533909037709236,0.004732048604637384,-0.0,0.00443971948698163
0.0051384796388447285,0.010346934199333191,-0.015392626635730267,0.004703037440776825,-0.0,0.004620183724910021
0.004937607795000076,0.011026413179934025,-0.014507029205560684,0.004678171593695879,-0.0,0.004635380115360022
0.004937607795000076,0.011026413179934025,-0.014507029205560684,0.004678171593695879,-0.0,0.004635380115360022
0.004912997595965862,0.010189077816903591,-0.015193556435406208,0.00506048696115613,-0.0,0.00499437702819705
0.0051353746093809605,0.01000326219946146,-0.015116007067263126,0.005571653135120869,-0.0,0.005031196400523186
0.00543147511780262,0.010624897666275501,-0.015262577682733536,0.005247266031801701,-0.0,0.004439186304807663
0.005474090576171875,0.010422141291201115,-0.014728778973221779,0.00444076769053936,-0.0,0.004000815562903881
0.00556481396779418,0.010347486473619938,-0.015190455131232738,0.004420681390911341,-0.0,0.004146023653447628
0.005354410968720913,0.010831048712134361,-0.01538405567407608,0.005135686136782169,-0.0,0.00474200863391161
0.005210788920521736,0.011436805129051208,-0.015161840245127678,0.004964717663824558,-0.0,0.004546022042632103
0.005574001930654049,0.011334079317748547,-0.01522650383412838,0.004793969448655844,-0.0,0.0045118993148207664
0.005578286480158567,0.0103648342192173,-0.015183167532086372,0.0047661978751420975,-0.0,0.004281552508473396
0.005131290759891272,0.010946656577289104,-0.01482430100440979,0.004790955688804388,-0.0,0.0041216653771698475
0.0055291359312832355,0.011895660310983658,-0.014891142956912518,0.004374755080789328,-0.0,0.004790528677403927
0.005340399220585823,0.0095331696793437,-0.014653950929641724,0.004387627821415663,-0.0,0.004449015017598867
0.005084617529064417,0.010363399051129818,-0.015934394672513008,0.005088761914521456,-0.0,0.004356297664344311
0.005328529980033636,0.010234011337161064,-0.015505820512771606,0.005274171940982342,-0.0,0.004198727663606405
0.005304235033690929,0.010276446118950844,-0.0161071065813303,0.0057618035934865475,-0.0,0.004041767213493586
0.005472450517117977,0.010582203976809978,-0.015246434137225151,0.005445654969662428,-0.0,0.004344535525888205
0.005122739356011152,0.010524692013859749,-0.015769129619002342,0.004974013660103083,-0.0,0.0046983687207102776
0.005209437571465969,0.010618808679282665,-0.015085012651979923,0.004834363237023354,-0.0,0.0048039923422038555
0.0055657257325947285,0.010713431052863598,-0.015062972903251648,0.005187094211578369,-0.0,0.0046834154054522514
0.00525575689971447,0.010217396542429924,-0.015382254496216774,0.004824800882488489,-0.0,0.00452674925327301
0.005114891100674868,0.01067633368074894,-0.015618347562849522,0.005029031541198492,-0.0,0.0043436991982162
0.0049015069380402565,0.010718412697315216,-0.015412348322570324,0.004893084522336721,-0.0,0.004075461067259312
0.0049015069380402565,0.010718412697315216,-0.015412348322570324,0.004893084522336721,-0.0,0.004075461067259312
0.004227918107062578,0.010092583484947681,-0.0151124969124794,0.0047036041505634785,-0.0,0.0039789117872715
0.004171211738139391,0.010986254550516605,-0.015621926635503769,0.0046542645432055,-0.0,0.003989653196185827
0.004562061280012131,0.010651779361069202,-0.01541078183799982,0.004990279674530029,-0.0,0.004238342400640249
0.005151000805199146,0.01059153862297535,-0.015282339416444302,0.005004385951906443,-0.0,0.004207122605293989
0.004605801776051521,0.010903777554631233,-0.015101319178938866,0.0047905948013067245,-0.0,0.00434663612395525
0.004556336440145969,0.010075254365801811,-0.015925221145153046,0.004556647501885891,-0.0,0.004034982994198799
0.004903990309685469,0.010328066535294056,-0.0152580002322793,0.004276929423213005,-0.0,0.003856115508824587
0.004985528532415628,0.010775289498269558,-0.01564125530421734,0.0044694580137729645,-0.0,0.003824535058811307
0.004949883092194796,0.010915136896073818,-0.015231996774673462,0.004449463915079832,-0.0,0.0038910892326384783
0.004845537710934877,0.011120024137198925,-0.014935573562979698,0.004294466692954302,-0.0,0.0038924876134842634
0.004419107921421528,0.011252693831920624,-0.015335336327552795,0.004367847461253405,-0.0,0.00434871157631278
0.004492477513849735,0.011614247225224972,-0.014851553365588188,0.004607111681252718,-0.0,0.004110119771212339
0.004310274496674538,0.01144661195576191,-0.01538854744285345,0.0044413162395358086,-0.0,0.003810980822890997
0.004433490335941315,0.010469901375472546,-0.014941484667360783,0.004376079887151718,-0.0,0.0036496047396212816
0.004937789868563414,0.010888495482504368,-0.015189293771982193,0.004382011946290731,-0.0,0.00370359537191689
0.005071417894214392,0.010719000361859798,-0.015205166302621365,0.004455776419490576,-0.0,0.0034571231808513403
0.0046732802875339985,0.01211472786962986,-0.01491161622107029,0.004218792077153921,-0.0,0.003538738004863262
0.004885766189545393,0.011344312690198421,-0.015553276054561138,0.0043387808836996555,-0.0,0.003948727622628212
0.0048403372056782246,0.011163437739014626,-0.015217004343867302,0.004538867622613907,-0.0,0.004189278930425644
0.004771572072058916,0.011228320188820362,-0.015041752718389034,0.004652571398764849,-0.0,0.004544910974800587
0.004624972119927406,0.010810976848006248,-0.014625389128923416,0.004319880623370409,-0.0,0.004159986507147551
0.004884470719844103,0.01096804067492485,-0.01501613762229681,0.004422810859978199,-0.0,0.0033794499468058348
0.00461591174826026,0.011116743087768555,-0.014554625377058983,0.004150900058448315,-0.0,0.003052378538995981
0.004566945135593414,0.011152809485793114,-0.015200059860944748,0.0041969516314566135,-0.0,0.0033107942435890436
0.004596373997628689,0.011368006467819214,-0.014455607160925865,0.004010108765214682,-0.0,0.003604661673307419
0.005086475517600775,0.010412521660327911,-0.01501699723303318,0.0035190782509744167,-0.0,0.004011403303593397
0.005086611025035381,0.01036334503442049,-0.014415969140827656,0.004090421833097935,-0.0,0.004203882999718189
0.005016779992729425,0.011092123575508595,-0.014646539464592934,0.004091364331543446,-0.0,0.004028036259114742
0.004997569601982832,0.011014055460691452,-0.014277638867497444,0.003927253186702728,-0.0,0.003829005640000105
0.004997569601982832,0.011014055460691452,-0.014277638867497444,0.003927253186702728,-0.0,0.003829005640000105
0.004902856890112162,0.010463370941579342,-0.015006068162620068,0.004050253424793482,-0.0,0.003735025878995657
0.005277308635413647,0.010743686929345131,-0.01445971429347992,0.004315806087106466,-0.0,0.0035040955990552902
0.005023533944040537,0.010136096738278866,-0.014702011831104755,0.004038594663143158,-0.0,0.00337889208458364
0.005714862607419491,0.010788735933601856,-0.014701923355460167,0.0036410305183380842,-0.0,0.003718427149578929
0.0053215110674500465,0.010214078240096569,-0.01452446449548006,0.003530272748321295,-0.0,0.003808823646977544
0.004870290402323008,0.010748976841568947,-0.014962514862418175,0.0032926134299486876,-0.0,0.0038920287042856216
0.005231226794421673,0.010885593481361866,-0.014202642254531384,0.003538415301591158,-0.0,0.00393801461905241
0.0051611061207950115,0.010317474603652954,-0.014762958511710167,0.003795902943238616,-0.0,0.0035042008385062218
0.00529785780236125,0.01105214562267065,-0.014099126681685448,0.0038070129230618477,-0.0,0.0032149488106369972
0.005483204033225775,0.010035321116447449,-0.014570984058082104,0.0033707295078784227,-0.0,0.0028234277851879597
0.004935082048177719,0.010119279846549034,-0.014069830067455769,0.003039606614038348,-0.0,0.003115985542535782
0.00535496324300766,0.010901168920099735,-0.014840355142951012,0.003091766033321619,-0.0,0.003156072460114956
0.005111202597618103,0.010313770733773708,-0.014454863034188747,0.0032798186875879765,-0.0,0.0034738152753561735
0.004306139890104532,0.009943145327270031,-0.015060167759656906,0.003589500207453966,-0.0,0.003597941482439637
0.00532939238473773,0.010752424597740173,-0.014066249132156372,0.0038190167397260666,-0.0,0.003350519808009267
0.005820890888571739,0.010061776265501976,-0.014986725524067879,0.00393538037315011,-0.0,0.0032498612999916077
0.005662140902131796,0.010032134130597115,-0.014257678762078285,0.003603473072871566,-0.0,0.0032568119931966066
0.005133434664458036,0.010274537838995457,-0.014785891398787498,0.0032560164108872414,-0.0,0.00348503515124321
0.004938178230077028,0.0098733427003026,-0.014397666789591312,0.003246051725000143,-0.0,0.003228205954656005
0.005211250390857458,0.010609515942633152,-0.015085764229297638,0.003067060373723507,-0.0,0.0031685656867921352
0.00539463572204113,0.010588962584733963,-0.014568076469004154,0.003232768503949046,-0.0,0.0032549418974667788
0.005439179949462414,0.009880760684609413,-0.014846431091427803,0.003501362632960081,-0.0,0.003184233559295535
0.005426274612545967,0.010459770448505878,-0.0147612439468503,0.0034665181301534176,-0.0,0.00325357005931437
0.00561986630782485,0.01010903064161539,-0.014738199301064014,0.0035941647365689278,-0.0,0.0034469685051590204
0.005204808432608843,0.009816020727157593,-0.01469129417091608,0.003808084176853299,-0.0,0.0034495103172957897
0.005204808432608843,0.009816020727157593,-0.01469129417091608,0.003808084176853299,-0.0,0.0034495103172957897
0.005668846890330315,0.010140756145119667,-0.01455304492264986,0.0035645512398332357,-0.0,0.0032530927564948797
0.005668846890330315,0.010140756145119667,-0.01455304492264986,0.0035645512398332357,-0.0,0.0032530927564948797
0.005383123643696308,0.009963259100914001,-0.01503046229481697,0.00343597074970603,-0.0,0.0029576849192380905
0.005441988818347454,0.010541238822042942,-0.01444378774613142,0.0030260540079325438,-0.0,0.0026980782859027386
0.005039422772824764,0.010548442602157593,-0.014830232597887516,0.0029287615325301886,-0.0,0.0028981391806155443
0.005592964589595795,0.01077841967344284,-0.014677423983812332,0.0027062727604061365,-0.0,0.003239177167415619
0.006046173628419638,0.010078930296003819,-0.014648555777966976,0.0025654726196080446,-0.0,0.0034859098959714174
0.005447515286505222,0.009937952272593975,-0.01466828491538763,0.002881453139707446,-0.0,0.0032609724439680576
0.005439168307930231,0.010669009760022163,-0.014530831016600132,0.0030862493440508842,-0.0,0.0029359236359596252
0.005087782628834248,0.009791690856218338,-0.014428582973778248,0.0031091629061847925,-0.0,0.002800914691761136
0.005401532631367445,0.009640397503972054,-0.015205025672912598,0.0029571589548140764,-0.0,0.0027772157918661833
0.005714426748454571,0.01040355209261179,-0.015062288381159306,0.002839842112734914,-0.0,0.003023874945938587
0.00608685240149498,0.009879056364297867,-0.014659496024250984,0.002814986975863576,-0.0,0.002962851896882057
0.0056241219863295555,0.01001746952533722,-0.014519546180963516,0.0029387539252638817,-0.0,0.0030708471313118935
0.00586327351629734,0.010162627324461937,-0.014733178541064262,0.0032739334274083376,-0.0,0.0029569733887910843
0.005446841008961201,0.010464987717568874,-0.014305830001831055,0.0030055632814764977,-0.0,0.002843967406079173
0.006119858473539352,0.010087281465530396,-0.014929317869246006,0.0027222968637943268,-0.0,0.0027064657770097256
0.005799183622002602,0.010014250874519348,-0.01472426950931549,0.00238513620570302,-0.0,0.002842498244717717
0.005828552413731813,0.010012492537498474,-0.015508847311139107,0.0024367114529013634,-0.0,0.002543945796787739
0.005587032530456781,0.010422822088003159,-0.013765187934041023,0.0027694471646100283,-0.0,0.0025189584121108055
0.005578800570219755,0.010099761188030243,-0.014447786845266819,0.002988993190228939,-0.0,0.0031515092123299837
0.005720637273043394,0.01022062636911869,-0.014560054987668991,0.002790674101561308,-0.0,0.003207507776096463
0.006179375108331442,0.010489173233509064,-0.015268972143530846,0.0025413907133042812,-0.0,0.003144648391753435
0.005703269969671965,0.01024352665990591,-0.014701242558658123,0.002431807341054082,-0.0,0.0028340627904981375
0.005630423314869404,0.009921560995280743,-0.015347338281571865,0.0023443978279829025,-0.0,0.002513532293960452
0.0060394140891730785,0.01165960356593132,-0.014644856564700603,0.0027226025704294443,-0.0,0.0025324421003460884
0.005658966489136219,0.010037424974143505,-0.014725741930305958,0.002731321146711707,-0.0,0.002729941625148058
0.005762441549450159,0.009156925603747368,-0.014140287414193153,0.0025760976132005453,-3.1954193673300324e-06,0.0028335629031062126
0.00579723808914423,0.010469864122569561,-0.014746895991265774,0.0023469552397727966,-2.0863802774329088e-07,0.0027984767220914364
0.005926921032369137,0.010102261789143085,-0.014509299769997597,0.002103448146954179,-1.3622573291627305e-08,0.0028192573226988316
0.005926921032369137,0.010102261789143085,-0.014509299769997597,0.002103448146954179,-1.3622573291627305e-08,0.0028192573226988316
0.0058598886243999004,0.009887965396046638,-0.014470841735601425,0.002223693998530507,-3.791893448540362e-12,0.0023524928838014603
0.0058598886243999004,0.009887965396046638,-0.014470841735601425,0.002223693998530507,-3.791893448540362e-12,0.0023524928838014603
0.005893693305552006,0.009829091839492321,-0.01370373647660017,0.0022258476819843054,-2.475835291990136e-13,0.002353679621592164
0.006190042477101088,0.010779445990920067,-0.014497330412268639,0.0021366931032389402,-1.616543575703403e-14,0.002316405065357685
0.005633908323943615,0.010263924486935139,-0.014315142296254635,0.0019907793030142784,-1.0554874379362284e-15,0.002418000251054764
0.005889580585062504,0.010598487220704556,-0.014341132715344429,0.0019347484922036529,-6.891578511124705e-17,0.0026044698897749186
0.006111266557127237,0.010712421499192715,-0.013509176671504974,0.0017319752369076014,-4.4997082631042294e-18,0.00251225964166224
0.006003059446811676,0.01006326824426651,-0.014306669123470783,0.00172527227550745,-2.937988371471969e-19,0.002227132674306631
0.0061041549779474735,0.010393409058451653,-0.014277255162596703,0.0017175499815493822,-1.9182961408784e-20,0.002160543343052268
0.005590752232819796,0.010298887267708778,-0.014659391716122627,0.0018083630129694939,-1.2525102798153847e-21,0.0021411292254924774
0.0063636694103479385,0.010593300685286522,-0.013850976713001728,0.0016662987181916833,-8.177997311036291e-23,0.0021275379694998264
0.006697977893054485,0.010410919785499573,-0.014377767220139503,0.0016739637358114123,-5.339647611716774e-24,0.002310842974111438
0.006408205721527338,0.010147981345653534,-0.01399307418614626,0.0016471571289002895,-3.486407994998227e-25,0.002359502948820591
0.006038242019712925,0.010349747724831104,-0.014351403340697289,0.0014807856641709805,-2.2763755467046394e-26,0.0023261273745447397
0.006177406292408705,0.0106800626963377,-0.01430827472358942,0.0014772034483030438,0.00012784876162186265,0.0022932016290724277
0.006147933658212423,0.010027180425822735,-0.01427603792399168,0.0014272464904934168,0.00023193430388346314,0.0020989978220313787
0.006409276742488146,0.010637600906193256,-0.013942955993115902,0.0013471676502376795,0.00026689685182645917,0.001992392586544156
0.006792845204472542,0.010293006896972656,-0.014605451375246048,0.0013831931864842772,0.00025992607697844505,0.0018399374093860388
0.005931179039180279,0.010266538709402084,-0.01412814762443304,0.0013422983465716243,0.00026860120124183595,0.0019146644044667482
0.005983404815196991,0.010460801422595978,-0.01470051147043705,0.0012495898408815265,0.0002756682224571705,0.0018336811335757375
0.0069823311641812325,0.0105829406529665,-0.014221914112567902,0.001222394173964858,0.00026528906892053783,0.0022826828062534332
0.00697195902466774,0.009952761232852936,-0.014761744998395443,0.0012564613716676831,0.0002861809334717691,0.0023250069934874773
0.006439913995563984,0.0104608666151762,-0.01421730313450098,0.0011578070698305964,0.00027938809944316745,0.002218736568465829
0.006264869589358568,0.01085215900093317,-0.014254719950258732,0.0011540402192622423,0.00045506577589549124,0.0018678567139431834
0.006869746372103691,0.01018532831221819,-0.014257481321692467,0.00110920169390738,0.0004379505116958171,0.0018113978439942002
0.006945656146854162,0.011208724230527878,-0.01409117691218853,0.001007308135740459,0.0004007035167887807,0.001776864635758102
0.006679597310721874,0.010244334116578102,-0.014125233516097069,0.0009876693366095424,0.0004314772959332913,0.0018496459815651178
0.0062792315147817135,0.010226426646113396,-0.014815124683082104,0.0008905114373192191,0.0004075529577676207,0.0018710311269387603
0.0062792315147817135,0.010226426646113396,-0.014815124683082104,0.0008905114373192191,0.0004075529577676207,0.0018710311269387603
0.00663111824542284,0.01038514543324709,-0.014442769810557365,0.0008647484937682748,0.00043408499914221466,0.0019601702224463224
0.007278420962393284,0.009960606694221497,-0.013881705701351166,0.000783612544182688,0.0004289184289518744,0.001985180424526334
0.006808449514210224,0.010408044792711735,-0.014437236823141575,0.0007763197645545006,0.0004168895538896322,0.0018610258121043444
0.0062563857063651085,0.010191861540079117,-0.014566839672625065,0.0007252565701492131,0.0003960396279580891,0.0018007800681516528
0.006655019707977772,0.01008728425949812,-0.015182405710220337,0.0007079517235979438,0.00041779677849262953,0.0016533127054572105
0.006711174733936787,0.010614383034408092,-0.015022650361061096,0.0007227817550301552,0.00042311352444812655,0.0015289164148271084
0.007178207393735647,0.00987047329545021,-0.014578616246581078,0.000729318824596703,0.0004240466223563999,0.001576228067278862
0.006780385505408049,0.010078642517328262,-0.014358914457261562,0.0006760726100765169,0.00042718768236227334,0.0018333320040255785
0.006421503610908985,0.010206962935626507,-0.014803922735154629,0.0006759146344847977,0.00042758070048876107,0.0017819806234911084
0.006982632912695408,0.010235317051410675,-0.014367014169692993,0.000635972828604281,0.0004301441367715597,0.0016461201012134552
0.006934448145329952,0.01018685195595026,-0.014278766699135303,0.0005855083581991494,0.0004302673041820526,0.0015596390003338456
0.007168071810156107,0.009991565719246864,-0.01453433744609356,0.0005549403140321374,0.0004843684146180749,0.001441397238522768
0.006927866023033857,0.00955272652208805,-0.014863907359540462,0.0005078219692222774,0.000503260875120759,0.0013586601708084345
0.0074507733806967735,0.009924876503646374,-0.014430570416152477,0.00045717580360360444,0.0005417013308033347,0.001242640893906355
0.0067911758087575436,0.01061870064586401,-0.014483063481748104,0.0004757871793117374,0.0005583061138167977,0.001218248507939279
0.00674690306186676,0.009570281021296978,-0.01410630065947771,0.00045448142918758094,0.0005304744117893279,0.0011874496703967452
0.006696823984384537,0.010075644589960575,-0.014214515686035156,0.00042030916665680707,0.0005508012836799026,0.0011336322641000152
0.006894351914525032,0.010694894008338451,-0.014130082912743092,0.0003900094307027757,0.0005194155382923782,0.0011133556254208088
0.007238517515361309,0.009297751821577549,-0.014625171199440956,0.00036372840986587107,0.0005847206339240074,0.0010669995099306107
0.007361442781984806,0.00967785157263279,-0.014373588375747204,0.00036838045343756676,0.000642642960883677,0.001024233060888946
0.007243461906909943,0.009210260584950447,-0.01393458154052496,0.000352860166458413,0.0007008900865912437,0.0009635657188482583
0.007243461906909943,0.009210260584950447,-0.01393458154052496,0.000352860166458413,0.0007008900865912437,0.0009635657188482583
0.007590577006340027,0.009828438051044941,-0.013451959006488323,0.000334241078235209,0.0009452526574023068,0.0009548684465698898
0.007012144196778536,0.009709765203297138,-0.013853101059794426,0.0003174026496708393,0.001051303232088685,0.0011557827237993479
0.006839478854089975,0.009208991192281246,-0.01403272245079279,0.0003021745942533016,0.0009696281631477177,0.001270331209525466
0.006839478854089975,0.009208991192281246,-0.01403272245079279,0.0003021745942533016,0.0009696281631477177,0.001270331209525466
0.0072202435694634914,0.009990730322897434,-0.013621428981423378,0.00027571836835704744,0.0009463254828006029,0.0011753190774470568
0.0072202435694634914,0.009990730322897434,-0.013621428981423378,0.00027571836835704744,0.0009463254828006029,0.0011753190774470568
0.0071665095165371895,0.009591033682227135,-0.013218355365097523,0.00025352314696647227,0.0009126519435085356,0.0010550860315561295
0.0070850360207259655,0.009924251586198807,-0.013736994005739689,0.00024371343897655606,0.0009100183378905058,0.00097142398590222
0.007048688363283873,0.009510776959359646,-0.013370683416724205,0.00023463495017495006,0.0008382195373997092,0.0008961776620708406
0.0072469562292099,0.009588171727955341,-0.013909345492720604,0.0002262091002194211,0.0009287913562729955,0.0008845512056723237
0.007558800280094147,0.00968244206160307,-0.013440481387078762,0.00021836726227775216,0.0009298039949499071,0.0008049281314015388
0.00706334738060832,0.009610295295715332,-0.013489563018083572,0.00021105112682562321,0.0009262500097975135,0.0006743150297552347
0.0074607087299227715,0.010061852633953094,-0.012938054278492928,0.00020420891814865172,0.0010614636121317744,0.000693963433150202
0.007556830532848835,0.009691472165286541,-0.01366370264440775,0.00019779702415689826,0.0011820688378065825,0.00071700569242239
0.007605577819049358,0.009462770074605942,-0.013564511202275753,0.00019177539797965437,0.0011825925903394818,0.0007358251023106277
0.006817489396780729,0.009557808749377728,-0.013600120320916176,0.00018610958068165928,0.0012260329676792026,0.0009683342068456113
0.007197388913482428,0.009651794098317623,-0.013162382878363132,0.00018076894048135728,0.0011975651141256094,0.0009140519541688263
0.007494464982300997,0.009765847586095333,-0.013086549937725067,9.290987509302795e-05,0.0011228547664359212,0.0009089454542845488
0.008025819435715675,0.009780578315258026,-0.012949391268193722,6.363973079714924e-05,0.0010865547228604555,0.0008014733903110027
0.006913823075592518,0.009924638085067272,-0.01232986617833376,5.982364382361993e-05,0.001005814177915454,0.0007600801764056087
0.00715402327477932,0.009572705253958702,-0.013172091916203499,5.779147977591492e-05,0.0009802757995203137,0.0007269326597452164
0.007439339067786932,0.009949597530066967,-0.012808057479560375,5.598644565907307e-05,0.0009311492322012782,0.0006628097034990788
0.007362237200140953,0.009703435935080051,-0.013330177403986454,5.4297033784678206e-05,0.0009245037217624485,0.0006070534000173211
0.007073534652590752,0.009491528384387493,-0.01217428408563137,5.270693145575933e-05,0.0009590908885002136,0.0005598198622465134
0.007302882149815559,0.009841378778219223,-0.012553739361464977,3.224044485250488e-05,0.0010190678294748068,0.0005194044788368046
0.007438482716679573,0.00958891212940216,-0.012494055554270744,2.532870348659344e-05,0.0010145101696252823,0.0004844331997446716
0.00807005725800991,0.009535535238683224,-0.012570959515869617,2.4253529772977345e-05,0.0010053591104224324,0.00041930051520466805
0.006995419505983591,0.009738810360431671,-0.012682067230343819,2.359208883717656e-05,0.0012292441679164767,0.00035608914913609624
0.007299737073481083,0.009794524870812893,-0.01208138931542635,3.0274463824753184e-06,0.0011816774494946003,0.00032812851713970304
0.008095012046396732,0.009588826447725296,-0.012648133561015129,1.9767063008657715e-07,0.0011558819096535444,0.000350656860973686
0.0076374816708266735,0.009829724207520485,-0.01174400094896555,1.2906479440744079e-08,0.0011147334007546306,0.0003424191672820598
0.007526922971010208,0.010265817865729332,-0.012210626155138016,8.42700853542766e-10,0.0010661426931619644,0.00032285467023029923
0.007526922971010208,0.010265817865729332,-0.012210626155138016,8.42700853542766e-10,0.0010661426931619644,0.00032285467023029923
0.007582478225231171,0.009552117437124252,-0.012308689765632153,5.5022344319644034e-11,0.0010372706456109881,0.0003046902420464903
0.007837123237550259,0.00941320601850748,-0.012529715895652771,2.3456887474071486e-13,0.0009043926256708801,0.00027378631057217717
0.007653636392205954,0.009499204345047474,-0.011850718408823013,1.531567028149189e-14,0.0008164356695488095,0.00026057043578475714
0.007750357501208782,0.010978089645504951,-0.012556907720863819,1.0000038152757564e-15,0.0007164165726862848,0.0002844584814738482
0.007787245791405439,0.010015908628702164,-0.012422134168446064,6.529310460517921e-17,0.0006785059231333435,0.0002768743725027889
0.007433766033500433,0.009223876520991325,-0.012079990468919277,-0.0006245006807148457,0.0006491239182651043,0.000265524722635746
0.007371207233518362,0.009733405895531178,-0.012336383573710918,-0.0008980033453553915,0.0006533281994052231,0.00025480423937551677
0.007964357733726501,0.009689394384622574,-0.011657419614493847,-0.0009406186291016638,0.000611800467595458,0.00024489848874509335
0.0076524498872458935,0.009503030218183994,-0.012676021084189415,-0.0016382888425141573,0.000627711764536798,0.0002357333869440481
0.007354974281042814,0.009613877162337303,-0.012507466599345207,-0.001635158434510231,0.000586033973377198,0.0002272297570016235
0.007472902070730925,0.009491735137999058,-0.012806535698473454,-0.0019140178337693214,0.0005667764344252646,0.00021931818628218025
0.008220264688134193,0.009220987558364868,-0.012493166141211987,-0.0020005556289106607,0.0005132174119353294,0.00021193920110818
0.008346368558704853,0.009298610500991344,-0.012617340311408043,-0.002337996382266283,0.0005468113231472671,0.00020504060375969857
0.007976592518389225,0.009620817378163338,-0.012826815247535706,-0.002624396700412035,0.0005628475337289274,0.00014528965402860194
0.007822769694030285,0.00946181919425726,-0.012585424818098545,-0.0030973972752690315,0.0005343465018086135,8.907785377232358e-05
0.007817002013325691,0.009468933567404747,-0.013284225016832352,-0.003146184142678976,0.000559250358492136,8.181219163816422e-05
0.008130968548357487,0.009962853975594044,-0.012261152267456055,-0.003516717813909054,0.000649689172860235,7.805307541275397e-05
0.007744892966002226,0.009174701757729053,-0.01482410728931427,-0.0037434054538607597,0.0006957141449674964,7.479538908228278e-05
0.007684546057134867,0.00964793935418129,-0.01222208607941866,-0.004360030870884657,0.0007210333133116364,7.181001274148002e-05
0.008329037576913834,0.010564778000116348,-0.012355790473520756,-0.00419728783890605,0.0007402568007819355,6.905454938532785e-05
0.007935427129268646,0.009454905055463314,-0.013043539598584175,-0.00438979547470808,0.0009342852281406522,6.650273280683905e-05
0.0082122553139925,0.009767076931893826,-0.013589608483016491,-0.004556272178888321,0.0009681640076451004,6.413293885998428e-05
0.007997876964509487,0.01038894709199667,-0.013211346231400967,-0.004925714805722237,0.0009244153625331819,6.192623550305143e-05
0.007078163325786591,0.009702431969344616,-0.013133256696164608,-0.004833464976400137,0.0008600953151471913,5.986640098853968e-05
0.008029121905565262,0.009362887591123581,-0.013057752512395382,-0.0047009470872581005,0.000853393052238971,5.793914897367358e-05
0.0085532171651721,0.009789290837943554,-0.01249523926526308,-0.004401454236358404,0.0008064782596193254,3.5351215046830475e-05
0.00849238969385624,0.010963067412376404,-0.013358531519770622,-0.004537743516266346,0.000717345392331481,2.7692918592947535e-05
0.007980767637491226,0.009448673576116562,-0.01303571555763483,-0.004929663147777319,0.0007355011184699833,2.6449302822584286e-05
0.007725751027464867,0.009841658174991608,-0.012954263016581535,-0.005151251796633005,0.0007549251313321292,2.566682996985037e-05
0.007680314593017101,0.009719588793814182,-0.012400325387716293,-0.005709472112357616,0.0007513697491958737,1.2702320418611635e-05
0.007680314593017101,0.009719588793814182,-0.012400325387716293,-0.005709472112357616,0.0007513697491958737,1.2702320418611635e-05
0.00799504853785038,0.009791741147637367,-0.012819712981581688,-0.0052533457055687904,0.0007016205345280468,8.29370776500582e-07
0.008244391530752182,0.010334819555282593,-0.013142970390617847,-0.005280086770653725,0.0007303367601707578,5.415198600644544e-08
0.008401799015700817,0.009720489382743835,-0.012592221610248089,-0.0056657930836081505,0.0008146212785504758,3.5357377026201675e-09
0.008600805886089802,0.009970806539058685,-0.012358037754893303,-0.005911942571401596,0.0007998553919605911,1.5073406064991524e-11
0.008206149563193321,0.009728902950882912,-0.012666507624089718,-0.006212352309376001,0.0010101932566612959,9.841857146961064e-13
0.008316164836287498,0.010107039473950863,-0.012024977244436741,-0.0060422769747674465,0.0009304152335971594,-0.0008923731511458755
0.00883807148784399,0.010066773742437363,-0.012820319272577763,-0.005700716748833656,0.000912470102775842,-0.0010669706389307976
0.008364562876522541,0.009883572347462177,-0.01234812568873167,-0.005357467103749514,0.0008105472079478204,-0.0009367314050905406
0.008252725005149841,0.009961385279893875,-0.012296452187001705,-0.0056992475874722,0.0007937600603327155,-0.0008009572047740221
0.008680441416800022,0.010473142378032207,-0.012940282002091408,-0.005706793162971735,0.0007355688139796257,-0.0006974363932386041
0.00862362701445818,0.009866681881248951,-0.012377711944282055,-0.006136664189398289,0.0006686768610961735,-0.0006925247726030648
0.008322951383888721,0.010130798444151878,-0.01267492026090622,-0.0057913619093596935,0.0005697451415471733,-0.0006889734067954123
0.00887891836464405,0.01039051916450262,-0.012326402589678764,-0.006051617208868265,0.0005503783468157053,-0.0006411736831068993
0.009281222708523273,0.009701980277895927,-0.01279471442103386,-0.006610687356442213,0.0005818333011120558,-0.0006973486742936075
0.008665005676448345,0.009957235306501389,-0.012385747395455837,-0.006764565594494343,0.0006106693763285875,-0.0007603468257002532
0.008379386737942696,0.009980973787605762,-0.012434213422238827,-0.0065629975870251656,0.0006010614451952279,-0.0015799305401742458
0.008818002417683601,0.00954924151301384,-0.012238666415214539,-0.006195429712533951,0.0008400141377933323,-0.0015860255807638168
0.009187557734549046,0.009814565069973469,-0.011866958811879158,-0.006067317444831133,0.000798056076746434,-0.0013829227536916733
0.00916664395481348,0.00977338571101427,-0.012637749314308167,-0.006933137774467468,0.0008077867678366601,-0.001174992648884654
0.00899041909724474,0.009477139450609684,-0.012230406515300274,-0.007542409468442202,0.0008180798031389713,-0.0010999550577253103
0.009595649316906929,0.009845697320997715,-0.012835300527513027,-0.006120935082435608,0.0008944502915255725,-0.0011867719003930688
0.008868509903550148,0.010186417028307915,-0.012241157703101635,-0.006527047138661146,0.0009126135264523327,-0.0013577109202742577
0.009099477902054787,0.009754239581525326,-0.012396357953548431,-0.007417478132992983,0.0009026994812302291,-0.0020101675763726234
0.009043353609740734,0.010137475095689297,-0.012280195020139217,-0.007593877613544464,0.0008868235745467246,-0.0026229731738567352
0.009077106602489948,0.009991203434765339,-0.011914273723959923,-0.007476859726011753,0.0008130482165142894,-0.002483283868059516
0.008868378587067127,0.009593415074050426,-0.012307433411478996,-0.007093856111168861,0.0008012784528546035,-0.0022131383884698153
0.008868378587067127,0.009593415074050426,-0.012307433411478996,-0.007093856111168861,0.0008012784528546035,-0.0022131383884698153
0.010269755497574806,0.01006458792835474,-0.011800422333180904,-0.007214160170406103,0.0009294336196035147,-0.0017942370614036918
0.009102246724069118,0.009636587463319302,-0.012221393175423145,-0.007505069952458143,0.0008957073441706598,-0.0013966899132356048
0.009149015881121159,0.009574810042977333,-0.011765697970986366,-0.007657357957214117,0.000920743914321065,-0.0013164205010980368
0.00989306066185236,0.009676995687186718,-0.012385173700749874,-0.008431203663349152,0.0010769790969789028,-0.001793624134734273
0.009364490397274494,0.009352498687803745,-0.011751431040465832,-0.008510139770805836,0.0010667511960491538,-0.0020567048341035843
0.009707952849566936,0.009605837054550648,-0.01209217682480812,-0.00852331891655922,0.0010459297336637974,-0.0027533702086657286
0.009504292160272598,0.009664317592978477,-0.011796614155173302,-0.008846593089401722,0.00103474291972816,-0.0032515153288841248
0.009120505303144455,0.009331668727099895,-0.01252136379480362,-0.008694671094417572,0.0010195913491770625,-0.0034354960080236197
0.009816496632993221,0.009703588671982288,-0.011925429105758667,-0.008665814995765686,0.0010007695527747273,-0.0033825181890279055
0.009833507239818573,0.00988348200917244,-0.011301778256893158,-0.008227692916989326,0.0009781267726793885,-0.0029477495700120926
0.00967315025627613,0.00910848006606102,-0.011712057515978813,-0.008497032336890697,0.0009065937483683228,-0.0024956264533102512
0.00986004713922739,0.009778955951333046,-0.012310360558331013,-0.008585391566157341,0.0009026617626659572,-0.0024232580326497555
0.010464899241924286,0.009664894081652164,-0.011665433645248413,-0.008794094435870647,0.0009021555306389928,-0.0028963882941752672
0.009844357147812843,0.00921554397791624,-0.011331800371408463,-0.008456151932477951,0.0009019360295496881,-0.0036610967945307493
0.009810192510485649,0.01007599662989378,-0.01106349565088749,-0.008595604449510574,0.0009436710388399661,-0.0038547858130186796
0.01009022630751133,0.009859820827841759,-0.011860989034175873,-0.008359326981008053,0.0011086423182860017,-0.003765736473724246
0.009721053764224052,0.00927723478525877,-0.011490309610962868,-0.00820039864629507,0.0010966333793476224,-0.003293305402621627
0.009967375546693802,0.010444964282214642,-0.011394590139389038,-0.00850761216133833,0.0010244639124721289,-0.00305856391787529
0.009907599538564682,0.009858399629592896,-0.011769896373152733,-0.009063483215868473,0.0012074807891622186,-0.003063422627747059
0.010639430023729801,0.00943760946393013,-0.011409498751163483,-0.008444655686616898,0.0011626195628196,-0.0032037165947258472
0.010124878957867622,0.01049731019884348,-0.011737438850104809,-0.008319590240716934,0.0011401076335459948,-0.0035104022826999426
0.00975858885794878,0.010013606399297714,-0.011195718310773373,-0.0090984171256423,0.0010543670505285263,-0.004191315267235041
0.009832726791501045,0.00935252197086811,-0.011192596517503262,-0.009115353226661682,0.000992935965768993,-0.00405080197378993
0.010865813121199608,0.010414171032607555,-0.012209383770823479,-0.00888028834015131,0.0009753282647579908,-0.0038112420588731766
0.010865813121199608,0.010414171032607555,-0.012209383770823479,-0.00888028834015131,0.0009753282647579908,-0.0038112420588731766
0.010095330886542797,0.009738043881952763,-0.011368057690560818,-0.009574555791914463,0.0009967548539862037,-0.0037644640542566776
0.01006043329834938,0.011001716367900372,-0.011083134450018406,-0.009249892085790634,0.0010350279044359922,-0.004144856706261635
0.01006043329834938,0.011001716367900372,-0.011083134450018406,-0.009249892085790634,0.0010350279044359922,-0.004144856706261635
0.01044910866767168,0.00994955189526081,-0.011008068919181824,-0.009881129488348961,0.0010973408352583647,-0.003978093154728413
0.009548613801598549,0.009357514791190624,-0.011309007182717323,-0.010378936305642128,0.0010283425217494369,-0.003938913810998201
0.010028527118265629,0.009610394947230816,-0.011529435403645039,-0.009887982159852982,0.0011598760029301047,-0.004978486802428961
0.009890453889966011,0.009920376352965832,-0.011416168883442879,-0.010035204701125622,0.0011378334602341056,-0.005255027674138546
0.010388498194515705,0.009908650070428848,-0.010492074303328991,-0.010550142265856266,0.001057557063177228,-0.004330333787947893
0.009656663984060287,0.00975149217993021,-0.011511755175888538,-0.010313749313354492,0.0010403282940387726,-0.0038977654185146093
0.010489304549992085,0.010248337872326374,-0.011276853270828724,-0.01005440391600132,0.0010375948622822762,-0.004620114341378212
0.010016520507633686,0.010047775693237782,-0.011796416714787483,-0.010066232644021511,0.0010377895087003708,-0.0055159698240458965
0.009615217335522175,0.00995336752384901,-0.011443761177361012,-0.010899069719016552,0.0012492714449763298,-0.005306377075612545
0.010044751688838005,0.009799174964427948,-0.010782461613416672,-0.010433721356093884,0.0012920635053887963,-0.005292875226587057
0.010770244523882866,0.010735733434557915,-0.011508235707879066,-0.009837416000664234,0.0013293352676555514,-0.004982953425496817
0.009417521767318249,0.01106826588511467,-0.011275782249867916,-0.010447386652231216,0.0013513547601178288,-0.0050819325260818005
0.010111459530889988,0.009935598820447922,-0.011249365285038948,-0.010855847038328648,0.0012667651753872633,-0.005351205822080374
0.010784448124468327,0.010061996057629585,-0.012034275569021702,-0.011131532490253448,0.0012149811955168843,-0.0055285668931901455
0.011266921646893024,0.009982858784496784,-0.011167377233505249,-0.010749266482889652,0.0011664105113595724,-0.005869509186595678
0.011503193527460098,0.009662485681474209,-0.011395331472158432,-0.010712985880672932,0.001162893371656537,-0.005656388588249683
0.011332030408084393,0.010247275233268738,-0.011266528628766537,-0.011628721840679646,0.0011426006676629186,-0.0054747844114899635
0.01082165539264679,0.010222312994301319,-0.011118150316178799,-0.011213462799787521,0.0011486489092931151,-0.0052690268494188786
0.011669083498418331,0.010010844096541405,-0.011448205448687077,-0.010806790553033352,0.0011262926273047924,-0.005361190065741539
0.011769620701670647,0.011077430099248886,-0.010802763514220715,-0.0108780013397336,0.001088094199076295,-0.005737610161304474
0.011752182617783546,0.01023687981069088,-0.011864126659929752,-0.010240210220217705,0.0010598280932754278,-0.006153208203613758
0.011688110418617725,0.009953017346560955,-0.011870427057147026,-0.010195699520409107,0.000983739155344665,-0.00572996074333787
0.012329219840466976,0.01082595344632864,-0.011225704103708267,-0.01051266584545374,0.0009686028934083879,-0.005777564365416765
0.012411688454449177,0.010436993092298508,-0.011438499204814434,-0.010450512170791626,0.001033832784742117,-0.006086321081966162
0.012411688454449177,0.010436993092298508,-0.011438499204814434,-0.010450512170791626,0.001033832784742117,-0.006086321081966162
0.0125467823818326,0.010189828462898731,-0.011006169952452183,-0.010729526169598103,0.0011942348210141063,-0.0060826754197478294
0.012347185984253883,0.010445406660437584,-0.011988532729446888,-0.010486170649528503,0.0013003629865124822,-0.006197596434503794
0.011852837167680264,0.010107750073075294,-0.011635187081992626,-0.010502220131456852,0.0012378327082842588,-0.006142574828118086
0.012743305414915085,0.010617565363645554,-0.01098264567553997,-0.011009846813976765,0.0011301457416266203,-0.005912437103688717
0.01233748160302639,0.010725924745202065,-0.0123605877161026,-0.010896315798163414,0.0011934444773942232,-0.006398447789251804
0.012620564550161362,0.010006287135183811,-0.011910280212759972,-0.01122820470482111,0.001102973590604961,-0.0066964710131287575
0.012146440334618092,0.010235595516860485,-0.011411177925765514,-0.011295313946902752,0.0010005399817600846,-0.0065506394021213055
0.012674258090555668,0.010537956841289997,-0.011237512342631817,-0.011823397129774094,0.0010501969372853637,-0.006391354836523533
0.012363258749246597,0.010477639734745026,-0.012220184318721294,-0.011846909299492836,0.0010293596424162388,-0.0066358782351017
0.012394809164106846,0.010374638251960278,-0.011702165007591248,-0.01179328840225935,0.00101083901245147,-0.0067716422490775585
0.012614584527909756,0.010059349238872528,-0.011079076677560806,-0.012353243306279182,0.0010594915365800261,-0.007178529631346464
0.012834112159907818,0.01057838648557663,-0.012478547170758247,-0.012336865067481995,0.0011582784354686737,-0.006678329315036535
0.012910441495478153,0.010132991708815098,-0.011731237173080444,-0.012669957242906094,0.0011812889715656638,-0.006399291567504406
0.012936855666339397,0.010495116002857685,-0.011866658926010132,-0.012178611941635609,0.0013958198251202703,-0.006752365734428167
0.012899046763777733,0.011000876314938068,-0.011271190829575062,-0.011727472767233849,0.0014024460688233376,-0.00701031181961298
0.012101725675165653,0.010239512659609318,-0.012092436663806438,-0.011904584243893623,0.0013510540593415499,-0.007360776420682669
0.013246630318462849,0.010422389954328537,-0.011591893620789051,-0.01209427323192358,0.0014212600653991103,-0.006954674143344164
0.012490690685808659,0.010523485951125622,-0.011161337606608868,-0.012827337719500065,0.0013199575478211045,-0.006554013583809137
0.012512288056313992,0.010237013921141624,-0.011848017573356628,-0.012408330105245113,0.0012450380017980933,-0.006700263358652592
0.012370515614748001,0.01044734288007021,-0.011770189739763737,-0.012739225290715694,0.0011174450628459454,-0.007085224147886038
0.012835904024541378,0.010410336777567863,-0.012034685350954533,-0.012649208307266235,0.0010695443488657475,-0.0072344448417425156
0.01355123519897461,0.010143421590328217,-0.011427045799791813,-0.012860800139605999,0.001122768153436482,-0.007427052594721317
0.013031208887696266,0.010770724155008793,-0.011254247277975082,-0.012803105637431145,0.0011643976904451847,-0.007323356345295906
0.013280889950692654,0.010567635297775269,-0.01158317644149065,-0.012861685827374458,0.001307699945755303,-0.007689706049859524
0.0130381491035223,0.010161597281694412,-0.01118240412324667,-0.013674008660018444,0.0012569613754749298,-0.007569882087409496
0.013406959362328053,0.010578909888863564,-0.011853632517158985,-0.013709403574466705,0.001145415473729372,-0.007543689105659723
0.012539394199848175,0.010294887237250805,-0.01174146868288517,-0.013665728271007538,0.0011817965423688293,-0.008058201521635056
0.013074168935418129,0.010396512225270271,-0.01123387273401022,-0.013489439152181149,0.0011769917327910662,-0.007979834452271461
0.01328884158283472,0.010552910156548023,-0.011215890757739544,-0.013806456699967384,0.0011349288979545236,-0.008329247124493122
0.013309583999216557,0.010858699679374695,-0.010937725193798542,-0.013221601024270058,0.0010265775490552187,-0.007781769149005413
0.013812299817800522,0.011369935236871243,-0.011601011268794537,-0.01378924772143364,0.0010530014988034964,-0.008122209459543228
0.013812299817800522,0.011369935236871243,-0.011601011268794537,-0.01378924772143364,0.0010530014988034964,-0.008122209459543228
0.01375860720872879,0.01127550657838583,-0.011485084891319275,-0.013813227415084839,0.0010506451362743974,-0.008259204216301441
0.01340626273304224,0.010257324203848839,-0.010904374532401562,-0.014099376276135445,0.0010447652311995625,-0.00827421247959137
0.013163965195417404,0.0109410947188735,-0.01134414691478014,-0.013285499997437,0.0012706851121038198,-0.008172289468348026
0.013725774362683296,0.010776624083518982,-0.011259428225457668,-0.013955166563391685,0.0014816649490967393,-0.008780884556472301
0.013725774362683296,0.010776624083518982,-0.011259428225457668,-0.013955166563391685,0.0014816649490967393,-0.008780884556472301
0.013517138548195362,0.010545792989432812,-0.010960760526359081,-0.013929199427366257,0.0014377031475305557,-0.008655685000121593
0.013572657480835915,0.010769524611532688,-0.011384756304323673,-0.014572389423847198,0.0014053789200261235,-0.008463481441140175
0.0136202871799469,0.010692834854125977,-0.01124116126447916,-0.01377667672932148,0.0014398848870769143,-0.008247490972280502
0.014105130918323994,0.010671010240912437,-0.01097162440419197,-0.013901904225349426,0.0013420487521216273,-0.008206297643482685
0.013816078193485737,0.01112260203808546,-0.011180688627064228,-0.014137298800051212,0.0012471858644858003,-0.008791781030595303
0.014347368851304054,0.010825159959495068,-0.010526128113269806,-0.014529485255479813,0.0013051906134933233,-0.008643505163490772
0.014101007021963596,0.01086389273405075,-0.01095641404390335,-0.014952173456549644,0.0013107057893648744,-0.008760961703956127
0.014191769994795322,0.011360441334545612,-0.011291121132671833,-0.014875125139951706,0.0017263628542423248,-0.008941924199461937
0.01394614763557911,0.011055292561650276,-0.010770545341074467,-0.01434191595762968,0.0016362473834306002,-0.008639877662062645
0.014258467592298985,0.01013136189430952,-0.011080971919000149,-0.0147427748888731,0.0016954324673861265,-0.009095840156078339
0.013912576250731945,0.01077693048864603,-0.01060711033642292,-0.015158349648118019,0.0015247701667249203,-0.009410819970071316
0.01429695077240467,0.010219869203865528,-0.010837212204933167,-0.016073325648903847,0.0014427821151912212,-0.00904025137424469
0.014278244227170944,0.010616294108331203,-0.011003820225596428,-0.015713388100266457,0.001239627250470221,-0.009021943435072899
0.014562736265361309,0.01078016683459282,-0.010570024140179157,-0.015773454681038857,0.001157885417342186,-0.009373038075864315
0.014542234130203724,0.010059118270874023,-0.010806259699165821,-0.015294551849365234,0.001110495999455452,-0.009397896006703377
0.014686576090753078,0.01089489459991455,-0.011035808362066746,-0.015805955976247787,0.0012326829601079226,-0.008394746109843254
0.013240048661828041,0.010993428528308868,-0.010668154805898666,-0.01532470341771841,0.001387077383697033,-0.009927249513566494
0.014983989298343658,0.01016426645219326,-0.010832942090928555,-0.0154352355748415,0.001363862887956202,-0.010216699913144112
0.01503055915236473,0.010862985625863075,-0.010407059453427792,-0.01585022546350956,0.0015716340858489275,-0.009846228174865246
0.01498553529381752,0.010371163487434387,-0.010824795812368393,-0.016633177176117897,0.0015374812064692378,-0.009777161292731762
0.014469505287706852,0.010105367749929428,-0.011220228858292103,-0.017269345000386238,0.0014504761202260852,-0.009500136598944664
0.015308895148336887,0.010659925639629364,-0.010350809432566166,-0.016555463895201683,0.0014493863563984632,-0.009995092637836933
0.015308895148336887,0.010659925639629364,-0.010350809432566166,-0.016555463895201683,0.0014493863563984632,-0.009995092637836933
0.015017209574580193,0.010449452325701714,-0.010618562810122967,-0.01666695810854435,0.0013638872187584639,-0.010003406554460526
0.01551356166601181,0.010159959085285664,-0.010889928787946701,-0.01641487143933773,0.0012814804213121533,-0.009917686693370342
0.015515380539000034,0.010958435945212841,-0.01114409975707531,-0.016876528039574623,0.0013437415473163128,-0.010330293327569962
0.015338828787207603,0.011566311120986938,-0.01042622234672308,-0.016705118119716644,0.0013985716504976153,-0.009864596650004387
0.015441091731190681,0.010501198470592499,-0.010250160470604897,-0.016990644857287407,0.0016013836720958352,-0.009991593658924103
0.01563354954123497,0.010585617274045944,-0.011036158539354801,-0.015908461064100266,0.0017056820215657353,-0.010089199058711529
0.015514619648456573,0.011151852086186409,-0.010110295377671719,-0.01688980869948864,0.0018538972362875938,-0.00968196615576744
0.01581893488764763,0.010263894684612751,-0.010426667518913746,-0.017190109938383102,0.0017391154542565346,-0.010038902051746845
0.015695080161094666,0.010260620154440403,-0.01099986582994461,-0.016951827332377434,0.0018287489656358957,-0.010316841304302216
0.015804462134838104,0.010849051177501678,-0.010162138380110264,-0.017025217413902283,0.0017249534139409661,-0.010014024563133717
0.015160664916038513,0.01027811411768198,-0.010095466859638691,-0.01652347296476364,0.001630128943361342,-0.010538221336901188
0.015996988862752914,0.010541870258748531,-0.010910872370004654,-0.017202330753207207,0.0015522438334301114,-0.010236223228275776
0.015863535925745964,0.010619866661727428,-0.010411989875137806,-0.017070583999156952,0.0015302164247259498,-0.010015197098255157
0.015975628048181534,0.010833801701664925,-0.01054410170763731,-0.0172660443931818,0.0016312676016241312,-0.010419842787086964
0.016114043071866035,0.011601580306887627,-0.0101243257522583,-0.018545618280768394,0.001539456658065319,-0.01019879151135683
0.015597501769661903,0.010474126785993576,-0.010737042874097824,-0.01817367598414421,0.0016604429110884666,-0.010654792189598083
0.01585266925394535,0.011159999296069145,-0.010539642535150051,-0.018386896699666977,0.0016673809150233865,-0.010310515761375427
0.015979843214154243,0.010406503453850746,-0.010397424921393394,-0.018187163397669792,0.0016389627708122134,-0.01061230804771185
0.015916215255856514,0.01003478653728962,-0.009854326024651527,-0.01789887063205242,0.0015831637429073453,-0.010351648554205894
0.015690475702285767,0.01069003064185381,-0.010829763486981392,-0.01852218620479107,0.0016074366867542267,-0.010499337688088417
0.016173362731933594,0.011270112358033657,-0.010264044627547264,-0.018112309277057648,0.001739615574479103,-0.010059082880616188
0.016030821949243546,0.010825112462043762,-0.010352552868425846,-0.018327318131923676,0.0018211364513263106,-0.01062698569148779
0.016682932153344154,0.01077972911298275,-0.010745725594460964,-0.018692906945943832,0.0020581793505698442,-0.011269389651715755
0.01638483628630638,0.011228079907596111,-0.009885380044579506,-0.018321268260478973,0.0018440348794683814,-0.010434169322252274
0.016310403123497963,0.01041976734995842,-0.010201026685535908,-0.018474910408258438,0.0017804934177547693,-0.010021748021245003
0.016310403123497963,0.01041976734995842,-0.010201026685535908,-0.018474910408258438,0.0017804934177547693,-0.010021748021245003
0.01683136820793152,0.01075495034456253,-0.011171534657478333,-0.019135724753141403,0.0016386066563427448,-0.010544221848249435
0.016728756949305534,0.010824368335306644,-0.009957744739949703,-0.019434966146945953,0.0015440396964550018,-0.010238668881356716
0.017058629542589188,0.010781077668070793,-0.010045011527836323,-0.019181910902261734,0.0014861798845231533,-0.010476174764335155
0.017148258164525032,0.011057664640247822,-0.010128578171133995,-0.018683286383748055,0.0015662427758798003,-0.010466053150594234
0.016948869451880455,0.010393623262643814,-0.01100192777812481,-0.01933075673878193,0.0015291955787688494,-0.010610784403979778
0.01701987534761429,0.011754067614674568,-0.010505598038434982,-0.019865408539772034,0.001614066306501627,-0.011359085328876972
0.017606237903237343,0.010510856285691261,-0.009309811517596245,-0.020224038511514664,0.0016593289328739047,-0.011199790984392166
0.01765543408691883,0.010635904967784882,-0.010672776028513908,-0.020313622429966927,0.0018037997651845217,-0.010315828956663609
0.01788557879626751,0.010791007429361343,-0.010272250510752201,-0.020845526829361916,0.0018273021560162306,-0.009996033273637295
0.018006624653935432,0.010661172680556774,-0.00980301108211279,-0.02067074365913868,0.0019004631321877241,-0.010391457006335258
0.017360607162117958,0.010533920489251614,-0.010602862574160099,-0.020937176421284676,0.0018336728680878878,-0.010767865926027298
0.01708684302866459,0.010511355474591255,-0.010193723253905773,-0.020775139331817627,0.0016209586756303906,-0.010032384656369686
0.01673613116145134,0.01021332573145628,-0.010580526664853096,-0.020543528720736504,0.001592226792126894,-0.009997719898819923
0.018500851467251778,0.010764454491436481,-0.01012713648378849,-0.020661938935518265,0.0015555339632555842,-0.010568531230092049
0.017726082354784012,0.010605091229081154,-0.009703359566628933,-0.020929457619786263,0.00180139543954283,-0.010099463164806366
0.017479484900832176,0.010594915598630905,-0.010134435258805752,-0.021070826798677444,0.0019653376657515764,-0.010478801093995571
0.017757201567292213,0.010630887001752853,-0.010148772969841957,-0.02151619829237461,0.0021012083161622286,-0.011042538098990917
0.01755555346608162,0.010125086642801762,-0.010699166916310787,-0.021119046956300735,0.001916559413075447,-0.010289253666996956
0.017917450517416,0.010520633310079575,-0.01035983581095934,-0.021112706512212753,0.0017449453007429838,-0.009458390064537525
0.017841612920165062,0.010288259014487267,-0.009956737980246544,-0.02151452749967575,0.0017178565030917525,-0.01062843855470419
0.017950527369976044,0.010198996402323246,-0.009615306742489338,-0.021525712683796883,0.0016191060421988368,-0.01094516646116972
0.018023991957306862,0.010579311288893223,-0.009638434275984764,-0.02141914889216423,0.0016599729424342513,-0.010705412365496159
0.017878688871860504,0.01043073832988739,-0.010158631019294262,-0.021657783538103104,0.0018819670658558607,-0.010867158882319927
0.017360588535666466,0.010618496686220169,-0.00976490043103695,-0.02184467948973179,0.0018092221580445766,-0.011147449724376202
0.017483526840806007,0.011361202225089073,-0.010940971784293652,-0.021562155336141586,0.0017297056037932634,-0.010524348355829716
0.017762010917067528,0.010331882163882256,-0.009171683341264725,-0.02142801322042942,0.0017255052225664258,-0.010212413966655731
0.018265051767230034,0.01004012580960989,-0.009883181191980839,-0.02132938802242279,0.0016427943482995033,-0.010843560099601746
0.01848231442272663,0.010671165771782398,-0.010076858103275299,-0.02198987454175949,0.0018278781790286303,-0.010570523329079151
0.017669448629021645,0.010134401731193066,-0.009939905256032944,-0.022296717390418053,0.0016990950098261237,-0.010516286827623844
0.01834186725318432,0.010389968752861023,-0.00988392811268568,-0.022113872691988945,0.001698268111795187,-0.0101756127551198
0.018464012071490288,0.010745938867330551,-0.009863362647593021,-0.0221646036952734,0.0015806907322257757,-0.010701479390263557
0.018464012071490288,0.010745938867330551,-0.009863362647593021,-0.0221646036952734,0.0015806907322257757,-0.010701479390263557
0.01834760420024395,0.011219792068004608,-0.010036366060376167,-0.022694427520036697,0.0014370514545589685,-0.010990728624165058
0.018346501514315605,0.010974942706525326,-0.009893132373690605,-0.022725529968738556,0.0015119877643883228,-0.010766473598778248
0.018256541341543198,0.010984393768012524,-0.00996672548353672,-0.022726861760020256,0.0019679360557347536,-0.010453000664710999
0.018671894446015358,0.011421444825828075,-0.009628061205148697,-0.022832028567790985,0.0019427890656515956,-0.010928630828857422
0.018316181376576424,0.01119919028133154,-0.009763257578015327,-0.02320197969675064,0.0021328022703528404,-0.011016258038580418
0.01854092814028263,0.01137156505137682,-0.009718326851725578,-0.02318444848060608,0.0019554318860173225,-0.011496402323246002
0.01850222609937191,0.011141729541122913,-0.009411848150193691,-0.023181330412626266,0.0017941517289727926,-0.011716458946466446
0.017729325219988823,0.010865199379622936,-0.009597026742994785,-0.02321244776248932,0.0017555388621985912,-0.011511282995343208
0.018644586205482483,0.011174310930073261,-0.010328530333936214,-0.023371543735265732,0.00180325738620013,-0.011507362127304077
0.018750227987766266,0.010963876731693745,-0.009378365240991116,-0.023388583213090897,0.0018175170989707112,-0.011221176013350487
0.01829627901315689,0.010896213352680206,-0.00950149167329073,-0.023617461323738098,0.0018075378611683846,-0.011448369361460209
0.0188960749655962,0.011148791760206223,-0.009634698741137981,-0.023380380123853683,0.001885665929876268,-0.011395563371479511
0.018466446548700333,0.010803332552313805,-0.00962501484900713,-0.023420004174113274,0.001868505380116403,-0.011649221181869507
0.018268883228302002,0.010920784436166286,-0.00959276594221592,-0.023735767230391502,0.001941133290529251,-0.012320314534008503
0.018969640135765076,0.011123308911919594,-0.009462309069931507,-0.02433697134256363,0.002020119456574321,-0.011458300054073334
0.018755320459604263,0.010612910613417625,-0.009397034533321857,-0.02425798773765564,0.0019005764042958617,-0.01129611674696207
0.018792107701301575,0.011174499057233334,-0.009465673007071018,-0.024530038237571716,0.0018497778801247478,-0.011777776293456554
0.018593162298202515,0.0111017981544137,-0.009782777167856693,-0.02462451346218586,0.0019272102508693933,-0.01172473095357418
0.018551470711827278,0.01049816608428955,-0.00923650898039341,-0.024574974551796913,0.0021979017183184624,-0.01245979592204094
0.018867982551455498,0.010598470456898212,-0.009241530671715736,-0.02456674911081791,0.0020943949930369854,-0.012083131819963455
0.018549976870417595,0.010691249743103981,-0.010415828786790371,-0.024426408112049103,0.0022768056951463223,-0.011999174952507019
0.01936301589012146,0.011236825957894325,-0.009085236117243767,-0.02528984285891056,0.002102237194776535,-0.012293701991438866
0.01916489750146866,0.010533086955547333,-0.009767511859536171,-0.026141200214624405,0.0022287366446107626,-0.011937037110328674
0.01977304369211197,0.01069609448313713,-0.009970058687031269,-0.02531542256474495,0.0022834022529423237,-0.012448086403310299
0.01977304369211197,0.01069609448313713,-0.009970058687031269,-0.02531542256474495,0.0022834022529423237,-0.012448086403310299
0.019655264914035797,0.012074748054146767,-0.0093035027384758,-0.02477172762155533,0.0022004626225680113,-0.012422646395862103
0.019530463963747025,0.011348512955009937,-0.009242145344614983,-0.02432733215391636,0.002306165639311075,-0.012744400650262833
0.019162295386195183,0.011415369808673859,-0.009311418980360031,-0.024740317836403847,0.002141054952517152,-0.012630299665033817
0.01966976374387741,0.010790429078042507,-0.008712206967175007,-0.025073297321796417,0.002038005506619811,-0.012439914047718048
0.020069945603609085,0.010683929547667503,-0.009613838978111744,-0.025181476026773453,0.0022055127192288637,-0.01220250129699707
0.019820669665932655,0.010809358209371567,-0.00941254198551178,-0.025455988943576813,0.002304709516465664,-0.01261788047850132
0.019211027771234512,0.011106880381703377,-0.008940250612795353,-0.02614692971110344,0.00223205192014575,-0.012507169507443905
0.020059162750840187,0.011409958824515343,-0.009133384563028812,-0.025105375796556473,0.0023659199941903353,-0.012882214970886707
0.02003396302461624,0.010403442196547985,-0.009853589348495007,-0.024090243503451347,0.0022217060904949903,-0.012731285765767097
0.020061226561665535,0.010522468015551567,-0.008936755359172821,-0.024118976667523384,0.0022955271415412426,-0.012171636335551739
0.02021617256104946,0.011021199636161327,-0.009221082553267479,-0.02511008456349373,0.0021574662532657385,-0.013086752966046333
0.02058146707713604,0.010977325960993767,-0.008906449191272259,-0.02595662511885166,0.002069580601528287,-0.013803251087665558
0.01965012028813362,0.010746252723038197,-0.008721748366951942,-0.0256852675229311,0.0020451813470572233,-0.013531291857361794
0.02052309550344944,0.010808948427438736,-0.008928009308874607,-0.02594374492764473,0.0020779843907803297,-0.013071991503238678
0.0205466840416193,0.010505862534046173,-0.009289039298892021,-0.02625919133424759,0.002316518686711788,-0.013374394737184048
0.020755676552653313,0.01082583237439394,-0.009184947237372398,-0.0262009147554636,0.002308355178683996,-0.013179855421185493
0.020127665251493454,0.010790023021399975,-0.008229264989495277,-0.02614360675215721,0.002459088107571006,-0.0133387241512537
0.020671356469392776,0.010456609539687634,-0.008898096159100533,-0.025994881987571716,0.002404638100415468,-0.01385987363755703
0.020741507411003113,0.011069586500525475,-0.008859924972057343,-0.026142746210098267,0.002168067032471299,-0.014138715341687202
0.020611703395843506,0.011389744468033314,-0.008249981328845024,-0.026657836511731148,0.0019083076622337103,-0.01386366505175829
0.02061750926077366,0.010331499390304089,-0.008452393114566803,-0.02649797312915325,0.0018553625559434295,-0.014100140891969204
0.02058427222073078,0.010977202095091343,-0.008722702041268349,-0.026434365659952164,0.001908984500914812,-0.014041060581803322
0.02058427222073078,0.010977202095091343,-0.008722702041268349,-0.026434365659952164,0.001908984500914812,-0.014041060581803322
0.0204254612326622,0.010747733525931835,-0.008421484380960464,-0.0266264658421278,0.002007897477596998,-0.014216361567378044
0.02032778598368168,0.01113145612180233,-0.008221957832574844,-0.027953732758760452,0.002431650646030903,-0.01417530421167612
0.02116987481713295,0.01151944138109684,-0.009194622747600079,-0.028741536661982536,0.002554793143644929,-0.014562063850462437
0.020742610096931458,0.010774069465696812,-0.008285070769488811,-0.027880815789103508,0.0024126656353473663,-0.014008898288011551
0.020618731155991554,0.011374189518392086,-0.00790230929851532,-0.02720225229859352,0.002199470764026046,-0.014129829593002796
0.020620327442884445,0.010902965441346169,-0.00815677735954523,-0.027346666902303696,0.0021792277693748474,-0.013883521780371666
0.021050462499260902,0.012073908932507038,-0.008737682364881039,-0.028661180287599564,0.0021326884161680937,-0.014243189245462418
0.021030299365520477,0.011693202890455723,-0.008600456640124321,-0.02876400761306286,0.0022459097672253847,-0.014246253296732903
0.021550700068473816,0.01161216851323843,-0.008632089011371136,-0.02967827394604683,0.0022931110579520464,-0.014231535606086254
0.021198678761720657,0.01123052928596735,-0.008346117101609707,-0.029881656169891357,0.002227019751444459,-0.01435910351574421
0.019861113280057907,0.010968017391860485,-0.008200986310839653,-0.029203273355960846,0.0022490541450679302,-0.014167358167469501
0.021625380963087082,0.01141398772597313,-0.00840670708566904,-0.027917373925447464,0.002208717865869403,-0.013818925246596336
0.021865613758563995,0.011113030835986137,-0.008657884784042835,-0.028346573933959007,0.002488058293238282,-0.013651612214744091
0.02130383625626564,0.011158362030982971,-0.00858982652425766,-0.02952568046748638,0.0028285118751227856,-0.013797670602798462
0.021233299747109413,0.011443548835814,-0.009014022536575794,-0.029176348820328712,0.002958420431241393,-0.014062924310564995
0.021205008029937744,0.010951115749776363,-0.008471070788800716,-0.028987035155296326,0.002817430067807436,-0.014259213581681252
0.02126411348581314,0.012240037322044373,-0.008520434610545635,-0.028564760461449623,0.0026965949218720198,-0.013960346579551697
0.021602291613817215,0.01146731711924076,-0.00839843600988388,-0.028762992471456528,0.0023847033735364676,-0.014018057845532894
0.021631617099046707,0.011167477816343307,-0.00866461731493473,-0.02956300601363182,0.002381640486419201,-0.014240177348256111
0.021918347105383873,0.011565472930669785,-0.008708031848073006,-0.02935967594385147,0.0023563960567116737,-0.01448029838502407
0.021722866222262383,0.010998289100825787,-0.008353406563401222,-0.02965640462934971,0.002330953488126397,-0.014219128526747227
0.02166154608130455,0.011655370704829693,-0.008580729365348816,-0.0295155830681324,0.0025443262420594692,-0.014385086484253407
0.02185000479221344,0.011638610623776913,-0.0089601781219244,-0.029934175312519073,0.002372097223997116,-0.014613015577197075
0.021522898226976395,0.011195451021194458,-0.008760077878832817,-0.031333234161138535,0.002312519820407033,-0.014907585456967354
0.021548693999648094,0.011570838280022144,-0.008581285364925861,-0.0296240895986557,0.0023117982782423496,-0.014717812649905682
0.02183852717280388,0.011250456795096397,-0.009596242569386959,-0.029305873438715935,0.002157957525923848,-0.014931855723261833
0.022197933867573738,0.011609608307480812,-0.008824211545288563,-0.02984478510916233,0.002376018790528178,-0.01494749914854765
0.022197933867573738,0.011609608307480812,-0.008824211545288563,-0.02984478510916233,0.002376018790528178,-0.01494749914854765
0.021910376846790314,0.011335307732224464,-0.008368086069822311,-0.03056546486914158,0.0023553036153316498,-0.015240855515003204
0.02211284451186657,0.011058713309466839,-0.008870063349604607,-0.03046874701976776,0.0023274694103747606,-0.015042400918900967
0.022418156266212463,0.011708059348165989,-0.009011602960526943,-0.030439630150794983,0.0023699759040027857,-0.014402172528207302
0.02217782661318779,0.011647735722362995,-0.009039339609444141,-0.030264873057603836,0.002239355118945241,-0.01586793176829815
0.02219480089843273,0.011180541478097439,-0.009377865120768547,-0.03099103458225727,0.002210731850937009,-0.016114598140120506
0.02219480089843273,0.011180541478097439,-0.009377865120768547,-0.03099103458225727,0.002210731850937009,-0.016114598140120506
0.022763896733522415,0.011136443354189396,-0.00874349195510149,-0.030253471806645393,0.002159473719075322,-0.015947138890624046
0.023096943274140358,0.010976838879287243,-0.009412064217031002,-0.030262622982263565,0.0021363110281527042,-0.015323780477046967
0.02290445752441883,0.011246646754443645,-0.00897187553346157,-0.030352432280778885,0.0022493149153888226,-0.015897169709205627
0.022172661498188972,0.011529892683029175,-0.008746763691306114,-0.030202530324459076,0.00208485359326005,-0.016383785754442215
0.022953052073717117,0.010897793807089329,-0.009025081992149353,-0.030616283416748047,0.0021169076208025217,-0.01634611003100872
0.023546412587165833,0.011622530408203602,-0.009131388738751411,-0.03070366568863392,0.0021224897354841232,-0.016098156571388245
0.023372720927000046,0.011438884772360325,-0.00856336485594511,-0.030339255928993225,0.002263353206217289,-0.01599133014678955
0.02274838089942932,0.011130902916193008,-0.009141011163592339,-0.030236201360821724,0.002323585795238614,-0.015847232192754745
0.02341342903673649,0.011612593196332455,-0.009218967519700527,-0.030380550771951675,0.0023403235245496035,-0.015504657290875912
0.024126889184117317,0.011095046065747738,-0.009055805392563343,-0.030461419373750687,0.0025839994195848703,-0.015187329612672329
0.02351674996316433,0.011775560677051544,-0.009441238828003407,-0.029947062954306602,0.002500284928828478,-0.01561982836574316
0.023499321192502975,0.011779643595218658,-0.010234091430902481,-0.0299192164093256,0.0024037715047597885,-0.0159282386302948
0.0235369261354208,0.011451068334281445,-0.009011958725750446,-0.030820677056908607,0.0022852628026157618,-0.016457822173833847
0.02295059524476528,0.01141988392919302,-0.008789869956672192,-0.031129952520132065,0.002165180630981922,-0.016352562233805656
0.023628829047083855,0.01122742798179388,-0.00941486842930317,-0.03092029318213463,0.002231649588793516,-0.016207126900553703
0.024546906352043152,0.0117351608350873,-0.00973952654749155,-0.03026237152516842,0.0021886280737817287,-0.016500305384397507
0.024270156398415565,0.011862427927553654,-0.008680392056703568,-0.030636541545391083,0.0021988132502883673,-0.01650712825357914
0.022290553897619247,0.011865552514791489,-0.010281345807015896,-0.03217640146613121,0.0023673654068261385,-0.016926033422350883
0.024407971650362015,0.011839217506349087,-0.009265249595046043,-0.03195720538496971,0.00250455760397017,-0.01676158607006073
0.02422388084232807,0.011335309594869614,-0.00888470746576786,-0.032261405140161514,0.0023968687746673822,-0.016446160152554512
0.02422388084232807,0.011335309594869614,-0.00888470746576786,-0.032261405140161514,0.0023968687746673822,-0.016446160152554512
0.024148572236299515,0.01134774275124073,-0.009187472052872181,-0.03283184766769409,0.0023373099975287914,-0.015951329842209816
0.02438669465482235,0.011616881936788559,-0.0092427097260952,-0.03167957067489624,0.002458210103213787,-0.01580861397087574
0.02425023540854454,0.01128068845719099,-0.008566250093281269,-0.03097189962863922,0.0027130888774991035,-0.015822002664208412
0.024428540840744972,0.011790980584919453,-0.009120463393628597,-0.03190432861447334,0.0028972437139600515,-0.01584586128592491
0.02449617348611355,0.01166345365345478,-0.009305441752076149,-0.032791633158922195,0.0026538667734712362,-0.01627916283905506
0.024018023163080215,0.011789926327764988,-0.010500747710466385,-0.032951466739177704,0.0024943009484559298,-0.01655159518122673
0.024280980229377747,0.011683305725455284,-0.008673841133713722,-0.03256263956427574,0.002374689094722271,-0.016665102913975716
0.025033144280314445,0.011860186234116554,-0.008903133682906628,-0.03356051817536354,0.0024402132257819176,-0.016748202964663506
0.024698497727513313,0.011608646251261234,-0.008993569761514664,-0.0328761450946331,0.0026274388656020164,-0.016814788803458214
0.024711662903428078,0.012659694999456406,-0.009581583552062511,-0.032963335514068604,0.002768714912235737,-0.016835525631904602
0.024757152423262596,0.011725281365215778,-0.009202900342643261,-0.03287218138575554,0.0027312610764056444,-0.016685038805007935
0.0249819066375494,0.01170981302857399,-0.008997691795229912,-0.032937001436948776,0.0028102477081120014,-0.016560561954975128
0.02542191930115223,0.012049783952534199,-0.009138902649283409,-0.033630017191171646,0.002857367042452097,-0.016795415431261063
0.026324855163693428,0.011118344962596893,-0.009535671211779118,-0.03321694955229759,0.002899020677432418,-0.01714383065700531
0.025722302496433258,0.011807102710008621,-0.009338497184216976,-0.034023892134428024,0.0027803860139101744,-0.016714906319975853
0.02494167350232601,0.011545275337994099,-0.009375521913170815,-0.0332425981760025,0.002727031009271741,-0.016427358612418175
0.025211146101355553,0.011647304520010948,-0.009201773442327976,-0.032518886029720306,0.002583296038210392,-0.015751395374536514
0.02590060420334339,0.011919274926185608,-0.00904269702732563,-0.031831614673137665,0.0024337163195014,-0.0171597208827734
0.026310648769140244,0.011773430742323399,-0.008738821372389793,-0.033003829419612885,0.0025759681593626738,-0.017287857830524445
0.02567773312330246,0.011941736564040184,-0.00902859028428793,-0.034391891211271286,0.0026612323708832264,-0.016911452636122704
0.025982262566685677,0.011796331964433193,-0.008756482042372227,-0.03409898281097412,0.002828991739079356,-0.016979465261101723
0.02599216438829899,0.012120106257498264,-0.008643979206681252,-0.035227857530117035,0.0028341636061668396,-0.01684005931019783
0.02636762149631977,0.011607413180172443,-0.009071038104593754,-0.03541030362248421,0.00247606891207397,-0.01704777404665947
0.026103965938091278,0.011545157991349697,-0.008862415328621864,-0.03413326293230057,0.0023811515420675278,-0.017165668308734894
0.025090334936976433,0.012323562055826187,-0.009117169305682182,-0.03378162533044815,0.0025988593697547913,-0.01690681464970112
0.0257232915610075,0.012340361252427101,-0.008966946974396706,-0.03508507087826729,0.002755024004727602,-0.01690390147268772
0.026948634535074234,0.012020076625049114,-0.008611478842794895,-0.035108983516693115,0.0028485520742833614,-0.016804616898298264
0.02642897516489029,0.012120564468204975,-0.00864360947161913,-0.03488413989543915,0.0028583991806954145,-0.01708155870437622
0.026053084060549736,0.01172888558357954,-0.008485334925353527,-0.03526977449655533,0.002969725290313363,-0.01723106950521469
0.026053084060549736,0.01172888558357954,-0.008485334925353527,-0.03526977449655533,0.002969725290313363,-0.01723106950521469
0.025343896821141243,0.011987355537712574,-0.009116306900978088,-0.034873347729444504,0.0029093730263412,-0.01705334708094597
0.026450512930750847,0.011834659613668919,-0.008576016873121262,-0.0349636934697628,0.002795153297483921,-0.01715645007789135
0.025456411764025688,0.012440459802746773,-0.008635440841317177,-0.03464944288134575,0.0026043534744530916,-0.017339108511805534
0.026111142709851265,0.011700422503054142,-0.009351148270070553,-0.034308306872844696,0.0025879121385514736,-0.017596371471881866
0.02625921368598938,0.011954903602600098,-0.008665761910378933,-0.03471748158335686,0.0026441800873726606,-0.01734415628015995
0.026413412764668465,0.011702391318976879,-0.008920837193727493,-0.03501462936401367,0.0027011213824152946,-0.016941672191023827
0.02634325809776783,0.012041722424328327,-0.009258601814508438,-0.034239113330841064,0.0027447869069874287,-0.016482219099998474
0.02634325809776783,0.012041722424328327,-0.009258601814508438,-0.034239113330841064,0.0027447869069874287,-0.016482219099998474
0.02638891711831093,0.012251703068614006,-0.008786345832049847,-0.034821510314941406,0.002896350808441639,-0.016670355573296547
0.02667582407593727,0.01233507227152586,-0.00983637198805809,-0.03478424996137619,0.0030664047226309776,-0.016625886783003807
0.02673758938908577,0.011933044530451298,-0.008917193859815598,-0.033977918326854706,0.0027635658625513315,-0.01632528565824032
0.02680656686425209,0.01233143825083971,-0.008454756811261177,-0.03434918820858002,0.002663761144503951,-0.016720982268452644
0.026782680302858353,0.012206844985485077,-0.008934165351092815,-0.03481442853808403,0.002757833106443286,-0.017278317362070084
0.026623530313372612,0.012392084114253521,-0.008820532821118832,-0.035650834441185,0.00271786330267787,-0.01747419498860836
0.02631942182779312,0.012211326509714127,-0.009138761088252068,-0.03441336750984192,0.0027336105704307556,-0.01753476820886135
0.026314303278923035,0.012567238882184029,-0.00914517231285572,-0.034473393112421036,0.002564592519775033,-0.016718927770853043
0.02633517049252987,0.012114164419472218,-0.008892025798559189,-0.034896962344646454,0.002611663192510605,-0.016642307862639427
0.027292408049106598,0.011820136569440365,-0.008540447801351547,-0.03550349175930023,0.0025976235046982765,-0.017116865143179893
0.027111433446407318,0.01265261322259903,-0.008932912722229958,-0.035385411232709885,0.0026276041753590107,-0.01674119383096695
0.02677411586046219,0.01201741024851799,-0.00903361663222313,-0.03603759780526161,0.002870569471269846,-0.017157478258013725
0.02654755488038063,0.012302866205573082,-0.00838779378682375,-0.035302598029375076,0.002960210433229804,-0.01740678772330284
0.026617802679538727,0.012070775032043457,-0.008387445472180843,-0.0350240021944046,0.0028355622198432684,-0.017966149374842644
0.026839880272746086,0.012391178868710995,-0.008916403166949749,-0.037387702614068985,0.0030153351835906506,-0.017574891448020935
0.026628362014889717,0.012863717041909695,-0.008629043586552143,-0.03769094496965408,0.0028940814081579447,-0.017563052475452423
0.02614942193031311,0.012291355058550835,-0.008424663916230202,-0.03560199961066246,0.0030332780443131924,-0.018295228481292725
0.02614942193031311,0.012291355058550835,-0.008424663916230202,-0.03560199961066246,0.0030332780443131924,-0.018295228481292725
0.026720385998487473,0.013130691833794117,-0.00894935056567192,-0.03584858030080795,0.0031250049360096455,-0.0184169951826334
0.026753567159175873,0.01223608199506998,-0.008800684474408627,-0.037222523242235184,0.0032530445605516434,-0.018485380336642265
0.025972925126552582,0.012918582186102867,-0.008697413839399815,-0.03712848573923111,0.0031332052312791348,-0.018347881734371185
0.02625923603773117,0.012261073105037212,-0.008703899569809437,-0.03790014982223511,0.0029157574754208326,-0.017819883301854134
0.02669118158519268,0.012390467338263988,-0.009024488739669323,-0.03764753043651581,0.0029042598325759172,-0.017685960978269577
0.02615058608353138,0.012336688116192818,-0.008538915775716305,-0.03628607094287872,0.002875772537663579,-0.017404571175575256
0.026644142344594002,0.012231658212840557,-0.008175780065357685,-0.0362907350063324,0.002855307422578335,-0.017810946330428123
0.026864781975746155,0.012299241498112679,-0.008542347699403763,-0.03695215657353401,0.0029243750032037497,-0.018761325627565384
0.026011504232883453,0.012772373855113983,-0.008178632706403732,-0.036518506705760956,0.0029975075740367174,-0.01844448782503605
0.026489531621336937,0.012621442787349224,-0.008510124869644642,-0.03675151243805885,0.0026299767196178436,-0.016901154071092606
0.02671235427260399,0.012862339615821838,-0.008845130912959576,-0.038135088980197906,0.0026766369119286537,-0.018565025180578232
0.027236055582761765,0.012859932146966457,-0.008375259116292,-0.037033893167972565,0.0030174332205206156,-0.019046764820814133
0.026609359309077263,0.012806692160665989,-0.008245483040809631,-0.03657928854227066,0.0035118749365210533,-0.018845904618501663
0.02725386805832386,0.012864597141742706,-0.008840471506118774,-0.037415068596601486,0.0033703576773405075,-0.018568728119134903
0.027927717193961143,0.012005634605884552,-0.008803319185972214,-0.038157299160957336,0.002836927305907011,-0.01844351552426815
0.027163075283169746,0.012630658224225044,-0.008598231710493565,-0.037846583873033524,0.00264947721734643,-0.018553556874394417
0.026713471859693527,0.012451549991965294,-0.00865911040455103,-0.03805249184370041,0.002582872286438942,-0.01847040466964245
0.026452163234353065,0.01291762012988329,-0.008597439154982567,-0.038306232541799545,0.0027139908634126186,-0.01876976527273655
0.02704995684325695,0.012560071423649788,-0.008716844953596592,-0.039272550493478775,0.0028102716896682978,-0.018706172704696655
0.027900468558073044,0.012902104295790195,-0.008493314497172832,-0.03932635486125946,0.0030607269145548344,-0.018486391752958298
0.027779774740338326,0.012976355850696564,-0.008261024951934814,-0.03748590499162674,0.0031496617011725903,-0.01853039488196373
0.02781057171523571,0.01292346976697445,-0.00830166321247816,-0.03793565183877945,0.003125432413071394,-0.018845882266759872
0.027736537158489227,0.013330621644854546,-0.008507223799824715,-0.038327209651470184,0.0030383416451513767,-0.018870258703827858
0.02793663553893566,0.012594063766300678,-0.009096082299947739,-0.03927422687411308,0.0032979357056319714,-0.01928207464516163
0.027965959161520004,0.013191617093980312,-0.009029882028698921,-0.03987540677189827,0.0030421032570302486,-0.019383277744054794
0.02762729302048683,0.012415651232004166,-0.008467373438179493,-0.03819802775979042,0.002999856136739254,-0.01925850100815296
0.02825494110584259,0.012967696413397789,-0.008089137263596058,-0.03738558292388916,0.002967939479276538,-0.01932664029300213
0.02825494110584259,0.012967696413397789,-0.008089137263596058,-0.03738558292388916,0.002967939479276538,-0.01932664029300213
0.028414692729711533,0.012745420448482037,-0.008723767474293709,-0.03850569203495979,0.0030877389945089817,-0.019144374877214432
0.027939289808273315,0.012927500531077385,-0.008723719045519829,-0.03868410736322403,0.003335055662319064,-0.01879197359085083
0.0285758376121521,0.012762096710503101,-0.008511807769536972,-0.038947898894548416,0.003236372023820877,-0.018861204385757446
0.028409533202648163,0.01290958747267723,-0.009171976707875729,-0.03991340845823288,0.003184950677677989,-0.0192211102694273
0.028041474521160126,0.012722467072308064,-0.008577937260270119,-0.038224413990974426,0.0031680939719080925,-0.019125990569591522
0.029803918674588203,0.012730213813483715,-0.008667411282658577,-0.03817509859800339,0.0030363283585757017,-0.019367244094610214
0.029650740325450897,0.013071827590465546,-0.009005011059343815,-0.03860359266400337,0.002898107748478651,-0.01893525756895542
0.028828030452132225,0.012923141941428185,-0.00842177402228117,-0.03893962502479553,0.002877565333619714,-0.019006982445716858
0.028366180136799812,0.012630731798708439,-0.007300256285816431,-0.03832564502954483,0.002830708399415016,-0.019272247329354286
0.029317697510123253,0.01251311507076025,-0.007597966585308313,-0.038654375821352005,0.002826652955263853,-0.01915508508682251
0.029513131827116013,0.012792356312274933,-0.007542520295828581,-0.039213381707668304,0.0027173568960279226,-0.01914292201399803
0.02895141765475273,0.01242976263165474,-0.007344422861933708,-0.03928394243121147,0.0030038421973586082,-0.01915702037513256
0.029753390699625015,0.01274141389876604,-0.007085118442773819,-0.03948444500565529,0.0034545341040939093,-0.019129397347569466
0.03020421974360943,0.012327694334089756,-0.008014154620468616,-0.03985735401511192,0.003501420607790351,-0.019267242401838303
0.029552239924669266,0.013350222259759903,-0.008224159479141235,-0.040174372494220734,0.003143445122987032,-0.019267048686742783
0.028836483135819435,0.013094942085444927,-0.007892799563705921,-0.04028423875570297,0.002826180774718523,-0.019013389945030212
0.029285114258527756,0.013403836637735367,-0.0069701033644378185,-0.039955176413059235,0.002804286079481244,-0.019163483753800392
0.030700188130140305,0.012769057415425777,-0.008165700361132622,-0.0403587743639946,0.003033251967281103,-0.02031034231185913
0.03012348897755146,0.01233622431755066,-0.007857592776417732,-0.04078737646341324,0.0035168062895536423,-0.020431971177458763
0.029956497251987457,0.012827008962631226,-0.007490409538149834,-0.040664542466402054,0.003388990182429552,-0.019597789272665977
0.03004363924264908,0.012517143040895462,-0.00815560296177864,-0.03988640010356903,0.0034945649094879627,-0.0197543203830719
0.029926102608442307,0.012822526507079601,-0.008084128610789776,-0.04200388118624687,0.0032696642447263002,-0.01945868507027626
0.029839491471648216,0.01243941392749548,-0.00759144127368927,-0.04205014556646347,0.003403580980375409,-0.018900170922279358
0.030130429193377495,0.012942606583237648,-0.007512062322348356,-0.03976622596383095,0.003289216198027134,-0.01940976083278656
0.030381368473172188,0.012540840543806553,-0.007782276254147291,-0.03998589143157005,0.00346555863507092,-0.01970294862985611
0.0306090135127306,0.012942032888531685,-0.007848195731639862,-0.0418534129858017,0.0035590357147157192,-0.020461568608880043
0.030280278995633125,0.013174338266253471,-0.00791237037628889,-0.04229666292667389,0.0036140908487141132,-0.020244790241122246
0.030533218756318092,0.013250933028757572,-0.007504631765186787,-0.043667666614055634,0.0035782465711236,-0.01984672248363495
0.030744995921850204,0.01303374208509922,-0.007341243326663971,-0.042583804577589035,0.0033390794415026903,-0.020057862624526024
0.030883878469467163,0.012482167221605778,-0.007568098604679108,-0.04135894402861595,0.00307636265642941,-0.020563215017318726
0.030883878469467163,0.012482167221605778,-0.007568098604679108,-0.04135894402861595,0.00307636265642941,-0.020563215017318726
0.031177576631307602,0.013180635869503021,-0.007736613973975182,-0.042328398674726486,0.0029356637969613075,-0.02065342292189598
0.031186658889055252,0.012519095093011856,-0.007736458443105221,-0.04406888782978058,0.003258665557950735,-0.020128609612584114
0.03132955729961395,0.01299052033573389,-0.008987436071038246,-0.04318343102931976,0.0033667765092104673,-0.01981685683131218
0.0316113717854023,0.012815423309803009,-0.0075315083377063274,-0.04281572625041008,0.0033597953151911497,-0.019835004583001137
0.03144377842545509,0.012815690599381924,-0.007506790570914745,-0.043667566031217575,0.0033827004954218864,-0.02047465182840824
0.031089788302779198,0.013315203599631786,-0.008459175936877728,-0.04321308806538582,0.0032405578531324863,-0.020991915836930275
0.031184885650873184,0.013388345018029213,-0.007586108986288309,-0.04325224459171295,0.002980700461193919,-0.02060040831565857
0.031290970742702484,0.012579444795846939,-0.007266280706971884,-0.043910589069128036,0.0028486675582826138,-0.02026652731001377
0.03154035657644272,0.013012479990720749,-0.007496635429561138,-0.04364929720759392,0.0029879561625421047,-0.020705992355942726
0.031198369339108467,0.012678887695074081,-0.009168479591608047,-0.042564887553453445,0.0033179274760186672,-0.020477278158068657
0.031869590282440186,0.013256192207336426,-0.008110610768198967,-0.042848851531744,0.003465765854343772,-0.020308034494519234
0.03171283379197121,0.012637059204280376,-0.007594887632876635,-0.04450635612010956,0.0035986234433948994,-0.0208605770021677
0.031800929456949234,0.013715775683522224,-0.007714468520134687,-0.043339699506759644,0.0036781765520572662,-0.02097165398299694
0.03178763389587402,0.012987552210688591,-0.007821382023394108,-0.041250888258218765,0.003625815734267235,-0.02113613672554493
0.03230080381035805,0.013433141633868217,-0.007834135554730892,-0.0429978221654892,0.0033003611024469137,-0.02084333822131157
0.03185005486011505,0.013603780418634415,-0.007368840742856264,-0.042714159935712814,0.003047861158847809,-0.02092958427965641
0.03150744363665581,0.013473563827574253,-0.007532123476266861,-0.043714798986911774,0.0029064055997878313,-0.021135913208127022
0.031828224658966064,0.013452035374939442,-0.007971305400133133,-0.04265918210148811,0.002903493819758296,-0.02076059766113758
0.03270949050784111,0.013075708411633968,-0.008132219314575195,-0.04092112556099892,0.0027731622103601694,-0.02087537758052349
0.03304159268736839,0.013240959495306015,-0.007189752999693155,-0.042149461805820465,0.003015077905729413,-0.020859336480498314
0.03178331255912781,0.01294217724353075,-0.00804123468697071,-0.042940404266119,0.0032373613212257624,-0.021087225526571274
0.031150685623288155,0.01349541824311018,-0.009454237297177315,-0.04319571331143379,0.0035328338854014874,-0.021224139258265495
0.03232322260737419,0.013007995672523975,-0.007867074571549892,-0.04319153353571892,0.0036648372188210487,-0.021412581205368042
0.03232322260737419,0.013007995672523975,-0.007867074571549892,-0.04319153353571892,0.0036648372188210487,-0.021412581205368042
0.03227018192410469,0.013524798676371574,-0.007085594814270735,-0.043287500739097595,0.004121818579733372,-0.021480154246091843
0.03222738578915596,0.013170141726732254,-0.008248320780694485,-0.04396795853972435,0.003631042316555977,-0.021242951974272728
0.03219730406999588,0.013918082229793072,-0.007947031408548355,-0.044927000999450684,0.003164347494021058,-0.021229300647974014
0.03348584100604057,0.013289271853864193,-0.007590004708617926,-0.04371494799852371,0.0028914932627230883,-0.021528000012040138
0.031658563762903214,0.013735497370362282,-0.0075589194893836975,-0.04287896677851677,0.002790058497339487,-0.02170814387500286
0.03354443609714508,0.014086026698350906,-0.008214875124394894,-0.0436093769967556,0.0036875822115689516,-0.021745596081018448
0.03302193805575371,0.013618115335702896,-0.007881015539169312,-0.04406476765871048,0.0034418164286762476,-0.02144314907491207
0.032999828457832336,0.013485039584338665,-0.0077489749528467655,-0.04398907348513603,0.0035156726371496916,-0.02141345851123333
0.03280077874660492,0.013634528033435345,-0.008394626900553703,-0.04445087909698486,0.003315926296636462,-0.02198374643921852
0.032500963658094406,0.013582378625869751,-0.00772923743352294,-0.04430346563458443,0.00333971343934536,-0.021957695484161377
0.03287336602807045,0.013966725207865238,-0.007342762779444456,-0.04453975334763527,0.0034226186107844114,-0.022925276309251785
0.033178843557834625,0.013320699334144592,-0.007582535967230797,-0.04504777863621712,0.0033177079167217016,-0.023132264614105225
0.033277105540037155,0.01385802123695612,-0.008393460884690285,-0.04493015632033348,0.0030507438350468874,-0.02241595834493637
0.03312598913908005,0.013564343564212322,-0.007745838258415461,-0.044823165982961655,0.0029661725275218487,-0.021263698115944862
0.03284168243408203,0.014004685916006565,-0.00809355080127716,-0.046419087797403336,0.0031741971615701914,-0.02173266001045704
0.03305733948945999,0.013808390125632286,-0.008548031561076641,-0.046653252094984055,0.003380197798833251,-0.02268117479979992
0.034768037497997284,0.014197107404470444,-0.008100793696939945,-0.0445992536842823,0.004095315467566252,-0.022512251511216164
0.0333872027695179,0.013716542162001133,-0.007565480191260576,-0.04600754380226135,0.005116940941661596,-0.02231369912624359
0.032574091106653214,0.014228957705199718,-0.007480098400264978,-0.04735245183110237,0.0043751513585448265,-0.022449243813753128
0.03388050198554993,0.013590040616691113,-0.00829191505908966,-0.04777178540825844,0.003234738716855645,-0.022887611761689186
0.03373519703745842,0.014196752570569515,-0.007938975468277931,-0.04539766535162926,0.002852935576811433,-0.02257421612739563
0.0338427796959877,0.013911416754126549,-0.007211490534245968,-0.04472721740603447,0.0026699723675847054,-0.022290300577878952
0.03457168489694595,0.014390580356121063,-0.007159259170293808,-0.04627034068107605,0.0031924000941216946,-0.02181188203394413
0.03457168489694595,0.014390580356121063,-0.007159259170293808,-0.04627034068107605,0.0031924000941216946,-0.02181188203394413
0.03475458174943924,0.013652867637574673,-0.007811169605702162,-0.046397171914577484,0.0036256248131394386,-0.022035736590623856
0.03340701386332512,0.01425608154386282,-0.008207876235246658,-0.04596346616744995,0.0037816797848790884,-0.02229672111570835
0.03362616151571274,0.013926253654062748,-0.007651497609913349,-0.046140093356370926,0.0034173685126006603,-0.022713717073202133
0.035034775733947754,0.014036034233868122,-0.0081221554428339,-0.04642851650714874,0.0034566260874271393,-0.02264287695288658
0.03426682576537132,0.014433608390390873,-0.007879924960434437,-0.04608171433210373,0.004209223203361034,-0.02254294417798519
0.03472486883401871,0.014350797049701214,-0.007164898328483105,-0.045665938407182693,0.003615732304751873,-0.022605622187256813
0.03484846279025078,0.015036181546747684,-0.007647647522389889,-0.046112146228551865,0.003329138970002532,-0.022662382572889328
0.03430074453353882,0.014288514852523804,-0.008478238247334957,-0.04517579451203346,0.0029834958259016275,-0.022418558597564697
0.034660451114177704,0.014574076980352402,-0.008383343927562237,-0.045375362038612366,0.003142306813970208,-0.02213883399963379
0.03485732898116112,0.014004300348460674,-0.007893446832895279,-0.04554219916462898,0.003381798742339015,-0.022515350952744484
0.034988246858119965,0.014259574003517628,-0.007954751141369343,-0.047018248587846756,0.0038454090245068073,-0.022988900542259216
0.03452290967106819,0.014041564427316189,-0.007906919345259666,-0.046785514801740646,0.003999482374638319,-0.02294362336397171
0.03431527316570282,0.014316966757178307,-0.007307575549930334,-0.04432845488190651,0.003884443547576666,-0.02287742868065834
0.03482753038406372,0.014295258559286594,-0.007204636465758085,-0.046542298048734665,0.0036951422225683928,-0.022604482248425484
0.034917235374450684,0.014595919288694859,-0.008050045929849148,-0.04630081728100777,0.003438476240262389,-0.022669706493616104
0.0350818932056427,0.014329303987324238,-0.008103088475763798,-0.04876217618584633,0.003244609571993351,-0.022990774363279343
0.035019900649785995,0.014638389460742474,-0.007570717483758926,-0.046907030045986176,0.003386675613000989,-0.022898070514202118
0.034408606588840485,0.013933450914919376,-0.008072011172771454,-0.04692117124795914,0.003710897173732519,-0.022843582555651665
0.03427284210920334,0.014492732472717762,-0.007963134907186031,-0.04809672757983208,0.0038903180975466967,-0.023348147049546242
0.03483656793832779,0.014147642999887466,-0.007447749841958284,-0.04868372902274132,0.0035277660936117172,-0.022626640275120735
0.034773070365190506,0.014224033802747726,-0.006886916700750589,-0.04839218407869339,0.003551549045369029,-0.02293184958398342
0.03511926531791687,0.014493448659777641,-0.00794236920773983,-0.0481313094496727,0.003952107857912779,-0.02316722832620144
0.03502029553055763,0.014474908821284771,-0.00804862193763256,-0.04879964515566826,0.004182795528322458,-0.02338828146457672
0.03498964384198189,0.013587712310254574,-0.007496774662286043,-0.04908672347664833,0.003957418724894524,-0.023576783016324043
0.03509237617254257,0.013930978253483772,-0.007253880146890879,-0.04859805479645729,0.003739995416253805,-0.023643536493182182
0.0349288173019886,0.014862681739032269,-0.0072967614978551865,-0.04865185543894768,0.003763774177059531,-0.024000616744160652
0.03441721946001053,0.0142880380153656,-0.007524567190557718,-0.04867357388138771,0.003393389517441392,-0.024020474404096603
0.03566243126988411,0.014224330894649029,-0.007448974065482616,-0.0485539473593235,0.0035061815287917852,-0.023715052753686905
0.03566243126988411,0.014224330894649029,-0.007448974065482616,-0.0485539473593235,0.0035061815287917852,-0.023715052753686905
0.03436087444424629,0.014069571159780025,-0.0073992060497403145,-0.04907195270061493,0.0032746088691055775,-0.023653630167245865
0.03474028408527374,0.013985435478389263,-0.0074459463357925415,-0.04949207231402397,0.004086324479430914,-0.023695573210716248
0.0350705161690712,0.014487231150269508,-0.007717903237789869,-0.04938539117574692,0.004057491198182106,-0.02385208010673523
0.03486650064587593,0.014632114209234715,-0.007049191277474165,-0.04927321523427963,0.003948464058339596,-0.023644648492336273
0.03503068909049034,0.014326594769954681,-0.006127434317022562,-0.04869033396244049,0.00346868927590549,-0.023564711213111877
0.03522973880171776,0.014374527148902416,-0.007322776596993208,-0.05005806311964989,0.0032908418215811253,-0.023947792127728462
0.03463681414723396,0.01440608873963356,-0.00684194453060627,-0.04804149642586708,0.0035154579672962427,-0.024620026350021362
0.03565596416592598,0.014199988916516304,-0.006948406808078289,-0.0496123768389225,0.003929975442588329,-0.024972300976514816
0.035246264189481735,0.014255729503929615,-0.007067248225212097,-0.050362758338451385,0.004279651679098606,-0.02439461648464203
0.036669813096523285,0.01412281859666109,-0.007659980561584234,-0.05150693655014038,0.004036702215671539,-0.023729953914880753
0.03669967129826546,0.01432235911488533,-0.007061427924782038,-0.04903017356991768,0.004135259427130222,-0.023435672745108604
0.036168891936540604,0.014131064526736736,-0.005958439316600561,-0.048777513206005096,0.003644786076620221,-0.023650098592042923
0.03499440848827362,0.014332921244204044,-0.00644849706441164,-0.049743615090847015,0.003546047257259488,-0.02433219738304615
0.03708096221089363,0.014290472492575645,-0.007354165427386761,-0.04964249208569527,0.004047509282827377,-0.02404647320508957
0.03686751052737236,0.014414571225643158,-0.007168798241764307,-0.04914788156747818,0.004126109182834625,-0.023921271786093712
0.036551885306835175,0.014602355659008026,-0.006464357487857342,-0.04883800074458122,0.0040443972684443,-0.024293549358844757
0.036270029842853546,0.01476173847913742,-0.006211664993315935,-0.04859795793890953,0.003915201406925917,-0.02456280216574669
0.037024348974227905,0.014732268638908863,-0.006606392562389374,-0.04876421019434929,0.0038060476072132587,-0.024163220077753067
0.0368061400949955,0.014771305955946445,-0.006890138145536184,-0.04899982362985611,0.004266698379069567,-0.023755893111228943
0.03653851896524429,0.01458865124732256,-0.00754551263526082,-0.04936967417597771,0.004154897760599852,-0.023719998076558113
0.036785438656806946,0.014831500127911568,-0.006723607424646616,-0.05001939460635185,0.003922620788216591,-0.024327650666236877
0.037505920976400375,0.014983240514993668,-0.006426799576729536,-0.04997849091887474,0.004307245835661888,-0.025348149240016937
0.03761166334152222,0.015023177489638329,-0.00675621721893549,-0.05112125724554062,0.004194316454231739,-0.02509964630007744
0.03574526309967041,0.015086141414940357,-0.006855624727904797,-0.0507168248295784,0.004024505615234375,-0.02488504722714424
0.03685084357857704,0.014531210996210575,-0.00646090367808938,-0.05300278216600418,0.004029115196317434,-0.024938050657510757
0.03708603233098984,0.015012224204838276,-0.006393557880073786,-0.05182160437107086,0.004001240245997906,-0.025078145787119865
0.03708603233098984,0.015012224204838276,-0.006393557880073786,-0.05182160437107086,0.004001240245997906,-0.025078145787119865
0.03740381821990013,0.014501042664051056,-0.006457463838160038,-0.05043783411383629,0.00401490880176425,-0.025260405614972115
0.037845756858587265,0.014389283955097198,-0.007045503705739975,-0.05298679694533348,0.003957812674343586,-0.025658609345555305
0.037845756858587265,0.014389283955097198,-0.007045503705739975,-0.05298679694533348,0.003957812674343586,-0.025658609345555305
0.036743007600307465,0.015027651563286781,-0.007329554762691259,-0.052544545382261276,0.003504720749333501,-0.025856319814920425
0.03766939043998718,0.014436610974371433,-0.006514985579997301,-0.05076964199542999,0.003167511196807027,-0.025594612583518028
0.03818730637431145,0.014648274518549442,-0.006609779316931963,-0.05215805396437645,0.0033848665188997984,-0.02543260157108307
