davideferrari95/blind_handover_controller/data/Test 92 - [2024-02-07 -- 16-11-57]/joint_states_data.csv
shoulder_pan_joint,shoulder_lift_joint,elbow_joint,wrist_1_joint,wrist_2_joint,wrist_3_joint
0.007548742461949587,0.006494960747659206,-0.007869865745306015,0.0027451184578239918,-0.0,0.007935221306979656
0.007548742461949587,0.006494960747659206,-0.007869865745306015,0.0027451184578239918,-0.0,0.007935221306979656
0.00814532395452261,0.00657412875443697,-0.008428898639976978,0.002782560419291258,-0.0,0.007690588943660259
0.00814532395452261,0.00657412875443697,-0.008428898639976978,0.002782560419291258,-0.0,0.007690588943660259
0.00776422256603837,0.006324538495391607,-0.008712301030755043,0.0027228447142988443,-0.0,0.007523806765675545
0.0070949881337583065,0.00630648760125041,-0.0077434116974473,0.002970879664644599,-0.0,0.0073506818152964115
0.007140828296542168,0.006640058942139149,-0.008210010826587677,0.0030169663950800896,-0.0,0.0074779437854886055
0.007632966618984938,0.006842438597232103,-0.00888785533607006,0.002909776521846652,-0.0,0.007465366739779711
0.007832925766706467,0.006481819786131382,-0.00900287739932537,0.002726083155721426,-0.0,0.008060716092586517
0.00774363474920392,0.006492238957434893,-0.0079336017370224,0.0025402649771422148,-0.0,0.007704580202698708
0.007476089522242546,0.006557166110724211,-0.00826797354966402,0.002303007524460554,-0.0,0.0076615880243480206
0.007541376166045666,0.006561250891536474,-0.00891973078250885,0.0023415994364768267,-0.0,0.007793826051056385
0.007642502896487713,0.006520962808281183,-0.008361365646123886,0.0023417826741933823,-0.0,0.00780350249260664
0.007996995002031326,0.006121610291302204,-0.008162963204085827,0.002319770399481058,-0.0,0.007740471512079239
0.007657844107598066,0.006103626452386379,-0.008805991150438786,0.0025432498659938574,4.513246665283077e-07,0.007826758548617363
0.007886462844908237,0.0057185557670891285,-0.008469300344586372,0.0025581526570022106,1.924067793979134e-09,0.007671418599784374
0.007679707836359739,0.005892355926334858,-0.007918676361441612,0.0026356675662100315,1.2562788309633532e-10,0.007428694516420364
0.007557302247732878,0.005985824391245842,-0.00836598314344883,0.0027252696454524994,8.202602659601599e-12,0.007987720891833305
0.0075625465251505375,0.0062821172177791595,-0.008354974910616875,0.00273272767663002,5.35571370238741e-13,0.007739991415292025
0.007372297812253237,0.0061248671263456345,-0.008269977755844593,0.0026013208553195,3.4968982733345894e-14,0.007450644858181477
0.007303672842681408,0.006418900098651648,-0.008559654466807842,0.0026958289090543985,2.283224531410776e-15,0.007229840382933617
0.007294204086065292,0.006519666872918606,-0.00826954934746027,0.002665774431079626,1.490782354681203e-16,0.007423036266118288
0.007796315476298332,0.00607663206756115,-0.008247588761150837,0.002673910930752754,9.733741979099346e-18,0.007644221186637878
0.007615522015839815,0.006410511210560799,-0.008346506394445896,0.0027947667986154556,6.355438026337464e-19,0.007607552222907543
0.00718662329018116,0.006651429925113916,-0.008658058010041714,0.002825705800205469,4.149646862513163e-20,0.007531869690865278
0.007075773552060127,0.0067994073033332825,-0.008526226505637169,0.002815396524965763,2.7094230282237314e-21,0.007574849296361208
0.007075773552060127,0.0067994073033332825,-0.008526226505637169,0.002815396524965763,2.7094230282237314e-21,0.007574849296361208
0.007496842183172703,0.006240583956241608,-0.008817953988909721,0.0027797871734946966,1.1550693856306929e-23,0.007515233941376209
0.006936386227607727,0.006481315940618515,-0.008739695884287357,0.0024783664848655462,7.5417774805445165e-25,0.007408204488456249
0.0070928665809333324,0.00728518795222044,-0.008480905555188656,0.00236858450807631,4.9242420255637817e-26,0.007703621871769428
0.007577536161988974,0.006698786746710539,-0.008091018535196781,0.0023006100673228502,3.2151780714461673e-27,0.0075524961575865746
0.007577536161988974,0.006698786746710539,-0.008091018535196781,0.0023006100673228502,3.2151780714461673e-27,0.0075524961575865746
0.007846114225685596,0.006274773273617029,-0.008368615992367268,0.0022500010672956705,2.0992814542340727e-28,0.007339643780142069
0.00750979408621788,0.0067812311463057995,-0.008111491799354553,0.002374068135395646,1.370680880765027e-29,0.006997470278292894
0.006956052500754595,0.0069413757883012295,-0.008111177943646908,0.002675492549315095,8.949566054674724e-31,0.007179893087595701
0.0075797587633132935,0.006678583100438118,-0.008430502377450466,0.0025409909430891275,5.843427674470098e-32,0.0074747344478964806
0.007817773148417473,0.0064659276977181435,-0.00859606172889471,0.0026115046348422766,3.8153409527142696e-33,0.0078081791289150715
0.007527185138314962,0.0064398907124996185,-0.008223786018788815,0.0026512022595852613,2.4911448216385357e-34,0.007520825136452913
0.008072465658187866,0.006105025298893452,-0.00795680470764637,0.0023972829803824425,1.626539511441528e-35,0.007035586051642895
0.007809157483279705,0.006069569382816553,-0.008882244117558002,0.00253908964805305,1.0620140174311529e-36,0.007099334616214037
0.007625705562531948,0.006557411048561335,-0.008542445488274097,0.002714067930355668,6.934192047097554e-38,0.007361722644418478
0.007397405803203583,0.006504117976874113,-0.008236056193709373,0.002605879446491599,4.5275322798025893e-39,0.007461247034370899
0.008034545928239822,0.005665936507284641,-0.008837208151817322,0.0027560738380998373,2.9561512143703476e-40,0.007070939056575298
0.007839192636311054,0.0063952193595469,-0.008548424579203129,0.0027009749319404364,1.930148504761003e-41,0.007420508190989494
0.007470316253602505,0.007005532272160053,-0.008248901925981045,0.002666836604475975,1.2597673194280105e-42,0.00764950318261981
0.0072512272745370865,0.006649660412222147,-0.00882381945848465,0.002453310415148735,8.267660939516421e-44,0.006951053626835346
0.007764054927974939,0.006189306732267141,-0.008687969297170639,0.0022870381362736225,0.0,0.007286824751645327
0.0074429283849895,0.005887569393962622,-0.008440565317869186,0.002204410033300519,0.0,0.0074258651584386826
0.007122823968529701,0.006719176657497883,-0.00908344704657793,0.0021198249887675047,0.0,0.00703003816306591
0.007684074807912111,0.00635218620300293,-0.009201508946716785,0.002254965715110302,0.0,0.007143667433410883
0.007381719071418047,0.006087356247007847,-0.008324062451720238,0.0023240104783326387,0.0,0.0074319979175925255
0.007381719071418047,0.006087356247007847,-0.008324062451720238,0.0023240104783326387,0.0,0.0074319979175925255
0.007212395779788494,0.005970593076199293,-0.009522823616862297,0.0023544710129499435,0.0,0.007315970491617918
0.007597369607537985,0.006425676867365837,-0.008322235196828842,0.002126688603311777,0.0,0.007269259076565504
0.008262459188699722,0.0064702690578997135,-0.007925381883978844,0.00204674550332129,0.0,0.007284040562808514
0.007955175824463367,0.006319613661617041,-0.009005461819469929,0.0019234403735026717,0.0,0.007433176040649414
0.006834604311734438,0.005863666534423828,-0.008644796907901764,0.0020825937390327454,0.0,0.007030222564935684
0.006834604311734438,0.005863666534423828,-0.008644796907901764,0.0020825937390327454,0.0,0.007030222564935684
0.007129813078790903,0.0062068551778793335,-0.007917341776192188,0.002114207250997424,0.0,0.006831088103353977
0.007534955628216267,0.006915704812854528,-0.00845347624272108,0.002139435615390539,0.0,0.007315759547054768
0.008166411891579628,0.006001556292176247,-0.008539902977645397,0.002362239873036742,0.0,0.0070444075390696526
0.007097800727933645,0.005830063484609127,-0.008366936817765236,0.0021490915678441525,0.0,0.006962609943002462
0.007096709217876196,0.0058424873277544975,-0.008194945752620697,0.0021299757063388824,0.0,0.007179246284067631
0.008099730126559734,0.006089281756430864,-0.008554056286811829,0.001899959403090179,0.0,0.007003133650869131
0.007869575172662735,0.006587326060980558,-0.008882887661457062,0.001967791700735688,0.0,0.007042615674436092
0.007630438078194857,0.0063548460602760315,-0.008084855042397976,0.002330901101231575,0.0,0.00721519161015749
0.007898608222603798,0.0058974092826247215,-0.007972943596541882,0.002382430946454406,0.0,0.007049313746392727
0.007955622859299183,0.005870021414011717,-0.008653245866298676,0.0023381311912089586,0.0,0.00689886836335063
0.007833435200154781,0.005966223310679197,-0.008922576904296875,0.0022309529595077038,0.0,0.007406784687191248
0.00692744879052043,0.006712357513606548,-0.008087899535894394,0.0023387365508824587,0.0,0.007264285814017057
0.008197792805731297,0.006598507985472679,-0.008448193781077862,0.0024681801442056894,0.0,0.0068494174629449844
0.0074716852977871895,0.006086786277592182,-0.008074679411947727,0.0025268045719712973,0.0,0.007086369674652815
0.00746689410880208,0.006492855492979288,-0.008307525888085365,0.002234768122434616,0.0,0.00726576242595911
0.00783713161945343,0.006665792781859636,-0.00891047902405262,0.0021056232508271933,0.0,0.007182030472904444
0.008247713558375835,0.006114195566624403,-0.008305885829031467,0.0019567387644201517,0.0,0.007018724922090769
0.007874026894569397,0.0059576998464763165,-0.008198820054531097,0.002064742846414447,0.0,0.007186825852841139
0.007673976011574268,0.005969164427369833,-0.008559361100196838,0.002126431791111827,0.0,0.007010565139353275
0.007915990427136421,0.006349838804453611,-0.008780404925346375,0.002173891058191657,0.0,0.006741811521351337
0.00785073358565569,0.006937277037650347,-0.008503863587975502,0.0023756229784339666,0.0,0.006806620396673679
0.007969662547111511,0.0061857919208705425,-0.008436473086476326,0.0021545346826314926,0.0,0.0067755114287137985
0.00778895104303956,0.005974579136818647,-0.009045999497175217,0.0020633747335523367,0.0,0.0070137279108166695
0.007791492622345686,0.005858697462826967,-0.00858801044523716,0.0019156761700287461,0.0,0.00698999734595418
0.007791492622345686,0.005858697462826967,-0.00858801044523716,0.0019156761700287461,0.0,0.00698999734595418
0.007691105827689171,0.006015931721776724,-0.008008322678506374,0.002018594415858388,0.0,0.006605790928006172
0.007724841125309467,0.00666708592325449,-0.00868690013885498,0.0022514250595122576,0.0,0.007185192313045263
0.007292715832591057,0.006581297144293785,-0.008996816352009773,0.0023536072112619877,0.0,0.007140235044062138
0.007536752615123987,0.006771411746740341,-0.008092978037893772,0.002606902737170458,0.0,0.0071084341034293175
0.00775489117950201,0.0062220171093940735,-0.008538302965462208,0.0026135591324418783,0.0,0.00703065050765872
0.00715066771954298,0.006196486297994852,-0.008622598834335804,0.002397456904873252,0.0,0.006674324162304401
0.007196380756795406,0.00650467025116086,-0.008386082015931606,0.0021339000668376684,0.0,0.006589801982045174
0.007817395962774754,0.0065244813449680805,-0.00810442864894867,0.0020309952087700367,0.0,0.006735954433679581
0.007608823478221893,0.006056454032659531,-0.008379274979233742,0.0020802514627575874,0.0,0.006657085847109556
0.007307308726012707,0.006130159366875887,-0.00838644802570343,0.002075931988656521,0.0,0.006380079779773951
0.0073715802282094955,0.005699084606021643,-0.008432220667600632,0.002575382823124528,0.0,0.006509395316243172
0.007964333519339561,0.00599387614056468,-0.007962892763316631,0.0026281762402504683,0.0,0.006496453192085028
0.0074546607211232185,0.00630747526884079,-0.008266779594123363,0.0025477504823356867,0.0,0.0063412804156541824
0.0072427773848176,0.006021927110850811,-0.008247433230280876,0.002636491321027279,0.0,0.0061645954847335815
0.007920837961137295,0.00655237166211009,-0.00836264155805111,0.0026028798893094063,0.0,0.006186984479427338
0.007920837961137295,0.00655237166211009,-0.00836264155805111,0.0026028798893094063,0.0,0.006186984479427338
0.007328965701162815,0.006359580904245377,-0.007849497720599174,0.002478977432474494,0.0,0.006481757387518883
0.007623018231242895,0.0061987172812223434,-0.008198892697691917,0.0023663940373808146,0.0,0.0063964203000068665
0.007760319393128157,0.006213137414306402,-0.008443465456366539,0.0022265349980443716,0.0,0.006665520370006561
0.007715381216257811,0.006231381092220545,-0.00802778173238039,0.0019939688500016928,0.0,0.006722535006701946
0.007017354015260935,0.006537228357046843,-0.007874831557273865,0.001787245855666697,0.0,0.007155467756092548
0.007265944499522448,0.006575343199074268,-0.008800957351922989,0.0017797001637518406,0.0,0.00701672350987792
0.007265944499522448,0.006575343199074268,-0.008800957351922989,0.0017797001637518406,0.0,0.00701672350987792
0.00780957518145442,0.006095449905842543,-0.008648809976875782,0.001980273053050041,0.0,0.00616497453302145
0.007562233600765467,0.0065535372123122215,-0.008228941820561886,0.002135693794116378,0.0,0.006020186003297567
0.007190709002315998,0.006350961048156023,-0.008042637258768082,0.0024099971633404493,0.0,0.006228154059499502
0.007651880849152803,0.006103524472564459,-0.00837776716798544,0.0027181562036275864,0.0,0.006983333267271519
0.00814626831561327,0.006499826442450285,-0.008414315059781075,0.0025038067251443863,0.0,0.006564589217305183
0.008245346136391163,0.006452053319662809,-0.007734890095889568,0.002313026459887624,0.0,0.0064409091137349606
0.0077713867649436,0.006101188249886036,-0.008693992160260677,0.0021138067822903395,0.0,0.006457912269979715
0.0077713867649436,0.006101188249886036,-0.008693992160260677,0.0021138067822903395,0.0,0.006457912269979715
0.007676482200622559,0.006635626312345266,-0.008464708924293518,0.0020880887750536203,0.0,0.006254458799958229
0.007484118454158306,0.0069170547649264336,-0.00785785261541605,0.0021366849541664124,0.0,0.0058991555124521255
0.007504136301577091,0.006496939342468977,-0.008404463529586792,0.002445610472932458,0.0,0.005868938751518726
0.008114418014883995,0.0064303758554160595,-0.008737423457205296,0.0022505931556224823,0.0,0.006083396263420582
0.008301972411572933,0.006267041899263859,-0.007860598154366016,0.0021675063762813807,0.0,0.00623236782848835
0.008292247541248798,0.0064033339731395245,-0.008155735209584236,0.001988018397241831,0.0,0.0061483122408390045
0.008555877022445202,0.006487594917416573,-0.00834356714040041,0.002123850164934993,0.0,0.006183258257806301
0.008215437643229961,0.006651176605373621,-0.008121400140225887,0.002273809863254428,0.0,0.0063798511400818825
0.008632984943687916,0.006263022311031818,-0.007701628841459751,0.0023164718877524137,0.0,0.006243299692869186
0.00774878216907382,0.0060668583028018475,-0.009052878245711327,0.002587677910923958,0.0,0.006606377195566893
0.008117720484733582,0.0060960897244513035,-0.00818850751966238,0.0023996673990041018,0.0,0.006410644855350256
0.008327287621796131,0.006762485485523939,-0.006902643945068121,0.002368050394579768,0.0,0.006075236946344376
0.007610491011291742,0.0062101311050355434,-0.009143722243607044,0.00283086602576077,0.0,0.00677088089287281
0.008510617539286613,0.006323039531707764,-0.007958960719406605,0.0027130458038300276,0.0,0.006852108519524336
0.00853091012686491,0.005930646322667599,-0.007755826227366924,0.0027413934003561735,0.0,0.006035104393959045
0.007678232621401548,0.006282969377934933,-0.008182528428733349,0.0026272807735949755,0.0,0.005856435280293226
0.00825013592839241,0.006581936031579971,-0.009011371061205864,0.0023550346959382296,0.0,0.005884351674467325
0.008239652030169964,0.006502063479274511,-0.007993764244019985,0.0022014977876096964,0.0,0.006119817029684782
0.00847006868571043,0.0062550511211156845,-0.00790947861969471,0.002025596098974347,0.0,0.0062508489936590195
0.008286958560347557,0.006340479012578726,-0.008450011722743511,0.0020233856048434973,0.0,0.005944916512817144
0.008512182161211967,0.006911946460604668,-0.008876374922692776,0.0023100594989955425,0.0,0.005703134927898645
0.008543442003428936,0.006768994498997927,-0.008087042719125748,0.0023516539949923754,0.0,0.005632365122437477
0.008166128769516945,0.006192666944116354,-0.0082544581964612,0.002565298695117235,0.0,0.006175171118229628
0.008370120078325272,0.006356240715831518,-0.008703839965164661,0.002527640201151371,0.0,0.00602171802893281
0.008532246574759483,0.0066187153570353985,-0.008467511273920536,0.002442002762109041,0.0,0.00584025215357542
0.008295218460261822,0.0065339310094714165,-0.007798550184816122,0.0025030735414475203,0.0,0.0060245320200920105
0.008295218460261822,0.0065339310094714165,-0.007798550184816122,0.0025030735414475203,0.0,0.0060245320200920105
0.009210409596562386,0.006667046342045069,-0.008410973474383354,0.002571706660091877,0.0,0.006874357350170612
0.008493037894368172,0.006596115417778492,-0.008112833835184574,0.0023357330355793238,0.0,0.006469334475696087
0.008493037894368172,0.006596115417778492,-0.008112833835184574,0.0023357330355793238,0.0,0.006469334475696087
0.008436821401119232,0.006854178849607706,-0.008311249315738678,0.002182509982958436,0.0,0.005570505745708942
0.008529665879905224,0.006824907846748829,-0.009053865447640419,0.0019894971046596766,0.0,0.005828353576362133
0.008677434176206589,0.00649589579552412,-0.008636226877570152,0.0019363061292096972,0.0,0.005674488376826048
0.008668300695717335,0.00669927429407835,-0.007939851842820644,0.0021100908052176237,0.0,0.005932477302849293
0.008543428033590317,0.006848032586276531,-0.009122807532548904,0.002156756352633238,0.0,0.006065257824957371
0.009786213748157024,0.006844458170235157,-0.009145963937044144,0.002384977415204048,0.0,0.005922096781432629
0.00855322740972042,0.006646717898547649,-0.00864929985255003,0.0026620684657245874,0.0,0.0055527701042592525
0.00801071897149086,0.006363195832818747,-0.009430414997041225,0.0027883253060281277,0.0,0.005839074961841106
0.008754287846386433,0.006507467478513718,-0.00869679730385542,0.002637913217768073,0.0,0.005658071953803301
0.008839672431349754,0.007341000717133284,-0.008574370294809341,0.0025076682213693857,0.0,0.005810357164591551
0.009444870054721832,0.0065482985228300095,-0.008886255323886871,0.002305663889274001,0.0,0.005773632787168026
0.008690888062119484,0.006456567905843258,-0.00897922646254301,0.0025445069186389446,0.0,0.005472264252603054
0.008517861366271973,0.0063488660380244255,-0.008576317690312862,0.0028202037792652845,0.0,0.005640669260174036
0.008416252210736275,0.0068079098127782345,-0.009393381886184216,0.0026793391443789005,0.0,0.0056609814055264
0.008829433470964432,0.006651083938777447,-0.008660752326250076,0.0025126526597887278,0.0,0.005844627507030964
0.00902338046580553,0.006627343595027924,-0.008686847984790802,0.002272010548040271,0.0,0.005629886407405138
0.009148245677351952,0.0066975755617022514,-0.009344921447336674,0.002360038924962282,0.0,0.005684960167855024
0.009042404592037201,0.006656437646597624,-0.009258330799639225,0.0022664342541247606,0.0,0.005435447674244642
0.009042404592037201,0.006656437646597624,-0.009258330799639225,0.0022664342541247606,0.0,0.005435447674244642
0.008710851892828941,0.006273010745644569,-0.00857127457857132,0.0023004868999123573,0.0,0.00563824875280261
0.008631953038275242,0.00627515884116292,-0.009151207283139229,0.0029181179124861956,0.0,0.005550735164433718
0.009257805533707142,0.006261554080992937,-0.00864319410175085,0.002889068331569433,0.0,0.005813861731439829
0.009257805533707142,0.006261554080992937,-0.00864319410175085,0.002889068331569433,0.0,0.005813861731439829
0.008867754600942135,0.006971373222768307,-0.00919725839048624,0.002678235061466694,0.0,0.005473918281495571
0.008741009049117565,0.006699110381305218,-0.009328953921794891,0.0024924101307988167,0.0,0.005819329060614109
0.00914930272847414,0.00652550021186471,-0.009133932180702686,0.002587936818599701,0.0,0.005519893020391464
0.00885328184813261,0.006482467986643314,-0.008543694391846657,0.002543873153626919,0.0,0.00508173368871212
0.009380371309816837,0.006719606928527355,-0.008982633240520954,0.0028061659540981054,0.0,0.005138770677149296
0.00884239375591278,0.006499248556792736,-0.008939062245190144,0.0028532661963254213,0.0,0.005431455094367266
0.009085007011890411,0.006120474077761173,-0.008609886281192303,0.0026724126655608416,0.0,0.00552138639613986
0.008927648887038231,0.006319081410765648,-0.009244786575436592,0.002787374658510089,0.0,0.0052152350544929504
0.009173139929771423,0.0065820650197565556,-0.009011849761009216,0.0026907112915068865,0.0,0.005316867493093014
0.008947793394327164,0.006882783025503159,-0.008592197671532631,0.0027106322813779116,0.0,0.005243818275630474
0.008786430582404137,0.006721122656017542,-0.0089109493419528,0.0026406587567180395,0.0,0.005209430120885372
0.008795592002570629,0.006355073302984238,-0.00918820220977068,0.0028913705609738827,0.0,0.0053785438649356365
0.009241345338523388,0.006216229405254126,-0.008612049743533134,0.0029089616145938635,0.0,0.005293730646371841
0.009351947344839573,0.006656418554484844,-0.008520963601768017,0.002778012538328767,0.0,0.005550706759095192
0.008890853263437748,0.006562939845025539,-0.009286525659263134,0.002322543878108263,0.0,0.0052986592054367065
0.009546651504933834,0.005743907764554024,-0.008390667848289013,0.002557331696152687,0.0,0.00515387300401926
0.009090442210435867,0.005563867744058371,-0.008499537594616413,0.003113857004791498,0.0,0.005197352729737759
0.009290603920817375,0.005962124560028315,-0.008946002461016178,0.0029988689348101616,0.0,0.005031378008425236
0.009143087081611156,0.006517231930047274,-0.008168607018887997,0.0030355637427419424,0.0,0.005310710519552231
0.009039221331477165,0.005681091453880072,-0.008148079738020897,0.0027498153503984213,0.0,0.005209332797676325
0.009410952217876911,0.005788987036794424,-0.009073618799448013,0.0025706933811306953,0.0,0.004962382838129997
0.009410952217876911,0.005788987036794424,-0.009073618799448013,0.0025706933811306953,0.0,0.004962382838129997
0.009643333032727242,0.005767137743532658,-0.008534754626452923,0.0026812595315277576,0.0,0.005053430330008268
0.009379338473081589,0.006382197607308626,-0.00804379116743803,0.002800430404022336,0.0,0.004991431720554829
0.009156511165201664,0.0065954746678471565,-0.008549225516617298,0.002932053292170167,0.0,0.0048159221187233925
0.009818111546337605,0.00569248478859663,-0.008813058026134968,0.0029658256098628044,0.0,0.005225150380283594
0.009349387139081955,0.0059255692176520824,-0.008606900461018085,0.002952861599624157,0.0,0.005204695276916027
0.009846750646829605,0.005510228686034679,-0.00893725361675024,0.0028290264308452606,0.0,0.004795086104422808
0.009683104231953621,0.005863784346729517,-0.00942202564328909,0.0027532365638762712,0.0,0.004800787661224604
0.009253248572349548,0.006089828442782164,-0.009292110800743103,0.0026511072646826506,0.0,0.004702412057667971
0.009164954535663128,0.005836030002683401,-0.00872646365314722,0.0028642648831009865,0.0,0.004842734429985285
0.009748503565788269,0.005386128090322018,-0.009499197825789452,0.002915266202762723,0.0,0.0047117918729782104
0.009795221500098705,0.00579884834587574,-0.008620901964604855,0.00293431943282485,0.0,0.0045504700392484665
0.009294324554502964,0.005350110121071339,-0.008367015048861504,0.002801959402859211,0.0,0.004781824536621571
0.009444343857467175,0.006099896039813757,-0.009222220629453659,0.002944249426946044,0.0,0.0044919587671756744
0.009497680701315403,0.005659489426761866,-0.009543674997985363,0.0031536356545984745,0.0,0.00458395853638649
0.009315566159784794,0.00576730165630579,-0.009002535603940487,0.003039363771677017,0.0,0.004465524572879076
0.00979453045874834,0.0054388209246098995,-0.009406187571585178,0.002775156171992421,0.0,0.004265432711690664
0.00970709603279829,0.005932402331382036,-0.009176957421004772,0.002723699202761054,0.0,0.004429405089467764
0.009248312562704086,0.005779725033789873,-0.009127198718488216,0.002842497080564499,0.0,0.004604017361998558
0.009079478681087494,0.0054396516643464565,-0.009457509033381939,0.003040087642148137,0.0,0.004633769392967224
0.009079478681087494,0.0054396516643464565,-0.009457509033381939,0.003040087642148137,0.0,0.004633769392967224
0.009726032614707947,0.005478354170918465,-0.00921925064176321,0.0030293483287096024,0.0,0.004727973602712154
0.009721563197672367,0.00580529635772109,-0.009324414655566216,0.0029372714925557375,0.0,0.004459776915609837
0.009392441250383854,0.006306867115199566,-0.008902176283299923,0.003109267447143793,0.0,0.004527708515524864
0.00968066044151783,0.005576282273977995,-0.008445339277386665,0.003238283796235919,0.0,0.004505253862589598
0.009678876027464867,0.005327153485268354,-0.00934167392551899,0.0029931464232504368,0.0,0.004503071773797274
0.009123374707996845,0.005501188803464174,-0.009377555921673775,0.002999192336574197,0.0,0.004413191229104996
0.009544020518660545,0.006154495291411877,-0.008753751404583454,0.003051353618502617,0.0,0.004517270252108574
0.009600353427231312,0.006214294116944075,-0.009061298333108425,0.0033364915288984776,0.0,0.004532134626060724
0.009600353427231312,0.006214294116944075,-0.009061298333108425,0.0033364915288984776,0.0,0.004532134626060724
0.009673806838691235,0.006212051026523113,-0.008864074014127254,0.0031998015474528074,0.0,0.004431603942066431
0.009793374687433243,0.005681411828845739,-0.009167267940938473,0.0030913283117115498,0.0,0.0045346529223024845
0.01004076935350895,0.005593777168542147,-0.008708723820745945,0.0031175059266388416,0.0,0.004982135258615017
0.00951925478875637,0.005337949842214584,-0.00995276216417551,0.0032065436244010925,0.0,0.004584058653563261
0.009686439298093319,0.005942331161350012,-0.009023929946124554,0.0030888584442436695,0.0,0.004088157322257757
0.009612630121409893,0.005428272765129805,-0.009072141721844673,0.0032341214828193188,0.0,0.0037497617304325104
0.009839718230068684,0.005290718749165535,-0.009541702456772327,0.003334518987685442,0.0,0.004131917376071215
0.009761912748217583,0.005093210842460394,-0.009592456743121147,0.0038746229838579893,0.0,0.004321014974266291
0.009810689836740494,0.004927860107272863,-0.008288091979920864,0.004193478729575872,0.0,0.004930014722049236
0.010063383728265762,0.005780690349638462,-0.00884225033223629,0.003655374050140381,0.0,0.004806928802281618
0.010120103135704994,0.005609589628875256,-0.009059378877282143,0.003557808930054307,0.0,0.004335241857916117
0.010718618519604206,0.005810415837913752,-0.008973500691354275,0.0032388102263212204,0.0,0.003947577904909849
0.009493712335824966,0.005422959104180336,-0.009280926547944546,0.0032597749959677458,0.0,0.004207997117191553
0.01016968209296465,0.005315836053341627,-0.009226071648299694,0.0033529577776789665,0.0,0.0041522919200360775
0.009981292299926281,0.0054480088874697685,-0.008838118985295296,0.0034566849935799837,0.0,0.004322879947721958
0.009772853925824165,0.006213854067027569,-0.00852242298424244,0.003622186603024602,0.0,0.004185033962130547
0.010198093950748444,0.00557673117145896,-0.00897483341395855,0.0037724883295595646,0.0,0.003929430153220892
0.010157542303204536,0.005251729395240545,-0.009023620747029781,0.0037941671907901764,0.0,0.00417747488245368
0.009282668121159077,0.005437586456537247,-0.009045964106917381,0.0035975303035229445,0.0,0.004177100956439972
0.009968743659555912,0.005363415461033583,-0.008840405382215977,0.0028673310298472643,0.0,0.004212408792227507
0.009694071486592293,0.005718551576137543,-0.008564459159970284,0.0028490442782640457,0.0,0.004351777024567127
0.010292023420333862,0.005637286696583033,-0.009661514312028885,0.003122360445559025,0.0,0.004517761059105396
0.009886616840958595,0.006109551526606083,-0.009550272487103939,0.003489211667329073,0.0,0.0040074423886835575
0.010043762624263763,0.005578081123530865,-0.009633042849600315,0.0033761232625693083,0.0,0.0035988623276352882
0.010743970982730389,0.005949133541435003,-0.009245562367141247,0.0034693090710788965,0.0,0.0032421816140413284
0.010009221732616425,0.0057119345292449,-0.009570328518748283,0.0037102445494383574,0.0,0.003407170297577977
0.010009221732616425,0.0057119345292449,-0.009570328518748283,0.0037102445494383574,0.0,0.003407170297577977
0.010179425589740276,0.005675758235156536,-0.008753396570682526,0.003806706750765443,0.0,0.003931159619241953
0.010179425589740276,0.005675758235156536,-0.008753396570682526,0.003806706750765443,0.0,0.003931159619241953
0.010126864537596703,0.0057860929518938065,-0.009334096685051918,0.003545974148437381,0.0,0.003950543235987425
0.01013000775128603,0.005354980006814003,-0.00905661191791296,0.0033949543721973896,0.0,0.004395312629640102
0.010548259131610394,0.005941962357610464,-0.00929237436503172,0.003199746599420905,0.0,0.0041896626353263855
0.009822256863117218,0.005667931865900755,-0.009195090271532536,0.003268055384978652,0.0,0.003509700996801257
0.010135539807379246,0.0057738665491342545,-0.008539936505258083,0.003499585436657071,0.0,0.0031456868164241314
0.011077102273702621,0.006038372870534658,-0.008645502850413322,0.0036815316416323185,0.0,0.0030386631842702627
0.010026251897215843,0.005926436744630337,-0.009300153702497482,0.0036933645606040955,0.0,0.0034459298476576805
0.009958593174815178,0.005957367364317179,-0.009187103249132633,0.003548156702890992,0.0,0.0034877853468060493
0.010041221976280212,0.005781931336969137,-0.009037798270583153,0.003540287259966135,0.0,0.003568898420780897
0.00999899860471487,0.005846419371664524,-0.00929406937211752,0.003647258970886469,0.0,0.0036377720534801483
0.01048968080431223,0.005880728363990784,-0.00889513548463583,0.0037723914720118046,0.0,0.0036801688838750124
0.010137991979718208,0.005810954608023167,-0.00838467013090849,0.0038293444085866213,0.0,0.0036850175820291042
0.009829654358327389,0.006141865625977516,-0.009869012050330639,0.004106883425265551,0.0,0.0036254494916647673
0.010395522229373455,0.005622378084808588,-0.009096597321331501,0.004092609975486994,-4.91110586153809e-05,0.0036413969937711954
0.011060538701713085,0.005705221556127071,-0.008227745071053505,0.0038210381753742695,-8.104873268166557e-05,0.0032785681542009115
0.010060717351734638,0.005550955887883902,-0.008919049054384232,0.0036743704695254564,-8.171954686986282e-05,0.0030787126161158085
0.009853016585111618,0.005973131395876408,-0.010381973348557949,0.003682240378111601,-8.039941894821823e-05,0.0033512338995933533
0.01003283355385065,0.006794589105993509,-0.009398477151989937,0.003724400419741869,-7.899726915638894e-05,0.0037593625020235777
0.011054538190364838,0.005972015205770731,-0.008679388090968132,0.0036875559017062187,-7.763493340462446e-05,0.003532764269039035
0.010477554984390736,0.0057681770995259285,-0.008891268633306026,0.0035878466442227364,-7.631827611476183e-05,0.0035116253420710564
0.010208439081907272,0.005974598228931427,-0.009542432613670826,0.003408641554415226,-7.381456816801801e-05,0.00328361289575696
0.010328417643904686,0.0060967649333179,-0.009937090799212456,0.0036967084743082523,-7.262326835189015e-05,0.003254711627960205
0.010251613333821297,0.0058556534349918365,-0.009345896542072296,0.004087608773261309,-7.146986899897456e-05,0.0033297038171440363
0.010905253700911999,0.005996437277644873,-0.008886419236660004,0.004064639564603567,-7.035252929199487e-05,0.003201190149411559
0.010997937060892582,0.005662121810019016,-0.009968291036784649,0.004188034683465958,-6.926961214048788e-05,0.003350710030645132
0.011087087914347649,0.0060310824774205685,-0.00973985530436039,0.0036910423077642918,-7.494015881093219e-05,0.0032344346400350332
0.010669585317373276,0.006323827430605888,-0.008872444741427898,0.00347006693482399,-8.018883090699092e-05,0.0032648094929754734
0.010669585317373276,0.006323827430605888,-0.008872444741427898,0.00347006693482399,-8.018883090699092e-05,0.0032648094929754734
0.010641435161232948,0.0059208944439888,-0.009635130874812603,0.00348842516541481,-7.942479714984074e-05,0.0032100335229188204
0.010213502682745457,0.006108571775257587,-0.009814308024942875,0.003654628759250045,-7.830032700439915e-05,0.003190009854733944
0.010663523338735104,0.0057078199461102486,-0.009570011869072914,0.0037196059711277485,-7.718291453784332e-05,0.0032714318949729204
0.010392189025878906,0.0060059502720832825,-0.009807003661990166,0.0037748452741652727,-7.609534077346325e-05,0.003113360609859228
0.010439179837703705,0.006414862349629402,-0.009247004054486752,0.004225859418511391,-7.503801316488534e-05,0.002810763893648982
0.011004474014043808,0.00614196015521884,-0.008668861351907253,0.004113357979804277,-7.400957838399336e-05,0.002924177795648575
0.010710697621107101,0.005909624509513378,-0.009699281305074692,0.0038639933336526155,-7.30089595890604e-05,0.002998694311827421
0.011136668734252453,0.005938337650150061,-0.01004154235124588,0.004144546575844288,-7.203507266240194e-05,0.0030335434712469578
0.011915716342628002,0.005970965605229139,-0.009561573155224323,0.004148966167122126,-7.108676800271496e-05,0.002982827601954341
0.01148239616304636,0.006620510946959257,-0.009462426416575909,0.004313544370234013,-7.016315794317052e-05,0.0029363909270614386
0.011797329410910606,0.005877073388546705,-0.009629540145397186,0.004318081773817539,-7.49528844607994e-05,0.002855287864804268
0.011192524805665016,0.005847960244864225,-0.009328591637313366,0.004048886708915234,-7.940144860185683e-05,0.0028320837300270796
0.011336369439959526,0.005906709469854832,-0.009822092019021511,0.004193327855318785,-7.876109157223254e-05,0.002717907540500164
0.011580470018088818,0.006045272573828697,-0.010027158074080944,0.004102090839296579,-7.781128078931943e-05,0.0028262764681130648
0.010918878018856049,0.00671354727819562,-0.0097015630453825,0.0042265551164746284,-7.686342723900452e-05,0.002830707235261798
0.011393766850233078,0.006298729684203863,-0.010279652662575245,0.004174226429313421,-7.593711779918522e-05,0.00256345234811306
0.01136914361268282,0.005726934876292944,-0.009394487366080284,0.0045111095532774925,-7.414962601615116e-05,0.0024153271224349737
0.011583151295781136,0.005889482330530882,-0.009611797519028187,0.004334680736064911,-7.328704668907449e-05,0.002369808731600642
0.011263442225754261,0.006310161203145981,-0.010025683790445328,0.004392429254949093,-7.244429434649646e-05,0.0025654942728579044
0.011402947828173637,0.006040430162101984,-0.01034825760871172,0.004157984629273415,-7.162077963585034e-05,0.0027339565567672253
0.011606610380113125,0.005705564748495817,-0.01015223003923893,0.003843747777864337,-7.96143795014359e-05,0.0028332844376564026
0.011721166782081127,0.00612857099622488,-0.009479456581175327,0.0042320252396166325,-7.994662882992998e-05,0.0027915535029023886
0.011941744945943356,0.006076272577047348,-0.009073528461158276,0.004443913698196411,-2.0331677660578862e-05,0.002721082651987672
0.011303804814815521,0.0061561837792396545,-0.009714501909911633,0.004295486491173506,-1.3275131323098321e-06,0.0025490426924079657
0.011303804814815521,0.0061561837792396545,-0.009714501909911633,0.004295486491173506,-1.3275131323098321e-06,0.0025490426924079657
0.011632008478045464,0.005938808899372816,-0.00970615353435278,0.004433228634297848,-8.667712592114185e-08,0.00213365675881505
0.011652984656393528,0.005747143644839525,-0.009933714754879475,0.004326342139393091,-5.659396506985104e-09,0.002097537275403738
0.01174522377550602,0.005947783589363098,-0.01056898944079876,0.004275624640285969,-3.695181383100987e-10,0.0019042226485908031
0.012099764309823513,0.006545973476022482,-0.00990830548107624,0.004018254578113556,-2.4126894926368436e-11,0.0019987844862043858
0.011707181110978127,0.006519139278680086,-0.009769444353878498,0.004671403206884861,-1.5753138810775669e-12,0.002030547708272934
0.011724529787898064,0.00566524313762784,-0.009584324434399605,0.0045593916438519955,-9.346605656901374e-05,0.00212272466160357
0.011724529787898064,0.00566524313762784,-0.009584324434399605,0.0045593916438519955,-9.346605656901374e-05,0.00212272466160357
0.01193221565335989,0.005755729507654905,-0.009820974431931973,0.004360903520137072,-9.52666814555414e-05,0.002328200964257121
0.012230419553816319,0.00603095255792141,-0.010191480629146099,0.004503629170358181,-9.353331552119926e-05,0.0022119740024209023
0.012137584388256073,0.0063283988274633884,-0.010296519845724106,0.004717599600553513,-9.164442599285394e-05,0.0021682472433894873
0.01194695569574833,0.006080259568989277,-0.009235871955752373,0.004921170882880688,-8.981639257399365e-05,0.001994434045627713
0.012155825272202492,0.005946720484644175,-0.010853203944861889,0.00499813724309206,-8.805881952866912e-05,0.0019764425233006477
0.01250311266630888,0.0057125939056277275,-0.01011795736849308,0.005121092777699232,-0.00010249252954963595,0.001927414909005165
0.011976795271039009,0.006152278743684292,-0.009310156106948853,0.0045874579809606075,-0.00010161561658605933,0.0021151716355234385
0.011840086430311203,0.006476392969489098,-0.010560556314885616,0.004556495230644941,-9.980611503124237e-05,0.0022309308405965567
0.01209954358637333,0.006093887612223625,-0.009922937490046024,0.004671215545386076,-9.799926920095459e-05,0.0022792883682996035
0.01190655492246151,0.005406913347542286,-0.008984155021607876,0.005031159613281488,-9.625287202652544e-05,0.0023960848338901997
0.011788014322519302,0.005212545860558748,-0.009283888153731823,0.00516764959320426,-9.293961920775473e-05,0.0016099601052701473
0.012132753618061543,0.0056100888177752495,-0.008973109535872936,0.004998261574655771,-9.136704466072842e-05,0.001397401443682611
0.012281946837902069,0.006079135462641716,-0.009444579482078552,0.004797819070518017,-8.984682790469378e-05,0.0012902627931907773
0.012039887718856335,0.005474613979458809,-0.009427365846931934,0.0043854969553649426,-0.00010212806228082627,0.0012387280585244298
0.012537644244730473,0.00497052539139986,-0.008728026412427425,0.0049607944674789906,-0.00010138170910067856,0.001264834892936051
0.012391434982419014,0.005200494080781937,-0.008920419029891491,0.005367326084524393,-9.983374184230343e-05,0.0016393369296565652
0.012209239415824413,0.005330979824066162,-0.009520205669105053,0.005439881235361099,-9.828019392443821e-05,0.0019422817276790738
0.012286552228033543,0.005832665134221315,-0.009924807585775852,0.004818562418222427,-9.677077468950301e-05,0.0019337307894602418
0.012286552228033543,0.005832665134221315,-0.009924807585775852,0.004818562418222427,-9.677077468950301e-05,0.0019337307894602418
0.012620576657354832,0.005282530561089516,-0.00973107386380434,0.004551571793854237,-9.530683018965647e-05,0.001982376677915454
0.012832597829401493,0.0052032507956027985,-0.009518107399344444,0.004707083571702242,-0.00010554693290032446,0.0017665047198534012
0.012482577003538609,0.005451578181236982,-0.009070982225239277,0.0051443856209516525,-0.00010560895316302776,0.0016406726790592074
0.013217850588262081,0.0050550284795463085,-0.009189843200147152,0.005458745174109936,-0.00010418592864880338,0.001599502982571721
0.012868369929492474,0.005289900582283735,-0.010218593291938305,0.005110092461109161,-0.0001027066246024333,0.0017780403140932322
0.012982459738850594,0.005453997291624546,-0.009548108093440533,0.0050140973180532455,-0.000101262608950492,0.0018357662484049797
0.012944838032126427,0.005475602578371763,-0.009379439987242222,0.0051753767766058445,-9.985826181946322e-05,0.002010796684771776
0.01343450415879488,0.005107578821480274,-0.010616305284202099,0.005110727623105049,-9.849222260527313e-05,0.0017839026404544711
0.012624960392713547,0.005311676301062107,-0.009717521257698536,0.004816410597413778,-9.716304339235649e-05,0.0016034378204494715
0.012724372558295727,0.005572636611759663,-0.00935446098446846,0.005306921899318695,-9.586937812855467e-05,0.0012712832540273666
0.013170899823307991,0.005542568862438202,-0.00961363036185503,0.005190187133848667,-9.46095897234045e-05,0.0011636626441031694
0.012914257124066353,0.005648486316204071,-0.009471080265939236,0.005155190825462341,-0.00013453267456497997,0.0012017919216305017
0.013009884394705296,0.005329257342964411,-0.010333717800676823,0.005087755154818296,-0.00013627862790599465,0.0011538463877514005
0.013076617382466793,0.005400471389293671,-0.010134074836969376,0.005048111081123352,-0.00013264174049254507,0.0011470835888758302
0.013818589970469475,0.005334198474884033,-0.009461060166358948,0.004924979526549578,-0.0001288676867261529,0.001116961590014398
0.01354842446744442,0.005498782265931368,-0.009972810745239258,0.0060052121989429,-0.00012188786786282435,0.0010571270249783993
0.01296789851039648,0.0054322704672813416,-0.009314476512372494,0.005801525432616472,-0.00014081617700867355,0.0010574058396741748
0.013404298573732376,0.005397740751504898,-0.009189790114760399,0.005573800299316645,-0.00013864490028936416,0.0010330397635698318
0.013150915503501892,0.005643455311655998,-0.009901219047605991,0.005371387582272291,-0.00013526584370993078,0.0010052244178950787
0.013295130804181099,0.005429355427622795,-0.009845295920968056,0.005890367086976767,-0.0001319663570029661,0.0009436954278498888
0.013624302111566067,0.005909497383981943,-0.008913419209420681,0.00626674760133028,-0.00012881847214885056,0.000901671766769141
0.013796895742416382,0.005728520452976227,-0.009576057083904743,0.005948774982243776,-0.0001258169359061867,0.0008329941192641854
0.013905595056712627,0.005671811755746603,-0.009489811956882477,0.005658681038767099,-0.00013302599836606532,0.0008290544501505792
0.013746156357228756,0.005273814778774977,-0.009025473147630692,0.00527549022808671,-0.00013957057672087103,0.0007451156270690262
0.013820691034197807,0.005815731827169657,-0.0096165481954813,0.005827471613883972,-0.0001371518592350185,0.0007553537143394351
0.013820691034197807,0.005815731827169657,-0.0096165481954813,0.005827471613883972,-0.0001371518592350185,0.0007553537143394351
0.013465376570820808,0.005538635887205601,-0.009520916268229485,0.006017331033945084,-0.000134269314003177,0.0006888361531309783
0.013879293575882912,0.005735673941671848,-0.00964726135134697,0.0062967645935714245,-0.00013146975834388286,0.0006253042374737561
0.013407067395746708,0.005310159642249346,-0.009764361195266247,0.0057464600540697575,-0.00012878257257398218,0.0005515333032235503
0.013943168334662914,0.005847732536494732,-0.009377837181091309,0.005602268967777491,-0.0001262027508346364,0.0005824656109325588
0.013449853286147118,0.005415197461843491,-0.008940552361309528,0.005569453816860914,-0.00012372425408102572,0.0006073035183362663
0.013775214552879333,0.006084166932851076,-0.009566882625222206,0.005817031022161245,-0.0001298705319641158,0.0006227267440408468
0.013391206972301006,0.005418121349066496,-0.010334642603993416,0.006089574191719294,-0.00013548010610975325,0.0005905719008296728
0.01381691824644804,0.0053286198526620865,-0.009182902984321117,0.005892253015190363,-0.00013349432265385985,0.0005469209863804281
0.01350074727088213,0.005586785264313221,-0.01049401517957449,0.005689059384167194,-0.00013109788415022194,0.0005083580617792904
0.013837608508765697,0.006096333730965853,-0.011124483309686184,0.0056562055833637714,-0.0001287557533942163,0.0004748172650579363
0.013998272828757763,0.005715776234865189,-0.009671066887676716,0.006229250226169825,-0.0001264938327949494,0.00044733501272276044
0.013952153734862804,0.0058397590182721615,-0.011251445859670639,0.006322307977825403,-0.00012430985225364566,0.0004318789578974247
0.013570736162364483,0.005265871062874794,-0.010734033770859241,0.006090281531214714,-0.00012220008648000658,0.000395674433093518
0.014262579381465912,0.005312652792781591,-0.010455604642629623,0.005851622670888901,-0.0001469367853133008,0.0003637754707597196
0.013974939472973347,0.005553076975047588,-0.010686993598937988,0.006241037044674158,-0.00015079823788255453,0.00033655326114967465
0.01419383566826582,0.006100792903453112,-0.010612327605485916,0.0062798806466162205,-0.00014646352792624384,0.00031312007922679186
0.014015437103807926,0.005869866814464331,-0.011448413133621216,0.006436529569327831,-0.00015580200124531984,0.0002927374735008925
0.01439005695283413,0.005185895133763552,-0.01147451065480709,0.0052004847675561905,-0.00016010009858291596,0.0002590203657746315
0.014227618463337421,0.005431105382740498,-0.011746850796043873,0.005345446057617664,-0.000155544257722795,0.0002449174353387207
0.014364775270223618,0.00583229074254632,-0.010642845183610916,0.006202997639775276,-0.00015119217277970165,0.00023227180645335466
0.014429374597966671,0.0065422262996435165,-0.010728911496698856,0.006360195577144623,-0.0001470745773985982,0.00022086751414462924
0.014625292271375656,0.005465332884341478,-0.011659355834126472,0.0060155573301017284,-0.0001654365041758865,0.00021053172531537712
0.014417042024433613,0.005431800615042448,-0.010954388417303562,0.006089223548769951,-0.00016261794371530414,0.00020111979392822832
0.014392009936273098,0.005326523445546627,-0.01104907039552927,0.006528777070343494,-0.0001586182479513809,0.0001925135584315285
0.014382857829332352,0.0050189741887152195,-0.010873132385313511,0.0065689897164702415,-0.00015472878294531256,0.00018461450235918164
0.014565357938408852,0.005191100295633078,-0.010476875118911266,0.006497477646917105,-0.00015101980534382164,0.00014659050793852657
0.014675334095954895,0.0056974682956933975,-0.011224120855331421,0.006644639652222395,-0.00016714469529688358,0.00013679862604476511
0.014604092575609684,0.005434700753539801,-0.01122495997697115,0.0068120649084448814,-0.00016460604092571884,0.000131524313474074
0.014604092575609684,0.005434700753539801,-0.01122495997697115,0.0068120649084448814,-0.00016460604092571884,0.000131524313474074
0.014545771293342113,0.00492846267297864,-0.011067678220570087,0.00659977225586772,-0.0001610083709238097,0.00012687014532275498
0.014451204799115658,0.005203802604228258,-0.011603066697716713,0.006754407659173012,-0.00015749188605695963,0.0001225494925165549
0.014571189880371094,0.005431946367025375,-0.011320045217871666,0.00686052767559886,-0.00015427664038725197,0.00011851458111777902
0.014300910755991936,0.0054819765500724316,-0.011350210756063461,0.006458841729909182,-0.0002271351113449782,8.984834130387753e-05
0.014931907877326012,0.005640058312565088,-0.011090580374002457,0.006225067190825939,-0.00022123908274807036,8.364228415302932e-05
0.01469357404857874,0.005127531476318836,-0.010774767026305199,0.00670144148170948,-0.00021119850862305611,8.091199561022222e-05
0.015011079609394073,0.004805746488273144,-0.011755302548408508,0.006622731685638428,-0.0002017495862673968,4.608343260770198e-06
0.014663118869066238,0.0051414198242127895,-0.011380943469703197,0.006347161252051592,-0.00019309271010570228,-6.452229717979208e-05
0.015057660639286041,0.005065045319497585,-0.011468037962913513,0.006210859399288893,-0.00018514615658205003,-6.663118256255984e-05
0.014459175989031792,0.0054081217385828495,-0.01157568022608757,0.006377812474966049,-0.00017782831855583936,-6.453601963585243e-05
0.014417402446269989,0.005139229819178581,-0.011238065548241138,0.006790286395698786,-0.0001710670767351985,-9.137372398981825e-05
0.014434226788580418,0.005158229731023312,-0.011374532245099545,0.006906328722834587,-0.00016480076010338962,-9.02164465514943e-05
0.0149042047560215,0.005357615649700165,-0.011697476729750633,0.006686795502901077,-0.0001589781604707241,-0.00011270365212112665
0.014671135693788528,0.005054898094385862,-0.01144128292798996,0.006596227642148733,-0.00015355268260464072,-0.00013356187264434993
0.015194614417850971,0.005440410226583481,-0.011195888742804527,0.006932031828910112,-0.0001484851964050904,-0.0003381444839760661
0.014865584671497345,0.005240180063992739,-0.011077969335019588,0.006798805668950081,-0.00014374195598065853,-0.0005578313721343875
0.014903624542057514,0.005255551543086767,-0.011780393309891224,0.006651049014180899,-0.00016346648044418544,-0.000580069434363395
0.014548322185873985,0.005354905966669321,-0.01094138715416193,0.006548684556037188,-0.00016189068264793605,-0.0005689537501893938
0.015242422930896282,0.005455282516777515,-0.012197598814964294,0.0075128148309886456,-0.0001529454457340762,-0.0007802437758073211
0.015806278213858604,0.005280626937747002,-0.011324886232614517,0.00687870429828763,-0.00014873332111164927,-0.0008571824873797596
0.01555259432643652,0.005031956359744072,-0.011291013099253178,0.006601355969905853,-0.00014474640192929655,-0.0009360531694255769
0.015751389786601067,0.005058520007878542,-0.010992730036377907,0.006667177192866802,-0.00014096745871938765,-0.001076089683920145
0.015750709921121597,0.004821278620511293,-0.010829074308276176,0.007056695409119129,-0.00015874380187597126,-0.0011714440770447254
0.015747245401144028,0.0044528222642838955,-0.01105960551649332,0.007351109758019447,-0.00015620114572811872,-0.0011520348489284515
0.015537945553660393,0.004518356639891863,-0.010685155168175697,0.006968585774302483,-0.00015251054719556123,-0.0011239532614126801
0.01572316326200962,0.005068896804004908,-0.011135105974972248,0.007026395760476589,-0.00014891668979544193,-0.0010857089655473828
0.015966733917593956,0.005115248262882233,-0.011320754885673523,0.00755430618301034,-0.00014547846512869,-0.0010588307632133365
0.01558033935725689,0.00519276550039649,-0.010858687572181225,0.006993211340159178,-0.00014219012518879026,-0.0011033060727640986
0.01558033935725689,0.00519276550039649,-0.010858687572181225,0.006993211340159178,-0.00014219012518879026,-0.0011033060727640986
0.015937233343720436,0.005317292641848326,-0.011419562622904778,0.007083566393703222,-0.00013905586092732847,-0.0012642685323953629
0.015712954103946686,0.004885725677013397,-0.010786887258291245,0.006668998394161463,-0.00013604875130113214,-0.0013140743831172585
0.016802899539470673,0.004557253792881966,-0.011129855178296566,0.008041645400226116,-0.00013317252160049975,-0.0015210689743980765
0.01608777418732643,0.004872218705713749,-0.011464391835033894,0.007530001923441887,-0.00013041957572568208,-0.0019248363096266985
0.01612219214439392,0.004993727430701256,-0.01092350110411644,0.007226502522826195,-0.00014362965885084122,-0.002062259241938591
0.01606730744242668,0.00535535765811801,-0.011321271769702435,0.007410201709717512,-0.0001429655821993947,-0.0021160838659852743
0.015975363552570343,0.005098400637507439,-0.01132493931800127,0.007627205457538366,-0.00014032215403858572,-0.0021116521675139666
0.016365809366106987,0.004812008235603571,-0.010847215540707111,0.006974765565246344,-0.00013765272160526365,-0.002104302402585745
0.016074663028120995,0.004297669976949692,-0.011809216812252998,0.006405475549399853,-0.00013507113908417523,-0.00216289353556931
0.016619978472590446,0.004945690277963877,-0.011112195439636707,0.006605536676943302,-0.0001325803459621966,-0.0021297994535416365
0.0163402259349823,0.005056467838585377,-0.011385392397642136,0.007515186909586191,-0.00013018553727306426,-0.0022546362597495317
0.016588864848017693,0.004792267922312021,-0.011188470758497715,0.007627127692103386,-0.00012787347077392042,-0.0023520684335380793
0.016666488721966743,0.0044486126862466335,-0.010600229725241661,0.007137337699532509,-0.00012564295320771635,-0.0028443525079637766
0.016321059316396713,0.004206715617328882,-0.011653406545519829,0.007207970600575209,-0.00012348804739303887,-0.0028183660469949245
0.01667412742972374,0.0048220157623291016,-0.010957054793834686,0.007637792266905308,-0.00012140497710788622,-0.0026989388279616833
0.016158105805516243,0.004873714409768581,-0.010874959640204906,0.0075284927152097225,-0.00010905112139880657,-0.002400129335001111
0.016314659267663956,0.004911860451102257,-0.01119103655219078,0.007351499982178211,-0.00010266462777508423,-0.002013545483350754
0.01653967797756195,0.004751033615320921,-0.011843548156321049,0.00808692816644907,-0.00010036911407951266,-0.0021006898023188114
0.016883177682757378,0.0045428709127008915,-0.011278870515525341,0.008125332184135914,-9.817878162721172e-05,-0.0022970237769186497
0.016657575964927673,0.00432712584733963,-0.01113972533494234,0.0075919134542346,-0.00011277617159066722,-0.00230237003415823
0.016934067010879517,0.004419772885739803,-0.011379271745681763,0.0074588945135474205,-0.00011272377741988748,-0.002400530967861414
0.01674623042345047,0.004725058097392321,-0.011325356550514698,0.008201374672353268,-0.00011056606308557093,-0.00280725653283298
0.017262954264879227,0.004787632264196873,-0.011911587789654732,0.008198698051273823,-0.00010835717694135383,-0.003693584818392992
0.01734989695250988,0.0046309600584208965,-0.011847993358969688,0.007221614010632038,-0.00010622617264743894,-0.00436234287917614
0.01679161936044693,0.004506135359406471,-0.011274941265583038,0.007101088296622038,-0.00011271994299022481,-0.004420057870447636
0.017176536843180656,0.004648968577384949,-0.01180761307477951,0.008073513396084309,-0.0001186633890029043,-0.003631202271208167
0.017176536843180656,0.004648968577384949,-0.01180761307477951,0.008073513396084309,-0.0001186633890029043,-0.003631202271208167
0.01672907918691635,0.0047248974442481995,-0.011574753560125828,0.0077125802636146545,-0.00011698680464178324,-0.002876238664612174
0.017465615645051003,0.004724597092717886,-0.011909188702702522,0.0072611253708601,-0.00011488775635370985,-0.0027960417792201042
0.01730748452246189,0.0047194804064929485,-0.011426730081439018,0.007270375266671181,-0.0001278796116821468,-0.0032197909895330667
0.017018141224980354,0.004782994743436575,-0.01212840061634779,0.008063931949436665,-0.00012661260552704334,-0.0038020091596990824
0.017018141224980354,0.004782994743436575,-0.01212840061634779,0.008063931949436665,-0.00012661260552704334,-0.0038020091596990824
0.017065437510609627,0.004746974911540747,-0.0118947122246027,0.007739126216620207,-0.0002504614822100848,-0.003874594811350107
0.017373066395521164,0.004726538434624672,-0.011794831603765488,0.008007361553609371,-0.00028319458942860365,-0.0037547596730291843
0.017181821167469025,0.0045490930788218975,-0.011594773270189762,0.008410115726292133,-0.0003086327633354813,-0.003577988361939788
0.01741824485361576,0.004977046977728605,-0.011457346379756927,0.008286953903734684,-0.00032602663850411773,-0.003567834384739399
0.017725510522723198,0.0047215186059474945,-0.011836951598525047,0.008071021176874638,-0.00033260081545449793,-0.003712385892868042
0.01709534227848053,0.005004684440791607,-0.011854288168251514,0.008001040667295456,-0.0008235920686274767,-0.0038559967651963234
0.01744506135582924,0.004904432687908411,-0.011742413975298405,0.007942920550704002,-0.0008613105746917427,-0.004269199911504984
0.01701616682112217,0.004857276566326618,-0.01142822951078415,0.00808752328157425,-0.000868017494212836,-0.0037710811011493206
0.017261356115341187,0.004710967652499676,-0.011559853330254555,0.00782187469303608,-0.0009522587643004954,-0.0035855115856975317
0.017905540764331818,0.004964760039001703,-0.011970525607466698,0.007882343605160713,-0.0009125476935878396,-0.004085525404661894
0.01799425482749939,0.005084585398435593,-0.011478866450488567,0.008325397036969662,-0.0008974503143690526,-0.004089222755283117
0.01819934882223606,0.005225851200520992,-0.012060383334755898,0.008015982806682587,-0.0007848642999306321,-0.003955814987421036
0.018502362072467804,0.005246694665402174,-0.011599164456129074,0.008627587929368019,-0.0006860828143544495,-0.0043024164624512196
0.017843954265117645,0.004955282434821129,-0.012668556533753872,0.008183548226952553,-0.0006573103019036353,-0.0041487026028335094
0.017786715179681778,0.005339456722140312,-0.011652901768684387,0.0074837468564510345,-0.000579082581680268,-0.004306104965507984
0.018116049468517303,0.0051301284693181515,-0.012892140075564384,0.007631717249751091,-0.0005304572405293584,-0.004669081885367632
0.018379105255007744,0.0051805065013468266,-0.011856066063046455,0.0074951304122805595,-0.0005405449192039669,-0.004924350418150425
0.01825309917330742,0.004900537896901369,-0.011841434985399246,0.007218027487397194,-0.0005175959086045623,-0.004423078615218401
0.01804625801742077,0.004798858892172575,-0.011861574836075306,0.007099051959812641,-0.00048383913235738873,-0.003957318142056465
0.01804625801742077,0.004798858892172575,-0.011861574836075306,0.007099051959812641,-0.00048383913235738873,-0.003957318142056465
0.018584178760647774,0.00538457278162241,-0.012667668052017689,0.00727859465405345,-0.0004265484749339521,-0.004157026298344135
0.018584178760647774,0.00538457278162241,-0.012667668052017689,0.00727859465405345,-0.0004265484749339521,-0.004157026298344135
0.018933147192001343,0.004997540730983019,-0.012594788335263729,0.008065412752330303,-0.0003813451621681452,-0.004888731520622969
0.018474657088518143,0.004745303187519312,-0.012421119026839733,0.009187898598611355,-0.0003224677639082074,-0.0049539790488779545
0.018895093351602554,0.005172197241336107,-0.012829515151679516,0.009231764823198318,-0.00026684999465942383,-0.005173566285520792
0.018895093351602554,0.005172197241336107,-0.012829515151679516,0.009231764823198318,-0.00026684999465942383,-0.005173566285520792
0.01834269054234028,0.005075137596577406,-0.01261716429144144,0.008619754575192928,-0.00024964549811556935,-0.005007504019886255
0.018003707751631737,0.005398010369390249,-0.012621769681572914,0.008546197786927223,-0.00023637065896764398,-0.0048421043902635574
0.0186622254550457,0.005072125233709812,-0.012710527516901493,0.008456823416054249,-0.00026344627258367836,-0.004803696647286415
0.019237397238612175,0.004753709305077791,-0.012519842013716698,0.008632656186819077,-0.0002562672598287463,-0.00503716804087162
0.018936533480882645,0.004574425518512726,-0.013331705704331398,0.008711603470146656,-0.0002449866442475468,-0.005116465035825968
0.018919862806797028,0.004646026063710451,-0.013107521459460258,0.009027672000229359,-0.00027076981496065855,-0.005621114745736122
0.019133271649479866,0.0046735890209674835,-0.01313029695302248,0.008933594450354576,-0.0002618880826048553,-0.005352256819605827
0.019060831516981125,0.004794652108103037,-0.01270060520619154,0.008470792323350906,-0.0002515822125133127,-0.004963495768606663
0.019723568111658096,0.005171000491827726,-0.013422232121229172,0.00865482073277235,-0.00024193008721340448,-0.005214201286435127
0.019411437213420868,0.004907750990241766,-0.012954588048160076,0.008493497036397457,-0.0002329822164028883,-0.005070262122899294
0.019465109333395958,0.004728312138468027,-0.013409829698503017,0.007754245772957802,-0.00022467192320618778,-0.004865372087806463
0.0197418462485075,0.004684051498770714,-0.013457692228257656,0.0075342427007853985,-0.00021693504822906107,-0.00505269318819046
0.019454477354884148,0.0049771592020988464,-0.013225410133600235,0.008745829574763775,-0.00020971280173398554,-0.0050947172567248344
0.019563550129532814,0.00507367355749011,-0.013782125897705555,0.009169818833470345,-0.0002299934858456254,-0.005215967074036598
0.019942890852689743,0.00521618640050292,-0.014178713783621788,0.008414083160459995,-0.0002179001603508368,-0.005450618918985128
0.019754700362682343,0.0045172241516411304,-0.013403316959738731,0.00878259539604187,-0.0002115056850016117,-0.005486355163156986
0.019979126751422882,0.004548688419163227,-0.014177837409079075,0.009297762997448444,-0.0002054702490568161,-0.005724525544792414
0.020106304436922073,0.004915530793368816,-0.013675389811396599,0.009806623682379723,-0.00019976915791630745,-0.005830495618283749
0.020039856433868408,0.0050224484875798225,-0.014383073896169662,0.009941903874278069,-0.00019437546143308282,-0.0060615139082074165
0.019882015883922577,0.0052146208472549915,-0.013836612924933434,0.008750640787184238,-0.00018926599295809865,-0.006177250761538744
0.02007368765771389,0.0048600672744214535,-0.01444619707763195,0.008775266818702221,-0.00018441755673848093,-0.006491778418421745
0.02007339335978031,0.004645411856472492,-0.013798064552247524,0.009959383867681026,-0.0001854433212429285,-0.00628630118444562
0.01992553472518921,0.004575292579829693,-0.014264839701354504,0.010265938006341457,-0.00017910974565893412,-0.005655606742948294
0.020424801856279373,0.004685783758759499,-0.013705934397876263,0.010045450180768967,-0.00017231854144483805,-0.005993959493935108
0.020140236243605614,0.004733255133032799,-0.014322048053145409,0.009799542836844921,-0.00016596711066085845,-0.005966479424387217
0.01994938962161541,0.004884640220552683,-0.013599815778434277,0.009475354105234146,-0.0001600626710569486,-0.006225138437002897
0.01994938962161541,0.004884640220552683,-0.013599815778434277,0.009475354105234146,-0.0001600626710569486,-0.006225138437002897
0.020499801263213158,0.004701852332800627,-0.013512147590517998,0.009782650507986546,-0.0001787923538358882,-0.005903299432247877
0.020499801263213158,0.004701852332800627,-0.013512147590517998,0.009782650507986546,-0.0001787923538358882,-0.005903299432247877
0.020322497934103012,0.004679106175899506,-0.014326123520731926,0.00948337558656931,-0.0001735190744511783,-0.006159490905702114
0.020462965592741966,0.0048340740613639355,-0.013992509804666042,0.009965361095964909,-0.00016814650734886527,-0.00618106871843338
0.020658476278185844,0.0047011286951601505,-0.014453152194619179,0.00930021982640028,-0.00016307029000017792,-0.00647854944691062
0.0200185626745224,0.004813218489289284,-0.013816630467772484,0.009557679295539856,-0.00015828991308808327,-0.006369768176227808
0.020313158631324768,0.004812720697373152,-0.014204617589712143,0.01001976989209652,-0.00017768985708244145,-0.006191512104123831
0.020660176873207092,0.004803065676242113,-0.013800276443362236,0.009799719788134098,-0.00017433150787837803,-0.0062784841284155846
0.021110743284225464,0.004651034716516733,-0.014195738360285759,0.009707000106573105,-0.0001877039176179096,-0.006637930404394865
0.02028515934944153,0.0047787874937057495,-0.013263608328998089,0.009635616093873978,-0.0001884921221062541,-0.0067345877178013325
0.020526070147752762,0.004717702511698008,-0.014872964471578598,0.010144122876226902,-0.00018413607904221863,-0.006421259138733149
0.02007419429719448,0.004898970481008291,-0.014343037270009518,0.010343638248741627,-0.0002641785249579698,-0.006165646016597748
0.02132919430732727,0.004743538796901703,-0.01381923258304596,0.01058967038989067,-0.00028930619009770453,-0.006671739276498556
0.021431846544146538,0.005004198290407658,-0.01422384474426508,0.009991643019020557,-0.00031808947096578777,-0.006795271299779415
0.021026352420449257,0.005072964355349541,-0.014047118835151196,0.010039077140390873,-0.0003377355169504881,-0.006682501174509525
0.02043236419558525,0.0053009274415671825,-0.01426407415419817,0.010220293886959553,-0.000332449097186327,-0.006740093231201172
0.02112458273768425,0.0050086891278624535,-0.014373325742781162,0.010055478662252426,-0.0006115756114013493,-0.006650677416473627
0.021476833149790764,0.004883565939962864,-0.014463366009294987,0.010094501078128815,-0.0006754761561751366,-0.006560754496604204
0.021435478702187538,0.004888933151960373,-0.014029528014361858,0.009912610985338688,-0.000663971237372607,-0.006651062984019518
0.021257879212498665,0.005244529340416193,-0.013982970267534256,0.009645480662584305,-0.0006414359668269753,-0.006705518811941147
0.02121458202600479,0.004765319172292948,-0.014480243436992168,0.010629646480083466,-0.0005847988650202751,-0.006988688837736845
0.020844511687755585,0.004593854304403067,-0.014273343607783318,0.010207763873040676,-0.000572214659769088,-0.007363186217844486
0.02084334008395672,0.004922586027532816,-0.014414272271096706,0.009256470948457718,-0.0005612060776911676,-0.0073894476518034935
0.021623972803354263,0.005059326067566872,-0.013906197622418404,0.009515145793557167,-0.0005226476932875812,-0.007411832921206951
0.02230243943631649,0.004582442808896303,-0.014352507889270782,0.009982317686080933,-0.0005128264892846346,-0.007242575287818909
0.021786928176879883,0.004420553334057331,-0.014419772662222385,0.009629404172301292,-0.0005099442787468433,-0.007253176998347044
0.021786928176879883,0.004420553334057331,-0.014419772662222385,0.009629404172301292,-0.0005099442787468433,-0.007253176998347044
0.02120557241141796,0.004917948506772518,-0.014645015820860863,0.01028730720281601,-0.0005437593208625913,-0.007271529641002417
0.021235588937997818,0.004916826728731394,-0.014070026576519012,0.010243136435747147,-0.0005741695640608668,-0.007253538351505995
0.02150508388876915,0.004762270487844944,-0.014325486496090889,0.0094299903139472,-0.0007383157499134541,-0.007862492464482784
0.021795548498630524,0.005045576952397823,-0.014064377173781395,0.010082331486046314,-0.0009821675485000014,-0.007908695377409458
0.021780895069241524,0.004913320764899254,-0.014579334296286106,0.010629172436892986,-0.001027313177473843,-0.007706376723945141
0.021600503474473953,0.004380722064524889,-0.014352461323142052,0.009932659566402435,-0.001245072460733354,-0.007033802103251219
0.021709749475121498,0.0044275373220443726,-0.014439597725868225,0.01033478882163763,-0.0013637940865010023,-0.007251335773617029
0.021837519481778145,0.004935058765113354,-0.014050370082259178,0.00989003200083971,-0.001353953848592937,-0.007842646911740303
0.02215934358537197,0.00486689293757081,-0.014331050217151642,0.009420386515557766,-0.0015086818020790815,-0.007905649952590466
0.021911783143877983,0.00471031479537487,-0.01420651562511921,0.009808490984141827,-0.0015404418809339404,-0.007623705547302961
0.022872598841786385,0.004398808348923922,-0.014099862426519394,0.010344596579670906,-0.001385235576890409,-0.007649552542716265
0.022788161411881447,0.004477399867027998,-0.014409982599318027,0.010201591067016125,-0.0012860303977504373,-0.007644647266715765
0.02208823896944523,0.00485767237842083,-0.014208209700882435,0.00985819473862648,-0.0011787931434810162,-0.007548647467046976
0.0221914891153574,0.004639681428670883,-0.014414409175515175,0.009917469695210457,-0.0010752184316515923,-0.007986968383193016
0.02263171598315239,0.004823022056370974,-0.014518994837999344,0.010549497790634632,-0.0009802909335121512,-0.008058653213083744
0.02277563512325287,0.004833199083805084,-0.015064547769725323,0.010166005231440067,-0.0008922337437979877,-0.007603215519338846
0.022908441722393036,0.004425573628395796,-0.014664269983768463,0.01042873039841652,-0.0008793693268671632,-0.007379926275461912
0.022944364696741104,0.004401199519634247,-0.014523884281516075,0.010834068059921265,-0.0007847247761674225,-0.007993192411959171
0.022480705752968788,0.004334716126322746,-0.01456461101770401,0.01094104629009962,-0.0007842635968700051,-0.007787036243826151
0.02278851717710495,0.004660000093281269,-0.015105953440070152,0.011240615509450436,-0.0007176728104241192,-0.007475562393665314
0.0229992363601923,0.004946067929267883,-0.015100125223398209,0.010584463365375996,-0.0006558977183885872,-0.006783297751098871
0.023307068273425102,0.00490077817812562,-0.01466473750770092,0.010188036598265171,-0.000577437924221158,-0.007154278457164764
0.023237185552716255,0.004782239440828562,-0.014876073226332664,0.010375305078923702,-0.0005119855049997568,-0.00748872384428978
0.023237185552716255,0.004782239440828562,-0.014876073226332664,0.010375305078923702,-0.0005119855049997568,-0.00748872384428978
0.023309214040637016,0.004524974152445793,-0.01539517380297184,0.010798784904181957,-0.0004999327939003706,-0.007110492326319218
0.023373747244477272,0.004767443053424358,-0.015299775637686253,0.011430216021835804,-0.00045786466216668487,-0.00734842661768198
0.023373747244477272,0.004767443053424358,-0.015299775637686253,0.011430216021835804,-0.00045786466216668487,-0.00734842661768198
0.02339339442551136,0.004586231429129839,-0.015556802973151207,0.010690259747207165,-0.00048742847866378725,-0.008018250577151775
0.023288337513804436,0.004626554436981678,-0.014836855232715607,0.010681814514100552,-0.00045636671711690724,-0.007553259842097759
0.0225682333111763,0.004937713034451008,-0.015618661418557167,0.011066899634897709,-0.0004257823165971786,-0.007246401160955429
0.02420017123222351,0.0048753684386610985,-0.015269430354237556,0.010838272981345654,-0.0004265356983523816,-0.007541304919868708
0.02413726970553398,0.00451396219432354,-0.015505269169807434,0.009966165758669376,-0.0004267446056474,-0.008307275362312794
0.024120429530739784,0.004282079171389341,-0.01540534570813179,0.010761371813714504,-0.00040443515172228217,-0.008084973320364952
0.02375313639640808,0.004522054456174374,-0.015951724722981453,0.011360694654285908,-0.00038302113534882665,-0.007697972934693098
0.02363496460020542,0.005059220362454653,-0.015579717233777046,0.011820665560662746,-0.00035050525912083685,-0.007590016350150108
0.022715026512742043,0.004985915496945381,-0.016107428818941116,0.010713700205087662,-0.0003149194526486099,-0.007977321743965149
0.023360298946499825,0.004860473796725273,-0.015537280589342117,0.01061239093542099,-0.0002936333476100117,-0.0078018526546657085
0.024049000814557076,0.004767342936247587,-0.015486178919672966,0.01044800691306591,-0.0002596787817310542,-0.008168227970600128
0.023553602397441864,0.004414205439388752,-0.015872422605752945,0.010749260894954205,-0.0002912149648182094,-0.008287550881505013
0.023523718118667603,0.0049694376066327095,-0.01630449667572975,0.010977689176797867,-0.0002791380975395441,-0.008164353668689728
0.024706944823265076,0.005562490317970514,-0.015428106300532818,0.010699533857405186,-0.00026559928664937615,-0.008716467767953873
0.02381240762770176,0.005068010650575161,-0.016233623027801514,0.011006468906998634,-0.0002843091497197747,-0.008756167255342007
0.023660700768232346,0.004649049136787653,-0.01511733140796423,0.011371423490345478,-0.00028140051290392876,-0.008373402990400791
0.02362203411757946,0.004249860532581806,-0.015546564012765884,0.01129134837538004,-0.0002699796168599278,-0.008714422583580017
0.02338273636996746,0.004514808766543865,-0.015774905681610107,0.01152769848704338,-0.0002589233627077192,-0.008354082703590393
0.023679178208112717,0.004697602242231369,-0.0165907833725214,0.011361438781023026,-0.0002660908503457904,-0.008651679381728172
0.024176351726055145,0.004784945398569107,-0.0155947832390666,0.011413300409913063,-0.00027225128724239767,-0.00903259590268135
0.02431749738752842,0.0052078962326049805,-0.015591219998896122,0.011170918121933937,-0.0002633531694300473,-0.008434155955910683
0.024150589480996132,0.005008103791624308,-0.016067223623394966,0.011144581250846386,-0.00025412533432245255,-0.008582061156630516
0.02356191724538803,0.00437267916277051,-0.015272494405508041,0.011401486583054066,-0.0002454648201819509,-0.008308127522468567
0.02356191724538803,0.00437267916277051,-0.015272494405508041,0.011401486583054066,-0.0002454648201819509,-0.008308127522468567
0.024030471220612526,0.004260539542883635,-0.01572883315384388,0.011295118369162083,-0.000249408622039482,-0.008482160046696663
0.02416451834142208,0.004244481213390827,-0.015190411359071732,0.01137082651257515,-0.00024744431721046567,-0.008853638544678688
0.02439211681485176,0.004833654034882784,-0.015862666070461273,0.011553502641618252,-0.00023527236771769822,-0.008531561121344566
0.02418948896229267,0.005048091523349285,-0.01564089022576809,0.011364955455064774,-0.00022362780873663723,-0.008357824757695198
0.024586671963334084,0.0049779643304646015,-0.01618540659546852,0.012009895406663418,-0.00021303999528754503,-0.008766142651438713
0.023824753239750862,0.0049759638495743275,-0.015533968806266785,0.01221978385001421,-0.0002034084318438545,-0.00915099959820509
0.023676998913288116,0.004442072939127684,-0.015741730108857155,0.012710271403193474,-0.00019460957264527678,-0.008920273743569851
0.02413085848093033,0.004553102422505617,-0.015749698504805565,0.012277748435735703,-0.00018654047744348645,-0.00962382834404707
0.02407795749604702,0.004362594336271286,-0.015673374757170677,0.012562891468405724,-0.00017911408212967217,-0.009297996759414673
0.024521227926015854,0.00499913701787591,-0.015686143189668655,0.012528455816209316,-0.0001722567976685241,-0.009434663690626621
0.024488888680934906,0.0053401123732328415,-0.015642670914530754,0.011879528872668743,-0.000165905017638579,-0.009141921997070312
0.02329353056848049,0.004556059371680021,-0.01611587405204773,0.011865958571434021,-0.00018983961490448564,-0.00948962103575468
0.02479805424809456,0.004317670129239559,-0.01565517857670784,0.011683459393680096,-0.00018527128850109875,-0.009194320999085903
0.02500765398144722,0.004559868481010199,-0.01592302694916725,0.011420625261962414,-0.00017924753774423152,-0.00955137424170971
0.02435031719505787,0.004872981924563646,-0.015934951603412628,0.011775609105825424,-0.00016809551743790507,-0.00982638169080019
0.0249334704130888,0.004994173068553209,-0.0155993876978755,0.012265125289559364,-0.00016302055155392736,-0.009769427590072155
0.02454172447323799,0.004999461118131876,-0.015774648636579514,0.011978210881352425,-0.00015824251750018448,-0.010203723795711994
0.02481546439230442,0.004320925567299128,-0.015472747385501862,0.012301518581807613,-0.00017763803771231323,-0.009865837171673775
0.025572629645466805,0.004378967452794313,-0.015520425513386726,0.012203291989862919,-0.0001742824533721432,-0.009567155502736568
0.024928754195570946,0.00421617878600955,-0.015765851363539696,0.012297030538320541,-0.00016968982527032495,-0.010419598780572414
0.024965601041913033,0.0043754372745752335,-0.015502046793699265,0.012471849098801613,-0.00016524533566553146,-0.010939786210656166
0.024287806823849678,0.005004671402275562,-0.016052478924393654,0.012256165966391563,-0.00016102199151646346,-0.010546417906880379
0.024900171905755997,0.005118853412568569,-0.01535817887634039,0.012936724349856377,-0.00015700861695222557,-0.010746840387582779
0.02531164325773716,0.004635486751794815,-0.015443417243659496,0.012459736317396164,-0.00016941395006142557,-0.010786933824419975
0.02525101788341999,0.00428801542147994,-0.015010587871074677,0.012855365872383118,-0.0001705493632471189,-0.010302715934813023
0.02525101788341999,0.00428801542147994,-0.015010587871074677,0.012855365872383118,-0.0001705493632471189,-0.010302715934813023
0.024924755096435547,0.004453789442777634,-0.01600794307887554,0.012605777941644192,-0.0001669311459409073,-0.010346478782594204
0.025191763415932655,0.0046313307248055935,-0.015649979934096336,0.012384114786982536,-0.00016459097969345748,-0.010227654129266739
0.025806771591305733,0.004350925330072641,-0.015965061262249947,0.012145365588366985,-0.00015947897918522358,-0.009965346194803715
0.025345491245388985,0.004544404335319996,-0.015582619234919548,0.01173478551208973,-0.00018079376604873687,-0.010521676391363144
0.025576837360858917,0.004802375100553036,-0.015879245474934578,0.013006339780986309,-0.00017849427240435034,-0.010184242390096188
0.024970928207039833,0.005110475234687328,-0.016304031014442444,0.01223614439368248,-0.0001980372762773186,-0.010260224342346191
0.02528952993452549,0.004492552950978279,-0.01547643356025219,0.011844530701637268,-0.00021604278299491853,-0.010245993733406067
0.026137879118323326,0.004524219315499067,-0.016004066914319992,0.012244642712175846,-0.0002163242461392656,-0.010682852007448673
0.026436569169163704,0.004240020178258419,-0.01561790145933628,0.012492862530052662,-0.0005492295604199171,-0.010961893945932388
0.025639010593295097,0.0043254634365439415,-0.01631365902721882,0.013075469993054867,-0.00062440091278404,-0.010404178872704506
0.025893431156873703,0.004582909867167473,-0.016032977029681206,0.012978650629520416,-0.0006559892208315432,-0.010431317612528801
0.025917841121554375,0.004683664068579674,-0.015911869704723358,0.01326788030564785,-0.0006468357751145959,-0.010828734375536442
0.025472888723015785,0.004715875722467899,-0.015635596588253975,0.012586789205670357,-0.0006346249720081687,-0.010112845338881016
0.025958381593227386,0.00447698263451457,-0.0164839718490839,0.012658732943236828,-0.0009066805359907448,-0.009868647903203964
0.026035381481051445,0.0043847281485795975,-0.016335781663656235,0.012628153897821903,-0.0008260628092102706,-0.009612304158508778
0.026831770315766335,0.004607839975506067,-0.016462156549096107,0.01289576105773449,-0.000736729649361223,-0.00953661184757948
0.026462245732545853,0.004426270257681608,-0.016042323783040047,0.01246376521885395,-0.0007473108707927167,-0.01060954388231039
0.026663165539503098,0.004561287816613913,-0.016952145844697952,0.012989749200642109,-0.0007406098884530365,-0.010373217053711414
0.02633058838546276,0.004237825982272625,-0.01610887423157692,0.012645688839256763,-0.0007581902900710702,-0.010145517066121101
0.02655886672437191,0.0039527155458927155,-0.0165987741202116,0.012912641279399395,-0.000775713415350765,-0.010381467640399933
0.02645207941532135,0.0040560378693044186,-0.01679699681699276,0.013014591298997402,-0.0007514441385865211,-0.010375384241342545
0.026537055149674416,0.004018169362097979,-0.01654866896569729,0.013128562830388546,-0.0007214639335870743,-0.010562285780906677
0.02689364366233349,0.004444110672920942,-0.015990151092410088,0.012744709849357605,-0.0007987853023223579,-0.01045291032642126
0.02655928209424019,0.0046318634413182735,-0.01698933355510235,0.0131308538839221,-0.0008172232192009687,-0.009970027953386307
0.027008628472685814,0.0044067916460335255,-0.01695489138364792,0.013296184130012989,-0.0008045572321861982,-0.00994069967418909
0.027008628472685814,0.0044067916460335255,-0.01695489138364792,0.013296184130012989,-0.0008045572321861982,-0.00994069967418909
0.027259405702352524,0.0045365276746451855,-0.016713768243789673,0.01275187823921442,-0.0007373120170086622,-0.010398930869996548
0.027008306235074997,0.00426051951944828,-0.01646716147661209,0.013016931712627411,-0.0007305686012841761,-0.010207775980234146
0.027370693162083626,0.004162312019616365,-0.017190800979733467,0.01258387416601181,-0.0006825647433288395,-0.010812291875481606
0.027718860656023026,0.004138318821787834,-0.01650026999413967,0.013031069189310074,-0.000656106392852962,-0.01126205362379551
0.02759810909628868,0.004498966038227081,-0.016825104132294655,0.012651902623474598,-0.0006349345203489065,-0.010577225126326084
0.028284600004553795,0.004269509110599756,-0.016692811623215675,0.012984054163098335,-0.0006125583895482123,-0.010763500817120075
0.028078656643629074,0.0044043525122106075,-0.01682199165225029,0.012723610736429691,-0.000553014047909528,-0.010442623868584633
0.02805175445973873,0.004451456479728222,-0.016853872686624527,0.012759430333971977,-0.0005629859515465796,-0.010752365924417973
0.028155239298939705,0.00431811111047864,-0.016253765672445297,0.01304552610963583,-0.0005341304931789637,-0.010800972580909729
0.028121933341026306,0.004303164314478636,-0.01700720004737377,0.013488354161381721,-0.000559011590667069,-0.010491680353879929
0.02817205898463726,0.004095001611858606,-0.01666577160358429,0.013696450740098953,-0.0005243680207058787,-0.010402514599263668
0.028597453609108925,0.003927190322428942,-0.01724722981452942,0.013013839721679688,-0.0005199589650146663,-0.010667179711163044
0.02942376583814621,0.004401765763759613,-0.016948003321886063,0.013439184054732323,-0.00046935639693401754,-0.010655920021235943
0.02804785966873169,0.0046682208776474,-0.01720365695655346,0.014099749736487865,-0.00046574699808843434,-0.010521475225687027
0.02794877626001835,0.004324836190789938,-0.016351692378520966,0.013702931813895702,-0.00046366933383978903,-0.01068067830055952
0.02954629808664322,0.004189876839518547,-0.017087338492274284,0.013741564005613327,-0.0004612982738763094,-0.010877885855734348
0.02916763722896576,0.004467114340513945,-0.016985533758997917,0.013688866049051285,-0.0004616993828676641,-0.011119459755718708
0.02854684554040432,0.004693159833550453,-0.01712009124457836,0.013965647667646408,-0.00045982826850377023,-0.011072857305407524
0.029881197959184647,0.004811303224414587,-0.017307227477431297,0.013643043115735054,-0.00043391354847699404,-0.010812981054186821
0.030122926458716393,0.004292135126888752,-0.016863113269209862,0.013959592208266258,-0.00044305709889158607,-0.0109082767739892
0.0295428279787302,0.004292967729270458,-0.017345018684864044,0.01342860795557499,-0.00041496590711176395,-0.010833333246409893
0.028206411749124527,0.004540619440376759,-0.016713537275791168,0.013593770563602448,-0.0004513826861511916,-0.010706993751227856
0.028206411749124527,0.004540619440376759,-0.016713537275791168,0.013593770563602448,-0.0004513826861511916,-0.010706993751227856
0.028932422399520874,0.0041902391240000725,-0.01728787273168564,0.0133980056270957,-0.0004208475584164262,-0.01105497870594263
0.030111530795693398,0.004445341415703297,-0.017525285482406616,0.013537843711674213,-0.0003906844649463892,-0.011150999926030636
0.02952250838279724,0.0046153501607477665,-0.01714859902858734,0.013710190542042255,-0.0003643271920736879,-0.01134184468537569
0.029479263350367546,0.004454095847904682,-0.017626037821173668,0.014040770009160042,-0.00034129040432162583,-0.011259043589234352
0.029727185145020485,0.00434176716953516,-0.0169875156134367,0.014276782982051373,-0.00034703491837717593,-0.011005696840584278
0.029500924050807953,0.004021157044917345,-0.017113855108618736,0.01415140088647604,-0.00035167729947716,-0.011204993352293968
0.029192650690674782,0.00442115543410182,-0.01770009845495224,0.013714865781366825,-0.00036982883466407657,-0.010955204255878925
0.02947651967406273,0.004789337515830994,-0.017302917316555977,0.013347521424293518,-0.00036236958112567663,-0.010920130647718906
0.029749969020485878,0.004780287388712168,-0.017640123143792152,0.013533001765608788,-0.0003456955892033875,-0.011042625643312931
0.02948971465229988,0.00438304990530014,-0.017144516110420227,0.013808269053697586,-0.00034544506343081594,-0.011384076438844204
0.029424050822854042,0.004501731600612402,-0.017897631973028183,0.014106839895248413,-0.0003352962667122483,-0.01078232005238533
0.029599817469716072,0.0048822443932294846,-0.018229540437459946,0.013880070298910141,-0.0003433804085943848,-0.01062828954309225
0.02953536994755268,0.004886845126748085,-0.016775812953710556,0.013935336843132973,-0.000349115754943341,-0.010366316884756088
0.029611894860863686,0.004524318501353264,-0.01754622347652912,0.013721038587391376,-0.0003296268987469375,-0.010253247804939747
0.02967839501798153,0.004478902090340853,-0.017724037170410156,0.01432491559535265,-0.00035557092633098364,-0.010676747187972069
0.029349545016884804,0.004616307094693184,-0.017495593056082726,0.0137741444632411,-0.0003423771995585412,-0.010639150626957417
0.02852303348481655,0.004760205280035734,-0.018232125788927078,0.014035351574420929,-0.000365311250789091,-0.010755440220236778
0.030615150928497314,0.004454400390386581,-0.017901819199323654,0.014642923139035702,-0.0004780965973623097,-0.011194267310202122
0.03084421157836914,0.004246710333973169,-0.017822405323386192,0.014220979064702988,-0.0005179080762900412,-0.011295630596578121
0.030180690810084343,0.00490050483494997,-0.017634985968470573,0.014558333903551102,-0.000482623785501346,-0.01119634322822094
0.02911251224577427,0.005090710707008839,-0.0184386745095253,0.013680167496204376,-0.0004979005316272378,-0.011200610548257828
0.03032727539539337,0.004874878097325563,-0.018286990001797676,0.013968625105917454,-0.00047703663585707545,-0.011266462504863739
0.030789347365498543,0.004782611038535833,-0.018076620995998383,0.013496403582394123,-0.0004444644146133214,-0.011195966973900795
0.029764676466584206,0.004718116484582424,-0.01826719008386135,0.014660168439149857,-0.0004703975282609463,-0.010917840525507927
0.03064557909965515,0.004354462958872318,-0.01803707890212536,0.014451445080339909,-0.0004474627785384655,-0.010924695990979671
0.03049427457153797,0.004497942980378866,-0.018253523856401443,0.014586850069463253,-0.0004974441835656762,-0.01086490973830223
0.030854320153594017,0.004554786253720522,-0.018141264095902443,0.013653799891471863,-0.0005817656638100743,-0.011067218147218227
0.0297886710613966,0.004621963016688824,-0.0181471798568964,0.01414796244353056,-0.000634499650914222,-0.011014898307621479
0.0298001766204834,0.0046323915012180805,-0.019054029136896133,0.01433630008250475,-0.0009764654096215963,-0.010834114626049995
0.03022574819624424,0.004579138942062855,-0.019279835745692253,0.014007600955665112,-0.0010748871136456728,-0.011285612359642982
0.03022574819624424,0.004579138942062855,-0.019279835745692253,0.014007600955665112,-0.0010748871136456728,-0.011285612359642982
0.030615929514169693,0.004533874336630106,-0.01798420585691929,0.013363925740122795,-0.0010526379337534308,-0.011347898282110691
0.03049996867775917,0.004638651851564646,-0.01857670396566391,0.013920444995164871,-0.0010218726238235831,-0.011859266087412834
0.030258283019065857,0.004780564457178116,-0.0183538980782032,0.013782994821667671,-0.0009694073814898729,-0.011726816184818745
0.029996242374181747,0.004753665067255497,-0.017927126958966255,0.014064512215554714,-0.0009788593742996454,-0.011771033518016338
0.029674140736460686,0.004592522047460079,-0.018365835770964622,0.014043502509593964,-0.0009318360826000571,-0.011638101190328598
0.0303184874355793,0.004818455316126347,-0.01817554235458374,0.013929150067269802,-0.0008659636951051652,-0.011691227555274963
0.030627883970737457,0.004744728095829487,-0.019217532128095627,0.013759436085820198,-0.0008442996186204255,-0.01191843580454588
0.030284399166703224,0.00443571712821722,-0.01905471459031105,0.014094804413616657,-0.0007787349168211222,-0.011902698315680027
0.030423099175095558,0.004535670857876539,-0.017824428156018257,0.014594225212931633,-0.0008067102171480656,-0.011957326903939247
0.030735941603779793,0.004673204850405455,-0.018799807876348495,0.01500842347741127,-0.0008206387865357101,-0.012149907648563385
0.03128258138895035,0.004644625820219517,-0.01980806514620781,0.015522784553468227,-0.0007772339740768075,-0.011605782434344292
0.029476817697286606,0.004602900706231594,-0.018632452934980392,0.01558620110154152,-0.0007872095447964966,-0.011581354774534702
0.031350743025541306,0.004623591899871826,-0.019004009664058685,0.015070523135364056,-0.0008171649533323944,-0.011887420900166035
0.03151504695415497,0.004506058990955353,-0.019373856484889984,0.015293588861823082,-0.0007745089242234826,-0.012258654460310936
0.03082718700170517,0.004746752325445414,-0.01866990700364113,0.01429430115967989,-0.0006939920131117105,-0.012238530442118645
0.03142178803682327,0.004768428858369589,-0.019454989582300186,0.013915657997131348,-0.0006165557424537838,-0.012420854531228542
0.031524404883384705,0.004696799907833338,-0.018943123519420624,0.014566749334335327,-0.0006389061454683542,-0.01183244027197361
0.031039191409945488,0.004449774511158466,-0.01923232711851597,0.014694072306156158,-0.0005850959569215775,-0.011886079795658588
0.031625282019376755,0.004406840540468693,-0.019597623497247696,0.015015150420367718,-0.0005917621892876923,-0.01211262121796608
0.03169068321585655,0.004488997161388397,-0.019300945103168488,0.01546249259263277,-0.0005628623184747994,-0.012276853434741497
0.03173869103193283,0.004724628292024136,-0.01987297460436821,0.016001123934984207,-0.000491814105771482,-0.012979905121028423
0.0321933887898922,0.0046860589645802975,-0.019834773615002632,0.01586606167256832,-0.0005052464548498392,-0.01241761352866888
0.032569315284490585,0.004946993663907051,-0.019347989931702614,0.016127146780490875,-0.0005187186179682612,-0.01222478412091732
0.032474882900714874,0.004943994805216789,-0.019456930458545685,0.015696611255407333,-0.0005129105993546546,-0.012224912643432617
0.0323471799492836,0.004784735850989819,-0.019451245665550232,0.015530250035226345,-0.0004764814511872828,-0.011766962707042694
0.03202728554606438,0.004373499657958746,-0.01891651190817356,0.015705637633800507,-0.0005019558593630791,-0.012011760845780373
0.03239177539944649,0.004428254906088114,-0.01941005140542984,0.01526880357414484,-0.000561687455046922,-0.011859376914799213
0.03341358155012131,0.004918334074318409,-0.02028064616024494,0.014879599213600159,-0.0005759658524766564,-0.01209587138146162
0.03281145170331001,0.0050146933645009995,-0.019628506153821945,0.014772971160709858,-0.0006111614056862891,-0.01201730314642191
0.03281145170331001,0.0050146933645009995,-0.019628506153821945,0.014772971160709858,-0.0006111614056862891,-0.01201730314642191
0.03154937922954559,0.004714225884526968,-0.019370660185813904,0.015442760661244392,-0.0005549014895223081,-0.011953677050769329
0.03287028148770332,0.00425674906000495,-0.01992214471101761,0.015206410549581051,-0.0005649497034028172,-0.012820430099964142
0.03297136351466179,0.0036186056677252054,-0.019572656601667404,0.01573408767580986,-0.0005358487251214683,-0.012433784082531929
0.033137887716293335,0.0033794217742979527,-0.019514359533786774,0.015059993602335453,-0.000546869880054146,-0.011562841013073921
0.033769384026527405,0.0037751966156065464,-0.019769057631492615,0.015535540878772736,-0.0005240735481493175,-0.011776742525398731
0.03305976092815399,0.004157211631536484,-0.019915089011192322,0.015114208683371544,-0.0005508667672984302,-0.012439555488526821
0.03246771916747093,0.004456772468984127,-0.019858794286847115,0.015626508742570877,-0.0005813810275867581,-0.012386555783450603
0.032434672117233276,0.004141633398830891,-0.020290205255150795,0.01558779925107956,-0.0005356071051210165,-0.012584683485329151
0.03378529101610184,0.004411475267261267,-0.020075660198926926,0.016189103946089745,-0.00048793648602440953,-0.012929425574839115
0.03392862528562546,0.00415014335885644,-0.019702481105923653,0.016093354672193527,-0.0005022091208957136,-0.012444925494492054
0.03334743157029152,0.003543121973052621,-0.02018723636865616,0.016228416934609413,-0.00048080924898386,-0.012691975571215153
0.03425992280244827,0.003999887965619564,-0.020418114960193634,0.016210276633501053,-0.0004947499255649745,-0.01278678048402071
0.03413631394505501,0.004199669696390629,-0.019737331196665764,0.015577573329210281,-0.0004766901256516576,-0.013416329398751259
0.03380721062421799,0.004462521523237228,-0.020092865452170372,0.01564723253250122,-0.000492537918034941,-0.013019226491451263
0.033945925533771515,0.0039368318393826485,-0.020153027027845383,0.016086744144558907,-0.0004951815935783088,-0.01304447092115879
0.03334074094891548,0.0038348683156073093,-0.02017650008201599,0.016020111739635468,-0.0005241554463282228,-0.013165389187633991
0.03416692465543747,0.003818257013335824,-0.020324960350990295,0.01625804603099823,-0.0005265771760605276,-0.013246757909655571
0.0346626415848732,0.0038421826902776957,-0.02028968371450901,0.016168763861060143,-0.0005202572792768478,-0.013269341550767422
0.034439701586961746,0.003807616187259555,-0.020171651616692543,0.01589345373213291,-0.000674545590300113,-0.01322193443775177
0.034072019159793854,0.0037736885715276003,-0.0217093788087368,0.01582031510770321,-0.0007260868442244828,-0.013189171440899372
0.03404515981674194,0.003993188962340355,-0.021361352875828743,0.015995416790246964,-0.0007483258959837258,-0.013628143817186356
0.03544634208083153,0.0039598457515239716,-0.02082931436598301,0.016867035999894142,-0.0007215497898869216,-0.01313643530011177
0.034714896231889725,0.0038974054623395205,-0.02044742926955223,0.017236126586794853,-0.0006940576713532209,-0.013054956682026386
0.03349177911877632,0.004292129073292017,-0.020216602832078934,0.017572227865457535,-0.0006419182755053043,-0.012666961178183556
0.034731559455394745,0.004121496807783842,-0.020406341180205345,0.016830068081617355,-0.0006706365966238081,-0.013094721361994743
0.03446674719452858,0.003978346474468708,-0.021021630614995956,0.015984054654836655,-0.0006919933948665857,-0.013367963023483753
0.034938614815473557,0.004307491239160299,-0.020978210493922234,0.015772270038723946,-0.0006258792127482593,-0.013297220692038536
0.035454485565423965,0.004343954846262932,-0.021285777911543846,0.01583630032837391,-0.0006484019686467946,-0.013198030181229115
0.035454485565423965,0.004343954846262932,-0.021285777911543846,0.01583630032837391,-0.0006484019686467946,-0.013198030181229115
0.03589395433664322,0.0045405542477965355,-0.02116299606859684,0.016589047387242317,-0.0005930314073339105,-0.013158037327229977
0.03398798033595085,0.004269683267921209,-0.020453914999961853,0.016511263325810432,-0.0006090743117965758,-0.013305985368788242
0.03427111729979515,0.004251814913004637,-0.02057984285056591,0.017407402396202087,-0.0005713607533834875,-0.013249175623059273
0.035282932221889496,0.004090695641934872,-0.020754821598529816,0.016939392313361168,-0.0005602790042757988,-0.013197222724556923
0.03523218631744385,0.004398359917104244,-0.020971495658159256,0.01617344841361046,-0.0005749043775722384,-0.012979656457901001
0.03501008823513985,0.004650121554732323,-0.020830880850553513,0.016561873257160187,-0.0005400574882514775,-0.013179081492125988
0.03509585186839104,0.004450744483619928,-0.021000321954488754,0.01655118726193905,-0.0005523498984985054,-0.01318011898547411
0.035306449979543686,0.004407038446515799,-0.020980965346097946,0.01702328771352768,-0.0005249482346698642,-0.01371257845312357
0.03532492741942406,0.004356762859970331,-0.02022511698305607,0.01674034260213375,-0.0005501547129824758,-0.013575883582234383
0.03590214625000954,0.004577483516186476,-0.020531069487333298,0.016803473234176636,-0.0006163994548842311,-0.013498100452125072
0.03542489930987358,0.004455254413187504,-0.021058592945337296,0.01652040146291256,-0.0006585727678611875,-0.01313920971006155
0.03539732098579407,0.004569770768284798,-0.02105671353638172,0.016430946066975594,-0.0006118962774053216,-0.013148635625839233
0.03569210320711136,0.0042054858058691025,-0.020647937431931496,0.01638917811214924,-0.0006363922730088234,-0.013590690679848194
0.036008164286613464,0.00456816703081131,-0.021453803405165672,0.017106126993894577,-0.0006095429416745901,-0.01396248210221529
0.03606230393052101,0.005121425725519657,-0.020945489406585693,0.01755591481924057,-0.0006722690304741263,-0.013451674953103065
0.03567350655794144,0.004493277985602617,-0.020949281752109528,0.017718879505991936,-0.0006186442915350199,-0.013703066855669022
0.034485410898923874,0.004026059061288834,-0.021041681990027428,0.01809709146618843,-0.000625502725597471,-0.013464238494634628
0.03657116740942001,0.003906464669853449,-0.021160952746868134,0.01747526414692402,-0.0005824172985740006,-0.013842502608895302
0.03680315241217613,0.004413594026118517,-0.021189194172620773,0.01775953359901905,-0.0005913536879234016,-0.014037529937922955
0.03622272238135338,0.00447100168094039,-0.021151667460799217,0.017857473343610764,-0.000558767409529537,-0.014052661135792732
0.036383502185344696,0.004578151740133762,-0.02119067870080471,0.017561553046107292,-0.0005144070601090789,-0.013928767293691635
0.03642073646187782,0.004271414130926132,-0.02103702537715435,0.01800347864627838,-0.0005342639051377773,-0.014065871946513653
0.03632703050971031,0.0044395895674824715,-0.02088695392012596,0.017788000404834747,-0.0005047851591371,-0.013990039937198162
0.036412112414836884,0.0040815542452037334,-0.021254537627100945,0.01745726354420185,-0.0004728752246592194,-0.01387565117329359
0.03669029101729393,0.00397549057379365,-0.02167675271630287,0.01734694465994835,-0.00043014631955884397,-0.013988976366817951
0.03628091514110565,0.004442072007805109,-0.021696604788303375,0.017106706276535988,-0.0003927270299755037,-0.014406279660761356
0.03628091514110565,0.004442072007805109,-0.021696604788303375,0.017106706276535988,-0.0003927270299755037,-0.014406279660761356
0.03621446341276169,0.0042604790069162846,-0.021017154678702354,0.017103584483265877,-0.00041418755427002907,-0.01436784490942955
0.03652853146195412,0.0042823548428714275,-0.021383410319685936,0.01671377196907997,-0.0003999391628894955,-0.01445320900529623
0.037784695625305176,0.004706949461251497,-0.021519655361771584,0.01714550331234932,-0.00037334777880460024,-0.01439337432384491
0.03739602118730545,0.004678860306739807,-0.021625906229019165,0.017223162576556206,-0.00040340254781767726,-0.014787518419325352
0.03552373871207237,0.004328478127717972,-0.02119247429072857,0.016916953027248383,-0.00040904615889303386,-0.014441780745983124
0.035684794187545776,0.004054047632962465,-0.021827321499586105,0.017235636711120605,-0.00046710215974599123,-0.014627565629780293
0.03629859909415245,0.003928756806999445,-0.021934296935796738,0.017259735614061356,-0.0005449787713587284,-0.014512389898300171
0.036596525460481644,0.0043296655640006065,-0.021681493148207664,0.01791704259812832,-0.00059252924984321,-0.014793875627219677
0.03788105025887489,0.00416975375264883,-0.02195984311401844,0.01780940778553486,-0.0006102409679442644,-0.016225889325141907
0.03757266700267792,0.0043295687064528465,-0.02200349047780037,0.017717422917485237,-0.0009445980540476739,-0.014854094944894314
0.03566640615463257,0.004505918361246586,-0.02196365036070347,0.01822529546916485,-0.0010335881961509585,-0.014445065520703793
0.036338161677122116,0.004125435836613178,-0.021636642515659332,0.017976295202970505,-0.001028307480737567,-0.014770434238016605
0.037410859018564224,0.003938790876418352,-0.02209758199751377,0.01848219335079193,-0.0011238169390708208,-0.015140417963266373
0.03715110942721367,0.0039799390360713005,-0.022827913984656334,0.018013233318924904,-0.0010910065611824393,-0.015034708194434643
0.03742050752043724,0.004487104248255491,-0.022775862365961075,0.018521713092923164,-0.0009937277063727379,-0.014777633361518383
0.037526071071624756,0.0047402456402778625,-0.021848060190677643,0.018939567729830742,-0.0009762152913026512,-0.015145051293075085
0.037281375378370285,0.004573509097099304,-0.02155756950378418,0.018351811915636063,-0.00101547094527632,-0.015355576761066914
0.03692076355218887,0.004348476883023977,-0.022268258035182953,0.01839594729244709,-0.0010437174933031201,-0.015115136280655861
0.03753604367375374,0.004392571281641722,-0.02290363796055317,0.018093854188919067,-0.0010257137473672628,-0.015448985621333122
0.037455346435308456,0.0046166712418198586,-0.022330626845359802,0.01763468235731125,-0.0011141484137624502,-0.015564368106424809
0.0370868444442749,0.0047796848230063915,-0.021294206380844116,0.018135864287614822,-0.0012175545562058687,-0.015144203789532185
0.03818410262465477,0.004617145285010338,-0.022192690521478653,0.018493598327040672,-0.0011719483882188797,-0.015511449426412582
0.03850163146853447,0.004917014390230179,-0.023054903373122215,0.0188306774944067,-0.001174242584966123,-0.01554193627089262
0.03642307594418526,0.0053745536133646965,-0.023130804300308228,0.01878533698618412,-0.0011959169059991837,-0.015971427783370018
0.03630247339606285,0.0047646258026361465,-0.02228047512471676,0.018142396584153175,-0.0012366246664896607,-0.015825480222702026
0.03630247339606285,0.0047646258026361465,-0.02228047512471676,0.018142396584153175,-0.0012366246664896607,-0.015825480222702026
0.03752443939447403,0.004380002152174711,-0.021752910688519478,0.018096132203936577,-0.001248503103852272,-0.01590096764266491
0.0373024083673954,0.004415023606270552,-0.022096412256360054,0.018128763884305954,-0.001234872150234878,-0.014707943424582481
0.037951987236738205,0.005023433361202478,-0.022432073950767517,0.01756501942873001,-0.00117422454059124,-0.014975804835557938
0.037614379078149796,0.004985449835658073,-0.02299882471561432,0.018103724345564842,-0.0011489525204524398,-0.014691324904561043
0.036374662071466446,0.004994813818484545,-0.022392211481928825,0.017948228865861893,-0.0010458038887009025,-0.015305111184716225
0.03748895972967148,0.004797195550054312,-0.02230866067111492,0.01819685660302639,-0.0011119114933535457,-0.01563015766441822
0.03819802775979042,0.004723323509097099,-0.022698193788528442,0.019132792949676514,-0.001120312954299152,-0.01573033444583416
0.038197532296180725,0.004486733116209507,-0.02267652004957199,0.019712189212441444,-0.0010162413818761706,-0.01590738445520401
0.037608105689287186,0.004805765114724636,-0.021968601271510124,0.01899329014122486,-0.001031249761581421,-0.015877267345786095
0.03800080344080925,0.005050407722592354,-0.021916840225458145,0.019369013607501984,-0.0010086866095662117,-0.015802938491106033
0.03845089301466942,0.004971006885170937,-0.022374238818883896,0.01905294880270958,-0.0009625487728044391,-0.01559501327574253
0.0385143980383873,0.005069964099675417,-0.022508203983306885,0.01810390129685402,-0.0008624188485555351,-0.01580539159476757
0.03858960419893265,0.004987378139048815,-0.02284134179353714,0.018563315272331238,-0.0008121997234411538,-0.015969127416610718
0.03829754516482353,0.00488528935238719,-0.022450966760516167,0.01924356445670128,-0.0007715444080531597,-0.01643591932952404
