davideferrari95/blind_handover_controller/data/Test 218 - [2024-02-08 -- 12-13-13]/joint_states_data.csv
shoulder_pan_joint,shoulder_lift_joint,elbow_joint,wrist_1_joint,wrist_2_joint,wrist_3_joint
-0.00484171649441123,-0.014816196635365486,-0.007266475353389978,0.01989518478512764,0.0,-0.004937017802149057
-0.00484171649441123,-0.014816196635365486,-0.007266475353389978,0.01989518478512764,0.0,-0.004937017802149057
-0.004853603430092335,-0.014385690912604332,-0.0073456657119095325,0.018843818455934525,0.0,-0.004796897992491722
-0.004505404271185398,-0.014676203019917011,-0.007034818641841412,0.01846894435584545,0.0,-0.00418155686929822
-0.004525287542492151,-0.014380431734025478,-0.007701842114329338,0.0193762369453907,0.0,-0.004330616910010576
-0.005084653850644827,-0.014671382494270802,-0.007875198498368263,0.019782770425081253,0.0,-0.004182183649390936
-0.005084653850644827,-0.014671382494270802,-0.007875198498368263,0.019782770425081253,0.0,-0.004182183649390936
-0.005032972898334265,-0.014194341376423836,-0.006768405437469482,0.01912395842373371,0.0,-0.00439807865768671
-0.00455406354740262,-0.015007016249001026,-0.006860360503196716,0.01909622550010681,0.0,-0.004595216829329729
-0.0043205562978982925,-0.014412791468203068,-0.006989807356148958,0.01899580843746662,0.0,-0.004904625006020069
-0.00449714669957757,-0.015131141059100628,-0.007678200490772724,0.019047513604164124,0.0,-0.004790848586708307
-0.004675998352468014,-0.014308611862361431,-0.006473060697317123,0.01939711533486843,0.0,-0.004469366744160652
-0.005094804335385561,-0.014017049223184586,-0.007283891551196575,0.01785115711390972,0.0,-0.004658050835132599
-0.004894836340099573,-0.014322283677756786,-0.007903396151959896,0.019396228715777397,0.0,-0.0047668651677668095
-0.004751204047352076,-0.014331968501210213,-0.007701624184846878,0.019898146390914917,0.0,-0.004908505827188492
-0.004429520573467016,-0.014253375120460987,-0.007029913365840912,0.01916934736073017,0.0,-0.004841916263103485
-0.0044645643793046474,-0.013924965634942055,-0.006910341326147318,0.01929805986583233,0.0,-0.004625706933438778
-0.004581273067742586,-0.014699794352054596,-0.008076154626905918,0.01939634047448635,0.0,-0.0046171266585588455
-0.0046989526599645615,-0.013990437611937523,-0.007900405675172806,0.018825434148311615,0.0,-0.004263808950781822
-0.004712748806923628,-0.01458335667848587,-0.0075249443762004375,0.019177287817001343,0.0,-0.003964223433285952
-0.004361561965197325,-0.01409169938415289,-0.006520703434944153,0.01945662312209606,0.0,-0.004373596049845219
-0.004154629539698362,-0.014034814201295376,-0.007682440336793661,0.0192624032497406,0.0,-0.004490111023187637
-0.004473443608731031,-0.013662095181643963,-0.007306933403015137,0.01949983462691307,0.0,-0.004366783890873194
-0.0046263188123703,-0.01449341606348753,-0.007207901682704687,0.019243039190769196,0.0,-0.0043677473440766335
-0.004712936468422413,-0.013932778500020504,-0.007265930064022541,0.0189734548330307,0.0,-0.004574665799736977
-0.00430446257814765,-0.014359381049871445,-0.007314920425415039,0.01927986927330494,0.0,-0.0045974827371537685
-0.0041778068989515305,-0.013850405812263489,-0.007744024507701397,0.019246747717261314,0.0,-0.0042995973490178585
-0.0037955220323055983,-0.014339850284159184,-0.007261814549565315,0.018268918618559837,0.0,-0.004946005996316671
-0.0036534094251692295,-0.013615277595818043,-0.0068090809509158134,0.018842848017811775,0.0,-0.00506329070776701
-0.0037996734026819468,-0.013831958174705505,-0.007416698150336742,0.019133949652314186,0.0,-0.004840662702918053
-0.003823539474979043,-0.013525438494980335,-0.007790225557982922,0.01888030581176281,0.0,-0.004853408318012953
-0.0038177554961293936,-0.01391071267426014,-0.007345968391746283,0.01896684244275093,0.0,-0.004971073009073734
-0.0038825715892016888,-0.013675724156200886,-0.006893533281981945,0.018762199208140373,0.0,-0.0043704928830266
-0.004335375037044287,-0.013951938599348068,-0.007239838596433401,0.018586041405797005,0.0,-0.004426704254001379
-0.004127142950892448,-0.01408293005079031,-0.007727291435003281,0.019210541620850563,0.0,-0.004055901430547237
-0.0038592922501266003,-0.014191786758601665,-0.007044340018182993,0.01933988183736801,0.0,-0.004817420616745949
-0.0038592922501266003,-0.014191786758601665,-0.007044340018182993,0.01933988183736801,0.0,-0.004817420616745949
-0.0040465048514306545,-0.013831260614097118,-0.007412604987621307,0.01907161995768547,0.0,-0.004224715754389763
-0.0040465048514306545,-0.013831260614097118,-0.007412604987621307,0.01907161995768547,0.0,-0.004224715754389763
-0.0039026131853461266,-0.014313416555523872,-0.006952931173145771,0.018918031826615334,0.0,-0.003771203802898526
-0.004305865615606308,-0.01404300145804882,-0.0074460189789533615,0.019157787784934044,0.0,-0.004149972926825285
-0.0041314829140901566,-0.014147661626338959,-0.007852504961192608,0.018710995092988014,0.0,-0.004145138431340456
-0.004138790536671877,-0.013772041536867619,-0.007825471460819244,0.018540486693382263,0.0,-0.004470517858862877
-0.003985314164310694,-0.014109971933066845,-0.006983107887208462,0.019079143181443214,0.0,-0.0046735224314033985
-0.003755283774808049,-0.013854580000042915,-0.006387525238096714,0.018958086147904396,0.0,-0.004768048878759146
-0.003660034155473113,-0.01363991666585207,-0.006721297279000282,0.018569599837064743,0.0,-0.004913609940558672
-0.003779846476390958,-0.013897746801376343,-0.006635271478444338,0.01888950914144516,0.0,-0.005028517916798592
-0.004355903714895248,-0.01381881907582283,-0.005045131780207157,0.019009802490472794,0.0,-0.004659534431993961
-0.004214288201183081,-0.014062874019145966,-0.004211683291941881,0.01885947771370411,0.0,-0.004369358066469431
-0.0039393543265759945,-0.015172656625509262,-0.005540710408240557,0.018206069245934486,0.0,-0.004024638794362545
-0.0037842504680156708,-0.013752052560448647,-0.005605436861515045,0.01752287894487381,0.0,-0.004617202561348677
-0.003844467457383871,-0.013018964789807796,-0.005824422929435968,0.018184421584010124,0.0,-0.004958074074238539
-0.003946039825677872,-0.014131982810795307,-0.005384580697864294,0.017680108547210693,0.0,-0.004724990110844374
-0.0034268638119101524,-0.013942492194473743,-0.004762864205986261,0.018422354012727737,0.0,-0.004472164902836084
-0.003425343194976449,-0.014396190643310547,-0.004652001895010471,0.019266590476036072,0.0,-0.004374286159873009
-0.0036048293113708496,-0.01379385869950056,-0.004703854210674763,0.019035961478948593,0.0,-0.004061974119395018
-0.003708111820742488,-0.014129992574453354,-0.005297455936670303,0.01826770044863224,0.0,-0.004187174141407013
-0.003729065414518118,-0.013879196718335152,-0.005493932403624058,0.018671689555048943,0.0,-0.004783512093126774
-0.0036555982660502195,-0.014313937164843082,-0.005067641381174326,0.019018851220607758,0.0,-0.005003519356250763
-0.0035325754433870316,-0.013665133155882359,-0.0044127036817371845,0.01935841701924801,0.0,-0.0052069383673369884
-0.003439665539190173,-0.013724456541240215,-0.0043160878121852875,0.020188817754387856,0.0,-0.004917924292385578
-0.0033829330932348967,-0.013475057668983936,-0.0050593530759215355,0.019821537658572197,0.0,-0.00459784222766757
-0.0035943281836807728,-0.014228569343686104,-0.005008092150092125,0.018158936873078346,0.0,-0.004604327958077192
-0.0033920120913535357,-0.013731608167290688,-0.005425869952887297,0.017849551513791084,0.0,-0.004807723686099052
-0.003534944960847497,-0.013406827114522457,-0.00521339476108551,0.017720695585012436,0.0,-0.0047136940993368626
-0.004052905365824699,-0.013250932097434998,-0.004468111786991358,0.017960090190172195,0.0,-0.004618840757757425
-0.0037116047460585833,-0.01370574813336134,-0.005069856531918049,0.01823251321911812,0.0,-0.00501448567956686
-0.0037116047460585833,-0.01370574813336134,-0.005069856531918049,0.01823251321911812,0.0,-0.00501448567956686
-0.0031988690607249737,-0.013582970015704632,-0.00489817326888442,0.017483359202742577,0.0,-0.005067266058176756
-0.0029938463121652603,-0.013980246149003506,-0.004991103429347277,0.017785569652915,0.0,-0.004909975454211235
-0.0031027907971292734,-0.01334004383534193,-0.005444036331027746,0.017943963408470154,0.0,-0.004773384425789118
-0.003218179801478982,-0.013272920623421669,-0.005175983067601919,0.01823306642472744,0.0,-0.004740875214338303
-0.0035291719250380993,-0.012706964276731014,-0.004806254059076309,0.017190659418702126,0.0,-0.004912276286631823
-0.0033455360680818558,-0.013564467430114746,-0.004785973113030195,0.017656289041042328,0.0,-0.004773103166371584
-0.003474268363788724,-0.01295214332640171,-0.005022451281547546,0.017785124480724335,0.0,-0.004488855134695768
-0.0032302197068929672,-0.01329326257109642,-0.005610205233097076,0.016821764409542084,0.0,-0.004585465416312218
-0.003409230848774314,-0.013091441243886948,-0.005420533940196037,0.016806382685899734,0.0,-0.0048857685178518295
-0.003168542869389057,-0.01356242410838604,-0.005227410700172186,0.01647532545030117,0.0,-0.004985480103641748
-0.00314259878359735,-0.013046512380242348,-0.004800606053322554,0.01699915900826454,0.0,-0.004785274621099234
-0.003215895965695381,-0.013054226525127888,-0.004827131517231464,0.017625194042921066,0.0,-0.004848509095609188
-0.003140118671581149,-0.0130681861191988,-0.005669646896421909,0.017232468351721764,0.0,-0.004819792695343494
-0.003462187247350812,-0.012487205676734447,-0.005466749891638756,0.017400212585926056,0.0,-0.0047606537118554115
-0.003238344332203269,-0.013246490620076656,-0.005771981552243233,0.01692422479391098,0.0,-0.004634534008800983
-0.0035234384704381227,-0.012678883038461208,-0.005256262607872486,0.017319070175290108,0.0,-0.004766814410686493
-0.0032112309709191322,-0.012758434750139713,-0.005289813503623009,0.017324581742286682,0.0,-0.004750628024339676
-0.0032046108972281218,-0.012167098931968212,-0.005513680633157492,0.016999658197164536,0.0,-0.005076431203633547
-0.0032657342962920666,-0.012371615506708622,-0.005534094758331776,0.016964247450232506,0.0,-0.00562610849738121
-0.0031627449207007885,-0.012149877846240997,-0.0057195816189050674,0.0166156105697155,0.0,-0.005161169916391373
-0.0029821530915796757,-0.012062575668096542,-0.005499837454408407,0.016745073720812798,0.0,-0.004605285823345184
-0.0032759278547018766,-0.012662716209888458,-0.005520113743841648,0.01673574000597,0.0,-0.004404825624078512
-0.0029836767353117466,-0.012147573754191399,-0.005069291684776545,0.016892334446310997,0.0,-0.0041131507605314255
-0.003129058051854372,-0.012361565604805946,-0.005437286105006933,0.016923004761338234,0.0,-0.004284335765987635
-0.003382896538823843,-0.01182587631046772,-0.005299016833305359,0.016628732904791832,0.0,-0.00458165630698204
-0.003382896538823843,-0.01182587631046772,-0.005299016833305359,0.016628732904791832,0.0,-0.00458165630698204
-0.0031147084664553404,-0.012475624680519104,-0.005301757249981165,0.016859136521816254,0.0,-0.004651251249015331
-0.003018741263076663,-0.011911684647202492,-0.004833613988012075,0.017195001244544983,0.0,-0.004682836122810841
-0.003018741263076663,-0.011911684647202492,-0.004833613988012075,0.017195001244544983,0.0,-0.004682836122810841
-0.0033175102435052395,-0.012647398747503757,-0.005115659907460213,0.016724014654755592,0.0,-0.0044915867038071156
-0.0030898386612534523,-0.012645254842936993,-0.006033102981746197,0.01746460236608982,0.0,-0.004972121678292751
-0.0027245604433119297,-0.012163431383669376,-0.005470477510243654,0.017522716894745827,0.0,-0.005069860722869635
-0.0026259927544742823,-0.012163299135863781,-0.00476902024820447,0.017969179898500443,0.0,-0.004823583643883467
-0.0028904699720442295,-0.012358988635241985,-0.004801394417881966,0.017988821491599083,0.0,-0.004779398906975985
-0.003265747334808111,-0.011563125066459179,-0.0053191049955785275,0.016339771449565887,0.0,-0.004696385003626347
-0.003200605046004057,-0.0122618293389678,-0.005242556799203157,0.016626976430416107,0.0,-0.004753254819661379
-0.0030478357803076506,-0.012023585848510265,-0.005866802763193846,0.016284827142953873,0.0,-0.004811269696801901
-0.0028699778486043215,-0.012717194855213165,-0.0053803506307303905,0.01667417213320732,0.0,-0.004802555311471224
-0.00286863767541945,-0.012041415087878704,-0.0053251213394105434,0.016890287399291992,0.0,-0.004588602110743523
-0.0029620009008795023,-0.012126092799007893,-0.005015229340642691,0.01641971431672573,0.0,-0.004876628052443266
-0.0028787082992494106,-0.012340166606009007,-0.004852364771068096,0.01684488169848919,0.0,-0.004948244895786047
-0.002679591067135334,-0.01215995755046606,-0.005478372797369957,0.01647145301103592,0.0,-0.004818216897547245
-0.0027358215302228928,-0.012726363725960255,-0.005385478958487511,0.01663091778755188,0.0,-0.0051772091537714005
-0.002839045599102974,-0.012237763963639736,-0.005224584136158228,0.01619666814804077,0.0,-0.005012112203985453
-0.0032751010730862617,-0.012562677264213562,-0.005338368006050587,0.016574569046497345,0.0,-0.004766639322042465
-0.003193151205778122,-0.01207154244184494,-0.004909350536763668,0.016599366441369057,0.0,-0.004627299029380083
-0.002996576949954033,-0.012253372929990292,-0.004980677273124456,0.016753751784563065,0.0,-0.004768317099660635
-0.0028608774300664663,-0.012639782391488552,-0.005504042375832796,0.016197456046938896,0.0,-0.004820302128791809
-0.0028148931451141834,-0.012155908159911633,-0.005540801677852869,0.015443788841366768,0.0,-0.004903916735202074
-0.0029259780421853065,-0.0128482636064291,-0.005333591718226671,0.01593822054564953,0.0,-0.005092192441225052
-0.002824591239914298,-0.012012073770165443,-0.00487577635794878,0.015331808477640152,2.905222800109186e-06,-0.005303523503243923
-0.002824591239914298,-0.012012073770165443,-0.00487577635794878,0.015331808477640152,2.905222800109186e-06,-0.005303523503243923
-0.0025256893131881952,-0.012633506208658218,-0.005457577761262655,0.015225585550069809,8.086792901984552e-10,-0.004727132152765989
-0.0025256893131881952,-0.012633506208658218,-0.005457577761262655,0.015225585550069809,8.086792901984552e-10,-0.004727132152765989
-0.002561301691457629,-0.012766256928443909,-0.005767879541963339,0.01565631292760372,5.280098580584536e-11,-0.004609298426657915
-0.002729318803176284,-0.01242104358971119,-0.005191237200051546,0.016007738187909126,3.4475269861111713e-12,-0.004667150788009167
-0.0028599253855645657,-0.012821560725569725,-0.005431829486042261,0.01606329157948494,2.2509887020755875e-13,-0.004705578088760376
-0.002652099123224616,-0.012397930957376957,-0.005166234914213419,0.015602442435920238,1.469734808845751e-14,-0.004967409651726484
-0.002581097651273012,-0.012516563758254051,-0.005413697566837072,0.015795283019542694,9.59631789789893e-16,-0.005180662032216787
-0.0026741016190499067,-0.011602301150560379,-0.005668578669428825,0.01554248109459877,0.0002412919420748949,-0.0052179377526044846
-0.0025661804247647524,-0.012079563923180103,-0.005358724854886532,0.015962325036525726,0.0004230339254718274,-0.00509707722812891
-0.002723443554714322,-0.012652574107050896,-0.005546799395233393,0.015351004898548126,0.0004731942026410252,-0.004897937178611755
-0.002492179162800312,-0.01232087705284357,-0.005636089015752077,0.015722116455435753,0.00044031412107869983,-0.004741980694234371
-0.0023726182989776134,-0.012828810140490532,-0.005586785264313221,0.015367843210697174,0.0004705556493718177,-0.00511855399236083
-0.002372229006141424,-0.0124735776335001,-0.005315572954714298,0.015650449320673943,0.000488108053104952,-0.00527856033295393
-0.0024755452759563923,-0.012590250000357628,-0.0058068386279046535,0.015649424865841866,0.0004733743262477219,-0.005260103847831488
-0.0024775960482656956,-0.012396460399031639,-0.0053973328322172165,0.015815552324056625,0.0006824488518759608,-0.005081783980131149
-0.002730596112087369,-0.012559578754007816,-0.005369172431528568,0.015964077785611153,0.0007195653161033988,-0.004826847929507494
-0.0028451557736843824,-0.012129713781177998,-0.005054607056081295,0.015469123609364033,0.0006925025372765958,-0.004643389955163002
-0.0024721964728087187,-0.011794298887252808,-0.005308696534484625,0.015678785741329193,0.0006700734957121313,-0.005036663264036179
-0.0025638211518526077,-0.012311666272580624,-0.005793844815343618,0.015210894867777824,0.0006487730424851179,-0.005196218378841877
-0.002488563070073724,-0.011836564168334007,-0.005983143579214811,0.015512613579630852,0.0007340681040659547,-0.005441314075142145
-0.002385813044384122,-0.01192447729408741,-0.005422739777714014,0.015103587880730629,0.0007629151805303991,-0.005177543498575687
-0.0026884530670940876,-0.012265526689589024,-0.005742860492318869,0.015289456583559513,0.0007373668486252427,-0.005212666466832161
-0.0024818989913910627,-0.011622759513556957,-0.005619834642857313,0.014762741513550282,0.0007043437799438834,-0.004895455669611692
-0.0023561657872051,-0.011886260472238064,-0.005732908844947815,0.015085582621395588,0.000680135446600616,-0.004900804720818996
-0.0023561657872051,-0.011886260472238064,-0.005732908844947815,0.015085582621395588,0.000680135446600616,-0.004900804720818996
-0.0021530960220843554,-0.012471145950257778,-0.00537978857755661,0.014761875383555889,0.000670197478029877,-0.005349613260477781
-0.0023830984719097614,-0.011946090497076511,-0.005530972965061665,0.01463518850505352,0.0006905223126523197,-0.005115042440593243
-0.002347463509067893,-0.011990237981081009,-0.005976120941340923,0.014648803509771824,0.0007006385712884367,-0.005021024961024523
-0.0024752034805715084,-0.011762130074203014,-0.0060634068213403225,0.014795234426856041,0.000665277533698827,-0.0048650046810507774
-0.0024752034805715084,-0.011762130074203014,-0.0060634068213403225,0.014795234426856041,0.000665277533698827,-0.0048650046810507774
-0.0022104387171566486,-0.011988210491836071,-0.005674172658473253,0.014938242733478546,0.000618116173427552,-0.005526961758732796
-0.0023203417658805847,-0.011555997654795647,-0.005583604332059622,0.014962765388190746,0.0006438801065087318,-0.005514137446880341
-0.002176296664401889,-0.012093044817447662,-0.00621818657964468,0.014318977482616901,0.0006739214877597988,-0.005675012711435556
-0.0021403429564088583,-0.01150241494178772,-0.006735117640346289,0.01423721481114626,0.0006607117247767746,-0.005302688106894493
-0.0023661572486162186,-0.01105613075196743,-0.006195098627358675,0.013810220174491405,0.0006384735461324453,-0.005382667761296034
-0.002160662552341819,-0.01139987725764513,-0.005650483537465334,0.014161203987896442,0.0006540048634633422,-0.005242983810603619
-0.002261745510622859,-0.011328713968396187,-0.005501252599060535,0.014451791532337666,0.0006143605569377542,-0.0057188980281353
-0.002370585920289159,-0.01139689888805151,-0.005634062457829714,0.014883412048220634,0.0006671039154753089,-0.005460552871227264
-0.0022153977770358324,-0.011668297462165356,-0.005782728549093008,0.014802160672843456,0.0006748479790985584,-0.005348400678485632
-0.0021985205821692944,-0.011672457680106163,-0.006150309462100267,0.014796750620007515,0.0006235305336304009,-0.0053691864013671875
-0.0021891812793910503,-0.01135510765016079,-0.0056890868581831455,0.014464135281741619,0.0006287198048084974,-0.00522636529058218
-0.002522407565265894,-0.010850543156266212,-0.005704769864678383,0.014301707968115807,0.0005907992017455399,-0.005940604489296675
-0.002413270529359579,-0.010935143567621708,-0.0055503277108073235,0.013889634050428867,0.0005980555433779955,-0.005632345099002123
-0.0023072848562151194,-0.011364140547811985,-0.005873481743037701,0.013923014514148235,0.0005684458301402628,-0.005399648565798998
-0.002140318974852562,-0.010718673467636108,-0.00651159742847085,0.013398576527833939,0.0005516684032045305,-0.005324706435203552
-0.002140318974852562,-0.010718673467636108,-0.00651159742847085,0.013398576527833939,0.0005516684032045305,-0.005324706435203552
-0.0020463059190660715,-0.01098584197461605,-0.005750267766416073,0.013768174685537815,0.0005013258196413517,-0.005547896958887577
-0.0021731138695031404,-0.010879595763981342,-0.005755911581218243,0.013370506465435028,0.0005293878493830562,-0.005624197889119387
-0.002133387140929699,-0.010990035720169544,-0.006038058083504438,0.013280450366437435,0.0005237404257059097,-0.00561726838350296
-0.00198353105224669,-0.01057801116257906,-0.00658380938693881,0.013619598001241684,0.0004857305029872805,-0.005558645352721214
-0.0019721912685781717,-0.010580345056951046,-0.005986319854855537,0.01328730583190918,0.0005109933554194868,-0.005414433777332306
-0.0017680857563391328,-0.011150235310196877,-0.005873656366020441,0.013467783108353615,0.0005414896295405924,-0.005521425046026707
-0.0016984437825158238,-0.011358341202139854,-0.005674090702086687,0.013290997594594955,0.0005882940604351461,-0.005372521933168173
-0.0017238861182704568,-0.010718592442572117,-0.006013516802340746,0.013236059807240963,0.0005756931495852768,-0.0054411012679338455
-0.0018893819069489837,-0.010853083804249763,-0.006583481095731258,0.01315297745168209,0.0005982343573123217,-0.005705793853849173
-0.0018754457123577595,-0.010627979412674904,-0.0058915154077112675,0.013020655140280724,0.0006243333336897194,-0.005520869046449661
-0.0019231163896620274,-0.011125431396067142,-0.0056733801029622555,0.013044700026512146,0.0007148744771257043,-0.005714950617402792
-0.0018959486624225974,-0.01068156398832798,-0.005595350172370672,0.012911652214825153,0.0008320637280121446,-0.006104818545281887
-0.0017730804393067956,-0.010127158835530281,-0.005919255781918764,0.012779620476067066,0.000847569783218205,-0.0055944649502635
-0.0016272796783596277,-0.010793359950184822,-0.0059308214113116264,0.01263109315186739,0.0008544992888346314,-0.005945634096860886
-0.0015945655759423971,-0.010477378033101559,-0.004678878001868725,0.012963954359292984,0.000794095394667238,-0.005583027843385935
-0.0016204812563955784,-0.010713418014347553,-0.004522132221609354,0.013082862831652164,0.0008691353141330183,-0.005784725770354271
-0.0015530750388279557,-0.010465440340340137,-0.004764276091009378,0.013231324963271618,0.0008776785689406097,-0.005549080204218626
-0.0018177926540374756,-0.01017808448523283,-0.005664562340825796,0.012784808874130249,0.0008555954555049539,-0.0058325789868831635
-0.001681765541434288,-0.010807082988321781,-0.005437358748167753,0.012547929771244526,0.0008594721439294517,-0.0056462655775249004
-0.001765359309501946,-0.011055795475840569,-0.005315870977938175,0.012655111961066723,0.0007934006862342358,-0.005582651123404503
-0.0015762080438435078,-0.010023275390267372,-0.005035011563450098,0.012615254148840904,0.0007570264860987663,-0.005291466601192951
-0.0014913188060745597,-0.010189244523644447,-0.004781974013894796,0.012951046228408813,0.0007740383152849972,-0.005370813887566328
-0.0014066548319533467,-0.010576920583844185,-0.004724554717540741,0.01274278573691845,0.0008442291291430593,-0.005493826232850552
-0.0014272333355620503,-0.010176286101341248,-0.004712785594165325,0.012740625999867916,0.000968648586422205,-0.005807855166494846
-0.0014272333355620503,-0.010176286101341248,-0.004712785594165325,0.012740625999867916,0.000968648586422205,-0.005807855166494846
-0.0014106605667620897,-0.010322658345103264,-0.004862214904278517,0.012551140040159225,0.0010658029932528734,-0.005959426052868366
-0.0015042180893942714,-0.009824428707361221,-0.0051679848693311214,0.012735825031995773,0.0010446852538734674,-0.005834556650370359
-0.001553495298139751,-0.010466594249010086,-0.004640999250113964,0.01231265626847744,0.0009225065587088466,-0.00514858216047287
-0.001430317061021924,-0.009882758371531963,-0.00463209580630064,0.01229960098862648,0.000880227074958384,-0.005326550919562578
-0.0014670746168121696,-0.010752716101706028,-0.004786473698914051,0.011662718839943409,0.0009510114323347807,-0.005731036886572838
-0.0013897864846512675,-0.010485701262950897,-0.005182543769478798,0.011791892349720001,0.0009484162437729537,-0.005845732055604458
-0.0014137011021375656,-0.009882168844342232,-0.0052959811873734,0.01159213948994875,0.0008914688951335847,-0.005829208996146917
-0.0013529531424865127,-0.009872367605566978,-0.005259417463093996,0.01132278423756361,0.0009179073385894299,-0.005897863302379847
-0.0012999353930354118,-0.010438929311931133,-0.004857658874243498,0.012062898837029934,0.000916214776225388,-0.006099015008658171
-0.001340267714112997,-0.009874367155134678,-0.004672694951295853,0.011526759713888168,0.0008874087943695486,-0.005646325647830963
-0.0013025320367887616,-0.009870361536741257,-0.005186042748391628,0.012045000679790974,0.0008586181793361902,-0.0058885859325528145
-0.0014001874951645732,-0.010368866845965385,-0.005182633176445961,0.011986229568719864,0.0008124159649014473,-0.0055007850751280785
-0.0013521801447495818,-0.009843396954238415,-0.005931852851063013,0.011849774047732353,0.0007680524722672999,-0.0057580661959946156
-0.0015411784406751394,-0.009595504030585289,-0.005411460995674133,0.01136446837335825,0.0007276074611581862,-0.006044653244316578
-0.001307954196818173,-0.009817005135118961,-0.004917067009955645,0.012089032679796219,0.0007141419919207692,-0.0062031131237745285
-0.001307954196818173,-0.009817005135118961,-0.004917067009955645,0.012089032679796219,0.0007141419919207692,-0.0062031131237745285
-0.0011500217951834202,-0.00993253942579031,-0.0053029730916023254,0.011801025830209255,0.0007298640557564795,-0.005976943764835596
-0.0009697157656773925,-0.010435911826789379,-0.005356340203434229,0.011732612736523151,0.0007790651870891452,-0.006301597226411104
-0.0009513620752841234,-0.010043167509138584,-0.005261158104985952,0.012164649553596973,0.0007984753465279937,-0.006256521213799715
-0.0009434603853151202,-0.010071592405438423,-0.004837456159293652,0.011521180160343647,0.0007964899414218962,-0.0063255056738853455
-0.0009431166108697653,-0.011666680686175823,-0.005085899028927088,0.011692156083881855,0.0007312464294955134,-0.006159981247037649
-0.0010945723624899983,-0.009144319221377373,-0.005727320443838835,0.01120707392692566,0.0007436960004270077,-0.006422486621886492
-0.0009594218572601676,-0.009420114569365978,-0.004872256424278021,0.010472889058291912,0.0007337921997532248,-0.006039438769221306
-0.0009029582142829895,-0.010817020200192928,-0.004719830118119717,0.01167045347392559,0.0007413993589580059,-0.00599603122100234
-0.000825560768134892,-0.010054049082100391,-0.005715825594961643,0.010886178351938725,0.0007047785329632461,-0.006199187133461237
-0.000825560768134892,-0.010054049082100391,-0.005715825594961643,0.010886178351938725,0.0007047785329632461,-0.006199187133461237
-0.0008218342554755509,-0.009631828404963017,-0.0052950396202504635,0.010396108031272888,0.0007235903758555651,-0.006004664581269026
-0.0006535702268593013,-0.009710492566227913,-0.0052919634617865086,0.009888892993330956,0.0007577554788440466,-0.006562159862369299
-0.0006827295874245465,-0.00991209875792265,-0.0049905781634151936,0.011612089350819588,0.0008537420653738081,-0.006374366581439972
-0.0007071066647768021,-0.009970112703740597,-0.005307615268975496,0.011316084302961826,0.0008619038271717727,-0.006470765918493271
-0.0007265850435942411,-0.010181112214922905,-0.0053868950344622135,0.011016873642802238,0.0008449259330518544,-0.006401532329618931
-0.0008886699797585607,-0.009510902687907219,-0.004995172377675772,0.010814699344336987,0.0007783317705616355,-0.005759792868047953
-0.0007687887991778553,-0.009599847719073296,-0.005317219998687506,0.01004781574010849,0.0007794996490702033,-0.0058930111117661
-0.0007417888264171779,-0.009299133904278278,-0.004970146808773279,0.010012137703597546,0.000720478652510792,-0.005969540681689978
-0.000687119085341692,-0.00955128576606512,-0.00536057073622942,0.010645032860338688,0.0007390831597149372,-0.006154784932732582
-0.0006099825841374695,-0.009762904606759548,-0.005290769040584564,0.010188878513872623,0.0007642813143320382,-0.006160250864923
-0.0005480466643348336,-0.009265081956982613,-0.005390099249780178,0.010219753719866276,0.0007728144992142916,-0.006271084770560265
-0.0004975289921276271,-0.009345544502139091,-0.005616828333586454,0.009988867677748203,0.0007734661921858788,-0.006553684826940298
-0.0005050553008913994,-0.009370923042297363,-0.0052770692855119705,0.009089739993214607,0.0007249420159496367,-0.006795629858970642
-0.0004897498874925077,-0.009173274971544743,-0.005198867060244083,0.009003041312098503,0.0007625246653333306,-0.0064786989241838455
-0.0004547163553070277,-0.009344242513179779,-0.005312925670295954,0.009028518572449684,0.0007915502646937966,-0.006281610578298569
-0.00048217177391052246,-0.009231031872332096,-0.005488333757966757,0.00905807688832283,0.0008617133717052639,-0.0067364247515797615
-0.0004540788067970425,-0.008614964783191681,-0.005102407652884722,0.00862334668636322,0.0009914909023791552,-0.006773417349904776
-0.00042783335084095597,-0.009431145153939724,-0.005148706957697868,0.009747686795890331,0.0010865855729207397,-0.006912674754858017
-0.00033752687158994377,-0.009190991520881653,-0.005427301395684481,0.008649822324514389,0.0010823914781212807,-0.006610799580812454
-0.0003132411220576614,-0.008555669337511063,-0.005149464588612318,0.007975028827786446,0.0012079671723768115,-0.00713131669908762
-0.0003132411220576614,-0.008555669337511063,-0.005149464588612318,0.007975028827786446,0.0012079671723768115,-0.00713131669908762
-0.0002928418107330799,-0.008629616349935532,-0.005483177024871111,0.008191694505512714,0.0012605012161657214,-0.006776520516723394
-0.0002749462437350303,-0.009388655424118042,-0.00553115364164114,0.008734199218451977,0.001210743561387062,-0.006745631340891123
-0.0002930348855443299,-0.008669662289321423,-0.005452468991279602,0.008510016836225986,0.0011316207237541676,-0.006779281422495842
-0.000293762976070866,-0.008359750732779503,-0.005069822538644075,0.008460990153253078,0.00101625663228333,-0.006898784544318914
-0.0002651300746947527,-0.008944668807089329,-0.005552637856453657,0.008185042068362236,0.0008900563116185367,-0.007294710259884596
-0.0002527209871914238,-0.008622044697403908,-0.005489809904247522,0.008142177015542984,0.0008777141920290887,-0.007548882160335779
-0.00024142135225702077,-0.008861580863595009,-0.005477331578731537,0.008350461721420288,0.0008649839437566698,-0.006713909562677145
-0.00023108883760869503,-0.008592234924435616,-0.005081659648567438,0.008417223580181599,0.0008754007867537439,-0.006621175445616245
-0.0002216051798313856,-0.008314360864460468,-0.005536401644349098,0.00829281099140644,0.0008930121548473835,-0.006752890069037676
-0.00024415465304628015,-0.008255936205387115,-0.005282381549477577,0.0082466509193182,0.0008949072798714042,-0.007176152430474758
-0.00023887190036475658,-0.008387582376599312,-0.005559282843023539,0.008144605904817581,0.0008955934317782521,-0.006966414861381054
-0.0002301965287188068,-0.008405357599258423,-0.005622671917080879,0.0074883559718728065,0.000994534813798964,-0.006838235538452864
-0.00022208203154150397,-0.007957270368933678,-0.005185279529541731,0.007231935393065214,0.0009992232080549002,-0.006893747951835394
-0.00021451976499520242,-0.008235279470682144,-0.005376453511416912,0.007453765720129013,0.001052194507792592,-0.007160964421927929
-0.0002074555668514222,-0.008394353091716766,-0.005156784784048796,0.007618436589837074,0.0011030538007616997,-0.007139442954212427
-0.00013160354865249246,-0.008143567480146885,-0.005012945272028446,0.0074129849672317505,0.001137733575887978,-0.0067398520186543465
-4.754981637233868e-05,-0.007999769411981106,-0.005732327233999968,0.007498796563595533,0.0011213712859898806,-0.006893747951835394
-1.7916456727107288e-06,-0.008931404910981655,-0.005463753826916218,0.007626185193657875,0.0011179830180481076,-0.007000349462032318
-2.403721310884066e-08,-0.008260762318968773,-0.00563444010913372,0.00796260591596365,0.001254796632565558,-0.0073042563162744045
-3.2248986814309433e-10,-0.00791786890476942,-0.005274093244224787,0.007678934372961521,0.0013172319158911705,-0.00734277069568634
-4.326612852711964e-12,-0.008232261054217815,-0.005413893610239029,0.006968145724385977,0.0013122853124514222,-0.006946399807929993
-5.804703235006564e-14,-0.008932572789490223,-0.005174513906240463,0.007277637254446745,0.001317915739491582,-0.006799806375056505
-7.78775167776727e-16,-0.008000155910849571,-0.005838860757648945,0.008010496385395527,0.0012532550608739257,-0.0068662129342556
-1.0448262246583877e-17,-0.007866604253649712,-0.0053827823139727116,0.007816336117684841,0.0012161277700215578,-0.007127254735678434
-1.4017677956371222e-19,-0.008198002353310585,-0.005012580193579197,0.006734341848641634,0.0013905088417232037,-0.007063944824039936
-1.8806504564986442e-21,-0.008506782352924347,-0.005198217462748289,0.006307570263743401,0.0013676058733835816,-0.0073023829609155655
-2.5231324778485073e-23,-0.007753261364996433,-0.005124515853822231,0.006982180755585432,0.0015866715693846345,-0.0076140789315104485
-3.3851042031829746e-25,-0.008111354894936085,-0.00579050974920392,0.006995063740760088,0.0014627482742071152,-0.00778670608997345
-3.3851042031829746e-25,-0.008111354894936085,-0.00579050974920392,0.006995063740760088,0.0014627482742071152,-0.00778670608997345
-4.5415492685551405e-27,-0.007925092242658138,-0.005324408411979675,0.006766180042177439,0.0013517035404220223,-0.007498037535697222
-6.093068176176544e-29,-0.008128664456307888,-0.004874125123023987,0.006372582633048296,0.0012244415702298284,-0.0073738922365009785
-1.0967306457190278e-32,-0.008207101374864578,-0.005097532644867897,0.0070491875521838665,0.0010533684398978949,-0.007098364178091288
-1.471403931477682e-34,-0.008794663473963737,-0.005875706672668457,0.007496487814933062,0.001064007868990302,-0.007034450303763151
-1.9740760951298014e-36,-0.00815977156162262,-0.005477006081491709,0.007034311071038246,0.0010247400496155024,-0.007357926573604345
-2.648475117050869e-38,-0.007855931296944618,-0.005362534895539284,0.007353461813181639,0.0010441846679896116,-0.00796470232307911
-3.5532725159884386e-40,-0.00798562541604042,-0.00546442624181509,0.006766798440366983,0.0011413090396672487,-0.007636863272637129
-4.7672173756330277e-42,-0.008762375451624393,-0.005072398576885462,0.006325734779238701,0.0012692230520769954,-0.007430471014231443
-6.445972935894159e-44,-0.007943641394376755,-0.005429638549685478,0.006143879145383835,0.001415629987604916,-0.0073599922470748425
-1.401298464324817e-45,-0.008069818839430809,-0.005294473841786385,0.0064003122970461845,0.0015901834703981876,-0.0075624855235219
-0.0,-0.008275764994323254,-0.005153345409780741,0.006203291937708855,0.0019461872288957238,-0.007933690212666988
0.0,-0.008979246020317078,-0.005187008064240217,0.005997737869620323,0.0020756651647388935,-0.007870256900787354
0.0,-0.008035579696297646,-0.005219691898673773,0.005631550680845976,0.0020562296267598867,-0.008083151653409004
0.00040348662878386676,-0.007751265540719032,-0.005518500227481127,0.005606609862297773,0.0017825261456891894,-0.007685617543756962
0.00047320208977907896,-0.00808342732489109,-0.00510868476703763,0.005231948569417,0.00169957778416574,-0.007654859218746424
0.0004382179176900536,-0.008070658892393112,-0.004867136478424072,0.00590690691024065,0.0015930134104564786,-0.007687975652515888
0.00040535893640480936,-0.007714914623647928,-0.005535700358450413,0.005940516013652086,0.001401165034621954,-0.007553415838629007
0.0004323467146605253,-0.008426914922893047,-0.005188793875277042,0.005713930353522301,0.0014549889601767063,-0.007533272262662649
0.0004110744339413941,-0.00852205604314804,-0.005271920934319496,0.005192167591303587,0.001410063123330474,-0.00785358902066946
0.00043883881880901754,-0.007816174998879433,-0.005402980372309685,0.004909131675958633,0.001725433743558824,-0.008330496959388256
0.0005307263345457613,-0.007848364301025867,-0.005132355727255344,0.005479095969349146,0.0018626372329890728,-0.008463059552013874
0.0005934605142101645,-0.008049901574850082,-0.005388339981436729,0.006035999394953251,0.002005749149248004,-0.007863184437155724
0.0005646275822073221,-0.008680430240929127,-0.0051975431852042675,0.006020491011440754,0.0017858550418168306,-0.007843459025025368
0.0005670852260664105,-0.007929304614663124,-0.005093279294669628,0.005530390422791243,0.0014427790883928537,-0.00767159229144454
0.0005447645671665668,-0.008159402757883072,-0.005397219676524401,0.00527088763192296,0.0012891473015770316,-0.007914820685982704
0.0005647512152791023,-0.007876018062233925,-0.005051820073276758,0.00511011341586709,0.0012104179477319121,-0.007701244670897722
0.0005647512152791023,-0.007876018062233925,-0.005051820073276758,0.00511011341586709,0.0012104179477319121,-0.007701244670897722
0.0005309832631610334,-0.00773912388831377,-0.005317032802850008,0.005452699027955532,0.0011589735513553023,-0.00766685139387846
0.0006069463561289012,-0.007744875270873308,-0.0051931519992649555,0.005557773634791374,0.0009744173148646951,-0.00805402360856533
0.0006458162679336965,-0.00809539295732975,-0.005285324994474649,0.005456688813865185,0.0010624522110447288,-0.008275794796645641
0.0006730567547492683,-0.008518693037331104,-0.005379746668040752,0.005416042637079954,0.0010848635574802756,-0.007847548462450504
0.000908041896764189,-0.008228815160691738,-0.005451032426208258,0.005580406170338392,0.0015377964591607451,-0.008121871389448643
0.0009239906212314963,-0.008020485751330853,-0.0052032023668289185,0.005547791253775358,0.0014134851517155766,-0.008540047332644463
0.0008035200298763812,-0.008098677732050419,-0.005353238899260759,0.005372507032006979,0.0013159525115042925,-0.008584004826843739
0.0008143477025441825,-0.00754485884681344,-0.0055481926538050175,0.005137091968208551,0.0012327246367931366,-0.008118248544633389
0.0008348223054781556,-0.0074170492589473724,-0.005132023710757494,0.005049215629696846,0.0011962696444243193,-0.008289102464914322
0.0009835048113018274,-0.007799956947565079,-0.005219319835305214,0.004931783769279718,0.0012100531021133065,-0.00832108873873949
0.001098613953217864,-0.007588720414787531,-0.00445116963237524,0.0044178408570587635,0.0013145867269486189,-0.008640499785542488
0.0017085789004340768,-0.007090006954967976,-0.004436784889549017,0.004252903629094362,0.0014223350444808602,-0.00876140221953392
0.0015516469720751047,-0.007133022882044315,-0.004647471942007542,0.003979423549026251,0.0014605842297896743,-0.008929723873734474
0.00142754171974957,-0.007574291899800301,-0.004817866254597902,0.00387697946280241,0.001363239949569106,-0.008532763458788395
0.0013844403438270092,-0.007689239457249641,-0.004625304136425257,0.0038151408080011606,0.0012865333119407296,-0.008184763602912426
0.0013283597072586417,-0.006763700395822525,-0.004644006956368685,0.004248543176800013,0.0011635278351604939,-0.008552031591534615
0.0014514746144413948,-0.006854782812297344,-0.004382962826639414,0.00418788893148303,0.0011536022648215294,-0.008632305078208447
0.0016071029240265489,-0.00743648549541831,-0.0048002684488892555,0.00397410849109292,0.0011418444337323308,-0.008621614426374435
0.002221867674961686,-0.0075729163363575935,-0.0050408486276865005,0.0037890293169766665,0.0013668840983882546,-0.008980754762887955
0.0022279794793576,-0.00715523911640048,-0.0048246365040540695,0.0037093658465892076,0.0014364996459335089,-0.008615940809249878
0.002184229902923107,-0.007120379712432623,-0.004211069084703922,0.003772504162043333,0.0016121792141348124,-0.008189769461750984
0.0020097217056900263,-0.006960041355341673,-0.004239961504936218,0.003796475473791361,0.001571744796819985,-0.00832829624414444
0.0019565653055906296,-0.007279654033482075,-0.004586365539580584,0.003741136286407709,0.0014659137232229114,-0.009052235633134842
0.0019419220043346286,-0.007455392740666866,-0.004758843686431646,0.0034222444519400597,0.0012785037979483604,-0.00857691839337349
0.0019419220043346286,-0.007455392740666866,-0.004758843686431646,0.0034222444519400597,0.0012785037979483604,-0.00857691839337349
0.0023536526132375,-0.007703594863414764,-0.004803844727575779,0.003291021566838026,0.001299139461480081,-0.008586116135120392
0.002550171222537756,-0.007769440766423941,-0.004325111862272024,0.0033135688863694668,0.0012738474179059267,-0.008898893371224403
0.002463255077600479,-0.007177974097430706,-0.004292231518775225,0.0033425050787627697,0.0013550537405535579,-0.00879226066172123
0.002811808604747057,-0.007200854364782572,-0.004651281051337719,0.0031603770330548286,0.0013772343518212438,-0.008896976709365845
0.002985028550028801,-0.006950813811272383,-0.004876310471445322,0.0029903023969382048,0.0016601020470261574,-0.009639847092330456
0.00279822526499629,-0.007114488165825605,-0.004401282873004675,0.0029347750823944807,0.0016200309619307518,-0.009477042593061924
0.0030736573971807957,-0.00717455567792058,-0.004420783370733261,0.002811918267980218,0.0017872066237032413,-0.009171987883746624
0.003399582114070654,-0.006981310900300741,-0.004579357802867889,0.0024653952568769455,0.0019208665471524,-0.008908250369131565
0.003333041677251458,-0.006874680519104004,-0.004593652207404375,0.00244729476980865,0.0019285536836832762,-0.009409213438630104
0.00337614631280303,-0.007133640814572573,-0.004604622721672058,0.002420469420030713,0.0017936008516699076,-0.008972318843007088
0.0031448528170585632,-0.0070709651336073875,-0.00472254166379571,0.0023607295006513596,0.0017070610774680972,-0.008600649423897266
0.002959361532703042,-0.0067309304140508175,-0.005082783289253712,0.0024661708157509565,0.0016676889499649405,-0.008755136281251907
0.00411976408213377,-0.006788717582821846,-0.005048902705311775,0.002441644901409745,0.0017044928390532732,-0.008920070715248585
0.004131855443120003,-0.007642625365406275,-0.004875637590885162,0.00230205524712801,0.0017539525870233774,-0.00949524063616991
0.0039063431322574615,-0.0064385379664599895,-0.00474229920655489,0.002131230663508177,0.0020374669693410397,-0.009526154957711697
0.004210193175822496,-0.00612350320443511,-0.004676352720707655,0.0020431559532880783,0.0020569830667227507,-0.009322247467935085
0.004276248626410961,-0.007130424492061138,-0.004896767437458038,0.00176219770219177,0.0020253451075404882,-0.009771241806447506
0.004602201282978058,-0.006796905770897865,-0.004812420811504126,0.0015560556203126907,0.001978200627490878,-0.009394772350788116
0.004591565113514662,-0.006815959699451923,-0.0047213914804160595,0.0015176100423559546,0.0018501327140256763,-0.009726319462060928
0.004564064089208841,-0.006541281472891569,-0.005146704148501158,0.0013716693501919508,0.0017092209309339523,-0.009240468963980675
0.005032810382544994,-0.006350614130496979,-0.004675692413002253,0.001278033945709467,0.0016007042722776532,-0.009474587626755238
0.004942160565406084,-0.0061808559112250805,-0.004552689380943775,0.0011815278558060527,0.0015713218599557877,-0.009704381227493286
0.0055180988274514675,-0.006318916566669941,-0.004951775074005127,0.001027568825520575,0.0015523094916716218,-0.00968253705650568
0.005330823827534914,-0.006099632941186428,-0.005045175086706877,0.0008852895116433501,0.0018237183103337884,-0.009559492580592632
0.00593505147844553,-0.005814090371131897,-0.004934006370604038,0.000871185795404017,0.001960992580279708,-0.00928893219679594
0.0055693211033940315,-0.006063612177968025,-0.005156724248081446,0.0007884845254011452,0.0022254532668739557,-0.009791282936930656
0.00543577503412962,-0.005894023459404707,-0.00495885917916894,0.0007140195230022073,0.0021887244656682014,-0.00983042549341917
0.0054942830465734005,-0.005865388084203005,-0.004724949132651091,0.0005551792564801872,0.0022010866086930037,-0.009579953737556934
0.0061348723247647285,-0.005949278362095356,-0.005040563177317381,0.0005740496562793851,0.0023247089702636003,-0.009865613654255867
0.00592171773314476,-0.005679227411746979,-0.0050204177387058735,0.0005934152868576348,0.002093454822897911,-0.009268603287637234
0.0061963642947375774,-0.006097564473748207,-0.00524841109290719,0.0005611361120827496,0.0018734820187091827,-0.00961066409945488
0.006023559719324112,-0.005838542245328426,-0.004639795050024986,0.0005104193696752191,0.0017253623809665442,-0.009742267429828644
0.006023559719324112,-0.005838542245328426,-0.004639795050024986,0.0005104193696752191,0.0017253623809665442,-0.009742267429828644
0.006494972854852676,-0.00640053441748023,-0.004495417233556509,0.0005048213060945272,0.001620702794753015,-0.009507223032414913
0.00665710773319006,-0.005622868426144123,-0.004950536880642176,0.00047358006122522056,0.0015892044175416231,-0.009346271865069866
0.006374979857355356,-0.005350878927856684,-0.005033290013670921,0.00044445900130085647,0.0018217071192339063,-0.009685864672064781
0.006550616584718227,-0.005681842099875212,-0.005182554014027119,0.00041861581848934293,0.002033378230407834,-0.01011254545301199
0.0068703000433743,-0.006251735147088766,-0.005523754749447107,0.0003956040309276432,0.0019130018772557378,-0.009921918623149395
0.006796197034418583,-0.005666202399879694,-0.0048251673579216,0.00037499319296330214,0.001765933120623231,-0.010030437260866165
0.007162805180996656,-0.005814037285745144,-0.004862734582275152,0.00035642419243231416,0.0017779989866539836,-0.009766184724867344
0.006735455710440874,-0.005278313532471657,-0.004885671194642782,0.000339607271598652,0.0020920000970363617,-0.009979955852031708
0.006393177900463343,-0.005481315311044455,-0.005393005907535553,0.0003243067185394466,0.0021606814116239548,-0.01004744041711092
0.007068905513733625,-0.0057199569419026375,-0.005529015325009823,0.00031032515107654035,0.002220303751528263,-0.010504147969186306
0.00720817968249321,-0.00551932817324996,-0.005476661026477814,0.00029750095563940704,0.002163915429264307,-0.010078382678329945
0.00709519861266017,-0.0055841607972979546,-0.005522834602743387,0.00028569321148097515,0.0021090677473694086,-0.009630044922232628
0.006869958247989416,-0.005109837744385004,-0.005024588201195002,0.0002747881517279893,0.0020079510286450386,-0.009126481600105762
0.007204048801213503,-0.005792735610157251,-0.004842244554311037,0.0002646849025040865,0.0021732705645263195,-0.009587136097252369
0.007967254146933556,-0.00562369404360652,-0.005493456963449717,0.0002552982186898589,0.00204270426183939,-0.009988670237362385
0.007922113873064518,-0.005295415408909321,-0.005722726229578257,0.00024655493325553834,0.0021555046550929546,-0.01039479672908783
0.007108651101589203,-0.005254815332591534,-0.005703904666006565,0.00023839043569751084,0.002280994551256299,-0.009972421452403069
0.008110109716653824,-0.005061107687652111,-0.005097569432109594,0.00023074998171068728,0.002203174401074648,-0.009541007690131664
0.007887468673288822,-0.004773236345499754,-0.0050885616801679134,0.00020288926316425204,0.0019779650028795004,-0.009531158022582531
0.007758308667689562,-0.00479082902893424,-0.0049469126388430595,0.00019021678599528968,0.0019240521360188723,-0.00966611411422491
0.007789283525198698,-0.004793954081833363,-0.005160479806363583,0.00018422615539748222,0.0019002639455720782,-0.010053764097392559
0.008026273921132088,-0.005201112013310194,-0.005632795859128237,0.00017896434292197227,0.0019782755989581347,-0.010170234367251396
0.008694877848029137,-0.005013190675526857,-0.005552720278501511,0.0001740187726682052,0.002318104961887002,-0.00978922937065363
0.008000602014362812,-0.00477222353219986,-0.005546539090573788,0.00011578739940887317,0.0021375275682657957,-0.009585699997842312
0.00781913660466671,-0.004488222301006317,-0.00503224553540349,6.20243517914787e-05,0.0021976460702717304,-0.009184665977954865
0.008570636622607708,-0.004386292304843664,-0.004792730323970318,5.680607500835322e-05,0.002298421459272504,-0.009335242211818695
0.008402535691857338,-0.004540582187473774,-0.005534977652132511,2.9285169148351997e-05,0.00233528227545321,-0.010261990129947662
0.008402535691857338,-0.004540582187473774,-0.005534977652132511,2.9285169148351997e-05,0.00233528227545321,-0.010261990129947662
0.008451124653220177,-0.00463356077671051,-0.005915952380746603,4.585952808611182e-07,0.0023203406017273664,-0.00960471760481596
0.0084982356056571,-0.004487711936235428,-0.005242587998509407,2.99429956385211e-08,0.0023749603424221277,-0.009539748542010784
0.008802058175206184,-0.004549154546111822,-0.005405628588050604,1.955063444469829e-09,0.002405717270448804,-0.009258436970412731
0.008143696933984756,-0.004212574567645788,-0.005124178249388933,1.276516808923489e-10,0.002275182167068124,-0.009956112131476402
0.008377769030630589,-0.004041596315801144,-0.005991705693304539,-0.0015478095738217235,0.002310114912688732,-0.010541585274040699
0.008715557865798473,-0.0044269077479839325,-0.005735031329095364,-0.0023309029638767242,0.0020929528400301933,-0.010747607797384262
0.008512027561664581,-0.004287730902433395,-0.005876975599676371,-0.002681590849533677,0.0020930615719407797,-0.010268534533679485
0.009001378901302814,-0.003978400956839323,-0.00560868950560689,-0.0024729466531425714,0.0023145279847085476,-0.010441011749207973
0.009275139309465885,-0.003981830086559057,-0.005647692363709211,-0.0023965483997017145,0.002394611481577158,-0.010339227505028248
0.008652004413306713,-0.003961893729865551,-0.00536847161129117,-0.00273284618742764,0.002675349824130535,-0.010611934587359428
0.009107934311032295,-0.003731967182829976,-0.005530668422579765,-0.0034890701062977314,0.002579167950898409,-0.010207083076238632
0.009245730005204678,-0.0034705011639744043,-0.005110288038849831,-0.004538796376436949,0.002484305063262582,-0.010514946654438972
0.009724720381200314,-0.003649891819804907,-0.004938102792948484,-0.005168251693248749,0.0024537055287510157,-0.011047509498894215
0.008850662037730217,-0.003837681608274579,-0.005124714225530624,-0.004995872266590595,0.0024827630259096622,-0.011152802966535091
0.007016603369265795,-0.003808573354035616,-0.005419229157269001,-0.004961848258972168,0.002337345154955983,-0.010503771714866161
0.006407233886420727,-0.003895288100466132,-0.005003628320991993,-0.005215288605540991,0.002285834401845932,-0.010872614569962025
0.007278991397470236,-0.00366746517829597,-0.004832704085856676,-0.004935453180223703,0.0024480242282152176,-0.01094865519553423
0.006880179978907108,-0.0035473669413477182,-0.005107319448143244,-0.005027386359870434,0.0026080780662596226,-0.011756851337850094
0.007433791644871235,-0.003659941256046295,-0.005034221336245537,-0.005491594318300486,0.0030707144178450108,-0.011963318102061749
0.007928050123155117,-0.0034825527109205723,-0.0054217372089624405,-0.006086919456720352,0.0032201914582401514,-0.011217383667826653
0.0074143256060779095,-0.003468429669737816,-0.0050987983122467995,-0.006195814348757267,0.0030340775847434998,-0.010665680281817913
0.00787263922393322,-0.003289099084213376,-0.004757658578455448,-0.006230204366147518,0.0026567832101136446,-0.0108567476272583
0.007943348959088326,-0.003335495013743639,-0.0048112524673342705,-0.0065452768467366695,0.0023756588343530893,-0.0117228077724576
0.007702462375164032,-0.0031262601260095835,-0.004863076843321323,-0.007346232421696186,0.002205721801146865,-0.011518952436745167
0.007702462375164032,-0.0031262601260095835,-0.004863076843321323,-0.007346232421696186,0.002205721801146865,-0.011518952436745167
0.007938067428767681,-0.003180768573656678,-0.004954319912940264,-0.007105840370059013,0.0020510335452854633,-0.011275763623416424
0.008189068175852299,-0.0032166591845452785,-0.00514924107119441,-0.007233546581119299,0.0020272231195122004,-0.01100095920264721
0.008261233568191528,-0.0028969114646315575,-0.00475529907271266,-0.0071557690389454365,0.0021249339915812016,-0.01113069150596857
0.007669951766729355,-0.0026202581357210875,-0.005110736936330795,-0.00794305931776762,0.002351410686969757,-0.011671992018818855
0.008231572806835175,-0.0025369683280587196,-0.004987288732081652,-0.007889184169471264,0.0028006115462630987,-0.011512180790305138
0.008989202789962292,-0.0027283153031021357,-0.004834650084376335,-0.007714664563536644,0.0031879099551588297,-0.01124922838062048
0.008647015318274498,-0.002592835109680891,-0.005172311794012785,-0.008128732442855835,0.003103276016190648,-0.01175826694816351
0.008129671216011047,-0.0026548008900135756,-0.005016073118895292,-0.00775753753259778,0.0029050521552562714,-0.011432810686528683
0.008592154830694199,-0.00271486584097147,-0.004829296376556158,-0.0071834078989923,0.0029347226954996586,-0.01156861986964941
0.009009567089378834,-0.0025298886466771364,-0.004760819021612406,-0.007455131970345974,0.0029952216427773237,-0.011507914401590824
0.009188051335513592,-0.002512290608137846,-0.004474184475839138,-0.008335178717970848,0.003373950719833374,-0.011724375188350677
0.009567609056830406,-0.0022412771359086037,-0.004566711373627186,-0.009072341024875641,0.0036533297970891,-0.011859910562634468
0.009868129156529903,-0.002169222803786397,-0.004788924939930439,-0.008987435139715672,0.003555398201569915,-0.011653892695903778
0.009099683724343777,-0.001999082276597619,-0.0047333319671452045,-0.009803077206015587,0.003027531085535884,-0.012000677175819874
0.009693021886050701,-0.001982809277251363,-0.004418340511620045,-0.00963321141898632,0.002789817750453949,-0.01261435728520155
0.009391709230840206,-0.0017919207457453012,-0.004560666624456644,-0.0086749866604805,0.0024962150491774082,-0.012284401804208755
0.0094203045591712,-0.0018890459323301911,-0.0046769240871071815,-0.008842354640364647,0.0023728027008473873,-0.012021474540233612
0.009910733439028263,-0.0017561039421707392,-0.0046846442855894566,-0.009844975546002388,0.002552541671320796,-0.012159288860857487
0.009872443042695522,-0.0019448210950940847,-0.004809613339602947,-0.00951994489878416,0.002799675101414323,-0.012207964435219765
0.00941607728600502,-0.0017513467464596033,-0.005165402311831713,-0.009452820755541325,0.003063732525333762,-0.01209627091884613
0.010067158378660679,-0.0017045674612745643,-0.004847887437790632,-0.009653887711465359,0.003326574806123972,-0.012207328341901302
0.010673850774765015,-0.0015813482459634542,-0.004869488533586264,-0.009464101865887642,0.003100738860666752,-0.012189524248242378
0.010054359212517738,-0.0014665964990854263,-0.004881072789430618,-0.009783828631043434,0.003161465749144554,-0.012270762585103512
0.010639573447406292,-0.0014336055610328913,-0.004812350030988455,-0.010443511418998241,0.0030937842093408108,-0.01206519827246666
0.010204210877418518,-0.0013369752559810877,-0.004898869898170233,-0.010727984830737114,0.0031934226863086224,-0.012032933533191681
0.010540282353758812,-0.0012991523835808039,-0.005130879580974579,-0.010565831325948238,0.003092979546636343,-0.012687372975051403
0.01015971414744854,-0.001499486155807972,-0.004869828931987286,-0.01031607948243618,0.0029180473648011684,-0.01262360904365778
0.010423010215163231,-0.0016887779347598553,-0.005302357021719217,-0.010526682250201702,0.002932926407083869,-0.012355253100395203
0.011857795529067516,-0.0015281367814168334,-0.005483624991029501,-0.011144859716296196,0.00291539472527802,-0.01294221542775631
0.010462148115038872,-0.0014149672351777554,-0.004588188603520393,-0.010699550621211529,0.003325655357912183,-0.012408018112182617
0.010846317745745182,-0.0013333436800166965,-0.004952636081725359,-0.011655004695057869,0.0033047383185476065,-0.012284129858016968
0.010846317745745182,-0.0013333436800166965,-0.004952636081725359,-0.011655004695057869,0.0033047383185476065,-0.012284129858016968
0.010933876037597656,-0.0012871224898844957,-0.00502416118979454,-0.011383249424397945,0.0032536806538701057,-0.012253373861312866
0.010255534201860428,-0.0012336020590737462,-0.004975738003849983,-0.011477276682853699,0.003178087994456291,-0.012500542216002941
0.010791167616844177,-0.0012969279196113348,-0.005040267948061228,-0.011415720917284489,0.0030385605059564114,-0.012878965586423874
0.011337384581565857,-0.0012793379137292504,-0.0047643003053963184,-0.01108197495341301,0.0029298055451363325,-0.012672234326601028
0.012355155311524868,-0.0012200349010527134,-0.004410242661833763,-0.01101620402187109,0.002778691239655018,-0.012486951425671577
0.010560561902821064,-0.0011879961239174008,-0.004578499589115381,-0.01111979503184557,0.0029561915434896946,-0.012523552402853966
0.010389190167188644,-0.0011326331878080964,-0.004824261646717787,-0.01121954619884491,0.0029146033339202404,-0.012704803608357906
0.0113034937530756,-0.0010874286526814103,-0.005598743911832571,-0.011442109011113644,0.002882838249206543,-0.01304690632969141
0.011695332825183868,-0.0010487701511010528,-0.005072993692010641,-0.011123410426080227,0.002739622490480542,-0.012931513600051403
0.010921468026936054,-0.000931433227378875,-0.004474218003451824,-0.011087722145020962,0.0027717866469174623,-0.01278694998472929
0.011768145486712456,-0.0007747492636553943,-0.004522609058767557,-0.011464351788163185,0.00261966185644269,-0.012862423434853554
0.011166359297931194,-0.0007909522973932326,-0.005342456512153149,-0.01225206907838583,0.0026032261084765196,-0.013161336071789265
0.011639377102255821,-0.0008015701896511018,-0.005546326749026775,-0.01220234576612711,0.0028221718966960907,-0.013221480883657932
0.011763527989387512,-0.0008045382564887404,-0.0055214837193489075,-0.011732479557394981,0.002993963658809662,-0.013260841369628906
0.010983266867697239,-0.0007336515700444579,-0.005232470575720072,-0.011380764655768871,0.003209539456292987,-0.01296939980238676
0.011639595963060856,-0.0007559604127891362,-0.004783667623996735,-0.012220456264913082,0.002788883401080966,-0.012995692901313305
0.011036134324967861,-0.0007757401908747852,-0.005172453820705414,-0.011568364687263966,0.0027745820116251707,-0.012747381813824177
0.011937866918742657,-0.0007563529652543366,-0.005350073799490929,-0.012295329011976719,0.0029908830765634775,-0.01256552804261446
0.011380791664123535,-0.0007064720266498625,-0.00529829878360033,-0.012122799642384052,0.0030818467494100332,-0.013002476654946804
0.010844393633306026,-0.0006356221856549382,-0.00511556351557374,-0.012479043565690517,0.003511604154482484,-0.013014035299420357
0.011105034500360489,-0.0006310861790552735,-0.005121690221130848,-0.012671831995248795,0.003698020474985242,-0.013186546973884106
0.011004566214978695,-0.0005673688719980419,-0.004925781395286322,-0.012646608054637909,0.003135592443868518,-0.013108605518937111
0.011313894763588905,-0.0005740763735957444,-0.005517657846212387,-0.012547368183732033,0.0029914802871644497,-0.013247639872133732
0.011313894763588905,-0.0005740763735957444,-0.005517657846212387,-0.012547368183732033,0.0029914802871644497,-0.013247639872133732
0.011076044291257858,-0.0005473817582242191,-0.005224017892032862,-0.013085868209600449,0.0030874479562044144,-0.013578874990344048
0.011030762456357479,-0.0005767490947619081,-0.005012490786612034,-0.012376604601740837,0.0030894861556589603,-0.013243243098258972
0.011105572804808617,-0.0005979890120215714,-0.005201255436986685,-0.012481193989515305,0.002726075705140829,-0.013159018009901047
0.01059197448194027,-0.000559854379389435,-0.004961259197443724,-0.012147524394094944,0.0026635718531906605,-0.013306643813848495
0.01103542372584343,-0.0005195566336624324,-0.004514248110353947,-0.013903162442147732,0.002687879605218768,-0.013306056149303913
0.010893231257796288,-0.000484582909848541,-0.004360414110124111,-0.014388096518814564,0.0027902615256607533,-0.013663778081536293
0.010871956124901772,-0.0005081431590951979,-0.004938345868140459,-0.014236675575375557,0.003232124960049987,-0.013239827938377857
0.011690262705087662,-0.0004806061915587634,-0.005476110149174929,-0.01367208268493414,0.003698198590427637,-0.013473321683704853
0.010846470482647419,-0.0004345349152572453,-0.0055619943886995316,-0.013391248881816864,0.0034254565834999084,-0.0139332739636302
0.011256306432187557,-0.00039626206853426993,-0.005035836715251207,-0.013298643752932549,0.0034277604427188635,-0.01416574977338314
0.011469808407127857,-0.0004359535232651979,-0.004369002301245928,-0.013520032167434692,0.00350706884637475,-0.01417030394077301
0.011029279790818691,-0.00040427621570415795,-0.004994175396859646,-0.013484414666891098,0.0034853897523134947,-0.014173326082527637
0.011410342529416084,-0.0003761230909731239,-0.005490777548402548,-0.013072785921394825,0.0035130877513438463,-0.014076905325055122
0.011316276155412197,-0.00035162654239684343,-0.005414918065071106,-0.01386468205600977,0.0037427216302603483,-0.01417745091021061
0.011852261610329151,-0.00033012573840096593,-0.005388294346630573,-0.013919380493462086,0.003550104098394513,-0.014368853531777859
0.012327242642641068,-0.0002654368581715971,-0.004983703605830669,-0.014520336873829365,0.003501423168927431,-0.014325653202831745
0.011528673581779003,-0.00015022496518213302,-0.005094008985906839,-0.013756110332906246,0.0036180296447128057,-0.014107181690633297
0.01144567970186472,0.0002239669265691191,-0.004994802642613649,-0.01455750223249197,0.0036852536723017693,-0.014182805083692074
0.01125545334070921,0.00021846422168891877,-0.004875633865594864,-0.014490505680441856,0.003776040393859148,-0.014137395657598972
0.011421808041632175,0.00020226479682605714,-0.00592388492077589,-0.015387415885925293,0.003735570702701807,-0.014136186800897121
0.01165722869336605,0.00012634879385586828,-0.005528154782950878,-0.01500608678907156,0.003786218585446477,-0.014196090400218964
0.011312942951917648,0.00011728314711945131,-0.005301422905176878,-0.015470955520868301,0.003888046136125922,-0.014610490761697292
0.012178192846477032,0.00014611505321227014,-0.004957285709679127,-0.014994342811405659,0.003913914319127798,-0.013931028544902802
0.011370045132935047,0.00015536921273451298,-0.004795285407453775,-0.015165378339588642,0.0038241189904510975,-0.014056997373700142
0.011472475714981556,0.0001471389550715685,-0.004576634615659714,-0.015540273860096931,0.003787974826991558,-0.013983158394694328
0.01151032280176878,0.00013953704910818487,-0.005483775865286589,-0.015559026971459389,0.0037326281890273094,-0.01423212792724371
0.01151032280176878,0.00013953704910818487,-0.005483775865286589,-0.015559026971459389,0.0037326281890273094,-0.01423212792724371
0.011139972135424614,0.00013268027396406978,-0.005353218875825405,-0.015075424686074257,0.0037351413629949093,-0.014144666492938995
0.011640188284218311,0.00015411213098559529,-0.004739260766655207,-0.015605520457029343,0.003755849087610841,-0.01459993701428175
0.011640188284218311,0.00015411213098559529,-0.004739260766655207,-0.015605520457029343,0.003755849087610841,-0.01459993701428175
0.01143116969615221,0.00014201184967532754,-0.005353169981390238,-0.015590110793709755,0.00347184669226408,-0.014571638777852058
0.01143116969615221,0.00014201184967532754,-0.005353169981390238,-0.015590110793709755,0.00347184669226408,-0.014571638777852058
0.01233090739697218,0.00013662208220921457,-0.0053024208173155785,-0.016602376475930214,0.0034868211951106787,-0.01452710572630167
0.011353043839335442,0.0001640750269871205,-0.0048370035365223885,-0.01632573828101158,0.003716799896210432,-0.014891239814460278
0.011734232306480408,0.0001587236620252952,-0.004714352078735828,-0.016135198995471,0.003866254584863782,-0.014899184927344322
0.012248184531927109,0.00015356579388026148,-0.004716705996543169,-0.016220558434724808,0.003836824791505933,-0.015089861117303371
0.012308728881180286,0.00022461375920102,-0.004819326102733612,-0.0168168842792511,0.003856107359752059,-0.014845713973045349
0.012343689799308777,0.00021494287648238242,-0.00491458410397172,-0.017682846635580063,0.004175566136837006,-0.01547363493591547
0.011788567528128624,0.0002413238980807364,-0.005548578221350908,-0.017125550657510757,0.003966322634369135,-0.015662401914596558
0.012141898274421692,0.00023538869572803378,-0.005040628369897604,-0.01698337309062481,0.0035838827025145292,-0.0157843716442585
0.012079398147761822,0.00022561442165169865,-0.004441884346306324,-0.016641493886709213,0.003598419250920415,-0.015390308573842049
0.011846978217363358,0.0002521567221265286,-0.00447473069652915,-0.017189515754580498,0.003843136364594102,-0.015439537353813648
0.012139442376792431,0.00024291235604323447,-0.005078473128378391,-0.017588693648576736,0.003894972847774625,-0.01503978855907917
0.011910544708371162,0.0002659585443325341,-0.005160280968993902,-0.017668018117547035,0.00386888743378222,-0.0142776845023036
0.012420465238392353,0.0004158706869930029,-0.005143433343619108,-0.01786116510629654,0.003857249394059181,-0.014760817401111126
0.012069790624082088,0.0005106727476231754,-0.005137238185852766,-0.017892928794026375,0.0037586211692541838,-0.015221024863421917
0.012643515132367611,0.0004933297168463469,-0.004841837100684643,-0.017789337784051895,0.004283098503947258,-0.01541857048869133
0.012531952001154423,0.000518662272952497,-0.004344976041465998,-0.01830974966287613,0.0038934715557843447,-0.015742383897304535
0.012286351062357426,0.0004868547839578241,-0.005002039484679699,-0.017777258530259132,0.003565805498510599,-0.015585699118673801
0.012714913114905357,0.000508840661495924,-0.005569113418459892,-0.018240369856357574,0.0041351583786308765,-0.01506446860730648
0.012513576075434685,0.0004832665727008134,-0.005461900494992733,-0.018597910180687904,0.004151481203734875,-0.015215457417070866
0.012513576075434685,0.0004832665727008134,-0.005461900494992733,-0.018597910180687904,0.004151481203734875,-0.015215457417070866
0.012466952204704285,0.0006238239584490657,-0.005292477086186409,-0.01847531460225582,0.00407424895092845,-0.015572118572890759
0.013056484051048756,0.0006822387222200632,-0.004554020706564188,-0.01864037662744522,0.003425983479246497,-0.0158990565687418
0.012587502598762512,0.0006965818465687335,-0.004716536961495876,-0.018660588189959526,0.003454706398770213,-0.01552734524011612
0.012375907972455025,0.0006439588614739478,-0.005241680890321732,-0.01927994191646576,0.004159028176218271,-0.014807237312197685
0.012353483587503433,0.0007774268742650747,-0.005093177780508995,-0.01865152083337307,0.004658524878323078,-0.015240713953971863
0.01250362116843462,0.0007806040230207145,-0.004803870804607868,-0.01879281736910343,0.0041936407797038555,-0.015614603646099567
0.011987115256488323,0.0007708982448093593,-0.004880738910287619,-0.018412472680211067,0.0038619162514805794,-0.015554716810584068
0.011987115256488323,0.0007708982448093593,-0.004880738910287619,-0.018412472680211067,0.0038619162514805794,-0.015554716810584068
0.012623156420886517,0.0007246648892760277,-0.004864091519266367,-0.01987575739622116,0.003674306208267808,-0.016169654205441475
0.013054256327450275,0.0008754482259973884,-0.005240719299763441,-0.019950736314058304,0.0036613016854971647,-0.015721257776021957
0.012878725305199623,0.0008844711119309068,-0.005509278737008572,-0.01947089657187462,0.0039009815081954002,-0.015163726173341274
0.013277122750878334,0.0009131076512858272,-0.0049888058565557,-0.018880387768149376,0.0038857655599713326,-0.0153677212074399
0.01259672176092863,0.0011170086218044162,-0.004661933984607458,-0.019138196483254433,0.004571455996483564,-0.015432436019182205
0.012995189055800438,0.001230339054018259,-0.004662917461246252,-0.01931988261640072,0.004886359442025423,-0.015748990699648857
0.012802358716726303,0.0012114407727494836,-0.005344947800040245,-0.019164377823472023,0.004587485454976559,-0.01569429412484169
0.013560854829847813,0.0014773056609556079,-0.005603858735412359,-0.019579198211431503,0.0036742344964295626,-0.01576917991042137
0.012657465413212776,0.0015553389675915241,-0.005309515167027712,-0.01951681450009346,0.0035686723422259092,-0.015898365527391434
0.012996646575629711,0.0015315469354391098,-0.004701440688222647,-0.019269419834017754,0.004407383035868406,-0.01598934642970562
0.01317560113966465,0.0016631964826956391,-0.004593388643115759,-0.019399892538785934,0.004773913417011499,-0.015805929899215698
0.014540220610797405,0.0017638250719755888,-0.004671384114772081,-0.01947823539376259,0.004504172131419182,-0.01578141376376152
0.014321723021566868,0.0018517655553296208,-0.004818675573915243,-0.019646385684609413,0.003992033656686544,-0.015942584723234177
0.014632043428719044,0.0018122810870409012,-0.005282764323055744,-0.02009960636496544,0.004262867383658886,-0.015906743705272675
0.013959924690425396,0.0017934655770659447,-0.005270658526569605,-0.02014089748263359,0.004170078318566084,-0.016214897856116295
0.0153001444414258,0.0016986544942483306,-0.004891620017588139,-0.019849512726068497,0.004399590194225311,-0.016070595011115074
0.014472058042883873,0.001890654326416552,-0.004274110775440931,-0.019551118835806847,0.00424797460436821,-0.01640651747584343
0.01425981055945158,0.0022995942272245884,-0.004489073529839516,-0.019946258515119553,0.003997085615992546,-0.01619645021855831
0.014409011229872704,0.0022681651171296835,-0.005002338904887438,-0.019978772848844528,0.003933564759790897,-0.016185784712433815
0.014737380668520927,0.002318216022104025,-0.005602320656180382,-0.019660532474517822,0.004370758309960365,-0.016168123111128807
0.014737380668520927,0.002318216022104025,-0.005602320656180382,-0.019660532474517822,0.004370758309960365,-0.016168123111128807
0.01505381427705288,0.002215881133452058,-0.005119549576193094,-0.020272137597203255,0.004944695625454187,-0.01655416190624237
0.014633025042712688,0.0021575591526925564,-0.004777596797794104,-0.019795315340161324,0.004576385021209717,-0.01658766157925129
0.014633025042712688,0.0021575591526925564,-0.004777596797794104,-0.019795315340161324,0.004576385021209717,-0.01658766157925129
0.015260225161910057,0.002104366198182106,-0.004876525606960058,-0.02097499556839466,0.0041007730178534985,-0.016613803803920746
0.015358283184468746,0.002120513468980789,-0.005021105520427227,-0.02105272188782692,0.00455461535602808,-0.01659509539604187
0.01499034371227026,0.0021757918875664473,-0.005559396464377642,-0.020021850243210793,0.004696867894381285,-0.016449032351374626
0.015216470696032047,0.0025361794978380203,-0.005145813338458538,-0.020354749634861946,0.00448834290727973,-0.016333263367414474
0.015015172772109509,0.0028756314422935247,-0.004988838452845812,-0.021117698401212692,0.00403094757348299,-0.016796905547380447
0.015059026889503002,0.0034231641329824924,-0.004815136548131704,-0.02135900780558586,0.003763817949220538,-0.016726437956094742
0.014751073904335499,0.0036413115449249744,-0.004483394790440798,-0.0210614912211895,0.004150093998759985,-0.01675163209438324
0.015228080563247204,0.0035152100026607513,-0.005099927075207233,-0.02186024747788906,0.004177771508693695,-0.016564300283789635
0.014960885979235172,0.003359710332006216,-0.005633471067994833,-0.022324202582240105,0.00414649723097682,-0.01675512082874775
0.015339053235948086,0.0031251264736056328,-0.005428791046142578,-0.02264396660029888,0.004514615051448345,-0.016957303509116173
0.015140409581363201,0.0031862950418144464,-0.005344185512512922,-0.022050602361559868,0.0048524425365030766,-0.01653198152780533
0.014952045865356922,0.0033544662874192,-0.004622709471732378,-0.021851979196071625,0.004922656808048487,-0.016926459968090057
0.015264840796589851,0.0036419418174773455,-0.004504600539803505,-0.02167668752372265,0.004626524168998003,-0.01690102368593216
0.015252321027219296,0.004263530485332012,-0.0050527979619801044,-0.021821534261107445,0.004382967017591,-0.01692933216691017
0.015500903129577637,0.0041558933444321156,-0.005733340512961149,-0.022840559482574463,0.0044365450739860535,-0.01696097105741501
0.015431616455316544,0.003968031145632267,-0.005993714556097984,-0.023174067959189415,0.004994489252567291,-0.016853375360369682
0.015835540369153023,0.004333704710006714,-0.00509315449744463,-0.02385854162275791,0.0050027817487716675,-0.016732363030314445
0.015399804338812828,0.00433716457337141,-0.004565761424601078,-0.023878391832113266,0.004890188574790955,-0.016627347096800804
0.01571059226989746,0.004191710613667965,-0.004896899685263634,-0.023564262315630913,0.004601520951837301,-0.016665169969201088
0.015337705612182617,0.004467166494578123,-0.005566268693655729,-0.023425055667757988,0.004284912254661322,-0.01689206436276436
0.016166716814041138,0.004747220780700445,-0.006206230726093054,-0.02357434667646885,0.0040405308827757835,-0.016882719472050667
0.015829607844352722,0.005121111404150724,-0.005018236115574837,-0.023494666442275047,0.004261660855263472,-0.01688026636838913
0.015829607844352722,0.005121111404150724,-0.005018236115574837,-0.023494666442275047,0.004261660855263472,-0.01688026636838913
0.015646182000637054,0.00553889200091362,-0.005014490336179733,-0.02322094328701496,0.0046801757998764515,-0.016589878126978874
0.01615477353334427,0.004910993855446577,-0.004942878149449825,-0.02356737293303013,0.004807395860552788,-0.016380533576011658
0.01615477353334427,0.004910993855446577,-0.004942878149449825,-0.02356737293303013,0.004807395860552788,-0.016380533576011658
0.01584579423069954,0.005586864426732063,-0.005700190085917711,-0.023830121383070946,0.004497946705669165,-0.016459427773952484
0.01655184105038643,0.006179627031087875,-0.005663922522217035,-0.023834601044654846,0.004307482857257128,-0.017714306712150574
0.01602793112397194,0.005820177961140871,-0.005240117199718952,-0.023327331990003586,0.004534872714430094,-0.017565345391631126
0.015948910266160965,0.005632098764181137,-0.0048445756547153,-0.023646388202905655,0.004714354407042265,-0.017127949744462967
0.015633095055818558,0.006031259428709745,-0.0054083773866295815,-0.024333355948328972,0.005015238653868437,-0.017342137172818184
0.016336947679519653,0.00556988175958395,-0.0056397621519863605,-0.024975068867206573,0.005092183127999306,-0.017344875261187553
0.01628286950290203,0.006632552947849035,-0.005691878963261843,-0.02406175062060356,0.004706285893917084,-0.017543403431773186
0.016234422102570534,0.006827273406088352,-0.0055119553580880165,-0.023990876972675323,0.004317369312047958,-0.017295556142926216
0.016567859798669815,0.006345945876091719,-0.005673700012266636,-0.024186771363019943,0.004485956393182278,-0.017363056540489197
0.016553854569792747,0.006390252150595188,-0.005193975754082203,-0.024331657215952873,0.004673940595239401,-0.017922615632414818
0.017101624980568886,0.006921951659023762,-0.005353579297661781,-0.025696516036987305,0.004583614878356457,-0.018228422850370407
0.016589326784014702,0.006929315626621246,-0.005565612576901913,-0.024929948151111603,0.004779740236699581,-0.01850014366209507
0.016825193539261818,0.00644675875082612,-0.0060606603510677814,-0.0249407310038805,0.004874791484326124,-0.01819336786866188
0.016461806371808052,0.006649765186011791,-0.005506244488060474,-0.025751624256372452,0.005141075234860182,-0.018008476123213768
0.016250669956207275,0.006685571279376745,-0.005416168365627527,-0.02630218118429184,0.005068178288638592,-0.0182806309312582
0.01702895015478134,0.007035191636532545,-0.005683994386345148,-0.025328466668725014,0.005236839409917593,-0.018360301852226257
0.016612811014056206,0.007255818694829941,-0.005614927038550377,-0.024765415117144585,0.005050928331911564,-0.01857711188495159
0.01727825589478016,0.007334979251027107,-0.005401584319770336,-0.025497056543827057,0.005347506608814001,-0.018321318551898003
0.01707584038376808,0.007256900891661644,-0.005152890458703041,-0.026845034211874008,0.005375506356358528,-0.01825380139052868
0.01676042005419731,0.008023572154343128,-0.005928095430135727,-0.026975447311997414,0.005014228168874979,-0.017593571916222572
0.01732836663722992,0.007834691554307938,-0.006027689203619957,-0.026878319680690765,0.004658056888729334,-0.01726604253053665
0.017131078988313675,0.0071303267031908035,-0.005985754542052746,-0.02630079910159111,0.004227190278470516,-0.01767445169389248
0.018347689881920815,0.007651926949620247,-0.005981286987662315,-0.027021080255508423,0.004760995507240295,-0.018384935334324837
0.01802743785083294,0.008507884107530117,-0.005310746841132641,-0.026852376759052277,0.004769789054989815,-0.018766134977340698
0.01802743785083294,0.008507884107530117,-0.005310746841132641,-0.026852376759052277,0.004769789054989815,-0.018766134977340698
0.01753070391714573,0.00835189688950777,-0.005373732186853886,-0.026454811915755272,0.004967532120645046,-0.018617596477270126
0.018443873152136803,0.007762633264064789,-0.005781873594969511,-0.026432693004608154,0.005407191812992096,-0.018606850877404213
0.017939742654561996,0.00784000102430582,-0.006703579798340797,-0.02691553346812725,0.005125690251588821,-0.018636800348758698
0.017857041209936142,0.008909243158996105,-0.005214877426624298,-0.026672055944800377,0.005352170672267675,-0.018748003989458084
0.01809346117079258,0.008050444535911083,-0.00501672038808465,-0.02658849209547043,0.0058801257982850075,-0.018672587350010872
0.01878972165286541,0.008434738032519817,-0.005854689050465822,-0.026978228241205215,0.005736319813877344,-0.018456220626831055
0.018237363547086716,0.0088740149512887,-0.00592985562980175,-0.027463562786579132,0.005394127685576677,-0.018808769062161446
0.017847178503870964,0.008566875010728836,-0.006337430328130722,-0.027124905958771706,0.004887799732387066,-0.018851155415177345
0.01882483996450901,0.008254298940300941,-0.0056169587187469006,-0.02650640532374382,0.004679241217672825,-0.018817538395524025
0.01851227879524231,0.00870817992836237,-0.005362969823181629,-0.026163682341575623,0.004543105605989695,-0.018780983984470367
0.018512949347496033,0.008994079194962978,-0.005222870036959648,-0.026453834027051926,0.004683449398726225,-0.01871124655008316
0.018990738317370415,0.008307131938636303,-0.005566690117120743,-0.02687159553170204,0.004688686691224575,-0.018863551318645477
0.019025404006242752,0.009079723618924618,-0.005932622589170933,-0.026922952383756638,0.0051675527356565,-0.01880462095141411
0.0191562008112669,0.009269459173083305,-0.006196465343236923,-0.02658684365451336,0.005490506067872047,-0.01937764510512352
0.019108815118670464,0.008254026062786579,-0.005368647165596485,-0.026859117671847343,0.005155491176992655,-0.0190533809363842
0.018992513418197632,0.009586697444319725,-0.0051204850897192955,-0.026705924421548843,0.0048656947910785675,-0.018605871126055717
0.018951505422592163,0.009409158490598202,-0.005067157093435526,-0.02642931416630745,0.00462517561390996,-0.01881970278918743
0.019345678389072418,0.009307945147156715,-0.005861782934516668,-0.027289673686027527,0.004833849146962166,-0.019069282338023186
0.019377224147319794,0.009552258998155594,-0.005965239368379116,-0.027321036905050278,0.005255524534732103,-0.019426414743065834
0.01931127905845642,0.009231804870069027,-0.005978965666145086,-0.02754128724336624,0.005437057930976152,-0.019341884180903435
0.019353745505213737,0.008955967612564564,-0.005424437113106251,-0.027321720495820045,0.005144424736499786,-0.019075408577919006
0.019451141357421875,0.009351448155939579,-0.005983525421470404,-0.027397897094488144,0.00468822056427598,-0.019212964922189713
0.019399959594011307,0.009623594582080841,-0.0056939497590065,-0.02785336598753929,0.0048352740705013275,-0.019643014296889305
0.019634123891592026,0.009499937295913696,-0.005969802848994732,-0.028021520003676414,0.005342655349522829,-0.01957494392991066
0.01952279731631279,0.009570143185555935,-0.006240615621209145,-0.027955107390880585,0.005386807024478912,-0.019932691007852554
0.01952279731631279,0.009570143185555935,-0.006240615621209145,-0.027955107390880585,0.005386807024478912,-0.019932691007852554
0.019747000187635422,0.009536602534353733,-0.0058097876608371735,-0.028350211679935455,0.005602311342954636,-0.01884680613875389
0.019747000187635422,0.009536602534353733,-0.0058097876608371735,-0.028350211679935455,0.005602311342954636,-0.01884680613875389
0.019776897504925728,0.007864125072956085,-0.0060014743357896805,-0.028832247480750084,0.005399276036769152,-0.018771547824144363
0.020346585661172867,0.007284538354724646,-0.005370722617954016,-0.028528766706585884,0.0054907784797251225,-0.01916700229048729
0.020426783710718155,0.007575719151645899,-0.0058826846070587635,-0.02836483344435692,0.005315712653100491,-0.02001604251563549
0.019726864993572235,0.008755532093346119,-0.006303417030721903,-0.030225729569792747,0.005055582616478205,-0.01998715102672577
0.020354347303509712,0.009232895448803902,-0.0060898014344275,-0.03019329160451889,0.005158377345651388,-0.019901512190699577
0.02072548307478428,0.008205816149711609,-0.006052650045603514,-0.029638731852173805,0.00492657208815217,-0.02024196647107601
0.02027358114719391,0.008181833662092686,-0.005273265298455954,-0.028640832751989365,0.00483044283464551,-0.02023056149482727
0.020543131977319717,0.009598285891115665,-0.0054500349797308445,-0.029512394219636917,0.005342983175069094,-0.020644456148147583
0.020800571888685226,0.008216969668865204,-0.005742909386754036,-0.03026295267045498,0.005242312327027321,-0.020097708329558372
0.021424930542707443,0.008030029945075512,-0.006349609233438969,-0.030076926574110985,0.0050201197154819965,-0.019237622618675232
0.020905183628201485,0.008473685011267662,-0.006246320903301239,-0.031199218705296516,0.005245443433523178,-0.019290124997496605
0.02128954418003559,0.008689267560839653,-0.005583267193287611,-0.03165797144174576,0.005155044142156839,-0.019300417974591255
0.020794209092855453,0.00846838764846325,-0.0055902497842907906,-0.030911583453416824,0.0049661267548799515,-0.019570907577872276
0.019879978150129318,0.008402876555919647,-0.0053709628991782665,-0.0299016572535038,0.0052709332667291164,-0.02018437534570694
0.02167391963303089,0.008924744091928005,-0.006580658257007599,-0.031071539968252182,0.00533812353387475,-0.020186245441436768
0.021846672520041466,0.008461237885057926,-0.00701039656996727,-0.0323982834815979,0.005507650785148144,-0.020177161321043968
0.0212989654392004,0.008724045008420944,-0.0058138067834079266,-0.03225990757346153,0.005225799977779388,-0.020526951178908348
0.021176673471927643,0.009139523841440678,-0.005308542400598526,-0.03157202526926994,0.005220018792897463,-0.01923682913184166
0.021607236936688423,0.009771454147994518,-0.005439449101686478,-0.03209112957119942,0.00523489760234952,-0.01971738412976265
0.02189081534743309,0.009058652445673943,-0.006144461687654257,-0.03269841894507408,0.00523427315056324,-0.019995493814349174
0.021690627560019493,0.00962152611464262,-0.006485113874077797,-0.032780349254608154,0.005474966950714588,-0.020105566829442978
0.02184377796947956,0.00902358815073967,-0.006286749616265297,-0.03101932443678379,0.005472571589052677,-0.02012082375586033
0.020869094878435135,0.008761151693761349,-0.006030390039086342,-0.03231922164559364,0.005977898370474577,-0.020203236490488052
0.020869094878435135,0.008761151693761349,-0.006030390039086342,-0.03231922164559364,0.005977898370474577,-0.020203236490488052
0.02099194936454296,0.008984292857348919,-0.005344690755009651,-0.03202646225690842,0.005620303563773632,-0.020550936460494995
0.021774249151349068,0.00984981283545494,-0.005944589618593454,-0.03256792947649956,0.005720044020563364,-0.020617254078388214
0.022267643362283707,0.009043151512742043,-0.005962574854493141,-0.03314541280269623,0.00585959805175662,-0.020499559119343758
0.0220868568867445,0.010096990503370762,-0.005577420350164175,-0.03154445067048073,0.0058409976772964,-0.020820483565330505
0.022085165604948997,0.010312184691429138,-0.006107781082391739,-0.032647911459207535,0.005390787962824106,-0.020668968558311462
0.021952567622065544,0.009941603057086468,-0.005644577089697123,-0.03299252316355705,0.0053410702385008335,-0.021003970876336098
0.02201741375029087,0.010045669041574001,-0.0059461770579218864,-0.03274766728281975,0.005624518729746342,-0.020971698686480522
0.022342918440699577,0.009773656725883484,-0.005543465726077557,-0.03400256112217903,0.005560225807130337,-0.020580081269145012
0.02263026125729084,0.010112856514751911,-0.005570516921579838,-0.03404085338115692,0.005723836366087198,-0.021133890375494957
0.022354645654559135,0.01058080792427063,-0.006116076372563839,-0.033383917063474655,0.005546256899833679,-0.021325450390577316
0.02239616960287094,0.009997882880270481,-0.005553312133997679,-0.03281232714653015,0.005712342914193869,-0.021201463416218758
0.02249925211071968,0.010436651296913624,-0.006375648081302643,-0.03386057913303375,0.006121614947915077,-0.02140306681394577
0.0227420162409544,0.010890877805650234,-0.005799542646855116,-0.03460468724370003,0.005607480648905039,-0.021265266463160515
0.022874822840094566,0.00996012706309557,-0.005313340574502945,-0.03393923118710518,0.005799038801342249,-0.021129010245203972
0.022948740050196648,0.011002871207892895,-0.005488802678883076,-0.034246426075696945,0.00552003737539053,-0.021006982773542404
0.02260380983352661,0.010397774167358875,-0.006096625700592995,-0.03472616523504257,0.005834393203258514,-0.02101389691233635
0.02266504243016243,0.010573496110737324,-0.0065987310372292995,-0.0345846526324749,0.005955197848379612,-0.02124696411192417
0.02283860184252262,0.010916766710579395,-0.006145738065242767,-0.033983852714300156,0.00616495544090867,-0.02137010358273983
0.022909527644515038,0.010346557013690472,-0.005646133329719305,-0.03384144976735115,0.005794270429760218,-0.02152138017117977
0.022823181003332138,0.01047920249402523,-0.005162249319255352,-0.034110914915800095,0.005689369514584541,-0.020383896306157112
0.022659797221422195,0.010804450139403343,-0.005811004433780909,-0.03434928134083748,0.005457278341054916,-0.021041665226221085
0.02266738936305046,0.010480217635631561,-0.006129323039203882,-0.03387138992547989,0.006060129497200251,-0.021478228271007538
0.023091908544301987,0.011107259429991245,-0.006220713257789612,-0.034543462097644806,0.006271929945796728,-0.021619370207190514
0.022782936692237854,0.010989569127559662,-0.005546359345316887,-0.03408557549118996,0.006472690962255001,-0.021951669827103615
0.0226637851446867,0.010973343625664711,-0.0055204941891133785,-0.03358852118253708,0.006182969082146883,-0.0220753513276577
0.0226637851446867,0.010973343625664711,-0.0055204941891133785,-0.03358852118253708,0.006182969082146883,-0.0220753513276577
0.02330147661268711,0.010947165079414845,-0.005585581995546818,-0.03429523855447769,0.0060333674773573875,-0.0216861329972744
0.023211725056171417,0.011189302429556847,-0.006126208696514368,-0.034358710050582886,0.006256564054638147,-0.02232075296342373
0.023381851613521576,0.011557275429368019,-0.00550407450646162,-0.03449492156505585,0.006168569438159466,-0.02227887324988842
0.02325969934463501,0.011280686594545841,-0.006068891379982233,-0.035017095506191254,0.005691188853234053,-0.022089749574661255
0.022889722138643265,0.011369846761226654,-0.00555998831987381,-0.035547029227018356,0.005820392165333033,-0.021734584122896194
0.023106396198272705,0.011634405702352524,-0.0059295049868524075,-0.03552386537194252,0.00598063925281167,-0.021860402077436447
0.022054804489016533,0.011354191228747368,-0.005459525156766176,-0.03548566997051239,0.0062156966887414455,-0.022655760869383812
0.023799816146492958,0.011324022896587849,-0.005263207014650106,-0.036096930503845215,0.006192781031131744,-0.02349393256008625
0.023919809609651566,0.010821732692420483,-0.005505091976374388,-0.03672468662261963,0.006119946483522654,-0.022923143580555916
0.023833123967051506,0.011212090030312538,-0.005574575159698725,-0.036981549113988876,0.006049423012882471,-0.02280675806105137
0.02354787290096283,0.011237741447985172,-0.005709999706596136,-0.0371512807905674,0.006324796471744776,-0.02208971045911312
0.024186357855796814,0.01093145553022623,-0.00658520869910717,-0.03714693337678909,0.0062532685697078705,-0.02213962934911251
0.02365347370505333,0.011365316808223724,-0.006309706252068281,-0.03743833675980568,0.006425364408642054,-0.02233469858765602
0.023365389555692673,0.011410730890929699,-0.00500837666913867,-0.03701601177453995,0.006037183105945587,-0.023331156000494957
0.023718412965536118,0.011282091960310936,-0.00546423951163888,-0.036739520728588104,0.006046532187610865,-0.02283470705151558
0.02431001327931881,0.01158897951245308,-0.006506644655019045,-0.03747512772679329,0.006265412550419569,-0.023555977270007133
0.023471061140298843,0.011228436604142189,-0.006300221662968397,-0.03868001699447632,0.006794841028749943,-0.02299124374985695
0.024099864065647125,0.011458939872682095,-0.0061739664524793625,-0.03846241161227226,0.0066789318807423115,-0.02366265468299389
0.025475220754742622,0.011149085126817226,-0.005200520623475313,-0.03704598546028137,0.006129576358944178,-0.023058051243424416
0.024229902774095535,0.010843554511666298,-0.005545066669583321,-0.03692663833498955,0.0060966406017541885,-0.022291380912065506
0.023679152131080627,0.011213699355721474,-0.005755056161433458,-0.03926519304513931,0.005727588664740324,-0.022276023402810097
0.024302905425429344,0.011080454103648663,-0.006255824584513903,-0.039529670029878616,0.005911611020565033,-0.022874752059578896
0.023854631930589676,0.011424184776842594,-0.006502555217593908,-0.040857382118701935,0.006523343734443188,-0.023267680779099464
0.02421843633055687,0.010959506034851074,-0.0056125991977751255,-0.03882802277803421,0.0064427475444972515,-0.023050449788570404
0.024836590513586998,0.010869656689465046,-0.005940860603004694,-0.03752787783741951,0.006251754239201546,-0.022607218474149704
0.024836590513586998,0.010869656689465046,-0.005940860603004694,-0.03752787783741951,0.006251754239201546,-0.022607218474149704
0.024932105094194412,0.011655163019895554,-0.005557370837777853,-0.03915483132004738,0.006487925536930561,-0.022929925471544266
0.02485641837120056,0.011153136380016804,-0.005794613156467676,-0.03929940238595009,0.006288453005254269,-0.023489290848374367
0.02485641837120056,0.011153136380016804,-0.005794613156467676,-0.03929940238595009,0.006288453005254269,-0.023489290848374367
0.024641340598464012,0.011053326539695263,-0.005490326788276434,-0.03964170068502426,0.0062657371163368225,-0.023298896849155426
0.02497871406376362,0.011525583453476429,-0.005668785888701677,-0.039430297911167145,0.006406179629266262,-0.0236654095351696
0.02476387284696102,0.011003057472407818,-0.005667927674949169,-0.04057510197162628,0.0065370784141123295,-0.02391849458217621
0.02536686323583126,0.012031344696879387,-0.006319243926554918,-0.042219724506139755,0.006407133303582668,-0.023792117834091187
0.02491745352745056,0.011402089148759842,-0.006372277159243822,-0.04027150943875313,0.00651790015399456,-0.023484885692596436
0.02474718727171421,0.010922904126346111,-0.0055605159141123295,-0.03978711739182472,0.006608331575989723,-0.02332582138478756
0.025028027594089508,0.01142749935388565,-0.005928116850554943,-0.04115619137883186,0.007483354769647121,-0.02402801252901554
0.024981793016195297,0.011462225578725338,-0.005595394875854254,-0.04136054217815399,0.006856626830995083,-0.025863878428936005
0.025050170719623566,0.01141186710447073,-0.005964013747870922,-0.042813051491975784,0.00639335485175252,-0.023788664489984512
0.02510710433125496,0.011751871556043625,-0.005801822058856487,-0.04115751385688782,0.006338020786643028,-0.022970862686634064
0.024883350357413292,0.011566242203116417,-0.005636285990476608,-0.04017752408981323,0.006395136006176472,-0.02367507293820381
0.026353560388088226,0.012269051745533943,-0.005487346556037664,-0.04123595729470253,0.006465481128543615,-0.024120613932609558
0.026287805289030075,0.011441966518759727,-0.005649308208376169,-0.041759878396987915,0.006555965635925531,-0.024626772850751877
0.02611544169485569,0.01166333444416523,-0.005602966528385878,-0.0416138619184494,0.006618883926421404,-0.024247242137789726
0.025546424090862274,0.012129614129662514,-0.005628062877804041,-0.0415550097823143,0.006544736213982105,-0.0237277802079916
0.025604918599128723,0.011191519908607006,-0.0054319812916219234,-0.040877655148506165,0.006379558239132166,-0.023435493931174278
0.02563093975186348,0.0118749113753438,-0.005570235196501017,-0.04192464053630829,0.006679680664092302,-0.02369733341038227
0.026325546205043793,0.011248230934143066,-0.006085170432925224,-0.041674237698316574,0.006860384717583656,-0.024334583431482315
0.026554584503173828,0.01172544714063406,-0.005774154327809811,-0.041359253227710724,0.006867559626698494,-0.02426088973879814
0.026614777743816376,0.011799244210124016,-0.005897884257137775,-0.041807081550359726,0.006476759444922209,-0.024158351123332977
0.025599515065550804,0.011568346060812473,-0.005527613218873739,-0.04242623969912529,0.006592942867428064,-0.02496221661567688
0.02644132636487484,0.012285223230719566,-0.005619645118713379,-0.043209008872509,0.006851823069155216,-0.025436773896217346
0.026921872049570084,0.012173721566796303,-0.0056877583265304565,-0.043609656393527985,0.007132340222597122,-0.02414148859679699
0.027110910043120384,0.012551487423479557,-0.00607545068487525,-0.043567121028900146,0.006929893512278795,-0.02318751998245716
0.027581725269556046,0.01201107818633318,-0.005502347834408283,-0.04401116818189621,0.006829443387687206,-0.024246659129858017
0.027581725269556046,0.01201107818633318,-0.005502347834408283,-0.04401116818189621,0.006829443387687206,-0.024246659129858017
0.028022700920701027,0.012579182162880898,-0.0054270122200250626,-0.04396958276629448,0.00676843011751771,-0.025137480348348618
0.0276632197201252,0.012012398801743984,-0.005770902615040541,-0.0437699630856514,0.006613689940422773,-0.026226142421364784
0.027301771566271782,0.012497198767960072,-0.005765402223914862,-0.04390210285782814,0.006625857669860125,-0.024244865402579308
0.027184098958969116,0.012630059383809566,-0.00586682790890336,-0.045005910098552704,0.006679756101220846,-0.024146612733602524
0.027752768248319626,0.012662186287343502,-0.005970118101686239,-0.04491715505719185,0.006492565851658583,-0.02457907237112522
0.028220757842063904,0.012424146756529808,-0.005370415281504393,-0.04528075084090233,0.006653889548033476,-0.024985019117593765
0.027764176949858665,0.012454924173653126,-0.005456854589283466,-0.04530259966850281,0.007083870470523834,-0.025095118209719658
0.027868323028087616,0.012672473676502705,-0.005783933214843273,-0.04565298929810524,0.007249128073453903,-0.0251225046813488
0.02808469906449318,0.011842484585940838,-0.006403167732059956,-0.046387068927288055,0.00790912564843893,-0.025150591507554054
0.028051549568772316,0.012624075636267662,-0.006099790800362825,-0.04579345881938934,0.007038321811705828,-0.02546754665672779
0.028189104050397873,0.012565186247229576,-0.005565839819610119,-0.04619986563920975,0.006214069668203592,-0.025651730597019196
0.02668016217648983,0.012760845012962818,-0.005359203554689884,-0.0472957082092762,0.006676163524389267,-0.025444738566875458
0.029363898560404778,0.012440463528037071,-0.0054834866896271706,-0.04625827446579933,0.00725880591198802,-0.02558651752769947
0.029549412429332733,0.01277603954076767,-0.005937779322266579,-0.045632559806108475,0.007383386604487896,-0.025953717529773712
0.029342450201511383,0.012974959798157215,-0.006185480393469334,-0.04649506136775017,0.007324277888983488,-0.025961555540561676
0.02922292798757553,0.013210359960794449,-0.005997866857796907,-0.047649554908275604,0.007221957203000784,-0.025881795212626457
0.0294145829975605,0.014189460314810276,-0.005346792284399271,-0.048899564892053604,0.007023079786449671,-0.02615833841264248
0.029536988586187363,0.013318252749741077,-0.005355967208743095,-0.04611210897564888,0.006718208082020283,-0.02634141407907009
0.029584920033812523,0.013934343121945858,-0.0057968986220657825,-0.04751626402139664,0.006790924351662397,-0.026158642023801804
0.03032275289297104,0.013591048307716846,-0.00660755205899477,-0.04857872426509857,0.007148565724492073,-0.02658446878194809
0.030001219362020493,0.01402229256927967,-0.0058915200643241405,-0.048019710928201675,0.007443567272275686,-0.027476424351334572
0.029856890439987183,0.013489794917404652,-0.005907382816076279,-0.046315740793943405,0.007010526955127716,-0.02577739581465721
0.030478624626994133,0.014032244682312012,-0.0056443288922309875,-0.04783551022410393,0.007081475108861923,-0.026176216080784798
0.030327102169394493,0.013690157793462276,-0.005962610710412264,-0.047476258128881454,0.007532924879342318,-0.02702774479985237
0.03037678822875023,0.013924043625593185,-0.006629323121160269,-0.049062199890613556,0.007120481692254543,-0.026883229613304138
0.03024885430932045,0.013830961659550667,-0.006537452805787325,-0.048134077340364456,0.006437641568481922,-0.026700813323259354
0.03079753741621971,0.014527825638651848,-0.006090713199228048,-0.045725710690021515,0.006902155466377735,-0.02668783999979496
0.031180618330836296,0.014358533546328545,-0.005897182505577803,-0.04774246737360954,0.007344843819737434,-0.027112195268273354
0.031180618330836296,0.014358533546328545,-0.005897182505577803,-0.04774246737360954,0.007344843819737434,-0.027112195268273354
0.030940895900130272,0.014069880358874798,-0.00620984798297286,-0.04906920716166496,0.007364057004451752,-0.026949474588036537
0.03081066720187664,0.014357874169945717,-0.0065062264911830425,-0.04732707142829895,0.0069930898025631905,-0.02738533914089203
0.030793804675340652,0.014185010455548763,-0.006024201866239309,-0.04783543571829796,0.007176951505243778,-0.02717502787709236
0.031527284532785416,0.014308144338428974,-0.005871920846402645,-0.04910578951239586,0.006865257862955332,-0.02704126201570034
0.03212999179959297,0.013882497325539589,-0.006529997102916241,-0.049705736339092255,0.00713885435834527,-0.027139004319906235
0.03128388896584511,0.014091108925640583,-0.006145102437585592,-0.04925708472728729,0.007249866612255573,-0.026891296729445457
0.030298978090286255,0.014584130607545376,-0.005890870001167059,-0.049892324954271317,0.007263340521603823,-0.026644380763173103
0.031928807497024536,0.015053978189826012,-0.006076235789805651,-0.05044402554631233,0.007877357304096222,-0.02731928788125515
0.03237364441156387,0.014573808759450912,-0.005897361319512129,-0.050623808056116104,0.007324563805013895,-0.027533626183867455
0.03197896480560303,0.01476967241615057,-0.006461953278630972,-0.05078088119626045,0.007188907824456692,-0.028404517099261284
0.03267398104071617,0.014327296987175941,-0.006400464102625847,-0.05094651132822037,0.008008413016796112,-0.0268840454518795
0.03243621811270714,0.014701328240334988,-0.005660880822688341,-0.0503050871193409,0.008206808008253574,-0.025424456223845482
0.03175121545791626,0.014627978205680847,-0.00582480151206255,-0.05062758922576904,0.007889744825661182,-0.026261216029524803
0.031002672389149666,0.014940368011593819,-0.006278844550251961,-0.051501791924238205,0.007099495269358158,-0.027886688709259033
0.032290540635585785,0.014430884271860123,-0.006731686647981405,-0.051634546369314194,0.007449105381965637,-0.028432831168174744
0.032496917992830276,0.014681453816592693,-0.00648395624011755,-0.05121327564120293,0.007750495336949825,-0.027659887447953224
0.03280077502131462,0.014707045629620552,-0.0066518159583210945,-0.05213705822825432,0.007569323759526014,-0.0283647570759058
0.03265824541449547,0.015406074933707714,-0.005953500978648663,-0.05228346958756447,0.007506275549530983,-0.028848418965935707
0.031781744211912155,0.015003349632024765,-0.0062279305420815945,-0.05164601653814316,0.00801091454923153,-0.027567140758037567
0.031756237149238586,0.015413853339850903,-0.006725940387696028,-0.05248468741774559,0.007985356263816357,-0.02699308656156063
0.031870245933532715,0.015068252570927143,-0.006592397578060627,-0.05248633027076721,0.007641591597348452,-0.027542416006326675
0.03187267482280731,0.014755921438336372,-0.006233475636690855,-0.05240270495414734,0.007435779552906752,-0.02872101590037346
0.03183496370911598,0.014845765195786953,-0.00629047816619277,-0.05202058330178261,0.007520685903728008,-0.028969991952180862
0.032052528113126755,0.015612862072885036,-0.006782629527151585,-0.054332487285137177,0.008041360415518284,-0.02862372249364853
0.03227723017334938,0.014874004758894444,-0.006617275066673756,-0.05392345041036606,0.007842387072741985,-0.028199922293424606
0.03225922957062721,0.015439793467521667,-0.006210243329405785,-0.05142402648925781,0.007829186506569386,-0.027885064482688904
0.032643843442201614,0.015218052081763744,-0.006316398736089468,-0.05218251049518585,0.007611521519720554,-0.029580099508166313
0.032066117972135544,0.01562863402068615,-0.0068799895234405994,-0.053464747965335846,0.007676105480641127,-0.027379214763641357
