davideferrari95/blind_handover_controller/data/Test 39 - [2024-02-07 -- 14-50-21]/joint_states_data.csv
shoulder_pan_joint,shoulder_lift_joint,elbow_joint,wrist_1_joint,wrist_2_joint,wrist_3_joint
0.009796437807381153,-0.003240500343963504,-0.01563526690006256,0.014748753048479557,-0.0,0.010263390839099884
0.009796437807381153,-0.003240500343963504,-0.01563526690006256,0.014748753048479557,-0.0,0.010263390839099884
0.009530765935778618,-0.003082121955230832,-0.015018618665635586,0.014636339619755745,-0.0,0.010320772416889668
0.009654128924012184,-0.0034682415425777435,-0.015356638468801975,0.01457150187343359,-0.0,0.010034484788775444
0.009654128924012184,-0.0034682415425777435,-0.015356638468801975,0.01457150187343359,-0.0,0.010034484788775444
0.009332122281193733,-0.002909451024606824,-0.01577484980225563,0.01531162392348051,-0.0,0.010562782175838947
0.009378551505506039,-0.0021452736109495163,-0.015385910868644714,0.014849012717604637,-0.0,0.010378750041127205
0.009634862653911114,-0.0013200859539210796,-0.015442535281181335,0.01588001661002636,-0.0,0.010371680371463299
0.009410199709236622,-0.0011731917038559914,-0.0152196129783988,0.01557979453355074,-0.0,0.010336420498788357
0.009610953740775585,-0.0011228156508877873,-0.01582047902047634,0.01498139277100563,-0.0,0.010316465981304646
0.010080832988023758,-0.0011120851850137115,-0.015200547873973846,0.015145275741815567,-0.0,0.011028606444597244
0.009513097815215588,-0.000932654773350805,-0.01556299440562725,0.015170566737651825,-0.0,0.010105326771736145
0.009732146747410297,-0.0017438939539715648,-0.01483378279954195,0.01610267534852028,-0.0,0.009618714451789856
0.009467300958931446,-0.0022867496591061354,-0.015403912402689457,0.01501011848449707,-0.0,0.010268029756844044
0.009172456339001656,-0.0019477959722280502,-0.014811265282332897,0.015173861756920815,-0.0,0.010834949091076851
0.009136030450463295,-0.001422254485078156,-0.015412624925374985,0.01556781493127346,-0.0,0.010525891557335854
0.009326075203716755,-0.001292720902711153,-0.014786871150135994,0.016470111906528473,-0.0,0.010749769397079945
0.009173466823995113,-0.0011966684833168983,-0.014890397898852825,0.01577654667198658,-0.0,0.01063319481909275
0.009236977435648441,-0.0009212232544086874,-0.014979645609855652,0.015815887600183487,-0.0,0.010293785482645035
0.009280976839363575,-0.0008722800994291902,-0.014616047032177448,0.016076404601335526,-0.0,0.010495742782950401
0.008761806413531303,-0.00096052949083969,-0.014737764373421669,0.015920275822281837,-0.0,0.010678177699446678
0.009148666635155678,-0.0011809226125478745,-0.013967658393085003,0.01598123461008072,-0.0,0.010695348493754864
0.009376837871968746,-0.0013885051012039185,-0.014208299107849598,0.01613459549844265,-0.0,0.010518979281187057
0.008918406441807747,-0.001300064497627318,-0.014249230735003948,0.015867285430431366,-0.0,0.010606437921524048
0.009281407110393047,-0.001269183587282896,-0.014659218490123749,0.016359977424144745,-0.0,0.010199460200965405
0.009321813471615314,-0.0011806720867753029,-0.014895934611558914,0.015659531578421593,-0.0,0.010541019961237907
0.009295502677559853,-0.0011278099846094847,-0.014930132776498795,0.015876529738307,-0.0,0.010331481695175171
0.009295502677559853,-0.0011278099846094847,-0.014930132776498795,0.015876529738307,-0.0,0.010331481695175171
0.010142519138753414,-0.001074508996680379,-0.014398985542356968,0.01583855040371418,-0.0,0.01032245997339487
0.009783605113625526,-0.0011665384517982602,-0.01457771472632885,0.015821058303117752,-0.0,0.010515210218727589
0.009783605113625526,-0.0011665384517982602,-0.01457771472632885,0.015821058303117752,-0.0,0.010515210218727589
0.009161160327494144,-0.0011704827193170786,-0.014851336367428303,0.015595922246575356,-0.0,0.010123897343873978
0.00931764580309391,-0.0015357284573838115,-0.014811334200203419,0.015043692663311958,-0.0,0.01019260473549366
0.00931764580309391,-0.0015357284573838115,-0.014811334200203419,0.015043692663311958,-0.0,0.01019260473549366
0.00942887645214796,-0.001474090269766748,-0.014840916730463505,0.015548375435173512,-0.0,0.01040859054774046
0.00944048073142767,-0.0015437809051945806,-0.015511654317378998,0.015054792165756226,-0.0,0.010075464844703674
0.009703932330012321,-0.0014623565366491675,-0.015551336109638214,0.015512758865952492,-0.0,0.010063470341265202
0.008873378857970238,-0.0015512860845774412,-0.014623797498643398,0.015583268366754055,-0.0,0.01030709408223629
0.009684162214398384,-0.001474614953622222,-0.014823994599282742,0.01639397069811821,-0.0,0.00984415877610445
0.009129997342824936,-0.001559182652272284,-0.015109694562852383,0.015646513551473618,-0.0,0.009884640574455261
0.009412621147930622,-0.0016263561556115746,-0.015727238729596138,0.015453462488949299,-0.0,0.010118083097040653
0.009631352499127388,-0.0015803109854459763,-0.015183120965957642,0.015314031392335892,-0.0,0.009454911574721336
0.009207304567098618,-0.0018552709370851517,-0.015428155660629272,0.01585780456662178,-0.0,0.0100765535607934
0.009172515943646431,-0.0017219539731740952,-0.014726463705301285,0.01563727669417858,-0.0,0.010298842564225197
0.009717755019664764,-0.0017300078179687262,-0.015476198866963387,0.015600981190800667,-0.0,0.010013331659138203
0.010110086761415005,-0.0017467164434492588,-0.014344890601933002,0.01570955105125904,-0.0,0.010697550140321255
0.008868588134646416,-0.0017280507599934936,-0.015093446709215641,0.015458602458238602,-0.0,0.010186415165662766
0.009765329770743847,-0.0019315731478855014,-0.015038547106087208,0.015555711463093758,-0.0,0.010478640906512737
0.009219487197697163,-0.001922635710798204,-0.01443313155323267,0.015611722134053707,-0.0,0.009923196397721767
0.009645828045904636,-0.002027150709182024,-0.013293711468577385,0.015389284119009972,-0.0,0.009925886057317257
0.010394872166216373,-0.001915281405672431,-0.014908875338733196,0.016097405925393105,-0.0,0.010171890258789062
0.00957087054848671,-0.0018384747672826052,-0.015272905118763447,0.015651065856218338,-0.0,0.01010669581592083
0.010696714743971825,-0.0018355282954871655,-0.014620647765696049,0.01546709705144167,-0.0,0.009887835010886192
0.010696714743971825,-0.0018355282954871655,-0.014620647765696049,0.01546709705144167,-0.0,0.009887835010886192
0.009224510751664639,-0.0020125010050833225,-0.014698946848511696,0.015491797588765621,-0.0,0.00997605174779892
0.009019101969897747,-0.0019842504989355803,-0.01457094307988882,0.015728382393717766,-0.0,0.009741037152707577
0.009587868116796017,-0.0020363994408398867,-0.014689716510474682,0.01597641222178936,-0.0,0.010592062957584858
0.009972737170755863,-0.001991297584027052,-0.01443600095808506,0.015323584899306297,-0.0,0.010217557661235332
0.00940806046128273,-0.0020147550385445356,-0.01461473572999239,0.015244845300912857,-0.0,0.009735552594065666
0.009123639203608036,-0.0019741058349609375,-0.014429908245801926,0.015481410548090935,-0.0,0.01017438992857933
0.010120990686118603,-0.0020283935591578484,-0.014961645938456059,0.016127124428749084,-0.0,0.009955826215445995
0.009643272496759892,-0.001985943177714944,-0.014658255502581596,0.015688233077526093,-0.0,0.009961066767573357
0.009168666787445545,-0.0021351652685552835,-0.01491823885589838,0.016087425872683525,-0.0,0.0109599269926548
0.009843905456364155,-0.0021051655057817698,-0.014598419889807701,0.016090458258986473,-0.0,0.00931736920028925
0.00967762153595686,-0.0022050326224416494,-0.014816208742558956,0.016394367441534996,-0.0,0.009315600618720055
0.00950594712048769,-0.001994734862819314,-0.015017800033092499,0.01680571213364601,-0.0,0.00997463334351778
0.009839865379035473,-0.0020089424215257168,-0.014479831792414188,0.01648656837642193,-0.0,0.010300754569470882
0.009618929587304592,-0.0018704512622207403,-0.014703362248837948,0.016443544998764992,-0.0,0.009661909192800522
0.009468577802181244,-0.002034311881288886,-0.014693018980324268,0.015736453235149384,-0.0,0.009594520553946495
0.00972791202366352,-0.002375104231759906,-0.01500611286610365,0.015845809131860733,-0.0,0.009488318115472794
0.009687676094472408,-0.002303115325048566,-0.014858043752610683,0.01577153243124485,-0.0,0.009227698668837547
0.009553280659019947,-0.002451086649671197,-0.014729413203895092,0.016290534287691116,-0.0,0.009738493710756302
0.00990203209221363,-0.0021644392982125282,-0.014639982022345066,0.01620563492178917,-0.0,0.009959105402231216
0.009673479944467545,-0.002172650070860982,-0.014792267233133316,0.016481967642903328,-0.0,0.010219990275800228
0.009674625471234322,-0.002109584864228964,-0.014957287348806858,0.016728756949305534,-0.0,0.010026698932051659
0.009447149932384491,-0.002406187355518341,-0.014258422888815403,0.016038568690419197,-1.535848127787176e-06,0.009939814917743206
0.009624306112527847,-0.0023147074971348047,-0.01508358959108591,0.015720628201961517,-1.0027990526850772e-07,0.010337560437619686
0.009650821797549725,-0.00230804062448442,-0.014333132654428482,0.016737237572669983,-6.547561159919724e-09,0.009795774705708027
0.009629256092011929,-0.0021542112808674574,-0.014803620055317879,0.016176393255591393,-4.275089449112812e-10,0.010043392889201641
0.009848338551819324,-0.0020929775200784206,-0.014475368894636631,0.01631380431354046,-2.791327759210649e-11,0.010140679776668549
0.010972497053444386,-0.0022874705027788877,-0.015030285343527794,0.016103720292448997,-1.8225375635755325e-12,0.01041435357183218
0.009601760655641556,-0.002303240355104208,-0.014571815729141235,0.016086064279079437,-1.1899868297780142e-13,0.010043361224234104
0.00943808164447546,-0.002773104002699256,-0.015228942036628723,0.016082536429166794,-7.769763768462022e-15,0.009977403096854687
0.00943808164447546,-0.002773104002699256,-0.015228942036628723,0.016082536429166794,-7.769763768462022e-15,0.009977403096854687
0.00975358858704567,-0.0023806653916835785,-0.014781682752072811,0.01602344959974289,-3.3123723019469397e-17,0.009869776666164398
0.00975358858704567,-0.0023806653916835785,-0.014781682752072811,0.01602344959974289,-3.3123723019469397e-17,0.009869776666164398
0.009776102378964424,-0.002336216391995549,-0.01437501609325409,0.015695791691541672,-2.1627422936780834e-18,0.010030115954577923
0.01035176869481802,-0.002207325305789709,-0.014944116584956646,0.01650458574295044,-1.4121162128410727e-19,0.010019722394645214
0.009782622568309307,-0.0023471484892070293,-0.014202731661498547,0.016041245311498642,-9.220110536685503e-21,0.009754744358360767
0.009930424392223358,-0.0026258029974997044,-0.014746841043233871,0.016032107174396515,-6.020073479731751e-22,0.010010544210672379
0.010228652507066727,-0.0023325670044869184,-0.014231347478926182,0.016234708949923515,-3.9306780583726334e-23,0.010108659975230694
0.010222756303846836,-0.0025579379871487617,-0.014814445748925209,0.01625000312924385,-2.5664520644839045e-24,0.010408605448901653
0.00955217145383358,-0.002388177439570427,-0.014112080447375774,0.01638355664908886,-1.6757097980055023e-25,0.010147616267204285
0.009975689463317394,-0.0022187093272805214,-0.01463382039219141,0.015765748918056488,-1.0941187984392465e-26,0.010495254769921303
0.010176314041018486,-0.002383289858698845,-0.013992445543408394,0.016108572483062744,-7.143813905599172e-28,0.010111931711435318
0.00988031830638647,-0.0024256587494164705,-0.015044216066598892,0.015619608573615551,-4.664399801735171e-29,0.010187382809817791
0.009824376553297043,-0.00258080568164587,-0.014349156990647316,0.015817195177078247,-3.0455196646753767e-30,0.010235724039375782
0.010157058946788311,-0.0024472589138895273,-0.014706674963235855,0.016052275896072388,-1.98850691595552e-31,0.01080715749412775
0.00996830128133297,-0.0022885678336024284,-0.013764527626335621,0.01629721000790596,-1.298352906140005e-32,0.010161081328988075
0.009796620346605778,-0.0024004026781767607,-0.014794724993407726,0.01646520383656025,-8.477317201599899e-34,0.009538485668599606
0.009680148214101791,-0.0024099170695990324,-0.014934399165213108,0.015882525593042374,-3.614013401010041e-36,0.010082337073981762
0.00973464734852314,-0.00249403715133667,-0.013971987180411816,0.015604655258357525,-2.3596924466661893e-37,0.010051189921796322
0.010143433697521687,-0.002211117884144187,-0.014606657437980175,0.01600678078830242,-1.5407105656838716e-38,0.010073419660329819
0.010033749975264072,-0.002252141712233424,-0.014333944767713547,0.015698352828621864,-1.00597395065875e-39,0.009989936836063862
0.010105326771736145,-0.002443920122459531,-0.015110568143427372,0.01574184186756611,-6.568306291829715e-41,0.00966570433229208
0.009812513366341591,-0.0022688857279717922,-0.01471953559666872,0.01562940888106823,-4.28797330083394e-42,0.00976128876209259
0.010541665367782116,-0.002194138942286372,-0.01531669870018959,0.015876665711402893,-2.802596928649634e-43,0.010304207913577557
0.010135098360478878,-0.0020976781379431486,-0.01492497231811285,0.01625240221619606,-1.8216880036222622e-44,0.009434728883206844
0.009607222862541676,-0.0022939499467611313,-0.015531073324382305,0.0161264780908823,-1.401298464324817e-45,0.009611714631319046
0.009607222862541676,-0.0022939499467611313,-0.015531073324382305,0.0161264780908823,-1.401298464324817e-45,0.009611714631319046
0.010145428590476513,-0.0022219056263566017,-0.015225136652588844,0.01623472385108471,-0.0,0.009681684896349907
0.010378977283835411,-0.002370277186855674,-0.01514433417469263,0.015858119353652,-0.0,0.010022484697401524
0.009958690032362938,-0.0023291988763958216,-0.015141788870096207,0.016103601083159447,-0.0,0.010027604177594185
0.010287723504006863,-0.0021866397000849247,-0.015283972024917603,0.015685008838772774,-0.0,0.010517815127968788
0.010053056292235851,-0.002266134135425091,-0.01580480858683586,0.01553321909159422,-0.0,0.009008783847093582
0.009855302982032299,-0.002057005651295185,-0.015614044852554798,0.015559926629066467,-0.0,0.009396377950906754
0.009960479103028774,-0.002151702530682087,-0.016078151762485504,0.015941951423883438,-0.0,0.009961237199604511
0.010384454391896725,-0.002313177101314068,-0.014899199828505516,0.015904614701867104,-0.0,0.010344890877604485
0.009660299867391586,-0.002227147575467825,-0.0155388368293643,0.015966998413205147,-0.0,0.010836055502295494
0.010216087102890015,-0.002273868303745985,-0.015261027030646801,0.015587021596729755,-0.0,0.01012834720313549
0.010070044547319412,-0.0021561817266047,-0.015614911913871765,0.015228670090436935,-0.0,0.00992768257856369
0.009848959743976593,-0.0020307758823037148,-0.014731650240719318,0.015367723070085049,-0.0,0.010588664561510086
0.01005637552589178,-0.001970946788787842,-0.01551556121557951,0.015164061449468136,-0.0,0.010097958147525787
0.010194212198257446,-0.0022305736783891916,-0.015076315961778164,0.0160917229950428,-0.0,0.010033080354332924
0.009801223874092102,-0.0022511743009090424,-0.015716850757598877,0.01597941480576992,-0.0,0.010427363216876984
0.010257801041007042,-0.0025962800718843937,-0.01488340925425291,0.01619156450033188,-0.0,0.01027452852576971
0.010236014612019062,-0.002261169021949172,-0.013640111312270164,0.016300570219755173,-0.0,0.010756143368780613
0.011381242424249649,-0.0021874066442251205,-0.016008412465453148,0.015893924981355667,-0.0,0.010237554088234901
0.010416151024401188,-0.002010669093579054,-0.01578943245112896,0.015654871240258217,-0.0,0.009930094704031944
0.009997735731303692,-0.002074219984933734,-0.015051516704261303,0.016145294532179832,-0.0,0.009985856711864471
0.010314477607607841,-0.0022684745490550995,-0.015769105404615402,0.016217892989516258,-0.0,0.01054846029728651
0.010043415240943432,-0.0022040714975446463,-0.015311092138290405,0.01648443192243576,-0.0,0.01125976350158453
0.01091249193996191,-0.002259178552776575,-0.016084663569927216,0.015800826251506805,-0.0,0.010403276421129704
0.01091249193996191,-0.002259178552776575,-0.016084663569927216,0.015800826251506805,-0.0,0.010403276421129704
0.010541018098592758,-0.0021468910854309797,-0.014693859033286572,0.015972847118973732,-0.0,0.009789962321519852
0.009717520326375961,-0.0019474743166938424,-0.015157247893512249,0.0156913660466671,-0.0,0.010355687700212002
0.010210877284407616,-0.0019658231176435947,-0.014787513762712479,0.016303356736898422,-0.0,0.010384050197899342
0.01036826428025961,-0.002016267739236355,-0.01570262387394905,0.01643441803753376,-0.0,0.010109343566000462
0.01062417309731245,-0.001964449416846037,-0.015536507591605186,0.01585603505373001,-0.0,0.01044398918747902
0.010563972406089306,-0.0021900786086916924,-0.015532699413597584,0.0162892434746027,-0.0,0.010153139941394329
0.01063789613544941,-0.00201662490144372,-0.014415415935218334,0.015731049701571465,-0.0,0.00989310909062624
0.01063477247953415,-0.0021580911707133055,-0.014760966412723064,0.015967566519975662,-0.0,0.010378774255514145
0.010834522545337677,-0.0019977500196546316,-0.01545762736350298,0.015821868553757668,-0.0,0.009977748617529869
0.010037175379693508,-0.0019198303343728185,-0.015157036483287811,0.01600482687354088,-0.0,0.00985188689082861
0.010052233934402466,-0.0019603127148002386,-0.015296846628189087,0.015973491594195366,-0.0,0.010188564658164978
0.010636487975716591,-0.0019832795951515436,-0.015116102993488312,0.01615573838353157,-0.0,0.010420194827020168
0.009978339076042175,-0.002255192259326577,-0.015134740620851517,0.015900805592536926,-0.0,0.010738423094153404
0.010578501038253307,-0.0021503008902072906,-0.014641677029430866,0.01566871628165245,-0.0,0.010276797227561474
0.010512201115489006,-0.0022088803816586733,-0.015740085393190384,0.01594022661447525,-0.0,0.00999368540942669
0.01067128125578165,-0.0014422893291339278,-0.015267699956893921,0.01595805585384369,-0.0,0.010319196619093418
0.010598916560411453,-0.0013379966840147972,-0.014661413617432117,0.015611615963280201,-0.0,0.010022683069109917
0.01021654810756445,-0.0011299417819827795,-0.015205993317067623,0.016147036105394363,-0.0,0.010540957562625408
0.010724292136728764,-0.0008616159902885556,-0.014667678624391556,0.015859410166740417,-0.0,0.010596733540296555
0.010781863704323769,-0.0007983556133694947,-0.015360192395746708,0.016018811613321304,-0.0,0.00988932978361845
0.010916476137936115,-0.0008202493190765381,-0.01458942424505949,0.01574656553566456,-0.0,0.009947779588401318
0.011021644808351994,-0.0011800738284364343,-0.01518559455871582,0.015512853860855103,-0.0,0.010721877217292786
0.010784587822854519,-0.0012732351897284389,-0.014361362904310226,0.015570322051644325,-4.432644709595479e-05,0.010188726708292961
0.011232880875468254,-0.0013197031803429127,-0.014995036646723747,0.015631848946213722,-5.372405212256126e-05,0.01004766020923853
0.011182830668985844,-0.0011600982397794724,-0.014694849960505962,0.01645817421376705,-5.373072053771466e-05,0.009837403893470764
0.010998867452144623,-0.0010838161688297987,-0.015144232660531998,0.01585470139980316,-5.3138588555157185e-05,0.010524827986955643
0.010998867452144623,-0.0010838161688297987,-0.015144232660531998,0.01585470139980316,-5.3138588555157185e-05,0.010524827986955643
0.011181315407156944,-0.001045279554091394,-0.014736827462911606,0.016281522810459137,-5.2521143516059965e-05,0.011184272356331348
0.011349081061780453,-0.0010094696190208197,-0.015013081952929497,0.015761280432343483,-5.191541640670039e-05,0.009786208160221577
0.01045945379883051,-0.0009939756710082293,-0.014521951787173748,0.016256583854556084,-5.1323306252015755e-05,0.009044501930475235
0.01195157878100872,-0.0009098555892705917,-0.014799394644796848,0.016005199402570724,-5.074459477327764e-05,0.009716872125864029
0.011351834051311016,-0.0009056277922354639,-0.01472301222383976,0.015773050487041473,-5.017876537749544e-05,0.01043251994997263
0.011310569941997528,-0.000915452663321048,-0.015106657519936562,0.015922222286462784,-2.5155075491056778e-05,0.010143241845071316
0.01146110612899065,-0.0009174109436571598,-0.015551391988992691,0.015815595164895058,-1.642446704863687e-06,0.010623064823448658
0.011247011832892895,-0.0012039078865200281,-0.014817222952842712,0.016351453959941864,-1.0724003374207314e-07,0.01039927825331688
0.011604484170675278,-0.0010384535416960716,-0.01524427067488432,0.016290435567498207,-7.0020074183219094e-09,0.01050077099353075
0.01133759692311287,-0.0010144070256501436,-0.014746191911399364,0.016724640503525734,-4.571810430231693e-10,0.010926798917353153
0.011219262145459652,-0.000984742771834135,-0.014937331900000572,0.016277464106678963,-2.985065319927038e-11,0.010530436411499977
0.011366253718733788,-0.0009026515763252974,-0.015021250583231449,0.016342978924512863,-1.9490344668054993e-12,0.010697352699935436
0.01170877180993557,-0.0009002648876048625,-0.015380626544356346,0.016358191147446632,-1.2725802670757874e-13,0.010873534716665745
0.011390133760869503,-0.0009002542356029153,-0.014808942563831806,0.01606057584285736,-8.309039999825681e-15,0.010629703290760517
0.011083336547017097,-0.000909424212295562,-0.015503749251365662,0.015934426337480545,-5.425209498867943e-16,0.01086218748241663
0.011278544552624226,-0.0010366843780502677,-0.01506038662046194,0.01613793335855007,-3.542274249188498e-17,0.010662591084837914
0.01118975318968296,-0.0010389958042651415,-0.015312381088733673,0.015329363755881786,-2.312851793413847e-18,0.010230055078864098
0.011235940270125866,-0.0010003468487411737,-0.015585153363645077,0.01620566099882126,-9.860050254975343e-21,0.010719696059823036
0.011892540380358696,-0.0009637916809879243,-0.014838974922895432,0.01586281694471836,-6.437908236331589e-22,0.010328752920031548
0.011345424689352512,-0.0009100194438360631,-0.015728352591395378,0.016079699620604515,-4.203494242846285e-23,0.01064340677112341
0.011208482086658478,-0.0009080845629796386,-0.014793545007705688,0.01590978167951107,-2.7445811956177876e-24,0.010759873315691948
0.011804739944636822,-0.0008302166243083775,-0.015509305521845818,0.016075506806373596,-1.7920153823072457e-25,0.011028454639017582
0.011487389914691448,-0.0008372432785108685,-0.015356823801994324,0.015787387266755104,-1.1700579079976441e-26,0.011061024852097034
0.01181256864219904,-0.0008239168673753738,-0.015604769811034203,0.015702182427048683,-7.639642643851722e-28,0.01088517252355814
0.011222019791603088,-0.0008410252048633993,-0.015512421727180481,0.0161991398781538,-4.988140500369712e-29,0.011264443397521973
0.011153883300721645,-0.0008490672917105258,-0.015210460871458054,0.0157232116907835,-3.25689950386849e-30,0.011089438572525978
0.01134985126554966,-0.0008551249629817903,-0.0151973906904459,0.01603032648563385,-2.1265224129821753e-31,0.011014223098754883
0.01132296770811081,-0.000958791293669492,-0.015297935344278812,0.015583669766783714,-1.3884673316315987e-32,0.010722309350967407
0.01132296770811081,-0.000958791293669492,-0.015297935344278812,0.015583669766783714,-1.3884673316315987e-32,0.010722309350967407
0.012304089032113552,-0.0009721614769659936,-0.01605076529085636,0.016364727169275284,-9.065698960289494e-34,0.010761852376163006
0.01149818953126669,-0.0009613048750907183,-0.015065988525748253,0.016248587518930435,-5.919254035004069e-35,0.011028921231627464
0.01144382543861866,-0.0009128879755735397,-0.015558389946818352,0.016072731465101242,-3.864849503131354e-36,0.01120428740978241
0.011647881008684635,-0.0008424846455454826,-0.015134320594370365,0.016118135303258896,-2.5234703817748623e-37,0.011015747673809528
0.01164601743221283,-0.000798352702986449,-0.015158997848629951,0.016222482547163963,-1.6476458935740413e-38,0.011327266693115234
0.01255735568702221,-0.0008107773610390723,-0.014498057775199413,0.016363607719540596,-1.0757950479421983e-39,0.011864274740219116
0.01151820458471775,-0.0008224290213547647,-0.01518353633582592,0.016156962141394615,-7.024148682274578e-41,0.0115714306011796
0.01166533399373293,-0.0008314155275002122,-0.015093295834958553,0.016371095553040504,-4.586449873735126e-42,0.01076014805585146
0.011752131395041943,-0.0009201561915688217,-0.015516136772930622,0.015788128599524498,-2.9987787136551085e-43,0.010687275789678097
0.012498832307755947,-0.0009382969001308084,-0.015355299226939678,0.0157302338629961,-1.961817850054744e-44,0.01095136534422636
0.012078899890184402,-0.0010191104374825954,-0.01563311368227005,0.015449670143425465,-1.401298464324817e-45,0.011698750779032707
0.01193628367036581,-0.0009341007098555565,-0.015123642049729824,0.015531759709119797,-0.0,0.010698213241994381
0.012638363055884838,-0.0009794404031708837,-0.01492383424192667,0.015830831602215767,-2.8096274036215618e-05,0.010800921358168125
0.01182497851550579,-0.0009656627662479877,-0.01513339951634407,0.016036968678236008,-9.245517867384478e-05,0.01075227465480566
0.01190634910017252,-0.0009516091668047011,-0.01504438929259777,0.016553480178117752,-9.474600665271282e-05,0.010472974739968777
0.011899908073246479,-0.0008845808915793896,-0.014948472380638123,0.016185620799660683,-9.119555033976212e-05,0.011419050395488739
0.012683630920946598,-0.0008635705453343689,-0.014674637466669083,0.01600503921508789,-0.00010487202234799042,0.010916735976934433
0.012683630920946598,-0.0008635705453343689,-0.014674637466669083,0.01600503921508789,-0.00010487202234799042,0.010916735976934433
0.012870969250798225,-0.0007945942925289273,-0.015502301044762135,0.01622498221695423,-0.00010314421524526551,0.010911878198385239
0.012401963584125042,-0.0008053648052737117,-0.014977597631514072,0.016881192103028297,-0.00010122847743332386,0.011911812238395214
0.01239931583404541,-0.0008456675568595529,-0.015276210382580757,0.016623621806502342,-9.93670109892264e-05,0.011544319801032543
0.012355724349617958,-0.0008543818257749081,-0.014840351417660713,0.016059499233961105,-0.00011170415382366627,0.011321457102894783
0.012135016731917858,-0.0008506570593453944,-0.015214303508400917,0.016063541173934937,-0.00011167407501488924,0.011501838453114033
0.012229089625179768,-0.0008565242169424891,-0.014025162905454636,0.015384547412395477,-0.00010985435801558197,0.011103068478405476
0.011926297098398209,-0.0007833989802747965,-0.015033621340990067,0.016154689714312553,-0.00010797960567288101,0.011143989861011505
0.012331243604421616,-0.0007867509266361594,-0.014532598666846752,0.016327187418937683,-0.00011741829075617716,0.011254199780523777
0.012368692085146904,-0.0008032929035834968,-0.015212871134281158,0.016308177262544632,-0.0001190606999443844,0.01102239079773426
0.012368692085146904,-0.0008032929035834968,-0.015212871134281158,0.016308177262544632,-0.0001190606999443844,0.01102239079773426
0.0126121761277318,-0.0008124714368022978,-0.014589630998671055,0.01613798178732395,-0.00019687620806507766,0.011815489269793034
0.012849787250161171,-0.0007906852406449616,-0.01515743788331747,0.01603383757174015,-0.00025994546012952924,0.011826342903077602
0.012596328742802143,-0.0007412555278278887,-0.014792256988584995,0.016778504475951195,-0.0002503516152501106,0.011636417359113693
0.012702695094048977,-0.0007383322226814926,-0.015021654777228832,0.015904488041996956,-0.00027856157976202667,0.011414840817451477
0.01261975895613432,-0.0007554477197118104,-0.014477708376944065,0.016067422926425934,-0.0002922821440733969,0.010952954180538654
0.012809284031391144,-0.00077348219929263,-0.014890247955918312,0.01601669378578663,-0.0002991840592585504,0.011352120898663998
0.01264206226915121,-0.000787577242590487,-0.014513908885419369,0.015299249440431595,-0.00032511301105841994,0.011170507408678532
0.012947713024914265,-0.0007271422073245049,-0.014990289695560932,0.015731044113636017,-0.0003135328588541597,0.011126350611448288
0.013113741762936115,-0.0008057777886278927,-0.014503182843327522,0.016384854912757874,-0.0005156213301233947,0.011484754271805286
0.012937076389789581,-0.0008206773782148957,-0.014574730768799782,0.01688934862613678,-0.000582273059990257,0.011721312068402767
0.013085048645734787,-0.0008311034180223942,-0.01464138738811016,0.016527876257896423,-0.0006093147676438093,0.011610058136284351
0.014253306202590466,-0.0008361507789231837,-0.014825367368757725,0.016904981806874275,-0.0006045425543561578,0.011575046926736832
0.013076984323561192,-0.0008395378245040774,-0.014918474480509758,0.016198894008994102,-0.0005938569083809853,0.01151606161147356
0.012310839258134365,-0.0008433974580839276,-0.014377148821949959,0.016955528408288956,-0.0008389231516048312,0.011597503907978535
0.013315117917954922,-0.000883235246874392,-0.014883655123412609,0.01668197102844715,-0.0008671468822285533,0.011633708141744137
0.0133762676268816,-0.00103972596116364,-0.014949984848499298,0.01627562753856182,-0.0008324183872900903,0.01161849033087492
0.012798158451914787,-0.001039553782902658,-0.014664004556834698,0.016342200338840485,-0.0010419691679999232,0.01171458326280117
0.013251949101686478,-0.0010171271860599518,-0.014674904756247997,0.016836652532219887,-0.0010310511570423841,0.012036783620715141
0.01350802555680275,-0.0009618690819479525,-0.014431111514568329,0.016738681122660637,-0.0010300023714080453,0.011987121775746346
0.013002598658204079,-0.0008822341915220022,-0.015148415230214596,0.01622023433446884,-0.0011945312144234776,0.012044889852404594
0.013516702689230442,-0.0008119380217976868,-0.015139173716306686,0.015900732949376106,-0.001233234303072095,0.011970635503530502
0.012998071499168873,-0.0007028119871392846,-0.014802869409322739,0.016270339488983154,-0.0014048044104129076,0.012325926683843136
0.01382015272974968,-0.000806469819508493,-0.014361108653247356,0.01666318066418171,-0.0014569995691999793,0.011972445994615555
0.013245519250631332,-0.0008187260827980936,-0.014864197000861168,0.016241947188973427,-0.001501908409409225,0.011793829500675201
0.013525206595659256,-0.0007715958636254072,-0.014860906638205051,0.016318026930093765,-0.0014170800568535924,0.01209263876080513
0.01323437225073576,-0.0008701516198925674,-0.015429233200848103,0.01567997969686985,-0.0014385596150532365,0.011869094334542751
0.013728211633861065,-0.0008758747717365623,-0.014657200314104557,0.01624336652457714,-0.0012559338938444853,0.011963929049670696
0.013728211633861065,-0.0008758747717365623,-0.014657200314104557,0.01624336652457714,-0.0012559338938444853,0.011963929049670696
0.013639482669532299,-0.0008755829185247421,-0.015086481347680092,0.016079669818282127,-0.0010522030061110854,0.01200199592858553
0.013520557433366776,-0.0008696463191881776,-0.01363977137953043,0.016246356070041656,-0.0009014990646392107,0.012049206532537937
0.013291450217366219,-0.0007865898078307509,-0.015693064779043198,0.016041744500398636,-0.0008926040609367192,0.012472436763346195
0.013512671925127506,-0.0007448739488609135,-0.01525145210325718,0.015903206542134285,-0.0008000590605661273,0.01188681647181511
0.013626541011035442,-0.0007569935987703502,-0.015235650353133678,0.016245001927018166,-0.0007203362183645368,0.011220226995646954
0.013979577459394932,-0.000783840543590486,-0.014873863197863102,0.015628743916749954,-0.0006547676166519523,0.011334785260260105
0.013821201398968697,-0.0007968763820827007,-0.015515279956161976,0.015889903530478477,-0.000600131752435118,0.011692020110785961
0.014728616923093796,-0.0008821826777420938,-0.014910041354596615,0.015191427432000637,-0.0005539199337363243,0.01199949998408556
0.013466143049299717,-0.0009425444295629859,-0.015071315690875053,0.015234588645398617,-0.0005143209709785879,0.012224582023918629
0.01341056078672409,-0.00093693973030895,-0.014653916470706463,0.014774225652217865,-0.0004800099995918572,0.012388420291244984
0.01371724996715784,-0.0009051347151398659,-0.015168818645179272,0.015291132964193821,-0.0004499915230553597,0.01239808090031147
0.013308294117450714,-0.0008363169035874307,-0.015463481657207012,0.014918681234121323,-0.00042350959847681224,0.013314913026988506
0.01356128416955471,-0.0008320602355524898,-0.015519538894295692,0.01516552921384573,-0.00037891464307904243,0.013023019768297672
0.013882960192859173,-0.0008412751485593617,-0.015249911695718765,0.015481601469218731,-0.0003599653718993068,0.013151085935533047
0.013882960192859173,-0.0008412751485593617,-0.015249911695718765,0.015481601469218731,-0.0003599653718993068,0.013151085935533047
0.014137441292405128,-0.0007691298378631473,-0.014843376353383064,0.016329459846019745,-0.00032723575714044273,0.012450844049453735
0.01341596245765686,-0.0008054297650232911,-0.015376156195998192,0.016505815088748932,-0.0003130064287688583,0.011983607895672321
0.013721192255616188,-0.0008195227710530162,-0.014511318877339363,0.016181036829948425,-0.00029996290686540306,0.012533919885754585
0.013455244712531567,-0.0007933641318231821,-0.015068464912474155,0.016505690291523933,-0.0002879633684642613,0.012792793102562428
0.01352944690734148,-0.0007370153325609863,-0.015144029632210732,0.015751607716083527,-0.0002768881095107645,0.013123965822160244
0.01374715007841587,-0.0007505138055421412,-0.01529933325946331,0.016078351065516472,-0.00026663229800760746,0.013049585744738579
0.013988550752401352,-0.0006934167467989028,-0.014954845421016216,0.016202490776777267,-0.00025710902991704643,0.012956191785633564
0.013992482796311378,-0.0007470686687156558,-0.015760457143187523,0.015657750889658928,-0.0002482436248101294,0.012695377692580223
0.013809003867208958,-0.0007671359926462173,-0.014446464367210865,0.015058674849569798,-0.00023996870731934905,0.012114515528082848
0.013972565531730652,-0.0007158427615649998,-0.015363555401563644,0.015204967930912971,-0.00023222777235787362,0.012631147168576717
0.013930096291005611,-0.0007337175193242729,-0.015207154676318169,0.015760252252221107,-0.00022497109603136778,0.01289527490735054
0.013916205614805222,-0.0008686347282491624,-0.015436826273798943,0.016023868694901466,-0.00021815384388901293,0.012865288183093071
0.013916205614805222,-0.0008686347282491624,-0.015436826273798943,0.016023868694901466,-0.00021815384388901293,0.012865288183093071
0.013889406807720661,-0.0008771345019340515,-0.015241924673318863,0.01585778221487999,-0.0002117378608090803,0.013004508800804615
0.01413331925868988,-0.0007593712653033435,-0.015173409134149551,0.015800561755895615,-0.00020568844047375023,0.012776993215084076
0.013864180073142052,-0.0007629923638887703,-0.015555540099740028,0.016028767451643944,-0.00019997521303594112,0.012836032547056675
0.014250575564801693,-0.0006912146927788854,-0.015143424272537231,0.01535083632916212,-0.00019457082089502364,0.012969170697033405
0.014007238671183586,-0.0006809171172790229,-0.015319623984396458,0.015646863728761673,-0.00018945078772958368,0.01269253809005022
0.014084131456911564,-0.000647474720608443,-0.015140794217586517,0.015636369585990906,-0.00018459322745911777,0.012539180926978588
0.013824799098074436,-0.0005895912181586027,-0.01515590213239193,0.0159966591745615,-0.00017997877148445696,0.012224183417856693
0.01398344524204731,-0.0005222757463343441,-0.014952010475099087,0.015482118353247643,-0.00017558930267114192,0.012464135885238647
0.013563879765570164,-0.0005601320299319923,-0.015782738104462624,0.015529068186879158,-0.00017140890122391284,0.013014383614063263
0.014373736456036568,-0.0005830620648339391,-0.015142752788960934,0.015589186921715736,-0.00016742314619477838,0.013100165873765945
0.014207275584340096,-0.0005421528476290405,-0.015210654586553574,0.01572948507964611,-0.00016361808229703456,0.013388228602707386
0.014318791218101978,-0.000569585885386914,-0.01489084679633379,0.015678970143198967,-0.00015998250455595553,0.013472641818225384
0.014564642682671547,-0.0006867627962492406,-0.014996061101555824,0.01582988351583481,-0.0001531750604044646,0.014234195463359356
0.014292627573013306,-0.0006428364431485534,-0.015382709912955761,0.015563072636723518,-0.0001499843056080863,0.012077516876161098
0.014292627573013306,-0.0006428364431485534,-0.015382709912955761,0.015563072636723518,-0.0001499843056080863,0.012077516876161098
0.013690109364688396,-0.0006821269053034484,-0.015232342295348644,0.015830418094992638,-0.00014398538041859865,0.012646449729800224
0.014416377991437912,-0.0006330611649900675,-0.015141991898417473,0.016283724457025528,-0.00014116229431238025,0.013152608647942543
0.01378385629504919,-0.0007232901407405734,-0.015367354266345501,0.015756672248244286,-0.00013844990462530404,0.013196149840950966
0.014400631189346313,-0.0007448714459314942,-0.01563379168510437,0.01563989743590355,-0.0001358360459562391,0.013688179664313793
0.014109116978943348,-0.0007299566059373319,-0.015224347822368145,0.01566447876393795,-0.00013332068920135498,0.013540772721171379
0.014143216423690319,-0.0006844453164376318,-0.015295129269361496,0.015680376440286636,-0.00013089676212985069,0.01349604595452547
0.013666347600519657,-0.0006752049666829407,-0.01493845321238041,0.01589362695813179,-0.00012856596731580794,0.01346974540501833
0.014140821062028408,-0.0006425274768844247,-0.015583052299916744,0.015532847493886948,-0.00012630471610464156,0.013345753774046898
0.013905621133744717,-0.0006425491301342845,-0.01519040111452341,0.01588324084877968,-0.00012412677460815758,0.013500362634658813
0.014614250510931015,-0.0006433019880205393,-0.015743166208267212,0.015331271104514599,-0.00012202309153508395,0.013027394190430641
0.014614250510931015,-0.0006433019880205393,-0.015743166208267212,0.015331271104514599,-0.00012202309153508395,0.013027394190430641
0.01448944304138422,-0.0006061090971343219,-0.014978324063122272,0.015685461461544037,-0.00011999112030025572,0.01313742995262146
0.014202198944985867,-0.0006251337472349405,-0.015716278925538063,0.015790721401572227,-0.00011802823428297415,0.013236519880592823
0.014062842354178429,-0.0005777025362476707,-0.014990403316915035,0.01654910296201706,-0.00011611960508162156,0.013827933929860592
0.014562951400876045,-0.0006037867860868573,-0.0155106782913208,0.016347691416740417,-0.00011427761637605727,0.013446321710944176
0.014268857426941395,-0.0005579890566878021,-0.015311815775930882,0.016075944527983665,-0.00011249579983996227,0.013356703333556652
0.014410154893994331,-0.0005231865798123181,-0.01563125289976597,0.015824884176254272,-0.00011076062946813181,0.013002990745007992
0.014277925714850426,-0.0005286623490974307,-0.01605445332825184,0.015669850632548332,-0.00010908813419518992,0.013445395976305008
0.014629671350121498,-0.0004738748830277473,-0.015941059216856956,0.016291681677103043,-0.00010746042244136333,0.013500027358531952
0.01484939455986023,-0.0005131891230121255,-0.016198202967643738,0.015445180237293243,-0.00010588009172352031,0.013498150743544102
0.015277791768312454,-0.0005207145004533231,-0.01565587893128395,0.015645671635866165,-0.00010434028808958828,0.013654160313308239
0.014442882500588894,-0.0005037505179643631,-0.015658274292945862,0.015220824629068375,-0.0001028537008096464,0.013814419507980347
0.015581524930894375,-0.0005103014991618693,-0.015356821939349174,0.015700867399573326,-0.00010140632366528735,0.013678163290023804
0.014664297923445702,-0.0004963208921253681,-0.01590159349143505,0.015216972678899765,-9.999806206906214e-05,0.013649674132466316
0.014879465103149414,-0.00040738462121225893,-0.015421206131577492,0.015510275959968567,-9.86282029771246e-05,0.013739735819399357
0.014943096786737442,-0.00017854476755019277,-0.01614721491932869,0.01553087867796421,-9.599821351002902e-05,0.013976547867059708
0.015189562924206257,-0.0001623993448447436,-0.016032341867685318,0.01640148274600506,-9.473514364799485e-05,0.014245891012251377
0.015439814887940884,-0.00019756433903239667,-0.01591719314455986,0.015131499618291855,-9.350139589514583e-05,0.014505387283861637
0.015169982798397541,-0.0002060046826954931,-0.016222061589360237,0.015682708472013474,-9.230586874764413e-05,0.014195782132446766
0.015395445749163628,-0.00019171151507180184,-0.016819000244140625,0.015493843704462051,-9.113770647672936e-05,0.013976472429931164
0.0156695619225502,0.00011777473264373839,-0.016514835879206657,0.01566154696047306,-8.99985316209495e-05,0.013745651580393314
0.015650181099772453,0.0001142397741205059,-0.016699030995368958,0.015159032307565212,-8.888742740964517e-05,0.01362461969256401
0.015720315277576447,0.00010150139860343188,-0.016340073198080063,0.015665203332901,-8.780341158853844e-05,0.013490214012563229
0.015449311584234238,9.121304174186662e-05,-0.016707768663764,0.015658553689718246,-8.674568380229175e-05,0.01479664258658886
0.015693215653300285,8.281580085167661e-05,-0.01660430058836937,0.01624118909239769,-8.571299258619547e-05,0.01410776749253273
0.015322635881602764,7.583486149087548e-05,-0.01640995591878891,0.01581365428864956,-8.470454486086965e-05,0.014055464416742325
0.015322635881602764,7.583486149087548e-05,-0.01640995591878891,0.01581365428864956,-8.470454486086965e-05,0.014055464416742325
0.015124375000596046,6.489533552667126e-05,-0.0163454320281744,0.01634444296360016,-8.27574694994837e-05,0.014568384736776352
0.015124375000596046,6.489533552667126e-05,-0.0163454320281744,0.01634444296360016,-8.27574694994837e-05,0.014568384736776352
0.01607486791908741,6.052999378880486e-05,-0.01691628061234951,0.016454530879855156,-8.181703742593527e-05,0.014034098945558071
0.015786850824952126,5.335234891390428e-05,-0.01656653918325901,0.016550688073039055,-7.999892841326073e-05,0.014680786989629269
0.015997225418686867,5.0366143113933504e-05,-0.01643611676990986,0.016524093225598335,-2.0328765458543785e-05,0.014984128065407276
0.015997225418686867,5.0366143113933504e-05,-0.01643611676990986,0.016524093225598335,-2.0328765458543785e-05,0.014984128065407276
0.01608872413635254,4.769661245518364e-05,-0.01641463302075863,0.015712007880210876,-1.3273231616039993e-06,0.015114781446754932
0.01581507921218872,4.5295815652934834e-05,-0.016997063532471657,0.015256069600582123,-8.666471273954812e-08,0.01470227725803852
0.015579883009195328,4.312526652938686e-05,-0.016236357390880585,0.015289438888430595,-5.658587376444757e-09,0.014129223302006721
0.01616719737648964,4.115323463338427e-05,-0.01662861742079258,0.015554185025393963,-3.694653472052778e-10,0.014390680938959122
0.015918774530291557,3.935372660635039e-05,-0.01628657430410385,0.016186952590942383,-2.4123446296098194e-11,0.014334067702293396
0.01628093048930168,3.7704772694269195e-05,-0.016705721616744995,0.01628885604441166,-1.5750884754459071e-12,0.014371363446116447
0.016059670597314835,3.6188655940350145e-05,-0.01683477684855461,0.01647816225886345,-1.0284202417616684e-13,0.01432799268513918
0.016344517469406128,3.478978032944724e-05,-0.016317034140229225,0.015692399814724922,-6.714849877710203e-15,0.01499405037611723
0.016289541497826576,3.3494914532639086e-05,-0.016397008672356606,0.015848210081458092,-4.3843169150689393e-16,0.015049703419208527
0.016507230699062347,3.1174444302450866e-05,-0.01674557663500309,0.016132675111293793,-1.869102895593956e-18,0.015276273712515831
0.016346408054232597,3.0130771847325377e-05,-0.016518745571374893,0.015904288738965988,-1.2203906102529127e-19,0.015171296894550323
0.016677996143698692,2.915472759923432e-05,-0.016474105417728424,0.01550459023565054,-7.968279308337332e-21,0.014958648011088371
0.016556711867451668,2.8239890525583178e-05,-0.016295840963721275,0.01571195013821125,-5.202716646694749e-22,0.014991729520261288
0.016628829762339592,2.738071998464875e-05,-0.016321055591106415,0.015666810795664787,-3.3970022963935837e-23,0.014749606139957905
0.016873572021722794,2.6572390197543427e-05,-0.016483157873153687,0.015854759141802788,-2.2179997780885263e-24,0.015075505711138248
0.016380498185753822,2.5810271836235188e-05,-0.01622253656387329,0.015800341963768005,-1.4481954104068418e-25,0.015209839679300785
0.016642339527606964,2.5090719645959325e-05,-0.01648383028805256,0.016139840707182884,-9.455681240431658e-27,0.015353715047240257
0.016450105234980583,2.4410257537965663e-05,-0.015748269855976105,0.015990272164344788,-6.173884289244164e-28,0.015221189707517624
0.016450105234980583,2.4410257537965663e-05,-0.015748269855976105,0.015990272164344788,-6.173884289244164e-28,0.015221189707517624
0.01705571636557579,2.3154259906732477e-05,-0.016465352848172188,0.016074463725090027,-2.6320240102482062e-30,0.015284303575754166
0.017018688842654228,2.25735147978412e-05,-0.016109539195895195,0.01575523242354393,-1.71852360523832e-31,0.015362437814474106
0.017212647944688797,4.373949923319742e-05,-0.01641327701508999,0.01599205657839775,-1.1220730549600086e-32,0.015325013548135757
0.017042500898241997,4.2986401240341365e-05,-0.01609686017036438,0.01654551550745964,-7.326336040589583e-34,0.015037107281386852
0.017733611166477203,4.198764145257883e-05,-0.01667769066989422,0.016504447907209396,-4.7835741025833017e-35,0.01503924559801817
0.017129089683294296,4.103052197024226e-05,-0.016050666570663452,0.015642862766981125,-3.1233323989814184e-36,0.01513659581542015
0.017129089683294296,4.103052197024226e-05,-0.016050666570663452,0.015642862766981125,-3.1233323989814184e-36,0.01513659581542015
0.01683083176612854,4.0116148738889024e-05,-0.016207300126552582,0.016226209700107574,-2.0393127940404664e-37,0.015790246427059174
0.01727887988090515,3.924160046153702e-05,-0.016360146924853325,0.015789777040481567,-1.331525431578695e-38,0.014662756584584713
0.017201954498887062,3.840438148472458e-05,-0.016530856490135193,0.016394101083278656,-8.693907906394744e-40,0.014857979491353035
0.017840426415205002,3.760213076020591e-05,-0.016406577080488205,0.016344930976629257,-5.676519949133401e-41,0.014821662567555904
0.017663555219769478,3.683271643240005e-05,-0.01602008566260338,0.016075337305665016,-3.706434438139141e-42,0.015331643633544445
0.017294559627771378,3.6094152164878324e-05,-0.016801143065094948,0.015932517126202583,-2.4242463432819335e-43,0.015492713078856468
0.017456520348787308,3.538458622642793e-05,-0.01588662713766098,0.016584862023591995,-1.5414283107572988e-44,0.01575334742665291
0.01745370589196682,3.4702436096267775e-05,-0.016228294000029564,0.015872754156589508,-1.401298464324817e-45,0.015457745641469955
0.018265319988131523,3.404604649404064e-05,-0.015759432688355446,0.01547774113714695,-0.0,0.015351515263319016
0.018058668822050095,3.280513556092046e-05,-0.016580749303102493,0.015736587345600128,-0.0,0.015414745546877384
0.0185093991458416,3.221798033337109e-05,-0.016209179535508156,0.01580163836479187,-0.0,0.015531187877058983
0.017954913899302483,3.1651463359594345e-05,-0.016485612839460373,0.015429206192493439,-7.015113624220248e-06,0.015820592641830444
0.017733899876475334,3.1104533263714984e-05,-0.015625745058059692,0.015763038769364357,-4.580367942708108e-07,0.01592334732413292
0.018141981214284897,4.063877713633701e-05,-0.016337798908352852,0.01591513678431511,-2.990653058532189e-08,0.015443152748048306
0.0186760351061821,4.5028096792520955e-05,-0.015987955033779144,0.015659445896744728,-1.9526826822158228e-09,0.01576429232954979
0.01877000741660595,4.4356362195685506e-05,-0.01647007092833519,0.015843672677874565,-1.2749623579111358e-10,0.01593506522476673
0.018387310206890106,4.364041524240747e-05,-0.01595049723982811,0.01535127218812704,-8.324592751240978e-12,0.01601102575659752
0.01807684451341629,4.294628888601437e-05,-0.016469325870275497,0.015255614183843136,-5.435364614989058e-13,0.01584777608513832
0.01807684451341629,4.294628888601437e-05,-0.016469325870275497,0.015255614183843136,-5.435364614989058e-13,0.01584777608513832
0.01856328919529915,4.1622221033321694e-05,-0.016196824610233307,0.016247302293777466,-2.31718081171678e-15,0.016647567972540855
0.018552308902144432,4.099033321836032e-05,-0.016647346317768097,0.016103848814964294,-1.5129534420755842e-16,0.016136011108756065
0.018552308902144432,4.099033321836032e-05,-0.016647346317768097,0.016103848814964294,-1.5129534420755842e-16,0.016136011108756065
0.018740566447377205,4.03773519792594e-05,-0.016551584005355835,0.016450712457299232,-9.878505203741027e-18,0.016129275783896446
0.018604693934321404,5.2862702432321385e-05,-0.017028311267495155,0.01570713333785534,-6.449957369994484e-19,0.01571081392467022
0.01899845339357853,5.227071596891619e-05,-0.016693061217665672,0.015553845092654228,-4.211361321675581e-20,0.01591610722243786
0.019113440066576004,5.152495577931404e-05,-0.016459321603178978,0.015309012494981289,-2.749717790826931e-21,0.016001751646399498
0.018674420192837715,5.079796756035648e-05,-0.01701348088681698,0.015238025225698948,-1.795369165281225e-22,0.016056478023529053
0.01868731528520584,5.0091166485799477e-05,-0.016379911452531815,0.015471009537577629,-1.1722478573610572e-23,0.016226187348365784
0.01886461302638054,4.9403748562326655e-05,-0.016726383939385414,0.0155833400785923,-7.6539406822772345e-25,0.016365880146622658
0.018988126888871193,4.873502257396467e-05,-0.01674453355371952,0.016074497252702713,-4.997476359108282e-26,0.016432389616966248
0.019058851525187492,4.808407538803294e-05,-0.017289627343416214,0.016191869974136353,-3.262995252698408e-27,0.016209106892347336
0.01888130232691765,4.7450292186113074e-05,-0.017068324610590935,0.016372231766581535,-2.130502704562534e-28,0.01629117876291275
0.018841037526726723,4.6833072701701894e-05,-0.01628548838198185,0.016047373414039612,-1.3910660969099813e-29,0.016064537689089775
0.019063999876379967,4.623162385541946e-05,-0.017010381445288658,0.01627238839864731,-9.082667750216072e-31,0.016473684459924698
0.01949835568666458,4.5645465434063226e-05,-0.016736142337322235,0.016520710662007332,-5.930332559573565e-32,0.01729304902255535
0.0192699134349823,5.909450555918738e-05,-0.017730750143527985,0.01670699752867222,-3.8720835343964e-33,0.01602202281355858
0.019263189285993576,5.933636930421926e-05,-0.0163617841899395,0.01636652462184429,-0.0001750589144648984,0.016611576080322266
0.019263189285993576,5.933636930421926e-05,-0.0163617841899395,0.01636652462184429,-0.0001750589144648984,0.016611576080322266
0.019178766757249832,5.856446659890935e-05,-0.01710144802927971,0.016525771468877792,-0.0002027677110163495,0.01685197837650776
0.019267110154032707,5.707883246941492e-05,-0.01687203347682953,0.015625761821866035,-0.00022145031834952533,0.017192639410495758
0.019076958298683167,5.6363936892012134e-05,-0.01635672152042389,0.015094577334821224,-0.00024152969126589596,0.01720310002565384
0.01937456801533699,5.56667146156542e-05,-0.016937319189310074,0.015349581837654114,-0.00023729576787445694,0.016811929643154144
0.01958152838051319,6.583446520380676e-05,-0.017124008387327194,0.016072159633040428,-0.00055391137721017,0.016917847096920013
0.019422009587287903,6.518532609334216e-05,-0.01656990498304367,0.016396401450037956,-0.0006126821390353143,0.016600467264652252
0.019422009587287903,6.518532609334216e-05,-0.01656990498304367,0.016396401450037956,-0.0006126821390353143,0.016600467264652252
0.01924084685742855,7.383714546449482e-05,-0.016585813835263252,0.01661507412791252,-0.000604315020609647,0.016281163319945335
0.01943090744316578,7.338834257097915e-05,-0.016458284109830856,0.01656728982925415,-0.0006274671177379787,0.016625139862298965
0.01943090744316578,7.338834257097915e-05,-0.016458284109830856,0.01656728982925415,-0.0006274671177379787,0.016625139862298965
0.019568031653761864,7.254874799400568e-05,-0.016637537628412247,0.016129398718476295,-0.0007596542709507048,0.016920996829867363
0.0201860461384058,7.172297773649916e-05,-0.01673533394932747,0.016108650714159012,-0.0007735107210464776,0.017037540674209595
0.019565526396036148,8.064364374149591e-05,-0.017045490443706512,0.016313208267092705,-0.0007896875613369048,0.01714874990284443
0.019757311791181564,8.013892511371523e-05,-0.016474036499857903,0.01613536849617958,-0.0008025065180845559,0.0168079175055027
0.019427567720413208,2.7050778953707777e-05,-0.01712515950202942,0.016461558640003204,-0.0008516251691617072,0.017177540808916092
0.01845354586839676,3.6292070149102074e-07,-0.017018195241689682,0.015974603593349457,-0.0009196847095154226,0.017055904492735863
0.020478468388319016,0.00022379345318768173,-0.01698860339820385,0.015910111367702484,-0.0009207809343934059,0.01753171905875206
0.020721830427646637,0.0002198314614361152,-0.016966000199317932,0.015628833323717117,-0.0009183657821267843,0.01765087991952896
0.02023540623486042,0.00020968141325283796,-0.01651506870985031,0.015884241089224815,-0.000986646511591971,0.016733244061470032
0.019298596307635307,0.00023985363077372313,-0.017138725146651268,0.015604793094098568,-0.001004558871500194,0.01660429686307907
0.020265081897377968,0.00023016090563032776,-0.016790583729743958,0.015672506764531136,-0.0010684782173484564,0.01637747883796692
0.02010420337319374,0.00022075878223404288,-0.0170059185475111,0.015886925160884857,-0.0009913432877510786,0.016881128773093224
0.019982080906629562,0.00021208760153967887,-0.016857458278536797,0.015304806642234325,-0.00112772302236408,0.017192956060171127
0.02029862441122532,0.00023760992917232215,-0.01634988747537136,0.015402316115796566,-0.0010153617477044463,0.017026850953698158
0.020636016502976418,0.00022940820781514049,-0.016655689105391502,0.015493122860789299,-0.000991970649920404,0.017493760213255882
0.019343307241797447,0.0002443715638946742,-0.016688896343111992,0.015736162662506104,-0.0007605351856909692,0.017208870500326157
0.020015008747577667,0.00023699698795098811,-0.016516735777258873,0.01604367047548294,-0.000761801959015429,0.017215823754668236
0.02084779553115368,0.00034790736390277743,-0.016925785690546036,0.016090750694274902,-0.0006990404799580574,0.017217930406332016
0.02046595886349678,0.0003245556727051735,-0.017014356330037117,0.01631416194140911,-0.000637787685263902,0.017459535971283913
0.020487742498517036,0.0003027372295036912,-0.01676841638982296,0.016155242919921875,-0.0005905041471123695,0.017346441745758057
0.020488156005740166,0.0003395701351109892,-0.01728791743516922,0.01613721065223217,-0.0004672896466217935,0.017751218751072884
0.02035118266940117,0.00032018544152379036,-0.01660769246518612,0.01594582386314869,-0.0004195677174720913,0.017085490748286247
0.020308008417487144,0.00035057542845606804,-0.017235299572348595,0.01565392315387726,-0.0004547197022475302,0.01731250248849392
0.020973142236471176,0.0003339260001666844,-0.01665887050330639,0.016377978026866913,-0.0004236519744154066,0.017718704417347908
0.02095821499824524,0.00034682609839364886,-0.016692521050572395,0.016127290204167366,-0.00039309138082899153,0.017742935568094254
0.01996767893433571,0.00034486420918256044,-0.017348574474453926,0.016269730404019356,-0.00036641902988776565,0.017769157886505127
0.01996767893433571,0.00034486420918256044,-0.017348574474453926,0.016269730404019356,-0.00036641902988776565,0.017769157886505127
0.020336097106337547,0.0004066376422997564,-0.01707296073436737,0.015978718176484108,-0.00039632347761653364,0.018249167129397392
0.020737523213028908,0.000408923631766811,-0.01781642995774746,0.01616722345352173,-0.0003761225088965148,0.01821371540427208
0.02082281932234764,0.00044724528561346233,-0.017257660627365112,0.015955066308379173,-0.00035513826878741384,0.018248382955789566
0.020406078547239304,0.0004156834911555052,-0.0173694659024477,0.015888895839452744,-0.0003361948474776,0.018152255564928055
0.021033858880400658,0.00044940580846741796,-0.017730945721268654,0.016196852549910545,-0.00031915854196995497,0.017969826236367226
0.02123340219259262,0.0004595265199895948,-0.016663188114762306,0.015664473176002502,-0.000341343431500718,0.0181210208684206
0.020838048309087753,0.0004500047361943871,-0.01772010140120983,0.016080200672149658,-0.00033080726279877126,0.017993558198213577
0.020771875977516174,0.000603563035838306,-0.01764695905148983,0.016049040481448174,-0.00031659449450671673,0.017861412838101387
0.020904265344142914,0.0006501495372503996,-0.017795922234654427,0.016866600140929222,-0.00030327861895784736,0.01815822534263134
0.021184707060456276,0.0005912075284868479,-0.017923785373568535,0.01655953750014305,-0.00029101845575496554,0.0179793369024992
0.020993756130337715,0.0006204970413818955,-0.01716492883861065,0.016543902456760406,-0.00026868493296206,0.018162036314606667
0.02123170718550682,0.0006433507660403848,-0.017988042905926704,0.017012840136885643,-0.0002510577323846519,0.018046647310256958
0.021219199523329735,0.000593983510043472,-0.018643047660589218,0.016721731051802635,-0.0002376220654696226,0.017970215529203415
0.021275809034705162,0.0006816174718551338,-0.017720045521855354,0.016601944342255592,-0.00022569029533769935,0.01828893832862377
0.020997190847992897,0.0007075893227010965,-0.01744004897773266,0.016300922259688377,-0.00021490723884198815,0.018805185332894325
0.02135169319808483,0.0006295770290307701,-0.017358098179101944,0.0169612318277359,-0.00020510921604000032,0.018326420336961746
0.02169516123831272,0.0006564242648892105,-0.018154045566916466,0.01687396503984928,-0.00019616622012108564,0.0184665285050869
0.021758925169706345,0.0006222520605660975,-0.016905618831515312,0.016311533749103546,-0.00021406359155662358,0.017767837271094322
0.02171798050403595,0.0007367382058873773,-0.01759982854127884,0.01580336131155491,-0.0002080100093735382,0.01775709167122841
0.02152038738131523,0.0007585753337480128,-0.01834155060350895,0.01649942249059677,-0.00020043124095536768,0.017759492620825768
0.021470719948410988,0.0007745933253318071,-0.01783534698188305,0.016550835222005844,-0.0001932663144543767,0.018582910299301147
0.021594315767288208,0.0007387195946648717,-0.018057931214571,0.016996754333376884,-0.00021356156503316015,0.018879234790802002
0.021852008998394012,0.0010785789927467704,-0.017797529697418213,0.016571683809161186,-0.00021014515368733555,0.018315529450774193
0.02133765071630478,0.0010525219840928912,-0.017746727913618088,0.016521619632840157,-0.00020359574409667403,0.018485836684703827
0.02133765071630478,0.0010525219840928912,-0.017746727913618088,0.016521619632840157,-0.00020359574409667403,0.018485836684703827
0.021978063508868217,0.001040981151163578,-0.018014485016465187,0.0172895435243845,-0.00019723693549167365,0.01838531345129013
0.022310558706521988,0.0010736908297985792,-0.017379196360707283,0.017205597832798958,-0.00019124963728245348,0.019008254632353783
0.022466400638222694,0.0012143717613071203,-0.017922351136803627,0.017405802384018898,-0.00020525328000076115,0.018938876688480377
0.02247956395149231,0.0011771215358749032,-0.017783446237444878,0.017000284045934677,-0.00020561028213705868,0.018678436055779457
0.022377967834472656,0.0013939725467935205,-0.017483554780483246,0.017002519220113754,-0.00020029646111652255,0.018179846927523613
0.022285064682364464,0.0013438038295134902,-0.018180454149842262,0.01657041534781456,-0.00019532501755747944,0.01822490245103836
0.02144951932132244,0.00130424031522125,-0.017557060346007347,0.01621684432029724,-0.00020964775467291474,0.01836862415075302
0.02187594398856163,0.0014364818343892694,-0.01773354969918728,0.016502754762768745,-0.00020177777332719415,0.017851393669843674
0.022488482296466827,0.0014699434395879507,-0.018004052340984344,0.016689883545041084,-0.0002217638393631205,0.01888066902756691
0.0226842500269413,0.001455991412512958,-0.017408231273293495,0.01732020452618599,-0.00022165679547470063,0.018896132707595825
0.02202586457133293,0.0014891272876411676,-0.017892591655254364,0.017178095877170563,-0.00023978992248885334,0.0190217737108469
0.022457217797636986,0.0014300498878583312,-0.017826998606324196,0.016710402444005013,-0.0002390253939665854,0.0188481193035841
0.023548681288957596,0.0015330556780099869,-0.018011057749390602,0.01646733470261097,-0.00025940974592231214,0.018424658104777336
0.023080866783857346,0.0015508383512496948,-0.017839623615145683,0.016256732866168022,-0.00025421459577046335,0.018414271995425224
0.02226361818611622,0.0017712763510644436,-0.017182713374495506,0.016919542104005814,-0.00036863223067484796,0.018594620749354362
0.022564014419913292,0.0018058826681226492,-0.01793145015835762,0.016578372567892075,-0.00044582015834748745,0.01894438825547695
0.022693634033203125,0.0017042739782482386,-0.017648540437221527,0.016880664974451065,-0.0004890690324828029,0.019266143441200256
0.022357111796736717,0.001755113946273923,-0.01815960370004177,0.015688782557845116,-0.00048773488379083574,0.019004324451088905
0.02272196114063263,0.0018208794062957168,-0.017386235296726227,0.01708168163895607,-0.0005091395578347147,0.01928352750837803
0.022995226085186005,0.0021330672316253185,-0.017744559794664383,0.015405230224132538,-0.00048265716759487987,0.01955929584801197
0.02325933240354061,0.0020695198327302933,-0.018110590055584908,0.015611859038472176,-0.0005960697308182716,0.01918068341910839
0.022972045466303825,0.0018130835378542542,-0.017471887171268463,0.015580125153064728,-0.0005462804692797363,0.01963244564831257
0.022896800190210342,0.0018347867298871279,-0.017669828608632088,0.016492007300257683,-0.000535324215888977,0.01946183666586876
0.022783447057008743,0.00204843538813293,-0.017419137060642242,0.016007689759135246,-0.0005253944545984268,0.019214382395148277
0.023193785920739174,0.0020411789882928133,-0.018086327239871025,0.016353026032447815,-0.0005400779191404581,0.019832249730825424
0.023193785920739174,0.0020411789882928133,-0.018086327239871025,0.016353026032447815,-0.0005400779191404581,0.019832249730825424
0.023251976817846298,0.0021041424479335546,-0.01823534443974495,0.016192954033613205,-0.0005143134039826691,0.02018037438392639
0.02353023737668991,0.0021105126943439245,-0.017285455018281937,0.01610667072236538,-0.0005095864180475473,0.01963254064321518
0.022988336160779,0.002099081641063094,-0.01764766499400139,0.016507631167769432,-0.0005041266558691859,0.019664224237203598
0.02238205075263977,0.00209149532020092,-0.017571838572621346,0.016205251216888428,-0.0004925489192828536,0.01996309496462345
0.02297217771410942,0.0022298635449260473,-0.017653191462159157,0.016862204298377037,-0.0004640030092559755,0.01962229609489441
0.023179978132247925,0.0023950645700097084,-0.018188845366239548,0.016625596210360527,-0.00046262418618425727,0.01985212042927742
0.0233768243342638,0.0023533115163445473,-0.017614450305700302,0.016784366220235825,-0.0004601021355483681,0.020149415358901024
0.023391416296362877,0.0025377674028277397,-0.01787182316184044,0.016812639310956,-0.0004922100924886763,0.020325254648923874
0.02272261306643486,0.0026551331393420696,-0.01793823204934597,0.016868244856595993,-0.0005175282130949199,0.020228659734129906
0.023433811962604523,0.0025088831316679716,-0.01774687133729458,0.017519738525152206,-0.0006062532775104046,0.020366869866847992
0.02425520494580269,0.0025584071408957243,-0.01843799650669098,0.01726549305021763,-0.0006926076021045446,0.020312514156103134
0.023944083601236343,0.002658952958881855,-0.017742596566677094,0.017230423167347908,-0.0006679258076474071,0.019707096740603447
0.023933876305818558,0.002553879516199231,-0.017832661047577858,0.01759760081768036,-0.0006902748718857765,0.020138004794716835
0.0236334428191185,0.0028397764544934034,-0.01839347742497921,0.01748553104698658,-0.0006933063268661499,0.020424772053956985
0.023426320403814316,0.0029680312145501375,-0.01845003291964531,0.017549272626638412,-0.0006561533082276583,0.02041749283671379
0.024422673508524895,0.002948567969724536,-0.01876240223646164,0.017030557617545128,-0.0007500370847992599,0.020967908203601837
0.025021493434906006,0.0031209224835038185,-0.017908884212374687,0.016211243346333504,-0.0007686112658120692,0.020878149196505547
0.024923713877797127,0.003250669687986374,-0.01821170188486576,0.015887558460235596,-0.0006914081168361008,0.02076120860874653
0.024126557633280754,0.0031236014328897,-0.018505053594708443,0.01673808880150318,-0.0007059670169837773,0.020754940807819366
0.02266654185950756,0.0035121196415275335,-0.018037602305412292,0.01634027063846588,-0.0006478169234469533,0.020340777933597565
0.024040929973125458,0.0038250861689448357,-0.01887410320341587,0.017201131209731102,-0.0006402548169717193,0.020383117720484734
0.02465955726802349,0.0033982458990067244,-0.018279755488038063,0.016588309779763222,-0.0005686533404514194,0.021195365116000175
0.02430739253759384,0.0031078369356691837,-0.01785605028271675,0.0168591421097517,-0.0005537747056223452,0.020687414333224297
0.024259166792035103,0.0030771738383919,-0.018918337300419807,0.016602138057351112,-0.0005416575004346669,0.02031104825437069
0.024370335042476654,0.0032465490512549877,-0.01833423040807247,0.01613193191587925,-0.0005552221555262804,0.0204667579382658
0.02510339394211769,0.003534522373229265,-0.019022705033421516,0.01666085049510002,-0.0005640975432470441,0.021387940272688866
0.02510339394211769,0.003534522373229265,-0.019022705033421516,0.01666085049510002,-0.0005640975432470441,0.021387940272688866
0.0246143639087677,0.0036702631041407585,-0.019106950610876083,0.016543345525860786,-0.0005550669739022851,0.021830905228853226
0.024804681539535522,0.003929812926799059,-0.01836469955742359,0.01707177236676216,-0.000517412438057363,0.021221265196800232
0.024266021326184273,0.0038305309135466814,-0.01869325526058674,0.01665547676384449,-0.0005059000686742365,0.020093735307455063
0.024497291073203087,0.0035050711594522,-0.01842113770544529,0.016495507210493088,-0.0004632779164239764,0.020489178597927094
0.025510255247354507,0.0035212007351219654,-0.018103333190083504,0.016737602651119232,-0.0004986096173524857,0.02137341909110546
0.02572467364370823,0.003737881314009428,-0.017609035596251488,0.016589747741818428,-0.00046113409916870296,0.021974053233861923
0.02524608001112938,0.003918079659342766,-0.018836624920368195,0.01757655292749405,-0.00042513373773545027,0.021391553804278374
0.02481020987033844,0.003989932127296925,-0.018842337653040886,0.01751580275595188,-0.0004508103593252599,0.021221261471509933
0.025068575516343117,0.0035350981634110212,-0.018612727522850037,0.01740303635597229,-0.0004279086133465171,0.021784402430057526
0.0254256222397089,0.0035928417928516865,-0.018604861572384834,0.017237922176718712,-0.0004011555283796042,0.0227003525942564
0.02560322917997837,0.004206525627523661,-0.01824220083653927,0.017060624435544014,-0.00040338560938835144,0.021862639114260674
0.025285976007580757,0.0041313739493489265,-0.018523532897233963,0.01682920753955841,-0.00040487819933332503,0.020949004217982292
0.025168178603053093,0.004004523158073425,-0.01795002818107605,0.01675146445631981,-0.0003848164342343807,0.020577557384967804
0.026452267542481422,0.00395677424967289,-0.018517296761274338,0.01668562740087509,-0.0003834768140222877,0.020575782284140587
0.025822296738624573,0.0038756628055125475,-0.019143180921673775,0.01683836430311203,-0.00035996653605252504,0.021525539457798004
0.025936612859368324,0.004345084074884653,-0.018498700112104416,0.017176181077957153,-0.00037058923044241965,0.022274238988757133
0.025637364014983177,0.004147341474890709,-0.018756041303277016,0.016700459644198418,-0.00034859703737311065,0.022182228043675423
0.026255406439304352,0.004473729059100151,-0.018460121005773544,0.017080403864383698,-0.00037477424484677613,0.022068386897444725
0.026348698884248734,0.004142864141613245,-0.01876433752477169,0.01657102070748806,-0.0003598238981794566,0.021965930238366127
0.026938164606690407,0.00434173084795475,-0.01888117752969265,0.016398288309574127,-0.00036451235064305365,0.022197561338543892
0.027028769254684448,0.0041426909156143665,-0.018398264423012733,0.016570961102843285,-0.00036786828422918916,0.022008666768670082
0.026554565876722336,0.004239081870764494,-0.018637795001268387,0.01652635633945465,-0.00035248196218162775,0.022080224007368088
0.026756003499031067,0.004150792025029659,-0.01845385506749153,0.01708701252937317,-0.0004237548273522407,0.02242695540189743
0.026756003499031067,0.004150792025029659,-0.01845385506749153,0.01708701252937317,-0.0004237548273522407,0.02242695540189743
0.027436431497335434,0.00437677837908268,-0.01837608776986599,0.01721692830324173,-0.0004316119011491537,0.022304529324173927
0.026906967163085938,0.004553837236016989,-0.018417399376630783,0.016925359144806862,-0.00043207596172578633,0.022288165986537933
0.027096133679151535,0.004351274110376835,-0.0184385497123003,0.016642233356833458,-0.00046005513286218047,0.022503970190882683
0.02702205814421177,0.0045377230271697044,-0.018577931448817253,0.01646352931857109,-0.000436225876910612,0.022754695266485214
0.027265537530183792,0.0042673153802752495,-0.018612558022141457,0.016821272671222687,-0.00045888606109656394,0.02268347330391407
0.02742518112063408,0.004285136703401804,-0.01795804128050804,0.01631045900285244,-0.0004394656280055642,0.022728240117430687
0.02739018201828003,0.004201333504170179,-0.018537884578108788,0.01686147227883339,-0.0005582185694947839,0.022553985938429832
0.027709955349564552,0.0044211880303919315,-0.01902552880346775,0.016932440921664238,-0.00059392029652372,0.022581404075026512
0.02756529487669468,0.004637879319489002,-0.018263841047883034,0.01721670664846897,-0.0005902281845919788,0.022671207785606384
0.02754167839884758,0.00464989710599184,-0.018664715811610222,0.01707521267235279,-0.0005765545647591352,0.02279450185596943
0.0275457464158535,0.004154827445745468,-0.018948396667838097,0.016725018620491028,-0.0006010200595483184,0.022791167721152306
0.027977457270026207,0.004205282311886549,-0.01804317906498909,0.017195019870996475,-0.0007328327628783882,0.022691940888762474
0.028784869238734245,0.004585387650877237,-0.01861511543393135,0.016908951103687286,-0.0008388066780753434,0.02283123880624771
0.028514781966805458,0.0046263025142252445,-0.019318656995892525,0.01689719222486019,-0.0008521482814103365,0.022645864635705948
0.025447146967053413,0.004872242454439402,-0.019066547974944115,0.016615182161331177,-0.000814734841696918,0.023045629262924194
0.02865886688232422,0.00474275927990675,-0.019138850271701813,0.016662154346704483,-0.0010475721210241318,0.023787667974829674
0.028253545984625816,0.004395871423184872,-0.018807943910360336,0.017704356461763382,-0.000951422203797847,0.023189809173345566
0.028584659099578857,0.004671864211559296,-0.018967604264616966,0.017828771844506264,-0.0009321394609287381,0.02271726168692112
0.02936003915965557,0.00478778313845396,-0.018587684258818626,0.01741190068423748,-0.0008385711116716266,0.02232566475868225
0.029546184465289116,0.00469027366489172,-0.01903606206178665,0.016888439655303955,-0.0007638194365426898,0.02286604791879654
0.028748266398906708,0.005103645380586386,-0.019283948466181755,0.017011994495987892,-0.0007688458426855505,0.02362269163131714
0.028285104781389236,0.0038628922775387764,-0.018793484196066856,0.01706051453948021,-0.0007696558022871614,0.023376349359750748
0.029027000069618225,0.0026023832615464926,-0.01842002384364605,0.01777426153421402,-0.0007580446545034647,0.02338099293410778
0.029322586953639984,0.0019101350335404277,-0.018600452691316605,0.018168199807405472,-0.0007268348708748817,0.023622408509254456
0.029525022953748703,0.001647100318223238,-0.018615342676639557,0.017912104725837708,-0.0007430378464050591,0.023727599531412125
0.029464291408658028,0.0011972348438575864,-0.01964433863759041,0.01781042292714119,-0.0007278292323462665,0.02351936511695385
0.029263751581311226,0.0024552950635552406,-0.018814070150256157,0.018566174432635307,-0.0006921663298271596,0.02309498004615307
0.029039671644568443,0.003713367972522974,-0.017941245809197426,0.017960553988814354,-0.0007050931453704834,0.022697731852531433
0.029039671644568443,0.003713367972522974,-0.017941245809197426,0.017960553988814354,-0.0007050931453704834,0.022697731852531433
0.0288014505058527,0.0033539202995598316,-0.019220074638724327,0.017621729522943497,-0.0007124361000023782,0.02309470809996128
0.02874048426747322,0.002737859496846795,-0.019157543778419495,0.016759291291236877,-0.0006678319768980145,0.02412286214530468
0.028950026258826256,0.002236654981970787,-0.01872972398996353,0.016941288486123085,-0.0006869237404316664,0.0244126133620739
0.029130147770047188,0.0017877020873129368,-0.01918334700167179,0.016912288963794708,-0.0006080913008190691,0.023913925513625145
0.029148055240511894,0.0017989999614655972,-0.01978476531803608,0.017492331564426422,-0.000635707750916481,0.02358364313840866
0.02917610853910446,0.0024835094809532166,-0.01888543739914894,0.017762208357453346,-0.0006569110555574298,0.02385609783232212
0.029148031026124954,0.002674797782674432,-0.01935681700706482,0.017562013119459152,-0.0006053223623894155,0.024077793583273888
0.029598018154501915,0.002559444634243846,-0.019862385466694832,0.01796550489962101,-0.0006107771769165993,0.024410750716924667
0.02949998341500759,0.00240204855799675,-0.01933002471923828,0.017434049397706985,-0.0005795353790745139,0.0245039165019989
0.0292846467345953,0.0020802353974431753,-0.019869673997163773,0.01675914227962494,-0.000559507345315069,0.024507584050297737
0.027859492227435112,0.002009718446061015,-0.019682008773088455,0.01696702465415001,-0.0005173167446628213,0.024643538519740105
0.030263466760516167,0.0020036669448018074,-0.018998630344867706,0.016809646040201187,-0.0005514989607036114,0.02448410540819168
0.031032703816890717,0.0022262379061430693,-0.019581886008381844,0.01718279719352722,-0.0005462196422740817,0.02454492636024952
0.030992040410637856,0.0025719578843563795,-0.019870202988386154,0.016751348972320557,-0.0005368193378672004,0.024856537580490112
0.029827019199728966,0.0023147696629166603,-0.019512198865413666,0.01677766814827919,-0.0005490036564879119,0.024767346680164337
0.029804611578583717,0.0025544636882841587,-0.01959902048110962,0.01717311516404152,-0.0005252644186839461,0.025947576388716698
0.0306674987077713,0.0024649719707667828,-0.01973395235836506,0.017226802185177803,-0.0005827628192491829,0.023966168984770775
0.03071289323270321,0.002671138383448124,-0.019549168646335602,0.018017958849668503,-0.0005717062740586698,0.02460377849638462
0.03177444636821747,0.0028449581004679203,-0.020113548263907433,0.018038513138890266,-0.0005273270653560758,0.02481290139257908
0.0311131551861763,0.0028308245819061995,-0.019588623195886612,0.01867837645113468,-0.0005501327104866505,0.02501324936747551
0.03073975071310997,0.002756266389042139,-0.01911162957549095,0.018424538895487785,-0.0005146042094565928,0.025151630863547325
0.030451033264398575,0.0028079890180379152,-0.019527576863765717,0.018095869570970535,-0.0005350153660401702,0.02502419613301754
0.031078966334462166,0.0029102747794240713,-0.019632738083600998,0.017809001728892326,-0.0005054792272858322,0.02502446621656418
0.031301043927669525,0.003241323633119464,-0.018798450008034706,0.01728852465748787,-0.0005157245905138552,0.024865692481398582
0.031200343742966652,0.003156708087772131,-0.019474418833851814,0.017528392374515533,-0.0004777669964823872,0.02482241950929165
0.03170928731560707,0.0029206399340182543,-0.019429093226790428,0.017295872792601585,-0.0005131889483891428,0.024865254759788513
0.03149297088384628,0.0029270704835653305,-0.01909801922738552,0.017920104786753654,-0.0005415289779193699,0.025120697915554047
0.031098999083042145,0.0032868420239537954,-0.019365502521395683,0.018211834132671356,-0.0005700993933714926,0.025229036808013916
0.031587373465299606,0.00367141654714942,-0.0191241092979908,0.01756327971816063,-0.0005405700649134815,0.025247903540730476
0.031587373465299606,0.00367141654714942,-0.0191241092979908,0.01756327971816063,-0.0005405700649134815,0.025247903540730476
0.03127641603350639,0.0034141617361456156,-0.01901623047888279,0.018268324434757233,-0.0007632948691025376,0.024930797517299652
0.031657665967941284,0.003127453150227666,-0.01946793496608734,0.018499622121453285,-0.0007345096091739833,0.02515340968966484
0.03169431909918785,0.0030490311328321695,-0.019232487305998802,0.01865743100643158,-0.0007438898901455104,0.025286924093961716
0.03154894709587097,0.003154715755954385,-0.01906333491206169,0.01896553672850132,-0.0006767818122170866,0.025601131841540337
0.03223733603954315,0.003480267943814397,-0.019303757697343826,0.01804540678858757,-0.00069289660314098,0.0260329507291317
0.03054983727633953,0.003584254300221801,-0.019532160833477974,0.01721482165157795,-0.0006390060298144817,0.02612575888633728
0.032341476529836655,0.0035219895653426647,-0.019304823130369186,0.017178772017359734,-0.0006422042497433722,0.025055252015590668
0.0321158803999424,0.003486800938844681,-0.019824855029582977,0.016650818288326263,-0.0006216081092134118,0.024672409519553185
0.031844932585954666,0.0038483692333102226,-0.01911388710141182,0.017623700201511383,-0.0006216064211912453,0.02620132826268673
0.031844932585954666,0.0038483692333102226,-0.01911388710141182,0.017623700201511383,-0.0006216064211912453,0.02620132826268673
0.03227654844522476,0.003741019405424595,-0.019672170281410217,0.0177826676517725,-0.0006358355167321861,0.025945285335183144
0.03252880647778511,0.0035071661695837975,-0.020053807646036148,0.01813642308115959,-0.0006019657594151795,0.025740081444382668
0.0325394906103611,0.0035843881778419018,-0.019786708056926727,0.017550131306052208,-0.0005613691755570471,0.027022140100598335
0.0325528122484684,0.004010697361081839,-0.020008327439427376,0.01757683791220188,-0.0005700298934243619,0.02606588788330555
0.03257105126976967,0.004380892030894756,-0.020885510370135307,0.01786082051694393,-0.0005376631743274629,0.025269558653235435
0.03310013934969902,0.004040099214762449,-0.020007044076919556,0.017998401075601578,-0.00053885712986812,0.02612307481467724
0.03336447477340698,0.004326430149376392,-0.020212043076753616,0.017586302012205124,-0.0005305187660269439,0.02685348503291607
0.03311960771679878,0.004185365047305822,-0.02054799161851406,0.01796025037765503,-0.0005567971966229379,0.0266493521630764
0.03280850499868393,0.004044588655233383,-0.02056429721415043,0.01824277453124523,-0.0006248103454709053,0.02582770586013794
0.032799627631902695,0.003968448843806982,-0.020241444930434227,0.017919475212693214,-0.0007231410127133131,0.025764087215065956
0.03411306068301201,0.0043509588576853275,-0.02068367414176464,0.01809137873351574,-0.0006989952526055276,0.02612994611263275
0.0349077433347702,0.0045362962409853935,-0.020303528755903244,0.018149275332689285,-0.0007162607507780194,0.026416929438710213
0.03292528912425041,0.004801865667104721,-0.02079678699374199,0.01793706603348255,-0.0009250299772247672,0.026534151285886765
0.03292528912425041,0.004801865667104721,-0.02079678699374199,0.01793706603348255,-0.0009250299772247672,0.026534151285886765
0.033918268978595734,0.004324397072196007,-0.02083587646484375,0.01741722784936428,-0.0008185395272448659,0.02632182277739048
0.033918268978595734,0.004324397072196007,-0.02083587646484375,0.01741722784936428,-0.0008185395272448659,0.02632182277739048
0.03349878266453743,0.004241140093654394,-0.019799496978521347,0.017326798290014267,-0.0008144781459122896,0.026472685858607292
0.034358736127614975,0.004369920585304499,-0.020199917256832123,0.017953839153051376,-0.0007333950488828123,0.026442643254995346
0.034649621695280075,0.004294822923839092,-0.020680036395788193,0.017965005710721016,-0.0007027983665466309,0.02669692225754261
0.033808447420597076,0.0044792816042900085,-0.020348725840449333,0.018579501658678055,-0.0006773152272216976,0.026926562190055847
0.03316577896475792,0.004639471881091595,-0.020668216049671173,0.01860375888645649,-0.0006214661989361048,0.026884615421295166
0.033610302954912186,0.004163140896707773,-0.020769258961081505,0.017771761864423752,-0.0005382299423217773,0.026914028450846672
0.03417784348130226,0.00442080944776535,-0.02024366334080696,0.017453080043196678,-0.00047325537889264524,0.026847904548048973
0.032571133226156235,0.004584930371493101,-0.020204704254865646,0.017023343592882156,-0.0004902383661828935,0.02680816315114498
0.03494429960846901,0.004535967949777842,-0.020769551396369934,0.01710016466677189,-0.0004670692142099142,0.027065778151154518
0.03486655652523041,0.0047590783797204494,-0.02066037617623806,0.01715475507080555,-0.0004837460583075881,0.027529031038284302
0.03391975536942482,0.004864633549004793,-0.019998665899038315,0.0173761248588562,-0.00046449978253804147,0.02734502963721752
0.03397320210933685,0.004819165449589491,-0.020501162856817245,0.01823398843407631,-0.0004871026612818241,0.027123456820845604
0.034869033843278885,0.004995385650545359,-0.021051647141575813,0.018446633592247963,-0.000466580648208037,0.026907222345471382
0.03447054326534271,0.004835762549191713,-0.020715801045298576,0.018887421116232872,-0.000525012903381139,0.02739117480814457
0.03478914126753807,0.004796757362782955,-0.020753279328346252,0.019017932936549187,-0.000516908650752157,0.028334371745586395
0.03418472781777382,0.005279358010739088,-0.020893068984150887,0.018810229375958443,-0.0005104450974613428,0.02711167186498642
0.03467215597629547,0.005032219458371401,-0.02032126858830452,0.018992062658071518,-0.0005041568074375391,0.02640569768846035
0.034680597484111786,0.004770493134856224,-0.02042565867304802,0.0183851420879364,-0.00046887743519619107,0.02719825878739357
0.03582314774394035,0.004969417583197355,-0.02053898014128208,0.018151240423321724,-0.0004944996326230466,0.027818098664283752
0.03526721149682999,0.004966044798493385,-0.020221756771206856,0.018429609015583992,-0.00046671793097630143,0.027682214975357056
0.03339013084769249,0.004928687121719122,-0.01979967951774597,0.018780233338475227,-0.0004954423056915402,0.02829643338918686
0.03476151451468468,0.00567224994301796,-0.02059360034763813,0.019361620768904686,-0.0004944730317220092,0.029121018946170807
0.03516392782330513,0.005301986820995808,-0.02055289037525654,0.01934545487165451,-0.000489181315060705,0.027826663106679916
0.03507090359926224,0.004916246980428696,-0.02007615938782692,0.018808497115969658,-0.0005060276016592979,0.027726585045456886
0.03570754826068878,0.0051315296441316605,-0.020259089767932892,0.019209569320082664,-0.0004843483038712293,0.02743815816938877
0.03588530048727989,0.005066770128905773,-0.020467014983296394,0.01925501972436905,-0.0005064181168563664,0.028328536078333855
0.03444988280534744,0.005393132567405701,-0.020550761371850967,0.01900339312851429,-0.0004802807525265962,0.029162537306547165
0.034748781472444534,0.005716294515877962,-0.02042749524116516,0.019174989312887192,-0.0005408991128206253,0.028938502073287964
0.034748781472444534,0.005716294515877962,-0.02042749524116516,0.019174989312887192,-0.0005408991128206253,0.028938502073287964
0.035915177315473557,0.005037156865000725,-0.020346377044916153,0.01923093944787979,-0.0005111278733238578,0.02851581573486328
0.035404741764068604,0.005523371044546366,-0.020603284239768982,0.018801389262080193,-0.000540090084541589,0.02879355289041996
0.03508659079670906,0.004844550974667072,-0.02009262703359127,0.019006889313459396,-0.0005411812453530729,0.02817377634346485
0.03544745221734047,0.004642730113118887,-0.02045813389122486,0.019191371276974678,-0.0005326232057996094,0.027976078912615776
0.0353056974709034,0.0052583711221814156,-0.02056718058884144,0.01891338638961315,-0.0005541511927731335,0.028331711888313293
0.035397376865148544,0.0056532337330281734,-0.02032868191599846,0.018934763967990875,-0.0006069661467336118,0.02875998057425022
0.035881929099559784,0.005426954943686724,-0.020641138777136803,0.018829811364412308,-0.0006643517408519983,0.02866685576736927
0.03576434776186943,0.005434861406683922,-0.021459538489580154,0.01862168125808239,-0.0006422639708034694,0.028790313750505447
0.03580768033862114,0.005284341052174568,-0.02097712829709053,0.018771767616271973,-0.0006664831889793277,0.028929799795150757
0.035691142082214355,0.005204050336033106,-0.02012903429567814,0.018608996644616127,-0.0006717415526509285,0.028412625193595886
0.0362585112452507,0.005460067186504602,-0.020122740417718887,0.018206829205155373,-0.0006326718721538782,0.028775636106729507
0.03622892498970032,0.005519501864910126,-0.020794937387108803,0.01861829124391079,-0.0006998100434429944,0.02910189889371395
0.03615306317806244,0.005520421080291271,-0.021478693932294846,0.018491391092538834,-0.0007083357195369899,0.02889980934560299
0.035491324961185455,0.005301269702613354,-0.021133646368980408,0.018659371882677078,-0.0006804256699979305,0.029148941859602928
0.036756910383701324,0.005925169214606285,-0.021464552730321884,0.018563179299235344,-0.0006593886064365506,0.028794458135962486
0.037063680589199066,0.0054341149516403675,-0.021339626982808113,0.018712712451815605,-0.0006393322837539017,0.028803938999772072
0.03674498200416565,0.004401785787194967,-0.021874960511922836,0.01854020729660988,-0.0006635875324718654,0.028921902179718018
0.036939527839422226,0.004286681301891804,-0.021219026297330856,0.01818922534584999,-0.0006915865815244615,0.029149292036890984
0.036957405507564545,0.0048058368265628815,-0.02147645503282547,0.018597301095724106,-0.0006759864627383649,0.02893044240772724
0.03702526167035103,0.004839458502829075,-0.02092685177922249,0.018327662721276283,-0.0006517177098430693,0.029944226145744324
0.03749866783618927,0.004741194657981396,-0.0211830772459507,0.018295075744390488,-0.0006733609479852021,0.030401792377233505
0.03735809400677681,0.00509672611951828,-0.021073203533887863,0.018904967233538628,-0.0008490394102409482,0.030417678877711296
0.03720175847411156,0.004906586837023497,-0.021824317052960396,0.01887267455458641,-0.0008995612733997405,0.03138907626271248
0.03704242780804634,0.004683847539126873,-0.02185734733939171,0.018781041726469994,-0.0009025597828440368,0.03120008297264576
0.03704242780804634,0.004683847539126873,-0.02185734733939171,0.018781041726469994,-0.0009025597828440368,0.03120008297264576
0.03769584372639656,0.00459962198510766,-0.02162778563797474,0.018722213804721832,-0.001069376477971673,0.02951914444565773
0.03852713853120804,0.00499545456841588,-0.022014204412698746,0.018031137064099312,-0.001025379984639585,0.028765905648469925
0.03776223585009575,0.00492036622017622,-0.021451376378536224,0.018325312063097954,-0.0009295655763708055,0.029559258371591568
0.03659478947520256,0.004852308426052332,-0.021432746201753616,0.01863863505423069,-0.0008934985380619764,0.030336512252688408
0.03735554590821266,0.004894424229860306,-0.021820062771439552,0.018105261027812958,-0.0008634271216578782,0.030195439234375954
0.037208277732133865,0.0047734263353049755,-0.021885475143790245,0.01815042831003666,-0.0008164170430973172,0.0312645360827446
0.03866881504654884,0.004721319768577814,-0.021916424855589867,0.018143365159630775,-0.0007158653461374342,0.030789686366915703
0.03931703045964241,0.005274358205497265,-0.02157447673380375,0.01823125034570694,-0.0007244056323543191,0.030240096151828766
0.03750675544142723,0.005048559978604317,-0.021803921088576317,0.018482930958271027,-0.0007032926077954471,0.02927410416305065
0.03662993013858795,0.005124689545482397,-0.022448645904660225,0.018471091985702515,-0.0006751787732355297,0.02930789813399315
0.038325436413288116,0.005028943996876478,-0.02196766994893551,0.018184345215559006,-0.000687904714141041,0.030526816844940186
0.03831559047102928,0.0047877756878733635,-0.021733446046710014,0.018225396052002907,-0.0007087599951773882,0.030685754492878914
0.03790697827935219,0.004698318429291248,-0.0218270905315876,0.01803034171462059,-0.0007721083820797503,0.03070424124598503
0.038230229169130325,0.004717911593616009,-0.021788660436868668,0.018328780308365822,-0.0007913128938525915,0.030681949108839035
0.03788010776042938,0.0050463066436350346,-0.022008581086993217,0.01865672506392002,-0.0008041417459025979,0.030399808660149574
0.03796500340104103,0.005355053581297398,-0.021955296397209167,0.018418464809656143,-0.0009754406055435538,0.030087469145655632
0.037899505347013474,0.005316946655511856,-0.02255268767476082,0.018996626138687134,-0.0011260075261816382,0.03078857995569706
0.037885632365942,0.005017498973757029,-0.022287946194410324,0.018656974658370018,-0.0011452509788796306,0.030789563432335854
0.0380547009408474,0.005268772132694721,-0.022164683789014816,0.01929284818470478,-0.001031158841215074,0.030502045527100563
0.038132116198539734,0.005117432214319706,-0.02211083471775055,0.019412582740187645,-0.0009900699369609356,0.03072391450405121
0.03909679129719734,0.005850085057318211,-0.021969139575958252,0.019020501524209976,-0.0008530335035175085,0.031064648181200027
0.03804054856300354,0.0054024322889745235,-0.022319504991173744,0.019337378442287445,-0.0008266563527286053,0.02947099693119526
0.03675476461648941,0.005249201785773039,-0.022264914587140083,0.019544150680303574,-0.0007546450942754745,0.030863605439662933
0.03792000934481621,0.005491322372108698,-0.02161133475601673,0.01961977779865265,-0.0007583358092233539,0.03109726868569851
0.03835594654083252,0.005132968071848154,-0.021978918462991714,0.019840674474835396,-0.0007034463342279196,0.03093966841697693
0.03924643248319626,0.005266626365482807,-0.022650470957159996,0.019800197333097458,-0.0005662091425620019,0.03150017932057381
0.0388844832777977,0.005150468088686466,-0.022503184154629707,0.018748922273516655,-0.0006404966115951538,0.03131094574928284
0.03713952377438545,0.0052244821563363075,-0.021935854107141495,0.018270522356033325,-0.0006689714500680566,0.03146383911371231
0.037782296538352966,0.005511034745723009,-0.0218307264149189,0.01863666996359825,-0.000656570540741086,0.030645158141851425
0.037782296538352966,0.005511034745723009,-0.0218307264149189,0.01863666996359825,-0.000656570540741086,0.030645158141851425
0.03903350606560707,0.0055693406611680984,-0.02228500507771969,0.01885211654007435,-0.0010104550747200847,0.031343866139650345
0.039256151765584946,0.00555012421682477,-0.02337084710597992,0.019679106771945953,-0.0009750078897923231,0.032877545803785324
0.03847648203372955,0.0058088465593755245,-0.02333010733127594,0.01939597725868225,-0.00090155063662678,0.032551806420087814
0.038645341992378235,0.005776784848421812,-0.022406747564673424,0.018583349883556366,-0.0008746415260247886,0.031126083806157112
0.03897053375840187,0.005475505720824003,-0.022073131054639816,0.019189095124602318,-0.0008024140843190253,0.03073662333190441
0.03877587243914604,0.005660999100655317,-0.022602250799536705,0.019244488328695297,-0.0007433198043145239,0.03141350671648979
0.0389491468667984,0.005238493904471397,-0.02444044128060341,0.019233841449022293,-0.0007595130591653287,0.03153587877750397
0.03891265392303467,0.005713154561817646,-0.0227504950016737,0.019264481961727142,-0.0007768227369524539,0.03226478397846222
0.03894682601094246,0.005758554674685001,-0.021289778873324394,0.01872299239039421,-0.0007905971724539995,0.03333187475800514
0.03937467187643051,0.005633028224110603,-0.02291865088045597,0.017660237848758698,-0.0009334383648820221,0.0322796031832695
0.03962080180644989,0.005450807046145201,-0.024425843730568886,0.018073031678795815,-0.0009777533123269677,0.031054237857460976
0.03925838693976402,0.00554237375035882,-0.02308061718940735,0.018057452514767647,-0.0009502911707386374,0.0309313777834177
0.04011845216155052,0.0053021106868982315,-0.022143753245472908,0.018554022535681725,-0.0009120026952587068,0.03250551596283913
0.03978218510746956,0.005955652333796024,-0.02286338619887829,0.01963726617395878,-0.0008569897618144751,0.03252420946955681
0.04027184844017029,0.005355866625905037,-0.0225753765553236,0.019503572955727577,-0.0007971061859279871,0.033207524567842484
0.039885275065898895,0.005116194952279329,-0.02357395365834236,0.018464669585227966,-0.0007215854711830616,0.033156707882881165
0.04072147607803345,0.00532536581158638,-0.022980978712439537,0.018591225147247314,-0.0007294915849342942,0.032533254474401474
0.04038459435105324,0.005601595621556044,-0.022951217368245125,0.01928119920194149,-0.0007466539391316473,0.03236418962478638
0.04056937247514725,0.005542639642953873,-0.02293909341096878,0.019887158647179604,-0.0007888153195381165,0.03225437551736832
0.04068135842680931,0.005544687621295452,-0.022790133953094482,0.019365226849913597,-0.0008813151507638395,0.03229817375540733
0.04066711291670799,0.005282850936055183,-0.023297926411032677,0.01863514818251133,-0.0009187768446281552,0.032566219568252563
0.041437216103076935,0.005348933860659599,-0.023035669699311256,0.01875034160912037,-0.0010321299778297544,0.03263381868600845
0.04090097174048424,0.0051221116445958614,-0.022580139338970184,0.018490100279450417,-0.0011317499447613955,0.033016741275787354
0.041060496121644974,0.005828745197504759,-0.02298191748559475,0.018428977578878403,-0.0010982780950143933,0.033362723886966705
0.041981957852840424,0.0053223962895572186,-0.023179635405540466,0.01872812584042549,-0.0010337420972064137,0.033102259039878845
0.041981957852840424,0.0053223962895572186,-0.023179635405540466,0.01872812584042549,-0.0010337420972064137,0.033102259039878845
0.04168017953634262,0.004963125102221966,-0.023154446855187416,0.018540769815444946,-0.0009647831902839243,0.03354966267943382
0.03992324322462082,0.005626569967716932,-0.022938955575227737,0.018939733505249023,-0.000954590504989028,0.03342057019472122
0.04148939996957779,0.005249465350061655,-0.02277451939880848,0.019931042566895485,-0.0009459709981456399,0.033411938697099686
0.04214029014110565,0.005514189600944519,-0.022886008024215698,0.019749576225876808,-0.0009396242676302791,0.03326476737856865
0.04234866425395012,0.005331633146852255,-0.02316741831600666,0.019295549020171165,-0.0008818151545710862,0.0335833840072155
0.04374459385871887,0.005218697711825371,-0.023269809782505035,0.01892664283514023,-0.0008779113995842636,0.034091297537088394
0.04086605831980705,0.005420247092843056,-0.022869175300002098,0.01836376078426838,-0.0008372872252948582,0.032694097608327866
0.042070042341947556,0.0052118985913693905,-0.022479452192783356,0.018786530941724777,-0.0008435888448730111,0.03448452800512314
0.04241229593753815,0.005612492095679045,-0.02245190739631653,0.019501933827996254,-0.0007960202055983245,0.035590484738349915
0.04240041226148605,0.005894178058952093,-0.02300175279378891,0.019539743661880493,-0.0008040608372539282,0.034729257225990295
0.042095523327589035,0.00581887224689126,-0.022959843277931213,0.019029485061764717,-0.0007746882038190961,0.03264368698000908
0.04244087263941765,0.004897836595773697,-0.02234766259789467,0.019471194595098495,-0.0007672916399315,0.03363717719912529
0.04239875450730324,0.005431327503174543,-0.022443320602178574,0.01968746818602085,-0.0007255538948811591,0.03393027186393738
0.04205077886581421,0.006015275605022907,-0.023314520716667175,0.01997663639485836,-0.0007588082808069885,0.03571782633662224
0.042599111795425415,0.005761837586760521,-0.022511431947350502,0.019637446850538254,-0.0007677836692892015,0.0353817455470562
0.044129833579063416,0.005795098841190338,-0.02232176437973976,0.019293902441859245,-0.0007895080489106476,0.03390618413686752
0.040726859122514725,0.005270782858133316,-0.022616807371377945,0.01927846297621727,-0.0008050656178966165,0.03327847644686699
0.04185515642166138,0.0054401527158916,-0.023478373885154724,0.019010361284017563,-0.0008441460086032748,0.034864772111177444
0.042432066053152084,0.005722992122173309,-0.023762386292219162,0.018907580524683,-0.000915750686544925,0.035032693296670914
0.04357873648405075,0.005636808928102255,-0.022599300369620323,0.01981377601623535,-0.0010174638591706753,0.035344723612070084
0.04373495280742645,0.0057588424533605576,-0.022178012877702713,0.019806252792477608,-0.0009859909769147635,0.034832630306482315
0.04226798191666603,0.005927353631705046,-0.022820061072707176,0.019528483971953392,-0.0009416585671715438,0.03402104601264
0.041897859424352646,0.0057436628267169,-0.02326168678700924,0.01974295638501644,-0.0008874511695466936,0.035479504615068436
0.04394751414656639,0.00551056582480669,-0.023319775238633156,0.019515715539455414,-0.000851565389893949,0.03588060289621353
0.04330260679125786,0.0058522517792880535,-0.02272864617407322,0.019090594723820686,-0.0008565639145672321,0.035641033202409744
0.043095748871564865,0.006057072896510363,-0.022977840155363083,0.01948137767612934,-0.0008537427056580782,0.03499837592244148
0.043145548552274704,0.005647266283631325,-0.02374263107776642,0.01941988803446293,-0.0008172629750333726,0.03542783856391907
0.04332777485251427,0.00574263883754611,-0.023490969091653824,0.01908453181385994,-0.0007827603840269148,0.03566885367035866
0.043542373925447464,0.006152596790343523,-0.02361142262816429,0.019798368215560913,-0.000834149366710335,0.035891033709049225
0.043542373925447464,0.006152596790343523,-0.02361142262816429,0.019798368215560913,-0.000834149366710335,0.035891033709049225
0.04353547841310501,0.006070675328373909,-0.022847281768918037,0.020022548735141754,-0.0008788183331489563,0.035386379808187485
0.043122947216033936,0.006409857422113419,-0.022701406851410866,0.019285287708044052,-0.0008839332149364054,0.03546934947371483
0.04353742301464081,0.005668352823704481,-0.022634364664554596,0.019633710384368896,-0.0010450491681694984,0.03580545261502266
0.043862275779247284,0.005606743972748518,-0.023825086653232574,0.019643370062112808,-0.0012190693523734808,0.03600585088133812
0.04406876116991043,0.006109289824962616,-0.023457664996385574,0.019322525709867477,-0.0011785130482167006,0.03529425710439682
0.044000424444675446,0.006329701282083988,-0.022978976368904114,0.01966257393360138,-0.0012102683540433645,0.03605332598090172
0.043752510100603104,0.006103258114308119,-0.02305801771581173,0.01973811164498329,-0.0011555692180991173,0.0373031422495842
0.043323926627635956,0.006125956308096647,-0.023199373856186867,0.019526852294802666,-0.001109429751522839,0.03603646159172058
0.04392550140619278,0.005557873286306858,-0.023287799209356308,0.01960897445678711,-0.0009758268715813756,0.03566380590200424
0.04389381408691406,0.005842640995979309,-0.02362445741891861,0.019852345809340477,-0.0009586954838596284,0.0360715351998806
0.04421582445502281,0.0061687082052230835,-0.023662909865379333,0.01942569389939308,-0.0009307872969657183,0.03611356392502785
0.04412269964814186,0.006123044062405825,-0.02304202690720558,0.019370174035429955,-0.0009258540230803192,0.03744103014469147
0.04405780881643295,0.005556084215641022,-0.023926060646772385,0.019582778215408325,-0.001227379310876131,0.03594646975398064
0.04419168084859848,0.005967697128653526,-0.023778289556503296,0.019683869555592537,-0.0012888372875750065,0.03532619774341583
0.04373950883746147,0.006288192234933376,-0.02354939840734005,0.019956737756729126,-0.0012496329145506024,0.03599938750267029
0.04412425681948662,0.006208919454365969,-0.023359529674053192,0.019693098962306976,-0.0012661489890888333,0.03683747723698616
0.0442214235663414,0.005923897959291935,-0.023147661238908768,0.019338013604283333,-0.001205873559229076,0.036885593086481094
0.046165984123945236,0.005658586043864489,-0.023441782221198082,0.019869299605488777,-0.001075251493602991,0.03650655224919319
0.04463522881269455,0.006007682532072067,-0.024105653166770935,0.01982935145497322,-0.0009764695423655212,0.03652177378535271
0.04352467134594917,0.006838900502771139,-0.024937180802226067,0.019219374284148216,-0.000849018688313663,0.035985950380563736
0.04475215822458267,0.006458209827542305,-0.024819763377308846,0.019647378474473953,-0.000847201852593571,0.03628281131386757
0.04447175934910774,0.0060842945240437984,-0.024119917303323746,0.019996298477053642,-0.0007636923110112548,0.03773307427763939
0.046192679554224014,0.006434842012822628,-0.02414601854979992,0.020210247486829758,-0.0005993936210870743,0.0375494621694088
0.04506656527519226,0.006199093535542488,-0.02433815598487854,0.020074058324098587,-0.0005697960150428116,0.03673754259943962
0.043636951595544815,0.006612064316868782,-0.02457897923886776,0.0198129303753376,-0.0005997793632559478,0.03654750436544418
0.043636951595544815,0.006612064316868782,-0.02457897923886776,0.0198129303753376,-0.0005997793632559478,0.03654750436544418
0.045355260372161865,0.006788548082113266,-0.024466313421726227,0.019274210557341576,-0.0006277105421759188,0.037131842225790024
0.04522943124175072,0.005847814027220011,-0.02458522841334343,0.01946321129798889,-0.0007813481497578323,0.03687489405274391
0.045100871473550797,0.006074689328670502,-0.02449326030910015,0.01978294737637043,-0.001027728314511478,0.03682521730661392
0.0454900823533535,0.006442772224545479,-0.024403922259807587,0.019868973642587662,-0.0010758121497929096,0.036789149045944214
0.045501213520765305,0.0072725797072052956,-0.02446792460978031,0.019531777128577232,-0.0014605780597776175,0.037809278815984726
0.044925056397914886,0.006584428250789642,-0.024402201175689697,0.01955236867070198,-0.0014697025762870908,0.03784734755754471
0.04642090946435928,0.006263222545385361,-0.024779926985502243,0.019360093399882317,-0.0013804485788568854,0.03788549453020096
