davideferrari95/blind_handover_controller/data/Test 186 - [2024-02-08 -- 11-26-09]/joint_states_data.csv
shoulder_pan_joint,shoulder_lift_joint,elbow_joint,wrist_1_joint,wrist_2_joint,wrist_3_joint
-0.0090309614315629,5.01101965255657e-07,-0.006039201747626066,0.007234193384647369,-0.0,-0.007691307924687862
-0.009106164798140526,6.722922218926897e-09,-0.005879881326109171,0.007622550241649151,-0.0,-0.007989088073372841
-0.009106164798140526,6.722922218926897e-09,-0.005879881326109171,0.007622550241649151,-0.0,-0.007989088073372841
-0.008405196480453014,9.019658631093108e-11,-0.005692839622497559,0.007655931171029806,-0.0,-0.0077514611184597015
-0.008405196480453014,9.019658631093108e-11,-0.005692839622497559,0.007655931171029806,-0.0,-0.0077514611184597015
-0.008641306310892105,1.2101023308397352e-12,-0.006216051522642374,0.006947529036551714,-0.0,-0.008047296665608883
-0.008849091827869415,1.623506694749602e-14,-0.0066549647599458694,0.006552674807608128,-0.0,-0.00801844336092472
-0.00869789533317089,2.178141518095289e-16,-0.005820359103381634,0.006509564351290464,-0.0,-0.008193472400307655
-0.008868247270584106,2.9222547758357512e-18,-0.0059109400026500225,0.006272048223763704,-0.0,-0.007898100651800632
-0.009336521849036217,3.9205776095599284e-20,-0.0061332168988883495,0.00630625756457448,-0.0,-0.008191394619643688
-0.008529544807970524,5.259955384235627e-22,-0.0064170267432928085,0.006046924274414778,-0.0,-0.007852122187614441
-0.008488156832754612,7.056901955782932e-24,-0.006755237001925707,0.006133730057626963,-0.0,-0.007508644834160805
-0.0089179752394557,1.2702173392029606e-27,-0.0058557442389428616,0.007089469116181135,-0.0,-0.00768928462639451
-0.008249321021139622,1.704158659901215e-29,-0.00616028718650341,0.0068619344383478165,-0.0,-0.007588272448629141
-0.008748451247811317,2.286346386501896e-31,-0.006656177341938019,0.006652214098721743,-0.0,-0.007849286310374737
-0.008560286834836006,3.0674255088348888e-33,-0.006403150036931038,0.006342975422739983,-0.0,-0.007782886736094952
-0.008240730501711369,4.1153428723111454e-35,-0.006058186758309603,0.006831183098256588,-0.0,-0.008130865171551704
-0.008082146756350994,5.521257648740492e-37,-0.006208143197000027,0.007162063382565975,-0.0,-0.008875285275280476
-0.008391526527702808,7.407471074593703e-39,-0.005946638993918896,0.006935314740985632,-0.0,-0.008182363584637642
-0.008429273962974548,9.938008708991603e-41,-0.006477885413914919,0.006690310779958963,-0.0,-0.008185632526874542
-0.008227583952248096,1.332634839572901e-42,-0.006333941128104925,0.00677066296339035,-0.0,-0.008282463997602463
-0.008815951645374298,1.8216880036222622e-44,-0.0055778794921934605,0.007224674336612225,-0.0,-0.008493260480463505
-0.00831621140241623,0.0,-0.006037842947989702,0.006879929453134537,-0.0,-0.007848435081541538
-0.008345763199031353,0.0,-0.005562068894505501,0.0066984123550355434,-0.0,-0.007990757003426552
-0.008574469946324825,0.0,-0.0059960526414215565,0.006585228722542524,-0.0,-0.008313780650496483
-0.008664499036967754,0.0,-0.005863863043487072,0.007157080341130495,-0.0,-0.008980460464954376
-0.008374814875423908,0.0,-0.006088380701839924,0.006912506651133299,-0.0,-0.008325377479195595
-0.0080527039244771,0.0,-0.005627952981740236,0.006678250152617693,-0.0,-0.008116655983030796
-0.0080527039244771,0.0,-0.005627952981740236,0.006678250152617693,-0.0,-0.008116655983030796
-0.008698317222297192,0.0,-0.005898697767406702,0.0065568978898227215,-0.0,-0.008671989664435387
-0.008558741770684719,0.0,-0.006028869189321995,0.006946876645088196,-0.0,-0.008543469943106174
-0.00792769156396389,0.0,-0.005904391407966614,0.006021433975547552,-0.0,-0.008080306462943554
-0.00796978548169136,0.0,-0.005985747557133436,0.006525645963847637,-0.0,-0.00817606970667839
-0.0082504041492939,-6.56322663417086e-05,-0.005547516047954559,0.006845805328339338,-0.0,-0.008239857852458954
-0.008182253688573837,-6.046703856554814e-05,-0.005836034659296274,0.006752442568540573,-0.0,-0.007598305586725473
-0.007716615684330463,-5.846334170200862e-05,-0.005970314610749483,0.006713118404150009,-0.0,-0.00801530946046114
-0.00813880655914545,-5.6623648561071604e-05,-0.0062950290739536285,0.006625319831073284,-0.0,-0.007862267084419727
-0.008198324590921402,-5.4896652727620676e-05,-0.006246316712349653,0.006432814989238977,-0.0,-0.007616824470460415
-0.00817086547613144,-5.3271960496203974e-05,-0.005943437572568655,0.006360417697578669,-0.0,-0.007544203661382198
-0.007631539832800627,-5.1740604249062017e-05,-0.006173011846840382,0.006341688800603151,-0.0,-0.00755132082849741
-0.008093002252280712,-7.335207919823006e-05,-0.005739415995776653,0.006212312262505293,-0.0,-0.008145362138748169
-0.007564116735011339,-7.144895062083378e-05,-0.0046164169907569885,0.006038484163582325,-0.0,-0.007877816446125507
-0.007926365360617638,-6.960744212847203e-05,-0.003892948618158698,0.0060863071121275425,-0.0,-0.00783499889075756
-0.008236372843384743,-6.785810546716675e-05,-0.004661551211029291,0.006104877218604088,-0.0,-0.007708999793976545
-0.008319669403135777,-6.619443593081087e-05,-0.005031408742070198,0.0054185036569833755,-0.0,-0.008098071441054344
-0.007770332973450422,-8.362232620129362e-05,-0.004984179977327585,0.0055122352205216885,-0.0,-0.008292797021567822
-0.008206164464354515,-8.409995643887669e-05,-0.005073838867247105,0.0055587999522686005,-0.0,-0.007973171770572662
-0.007894346490502357,-8.221208554459736e-05,-0.004737211856991053,0.006066982634365559,-0.0,-0.007649736944586039
-0.007916534319519997,-8.037699444685131e-05,-0.004345368593931198,0.00679735979065299,-0.0,-0.007490913383662701
-0.007487866561859846,-7.862162601668388e-05,-0.004519564099609852,0.0063974615186452866,-0.0,-0.007950772531330585
-0.007919603027403355,-7.694125815760344e-05,-0.0044314018450677395,0.006042471155524254,-0.0,-0.00810291524976492
-0.008203129284083843,-8.772029832471162e-05,-0.004295639228075743,0.006441181059926748,-0.0,-0.007685054559260607
-0.007703633978962898,-9.214760211762041e-05,-0.0045015630312263966,0.006299715023487806,-0.0,-0.008372747339308262
-0.007618939038366079,-9.038037387654185e-05,-0.004125832114368677,0.00664341589435935,-0.0,-0.00824323296546936
-0.00831591710448265,-0.00019750336650758982,-0.0044081853702664375,0.006676530931144953,-0.0,-0.008154119364917278
-0.007914510555565357,-0.00019344592874404043,-0.004160486627370119,0.006612876430153847,-0.0,-0.007586990483105183
-0.007412861566990614,-0.00022211643226910383,-0.00437432574108243,0.005942381452769041,-0.0,-0.007543758489191532
-0.00733261788263917,-0.0002138133713742718,-0.004105980042368174,0.0060614631511271,-0.0,-0.008052184246480465
-0.00733261788263917,-0.0002138133713742718,-0.004105980042368174,0.0060614631511271,-0.0,-0.008052184246480465
-0.007565966807305813,-0.00020567537285387516,-0.003930302802473307,0.006673574447631836,-0.0,-0.00773785961791873
-0.0077077243477106094,-0.00019812893879134208,-0.00426045898348093,0.006081265863031149,-0.0,-0.008002745918929577
-0.0071830181404948235,-0.00019111638539470732,-0.004976286552846432,0.00580831803381443,-0.0,-0.007818348705768585
-0.007001577410846949,-0.0002149201463907957,-0.00448275450617075,0.0055688428692519665,-0.0,-0.007614416535943747
-0.007402684539556503,-0.00020822393707931042,-0.004023278597742319,0.006060406565666199,-0.0,-0.007567228749394417
-0.007746608462184668,-0.0002204812626587227,-0.004304835572838783,0.006116650532931089,-0.0,-0.007621332071721554
-0.0071118976920843124,-0.0002230879763374105,-0.004402359947562218,0.005955543369054794,-0.0,-0.0077080135233700275
-0.007490149233490229,-0.00035229348577558994,-0.0044258940033614635,0.005052906461060047,-0.0,-0.007444214541465044
-0.007571548689156771,-0.0003286185092292726,-0.0045265136286616325,0.005716761574149132,-0.0,-0.007348913233727217
-0.006973417475819588,-0.0003666486300062388,-0.004137883894145489,0.005742351524531841,-0.0,-0.0074816481210291386
-0.006430509500205517,-0.0003440934815444052,-0.0043585048988461494,0.005726441740989685,-0.0,-0.007658589165657759
-0.006944709457457066,-0.00037663255352526903,-0.004557003267109394,0.005284610204398632,-0.0,-0.007539273705333471
-0.007238955702632666,-0.00038936000782996416,-0.004806796554476023,0.0050635808147490025,-0.0,-0.007356701418757439
-0.0071117207407951355,-0.0003849287168122828,-0.004713876638561487,0.005112729500979185,-0.0,-0.007488679140806198
-0.006608501076698303,-0.0004964828840456903,-0.004865081515163183,0.005449005402624607,-0.0,-0.007670596707612276
-0.0068598962388932705,-0.0005706304800696671,-0.004569500219076872,0.006035308353602886,-0.0,-0.007561140693724155
-0.007347848732024431,-0.0005451951874420047,-0.004361176397651434,0.005597615148872137,-0.0,-0.007298524957150221
-0.007449296303093433,-0.0004955751937814057,-0.004901017062366009,0.004935750272125006,-0.0,-0.007766315247863531
-0.00679189246147871,-0.0005263747298158705,-0.005006272811442614,0.004682744387537241,-0.0,-0.007589216344058514
-0.00679189246147871,-0.0005263747298158705,-0.005006272811442614,0.004682744387537241,-0.0,-0.007589216344058514
-0.006909388117492199,-0.0004533246683422476,-0.005415092688053846,0.0060892351903021336,-0.0,-0.007960135117173195
-0.006909388117492199,-0.0004533246683422476,-0.005415092688053846,0.0060892351903021336,-0.0,-0.007960135117173195
-0.0068986015394330025,-0.00048243519267998636,-0.005356853362172842,0.005748010706156492,-0.0,-0.007564591709524393
-0.006774752400815487,-0.000454983877716586,-0.00471277441829443,0.005154358688741922,-0.0,-0.008023804984986782
-0.006908900570124388,-0.0004821423499379307,-0.004458482377231121,0.00492599792778492,-0.0,-0.007743952330201864
-0.007115324959158897,-0.0005199599545449018,-0.004891430493444204,0.00491942698135972,-0.0,-0.007907325401902199
-0.00749655207619071,-0.0005472424090839922,-0.004918101243674755,0.005567688960582018,-0.0,-0.0076942238956689835
-0.007070159539580345,-0.0005115563399158418,-0.005246110260486603,0.00548916170373559,-0.0,-0.007755354978144169
-0.006546748802065849,-0.0005327034741640091,-0.00537756597623229,0.0053197722882032394,-0.0,-0.00739006232470274
-0.006773673463612795,-0.0005029389285482466,-0.004667310044169426,0.00500898202881217,-0.0,-0.007374512497335672
-0.0067505198530852795,-0.0006215680041350424,-0.004577443469315767,0.0050764200277626514,-0.0,-0.006975758355110884
-0.006873972248286009,-0.0006627768743783236,-0.004929227288812399,0.004842144437134266,-0.0,-0.007276921067386866
-0.007282635197043419,-0.0006204443634487689,-0.004847094416618347,0.005061781499534845,-0.0,-0.007837062701582909
-0.006821778602898121,-0.0005737557075917721,-0.005213320720940828,0.005224414169788361,-0.0,-0.007739421911537647
-0.006583523005247116,-0.0005259675090201199,-0.005099671892821789,0.004866157658398151,-0.0,-0.007483293302357197
-0.006803827825933695,-0.0005537720280699432,-0.00450870068743825,0.004454460926353931,-0.0,-0.007312933448702097
-0.006952144205570221,-0.0005151615478098392,-0.004944224376231432,0.0042623840272426605,-0.0,-0.00748513825237751
-0.0069094691425561905,-0.0005221600877121091,-0.0054159387946128845,0.0047518908977508545,-0.0,-0.007321239914745092
-0.006480642594397068,-0.0005509300390258431,-0.005319840274751186,0.004994001239538193,-3.660752270207013e-07,-0.007306024432182312
-0.006287465803325176,-0.0005091757629998028,-0.005359430331736803,0.0048589203506708145,-2.390209452585168e-08,-0.00694416556507349
-0.006479022093117237,-0.0005397125496529043,-0.005088878329843283,0.0047411671839654446,-1.560636064823484e-09,-0.007221626117825508
-0.006863458547741175,-0.0004998423391953111,-0.00470401206985116,0.0049064927734434605,-1.0189837862384366e-10,-0.007254546042531729
-0.006639059167355299,-0.0005283313803374767,-0.0049805836752057076,0.004958512261509895,-6.6532356880755206e-12,-0.007344044279307127
-0.006554888561367989,-0.0004971487214788795,-0.0054395501501858234,0.004824708215892315,-4.3440877522775423e-13,-0.007112238556146622
-0.006494967266917229,-0.000569897354580462,-0.005563181824982166,0.005258449353277683,-2.836378592933897e-14,-0.007491557393223047
-0.006513932719826698,-0.0005964618176221848,-0.005535944364964962,0.005363219417631626,-1.8519524123603286e-15,-0.007721498608589172
-0.006513932719826698,-0.0005964618176221848,-0.005535944364964962,0.005363219417631626,-1.8519524123603286e-15,-0.007721498608589172
-0.007234333083033562,-0.0005470459582284093,-0.004940342158079147,0.0053189159370958805,-1.2091926041136151e-16,-0.007891358807682991
-0.006708905100822449,-0.0004968385910615325,-0.004910669289529324,0.004862841218709946,-7.895163495674669e-18,-0.0075265285558998585
-0.006639848928898573,-0.0005296799354255199,-0.005326929502189159,0.004648357629776001,-5.154977686709163e-19,-0.007141002453863621
-0.0066600670106709,-0.0004895192105323076,-0.005075838416814804,0.00459834560751915,-3.365832162925508e-20,-0.007175988517701626
-0.006425369996577501,-0.0005181817105039954,-0.005456509068608284,0.004742722027003765,-2.1976478372655936e-21,-0.007417330518364906
-0.007162050344049931,-0.0004861754714511335,-0.005132005549967289,0.005011651664972305,-1.434906937031791e-22,-0.007007871754467487
-0.006642542313784361,-0.0004962596576660872,-0.00464664539322257,0.004703978076577187,-9.368916796049115e-24,-0.0071360087022185326
-0.006384699605405331,-0.0005060029216110706,-0.004883151967078447,0.004590269643813372,-6.117233722449914e-25,-0.007551209535449743
-0.006112410221248865,-0.0004884072113782167,-0.005398714914917946,0.004447579849511385,-3.9941164700378994e-26,-0.007779328618198633
-0.006498987786471844,-0.0005137320840731263,-0.005018121562898159,0.004041424486786127,-2.607872656152596e-27,-0.007201249245554209
-0.006658445578068495,-0.0004825920332223177,-0.005323213059455156,0.004357965663075447,-1.7027545065084797e-28,-0.006915735080838203
-0.006474012043327093,-0.0005098505062051117,-0.005083632189780474,0.004674785304814577,-1.1117770650981125e-29,-0.007215685211122036
-0.006218510679900646,-0.00047843751963227987,-0.0048790886066854,0.004358991049230099,-7.259110198248728e-31,-0.007487356197088957
-0.0062688360922038555,-0.0005024046986363828,-0.005046337377279997,0.00378847005777061,-3.094672182190003e-33,-0.0066946083679795265
-0.006625359412282705,-0.0005411622114479542,-0.005244848784059286,0.0037468052469193935,-2.0205999431341435e-34,-0.006841867230832577
-0.006169586442410946,-0.0005651309038512409,-0.005551408976316452,0.003773143282160163,-1.319307446369037e-35,-0.0071891192346811295
-0.005872860550880432,-0.000526862742844969,-0.005080769769847393,0.0042779394425451756,-8.614134563209906e-37,-0.007038903888314962
-0.006027481518685818,-0.0005547634209506214,-0.00467301020398736,0.005039410199970007,-5.624414627555333e-38,-0.007082004565745592
-0.006093632895499468,-0.0006223130621947348,-0.005040192510932684,0.004547981545329094,-3.6723408465021184e-39,-0.007485080044716597
-0.006097335834056139,-0.000593138684052974,-0.004984010010957718,0.00400986522436142,8.026727300602943e-05,-0.007101287133991718
-0.006286670453846455,-0.0006250215810723603,-0.0055196951143443584,0.003811158239841461,0.00014717393787577748,-0.006977081298828125
-0.0056485687382519245,-0.000624881824478507,-0.005331577733159065,0.004224457778036594,0.0001469092967454344,-0.006923167034983635
-0.0059456066228449345,-0.0005951325874775648,-0.005296974442899227,0.004176956135779619,0.00014255168207455426,-0.006845142692327499
-0.0059456066228449345,-0.0005951325874775648,-0.005296974442899227,0.004176956135779619,0.00014255168207455426,-0.006845142692327499
-0.006136455573141575,-0.0006185391684994102,-0.005415770225226879,0.003994088154286146,0.00016396994760725647,-0.0071905083023011684
-0.006020946893841028,-0.0005723501089960337,-0.005057980306446552,0.0043000043369829655,0.00016077001055236906,-0.007444240152835846
-0.006123601924628019,-0.0006067836075089872,-0.004928408656269312,0.004479602910578251,0.00017882957763504237,-0.007153709419071674
-0.005391117185354233,-0.0005446728318929672,-0.00534853246062994,0.004100548569113016,0.00017692487745080143,-0.0068975891917943954
-0.006039436440914869,-0.00048597127897664905,-0.005571055691689253,0.003871839726343751,0.00019052762945648283,-0.007219708990305662
-0.006203626748174429,-0.0005249949172139168,-0.00556374853476882,0.0043139210902154446,0.0001912594452733174,-0.007404782343655825
-0.006232019048184156,-0.00047952268505468965,-0.005031897220760584,0.004128996282815933,0.00018667879339773208,-0.006824336480349302
-0.005664484109729528,-0.0005127480835653841,-0.005418812390416861,0.0039722914807498455,0.0003471802338026464,-0.006627093069255352
-0.00568884564563632,-0.00047505053225904703,-0.005264681298285723,0.004048018250614405,0.00037137616891413927,-0.006866645533591509
-0.006231697276234627,-0.0005039410316385329,-0.005116249434649944,0.0040921918116509914,0.0004060522187501192,-0.006986900232732296
-0.006019408814609051,-0.0004717538831755519,-0.005908166524022818,0.0044073970057070255,0.00038543209666386247,-0.006852401420474052
-0.006020705681294203,-0.00047569794696755707,-0.0055329580791294575,0.004219391383230686,0.00036025120061822236,-0.0065201143734157085
-0.005903312005102634,-0.00043191100121475756,-0.005329982843250036,0.0037471058312803507,0.00038640431012026966,-0.0062853689305484295
-0.005483682733029127,-0.0003653479216154665,-0.005395823623985052,0.00363427703268826,0.00035017606569454074,-0.007252828683704138
-0.005842506419867277,-0.00026928624720312655,-0.005803998094052076,0.004251609556376934,0.0003667124256026,-0.006642358843237162
-0.005829730071127415,-0.0002496778906788677,-0.005240576807409525,0.004564872942864895,0.0003593677538447082,-0.00695223081856966
-0.005244245752692223,-0.00023347072419710457,-0.005178551189601421,0.004631844814866781,0.0004069950373377651,-0.00671882089227438
-0.0052605969831347466,-0.00021924838074482977,-0.005104525480419397,0.00454662274569273,0.0003936223511118442,-0.0068177455104887486
-0.005632167216390371,-0.00010800080053741112,-0.00594547763466835,0.0037837109994143248,0.0003984541690442711,-0.006701489444822073
-0.005582890473306179,-9.322004916612059e-05,-0.00546557130292058,0.003592112334445119,0.00040100610931403935,-0.006868503522127867
-0.005654390901327133,-8.442348189419135e-05,-0.004984661005437374,0.004170005675405264,0.0004056072502862662,-0.006970016285777092
-0.00517440726980567,-1.132648662860447e-06,-0.005208989139646292,0.004143849015235901,0.0004073644813615829,-0.006562262307852507
-0.005733593832701445,-1.5195926295064055e-08,-0.005047817248851061,0.004004832357168198,0.00038433526060543954,-0.00641709566116333
-0.005733593832701445,-1.5195926295064055e-08,-0.005047817248851061,0.004004832357168198,0.00038433526060543954,-0.00641709566116333
-0.005265719722956419,-2.038727520137229e-10,-0.00505037372931838,0.004400099162012339,0.0003875518450513482,-0.0061624557711184025
-0.005470543168485165,-2.7352130976820987e-12,-0.0052692219614982605,0.004158870782703161,0.00038984764250926673,-0.006840298883616924
-0.0052259983494877815,-3.669637429213127e-14,-0.005146239884197712,0.0035201653372496367,0.0003712638281285763,-0.006552952341735363
-0.005895552691072226,-4.923286891082607e-16,-0.005427021998912096,0.003489124123007059,0.0004233781364746392,-0.006732406094670296
-0.005433802492916584,-6.605217930199769e-18,-0.005471077747642994,0.0038260265719145536,0.000397223251638934,-0.006888298317790031
-0.00536919292062521,-8.861742291115146e-20,-0.0049477433785796165,0.003920665476471186,0.00042873347410932183,-0.0063294596038758755
-0.005567601881921291,-1.188915923463969e-21,-0.0049014282412827015,0.004339647013694048,0.00040518149035051465,-0.006048989947885275
-0.005338340066373348,-1.5950824301554035e-23,-0.004822614602744579,0.0043602897785604,0.00037741014966741204,-0.005793704651296139
-0.005740832071751356,-2.140006579503522e-25,-0.005286908242851496,0.0042154607363045216,0.0004074644239153713,-0.005885174963623285
-0.005204839166253805,-2.871092005360927e-27,-0.005661634728312492,0.003924031741917133,0.0003860550350509584,-0.0061120265163481236
-0.005483556073158979,-3.8519366250456934e-29,-0.0051633259281516075,0.0036911156494170427,0.0004089511639904231,-0.006276177708059549
-0.005194162949919701,-5.16786484093247e-31,-0.004711521789431572,0.003403268288820982,0.00039280051714740694,-0.006176302209496498
-0.0050275311805307865,-6.933350003845957e-33,-0.005397522822022438,0.003478077007457614,0.0004545504052657634,-0.006141950376331806
-0.005119577515870333,-9.301974357954106e-35,-0.005225508473813534,0.0037151980213820934,0.00042477413080632687,-0.006511397659778595
-0.004668181296437979,-1.6743225525692393e-38,-0.005550583824515343,0.003530781716108322,0.00042887526797130704,-0.005816746968775988
-0.005231761839240789,-2.2463234772666115e-40,-0.0050928168930113316,0.0036121841985732317,0.0004465750535018742,-0.006136232055723667
-0.004996522795408964,-3.0141929967626815e-42,-0.004887721501290798,0.003684376133605838,0.00043118634494021535,-0.006225199904292822
-0.0047668470069766045,-4.0637655465419695e-44,-0.0051403106190264225,0.0037096585147082806,0.00043257989455014467,-0.006624213419854641
-0.005499834660440683,-0.0,-0.004935630597174168,0.003413459751754999,0.0004324956680648029,-0.00625147670507431
-0.0053370059467852116,0.0,-0.005462488159537315,0.0033320498187094927,0.0004095800977665931,-0.006006017792969942
-0.004875436890870333,0.0,-0.005197827238589525,0.00320363137871027,0.0004479587951209396,-0.006394778378307819
-0.0047607505694031715,0.0,-0.0051196543499827385,0.003315442241728306,0.00042671585106290877,-0.006181295029819012
-0.005103051196783781,0.0,-0.004886324517428875,0.0035836799070239067,0.00046362588182091713,-0.006063995882868767
-0.005212155170738697,0.0,-0.004871752578765154,0.004622201435267925,0.0004662271239794791,-0.0064123705960810184
-0.005324275232851505,0.0,-0.005312658846378326,0.004508221056312323,0.0004639553662855178,-0.006219304632395506
-0.004917447920888662,0.0,-0.005722014233469963,0.004078344441950321,0.0004796875873580575,-0.005983414128422737
-0.004676987417042255,0.0,-0.005336472298949957,0.00365450419485569,0.0004631652554962784,-0.006097747012972832
-0.004676987417042255,0.0,-0.005336472298949957,0.00365450419485569,0.0004631652554962784,-0.006097747012972832
-0.004478327929973602,0.0,-0.004906733054667711,0.0034595096949487925,0.0005593850510194898,-0.005587199702858925
-0.004550650715827942,0.0,-0.004844218958169222,0.003263115184381604,0.0005862277466803789,-0.0057099368423223495
-0.004739711992442608,0.0,-0.005108132027089596,0.0032193223014473915,0.0005727483076043427,-0.0059240395203232765
-0.004749014042317867,0.0,-0.0055565484799444675,0.003365706652402878,0.0005953928339295089,-0.006262493785470724
-0.004555158782750368,0.0,-0.005574335344135761,0.0034616501070559025,0.0005916417576372623,-0.006299798842519522
-0.00404857425019145,0.0,-0.005606876686215401,0.0034597953781485558,0.0005793943419121206,-0.006232179701328278
-0.0042425524443387985,0.0,-0.005137650296092033,0.003407819429412484,0.000648507266305387,-0.0058508566580712795
-0.004347129724919796,0.0,-0.005231880117207766,0.00337109062820673,0.0006886181654408574,-0.0053477524779737
-0.004106803331524134,0.0,-0.005240118131041527,0.003129304852336645,0.0006365964654833078,-0.005835757590830326
-0.003924140240997076,0.0,-0.005740832537412643,0.00288681173697114,0.0006529309903271496,-0.0061051384545862675
-0.00436099898070097,0.0,-0.00519532011821866,0.002730918349698186,0.0006432138034142554,-0.00599844753742218
-0.004152394365519285,0.0,-0.004555039573460817,0.002553436905145645,0.0006255286280065775,-0.006043087225407362
-0.0038614273071289062,0.0,-0.004096199758350849,0.00233348086476326,0.0006795872468501329,-0.00561912264674902
-0.0035921577364206314,0.0,-0.004827901721000671,0.0024533180985599756,0.0007180811953730881,-0.005927701015025377
-0.0037938610184937716,0.0,-0.004650651942938566,0.0026220690924674273,0.00071407959330827,-0.006123525556176901
-0.003773119766265154,0.0,-0.0049641747027635574,0.002800378715619445,0.0006879286956973374,-0.005698041059076786
-0.003777000354602933,0.0,-0.004957009106874466,0.0031151045113801956,0.0006304038688540459,-0.005290068220347166
-0.003958570305258036,0.0,-0.00483047217130661,0.0030785338021814823,0.0006536871078424156,-0.005348175298422575
-0.0038276531267911196,0.0,-0.004317690152674913,0.0028690530452877283,0.0006384142907336354,-0.005544021725654602
-0.0034954857546836138,0.0,-0.0042440565302968025,0.0029546483419835567,0.0006159009644761682,-0.005398009903728962
-0.0032581263221800327,0.0,-0.004138298332691193,0.0029963538981974125,0.0006234435131773353,-0.005837402772158384
-0.003406647127121687,0.0,-0.004813991952687502,0.002628534799441695,0.0005863935803063214,-0.005463200155645609
-0.0036276434548199177,0.0,-0.004941421095281839,0.0025990563444793224,0.0006090184906497598,-0.0051596458069980145
-0.0036276434548199177,0.0,-0.004941421095281839,0.0025990563444793224,0.0006090184906497598,-0.0051596458069980145
-0.0036415085196495056,0.0,-0.004323730245232582,0.0032868869602680206,0.0006731925532221794,-0.005711464211344719
-0.0036521649453788996,0.0,-0.004433528520166874,0.0037186257541179657,0.0006994056166149676,-0.00571964168921113
-0.0036573479883372784,0.0,-0.004817615728825331,0.002969658700749278,0.0009373689536005259,-0.005429391283541918
-0.0036573479883372784,0.0,-0.004817615728825331,0.002969658700749278,0.0009373689536005259,-0.005429391283541918
-0.003700743895024061,0.0001700691063888371,-0.004949574824422598,0.0024874925147742033,0.0010101927910000086,-0.0054597388952970505
-0.0037421288434416056,0.00017839451902545989,-0.004790722858160734,0.0024435159284621477,0.000997636467218399,-0.005856884643435478
-0.0037421288434416056,0.00017839451902545989,-0.004790722858160734,0.0024435159284621477,0.000997636467218399,-0.005856884643435478
-0.0037878521252423525,0.00017178678535856307,-0.004692136310040951,0.003351141232997179,0.0009843041189014912,-0.005641634110361338
-0.003323562443256378,0.00016547227278351784,-0.00491880439221859,0.003283353755250573,0.0009798338869586587,-0.005172968376427889
-0.0030295702163130045,0.0001877592585515231,-0.00471608666703105,0.0029272479005157948,0.0009611231507733464,-0.0048395744524896145
-0.003036960493773222,0.0001849138643592596,-0.0047785816714167595,0.002389234257861972,0.0009159371838904917,-0.005077236797660589
-0.003236787859350443,0.0001788372319424525,-0.004985376261174679,0.002208711812272668,0.0008530706982128322,-0.005056037567555904
-0.0035910315345972776,0.00017310526163782924,-0.004886080045253038,0.0021805278956890106,0.0008332536090165377,-0.004970543086528778
-0.003286524908617139,0.00019529594283085316,-0.00465613417327404,0.0023973530624061823,0.0007684619049541652,-0.005108932498842478
-0.0030072920490056276,0.00018978284788317978,-0.005068461410701275,0.00243440642952919,0.0006936667487025261,-0.005207755137234926
-0.0027255427557975054,0.00020746333757415414,-0.005156253464519978,0.00282861921004951,0.0006041992455720901,-0.004697483964264393
-0.0028849123045802116,0.00020453400793485343,-0.004845201503485441,0.002781188115477562,0.0006103579653427005,-0.004533776547759771
-0.002967128297314048,0.00019892226555384696,-0.005433990620076656,0.002636708552017808,0.0005696358857676387,-0.005111920181661844
-0.002924789674580097,0.0002834382758010179,-0.005200887564569712,0.0024915249086916447,0.0005965335294604301,-0.00515227485448122
-0.0027112814132124186,0.00030873127980157733,-0.00481112627312541,0.0024242568761110306,0.00058771698968485,-0.004975860007107258
-0.0029605082236230373,0.000324129534419626,-0.005154101178050041,0.002455616369843483,0.0006154870497994125,-0.0046040089800953865
-0.0030710590071976185,0.0003077428264077753,-0.005028915125876665,0.0022602099925279617,0.0006491406238637865,-0.0046254838816821575
-0.002863803179934621,0.0003339251852594316,-0.005649557337164879,0.0021813875064253807,0.0006832836079411209,-0.004789307713508606
-0.0025684095453470945,0.0003524168860167265,-0.0051146321929991245,0.002224333118647337,0.0006991695845499635,-0.0051183500327169895
-0.002467733109369874,0.0003502229228615761,-0.004863393027335405,0.0021803092677146196,0.000998976523987949,-0.0050359079614281654
-0.0023697579745203257,0.0003356480156071484,-0.0052925702184438705,0.002277507446706295,0.0010195724898949265,-0.005017410963773727
-0.0028083769138902426,0.00048747746041044593,-0.005240213591605425,0.0022518555633723736,0.001004255493171513,-0.004859461449086666
-0.0027076303958892822,0.00044211334898136556,-0.005349349230527878,0.0023228798527270555,0.000934816082008183,-0.00488106906414032
-0.0025337403640151024,0.00048190768575295806,-0.005088803358376026,0.002423235448077321,0.0009168635588139296,-0.004873414058238268
-0.0024391748011112213,0.0004433965077623725,-0.004789423197507858,0.002358226338401437,0.0009065689519047737,-0.005187680944800377
-0.0021526075433939695,0.00047519346117042005,-0.0050245546735823154,0.002387236338108778,0.0008074346114881337,-0.005208123009651899
-0.0022705283481627703,0.0004442869685590267,-0.0051763723604381084,0.002178530441597104,0.0008128564222715795,-0.005372767336666584
-0.002603427041321993,0.00047187993186526,-0.005306456238031387,0.0021434263326227665,0.0007760098087601364,-0.00511443754658103
-0.002768924692645669,0.0004491559520829469,-0.005274638533592224,0.0019411161774769425,0.000741032010409981,-0.004844289738684893
-0.002768924692645669,0.0004491559520829469,-0.005274638533592224,0.0019411161774769425,0.000741032010409981,-0.004844289738684893
-0.002678927732631564,0.0004979090881533921,-0.0049889953806996346,0.0018004421144723892,0.0006750758620910347,-0.004420136567205191
-0.0026218437124043703,0.0005380439106374979,-0.0053907339461147785,0.0017965005245059729,0.0006111154798418283,-0.004395538475364447
-0.0025080693885684013,0.0004903795779682696,-0.005330996122211218,0.0018332836916670203,0.0006181112257763743,-0.004557833541184664
-0.002290082164108753,0.0005233848351053894,-0.005004867445677519,0.0018417304381728172,0.000646545144263655,-0.004737848415970802
-0.0022003657650202513,0.0005293060094118118,-0.005331168882548809,0.002130089094862342,0.0006492766551673412,-0.004709163680672646
-0.0021584711503237486,0.0005135108367539942,-0.005391092970967293,0.0019959674682468176,0.0006329048192128539,-0.004631928168237209
-0.002314657671377063,0.0006264409748837352,-0.005710290279239416,0.0018895004177466035,0.0007637068047188222,-0.004526960663497448
-0.0024841688573360443,0.0006621463689953089,-0.005134010221809149,0.0018683489179238677,0.0008944290457293391,-0.004213542211800814
-0.002363810548558831,0.0006804406293667853,-0.004944512154906988,0.001843201695010066,0.0008664104389026761,-0.004230440128594637
-0.002206433331593871,0.0007021101773716509,-0.0056503466330468655,0.0018432993674650788,0.0008190770749934018,-0.004312319215387106
-0.00215380871668458,0.0008284833165816963,-0.005835834890604019,0.001959262415766716,0.0008057943196035922,-0.0045867664739489555
-0.002181056421250105,0.000910834118258208,-0.005800575949251652,0.0018622208153828979,0.0008308867691084743,-0.004662845283746719
-0.0021355377975851297,0.0009102641488425434,-0.005441345274448395,0.0018548015505075455,0.0008872946491464972,-0.004507188685238361
-0.0023025786504149437,0.0009089911472983658,-0.005060169845819473,0.0018581467447802424,0.0008632019744254649,-0.004559369757771492
-0.0021995764691382647,0.001034900196827948,-0.005571190267801285,0.0017356876051053405,0.0008216994465328753,-0.004381654318422079
-0.002196025336161256,0.0010139303049072623,-0.005656289402395487,0.0017182579031214118,0.0009497578139416873,-0.004550861660391092
-0.0019760597497224808,0.001001568860374391,-0.0061120265163481236,0.0018017928814515471,0.0009593456634320319,-0.0046675908379256725
-0.002132661873474717,0.0010480235796421766,-0.005406563635915518,0.0018524164333939552,0.0009521871688775718,-0.004617507103830576
-0.002087234752252698,0.0011364128440618515,-0.005381554830819368,0.0019544740207493305,0.0008922388660721481,-0.004638750571757555
-0.002070828340947628,0.0011003153631463647,-0.005353870335966349,0.001878052018582821,0.0009317342191934586,-0.004585811402648687
-0.001865101046860218,0.0011257826117798686,-0.006350740324705839,0.0018259165808558464,0.0009396353852935135,-0.004212370608001947
-0.001832484151236713,0.0011407166020944715,-0.006092999130487442,0.001686867792159319,0.0009250947623513639,-0.004264389630407095
-0.0016893629217520356,0.0012055065017193556,-0.005585101433098316,0.0016840286552906036,0.0009212113218382001,-0.004150403663516045
-0.001717558247037232,0.0012821536511182785,-0.0046628788113594055,0.0017191639635711908,0.000886405585333705,-0.004451145883649588
-0.001717558247037232,0.0012821536511182785,-0.0046628788113594055,0.0017191639635711908,0.000886405585333705,-0.004451145883649588
-0.0017418164061382413,0.0012850022176280618,-0.005147002637386322,0.001804592553526163,0.0008653051918372512,-0.0044272406958043575
-0.0017854290781542659,0.001368475379422307,-0.005567464046180248,0.001697912928648293,0.000804965675342828,-0.004355422221124172
-0.0016336367698386312,0.0015539999585598707,-0.005449723452329636,0.0015465557808056474,0.0008128952467814088,-0.004102760460227728
-0.0014974743826314807,0.0016707578906789422,-0.005292773712426424,0.0012796930968761444,0.0008225904311984777,-0.0038021921645849943
-0.0014106256421655416,0.001987304538488388,-0.004967452958226204,0.0011904312996193767,0.0008275687578134239,-0.003658043220639229
-0.0013620562385767698,0.0018936664564535022,-0.005223241169005632,0.0012136262375861406,0.0008622562745586038,-0.003909124527126551
-0.0012848349288105965,0.0018827114254236221,-0.00556386262178421,0.0011608361965045333,0.0008689379319548607,-0.004027301911264658
-0.0013064986560493708,0.0018730065785348415,-0.005563891958445311,0.001143604051321745,0.0008808926213532686,-0.003943311516195536
-0.0012703409884124994,0.0019817922729998827,-0.005789966322481632,0.0012295548804104328,0.0011487114243209362,-0.0037998941261321306
-0.0011725631775334477,0.0019562935922294855,-0.00599526334553957,0.0013050225097686052,0.001120476401410997,-0.0041201356798410416
-0.0010670035844668746,0.002021188847720623,-0.005271591246128082,0.001381642883643508,0.0010519111528992653,-0.0041569313034415245
-0.0010950486175715923,0.001981310313567519,-0.004916935693472624,0.001366248121485114,0.0010413657873868942,-0.003600972704589367
-0.0010750209912657738,0.002016260987147689,-0.005693433340638876,0.0012987129157409072,0.0009158193715848029,-0.0034840672742575407
-0.0010532505111768842,0.0019741076976060867,-0.006558106746524572,0.0013433302519842982,0.0009062248864211142,-0.0041421218775212765
-0.0010984811233356595,0.001979133812710643,-0.005738256964832544,0.0013108544517308474,0.0008957090321928263,-0.004137548618018627
-0.0010658028768375516,0.001947050099261105,-0.005134545732289553,0.0012062083696946502,0.0008955894154496491,-0.004258085507899523
-0.0010339614236727357,0.002035690238699317,-0.004857621155679226,0.0011776973260566592,0.0008663162006996572,-0.0042228493839502335
-0.0008920445689000189,0.002135839778929949,-0.00606386736035347,0.0010753005044534802,0.0009554850403219461,-0.0039621442556381226
-0.0007800150196999311,0.002188941230997443,-0.005869788117706776,0.0009751918842084706,0.001072619343176484,-0.00388049497269094
-0.0007472544093616307,0.002732307417318225,-0.005291707813739777,0.000947337131947279,0.0011563301086425781,-0.003461923450231552
-0.0006914876285009086,0.0031742870341986418,-0.00482941186055541,0.0008698398596607149,0.0011391205480322242,-0.0035527802538126707
-0.0007112483726814389,0.00279449881054461,-0.00512912031263113,0.0008692261180840433,0.0010851372499018908,-0.003707585856318474
-0.0007231608615256846,0.0026032528840005398,-0.005644733551889658,0.0008725852821953595,0.001024677068926394,-0.0037631981540471315
-0.000666270439978689,0.0026397486217319965,-0.006108487024903297,0.0008691814728081226,0.00101557991001755,-0.004054725635796785
-0.0006815746310167015,0.0028592506423592567,-0.005976211279630661,0.0008868960430845618,0.0010170938912779093,-0.004239801317453384
-0.0006236422341316938,0.0028903596103191376,-0.005374387837946415,0.0008895966457203031,0.0010017654858529568,-0.0040381732396781445
-0.0005481123807840049,0.0027163175400346518,-0.005009508226066828,0.000890948751475662,0.001031425315886736,-0.003430797252804041
-0.0005848139990121126,0.0028373098466545343,-0.005288005340844393,0.0009473928366787732,0.0010341348825022578,-0.0031389393843710423
-0.0005288146785460413,0.0028769562486559153,-0.005881048738956451,0.0009470345685258508,0.0010941301006823778,-0.003185055684298277
-0.000481643044622615,0.0029860578943043947,-0.006490013562142849,0.0009053933899849653,0.0011275645811110735,-0.0034813275560736656
-0.000481643044622615,0.0029860578943043947,-0.006490013562142849,0.0009053933899849653,0.0011275645811110735,-0.0034813275560736656
-0.0004764875047840178,0.00328397867269814,-0.005202328320592642,0.0008471214096061885,0.0011315291048958898,-0.003654922591522336
-0.0004764875047840178,0.00328397867269814,-0.005202328320592642,0.0008471214096061885,0.0011315291048958898,-0.003654922591522336
-0.0004432688874658197,0.003252256428822875,-0.00533557403832674,0.0007920142961665988,0.0011067921295762062,-0.003476107260212302
-0.00041412992868572474,0.0033457132522016764,-0.006212973967194557,0.0006991366390138865,0.001195797580294311,-0.0031840126030147076
-0.0003885820915456861,0.0034019758459180593,-0.006559165194630623,0.0007188197923824191,0.0012268711579963565,-0.003074261825531721
-0.00036600386374630034,0.0035219411365687847,-0.0056906454265117645,0.000692016736138612,0.001210759743116796,-0.0032887528650462627
-0.00034590630093589425,0.0037100445479154587,-0.0052517615258693695,0.0006650694995187223,0.001453709090128541,-0.003065638942644
-0.0003278990334365517,0.0035305810160934925,-0.005404571536928415,0.0006674134056083858,0.0014600194990634918,-0.003184526925906539
-0.00031167652923613787,0.0035128132440149784,-0.005181999411433935,0.0006287569412961602,0.0014223710168153048,-0.0033569075167179108
-0.0002969829074572772,0.0036743294913321733,-0.006003792397677898,0.0005964910960756242,0.0014489471213892102,-0.003603399032726884
-0.00028361217118799686,0.004281357862055302,-0.006255342159420252,0.0005466713919304311,0.0013485344825312495,-0.0033903925213962793
-0.00027139417943544686,0.004136844538152218,-0.00556110218167305,0.0004886979004368186,0.0012230129214003682,-0.003169906558468938
-0.0002601855667307973,0.004141910932958126,-0.005729831289499998,0.0004833161074202508,0.0011518362443894148,-0.0032066667918115854
-0.0002498655521776527,0.003954465035349131,-0.00563223659992218,0.0004787812940776348,0.0011467526201158762,-0.0029401162173599005
-0.0002403332618996501,0.00379880890250206,-0.006274139508605003,0.00044207164319232106,0.0011289629619568586,-0.0030337648931890726
-0.0002315016317879781,0.0037780182901769876,-0.005755491089075804,0.00040874522528611124,0.0012125784996896982,-0.0030302645172923803
-0.00022329637431539595,0.004312462173402309,-0.005892612971365452,0.00037997280014678836,0.0011701083276420832,-0.00303638051263988
-0.00020851471344940364,0.004466872196644545,-0.005422519985586405,0.00038659863639622927,0.0011165583273395896,-0.0031963044311851263
-0.0002018344821408391,0.004590888507664204,-0.005606527905911207,0.0003658696950878948,0.0011167905759066343,-0.003134185681119561
-0.00019556911138352007,0.004170028958469629,-0.005999842658638954,0.0003458875580690801,0.0011783158406615257,-0.0026336866430938244
-0.00010868072422454134,0.00421289075165987,-0.005588475614786148,0.00032788628595881164,0.0012497692368924618,-0.0024860259145498276
-6.425717583624646e-05,0.004556186497211456,-0.005850298795849085,0.00031166072585619986,0.0013038265751674771,-0.002580436412245035
-3.438611020101234e-05,0.004283960908651352,-0.005408349446952343,0.00033370713936164975,0.00137384666595608,-0.0031262340489774942
-4.6133354203448107e-07,0.004516318440437317,-0.006114235147833824,0.0003237360215280205,0.0015098602743819356,-0.0031938329339027405
-6.1893783431798965e-09,0.004701891914010048,-0.0060231988318264484,0.00031011871760711074,0.0014840919757261872,-0.0030513317324221134
0.0016530586872249842,0.004735282622277737,-0.005673996172845364,0.0002973310765810311,0.0013759711291640997,-0.003265957348048687
0.0014602398732677102,0.0046032508835196495,-0.005264516454190016,0.00028553843731060624,0.0012508176732808352,-0.0030066377948969603
0.0007470111595466733,0.004484825301915407,-0.0059017613530159,0.0002746446698438376,0.0011555810924619436,-0.0028758456464856863
0.0007470111595466733,0.004484825301915407,-0.0059017613530159,0.0002746446698438376,0.0011555810924619436,-0.0028758456464856863
0.0005331106367520988,0.0042431969195604324,-0.005627000238746405,0.00026455146144144237,0.0011073671048507094,-0.0026360806077718735
0.0004442845529410988,0.004470532294362783,-0.0055860294960439205,0.00025517382891848683,0.0010750788496807218,-0.0023755980655550957
0.0005146839539520442,0.00455138785764575,-0.005459453910589218,0.00024643883807584643,0.0011330712586641312,-0.0022369360085576773
0.00027724189567379653,0.005477802362293005,-0.005690733902156353,0.0002382821257924661,0.001249652006663382,-0.0021492906380444765
0.00036999196163378656,0.005149915814399719,-0.00617633992806077,0.00019870993855874985,0.0017178267007693648,-0.002482859417796135
0.0003296897339168936,0.004738399293273687,-0.005538110621273518,0.00018076579726766795,0.001702024950645864,-0.0028311870992183685
0.00029385118978098035,0.004950264934450388,-0.005972005892544985,0.0001731573574943468,0.0015640693018212914,-0.002947484143078327
0.00026499477098695934,0.004895409103482962,-0.005924439523369074,0.00016669902834109962,0.001323684467934072,-0.002823099959641695
0.00024130144447553903,0.004893388599157333,-0.00611482560634613,0.00016074090672191232,0.0011363086523488164,-0.0026482813991606236
0.0002922320563811809,0.005407295189797878,-0.006004048977047205,0.00015519640874117613,0.001006436301395297,-0.00251647736877203
0.00027396593941375613,0.005578142590820789,-0.0058433241210877895,0.00015002150030341,0.000983524601906538,-0.0023832230363041162
0.0004941014922223985,0.004892156459391117,-0.006165091879665852,0.00014518100942950696,0.0009631718276068568,-0.002355900127440691
0.0005365821998566389,0.004778137430548668,-0.0058515798300504684,0.00014064299466554075,0.0008453279151581228,-0.002322755055502057
0.0005672754487022758,0.005283002741634846,-0.006116428412497044,0.000136379967443645,0.0008207341888919473,-0.0024939088616520166
0.0005720361950807273,0.0051786284893751144,-0.005787202622741461,0.00013236813538242131,0.000829190481454134,-0.002493754494935274
0.0005518464604392648,0.005450209137052298,-0.005994502920657396,0.00012858555419370532,0.0008506198064424098,-0.002304995898157358
0.0007239828701131046,0.005114838480949402,-0.0068952422589063644,0.00012501288438215852,0.0011861142702400684,-0.0019326992332935333
0.0007790900417603552,0.005399145185947418,-0.005663814023137093,0.00011843214451801032,0.0017077203374356031,-0.0016560935182496905
0.0007925215177237988,0.005280409008264542,-0.005306867882609367,0.00011539501429069787,0.0017033881740644574,-0.0017251549288630486
0.0007238886901177466,0.005302958190441132,-0.005994970444589853,0.00011250977695453912,0.0015909018693491817,-0.0018050147918984294
0.0007969706784933805,0.005415345076471567,-0.006920032203197479,0.00010976519843097776,0.0016241210978478193,-0.002064918167889118
0.000802382652182132,0.005667449440807104,-0.006694754585623741,0.00010715146345319226,0.001554579590447247,-0.002285778522491455
0.0008151616784743965,0.005265191197395325,-0.005606792867183685,0.00010465917875990272,0.0015225178794935346,-0.002316987607628107
0.0008334280573762953,0.00535146240144968,-0.005339224822819233,0.00010228031896986067,0.0014769751578569412,-0.002419361611828208
0.001087065553292632,0.0054595330730080605,-0.005596089642494917,0.00010000718611991033,0.0015112890396267176,-0.0024182074703276157
0.0012162491912022233,0.005347417201846838,-0.006811505649238825,9.783294808585197e-05,0.0016527981497347355,-0.00226197624579072
0.0019213700434193015,0.005827673710882664,-0.006798768416047096,9.575120930094272e-05,0.0015352022601291537,-0.002073268871754408
0.0019136056071147323,0.005314358510077,-0.005891367327421904,9.375611261930317e-05,0.0015422567958012223,-0.0018727421993389726
0.0015806767623871565,0.005445546470582485,-0.005653759464621544,9.18425212148577e-05,0.0014958670362830162,-0.0017514771316200495
0.001396035891957581,0.00516482861712575,-0.0052994973957538605,9.000553836813197e-05,0.001385432668030262,-0.0015692220767959952
0.001307631959207356,0.005288135726004839,-0.00601224135607481,8.824057294987142e-05,0.0012139518512412906,-0.0014328188262879848
0.001307631959207356,0.005288135726004839,-0.00601224135607481,8.824057294987142e-05,0.0012139518512412906,-0.0014328188262879848
0.001569246407598257,0.002701913006603718,-0.005999145098030567,8.491043990943581e-05,0.001231271424330771,-0.0010893087601289153
0.001569246407598257,0.002701913006603718,-0.005999145098030567,8.491043990943581e-05,0.001231271424330771,-0.0010893087601289153
0.0025810215156525373,0.002263783710077405,-0.005936681758612394,8.333793084602803e-05,0.0012296558124944568,-0.0011607491178438067
0.0026061569806188345,0.002101068152114749,-0.0053297351114451885,6.760108226444572e-05,0.0013483705697581172,-0.0011644524056464434
0.002424588892608881,0.0033985974732786417,-0.005445246119052172,6.442906305892393e-05,0.0013297039549797773,-0.0016214054776355624
0.0020734211429953575,0.004107353743165731,-0.005803342908620834,6.317030056379735e-05,0.001539229298941791,-0.0016239614924415946
0.0016446223016828299,0.0037143726367503405,-0.006041765213012695,6.207269325386733e-05,0.0015766063006594777,-0.0018959275912493467
0.001701738336123526,0.003118659369647503,-0.0060162292793393135,6.1020014982204884e-05,0.0014722641790285707,-0.001781933126039803
0.002241997979581356,0.0028604648541659117,-0.005914979614317417,6.000295252306387e-05,0.001537157455459237,-0.0015011606737971306
0.0029365636873990297,0.003332225140184164,-0.005963505711406469,5.901920303585939e-05,0.0014447596622630954,-0.0013555734185501933
0.0029976675286889076,0.003157208673655987,-0.005774431396275759,5.806721674161963e-05,0.001493882155045867,-0.0012623281218111515
0.0027539997827261686,0.003369296435266733,-0.006034365389496088,5.714548387913965e-05,0.0016009238315746188,-0.0012005985481664538
0.002848712494596839,0.0034330810885876417,-0.005836145486682653,5.625253834296018e-05,0.0018458929844200611,-0.0010049529373645782
0.00309557793661952,0.0033807253930717707,-0.006478425115346909,4.245853051543236e-05,0.001785455853678286,-0.0010475196177139878
0.003679710440337658,0.003081437200307846,-0.005952766630798578,4.0304144931724295e-05,0.0013702530413866043,-0.00134732061997056
0.0033541880548000336,0.0033032847568392754,-0.00576779106631875,2.5022609406732954e-07,0.0012950191739946604,-0.0013692043721675873
0.003526117652654648,0.0030883492436259985,-0.005854879971593618,-3.693281178129837e-05,0.0013129166327416897,-0.001291055348701775
0.0037958999164402485,0.003200584091246128,-0.006245025899261236,-3.8566591683775187e-05,0.0013812955003231764,-0.0011726954253390431
0.003911424428224564,0.003290996653959155,-0.00680834474042058,-5.438601874629967e-05,0.0013895215233787894,-0.0010771353263407946
0.00424083461984992,0.0034697153605520725,-0.006034767255187035,-5.5548975069541484e-05,0.0018056784756481647,-0.0009664804674685001
0.004223505035042763,0.0037362086586654186,-0.005768259521573782,-7.03839396010153e-05,0.0017621925799176097,-0.000950763002038002
0.004394604824483395,0.00348114431835711,-0.005967201665043831,-7.995632768142968e-05,0.0019855471327900887,-0.0009435286046937108
0.00432924646884203,0.003570213681086898,-0.005851163528859615,-8.695225551491603e-05,0.001752894138917327,-0.0009885741164907813
0.0041769640520215034,0.0036945969332009554,-0.006470894441008568,-0.0005784172099083662,0.0015258004423230886,-0.0009994406718760729
0.004246167838573456,0.0037121286150068045,-0.006846114993095398,-0.0006400824058800936,0.0013460471527650952,-0.0009871481452137232
0.004398773889988661,0.00421475013718009,-0.005918612703680992,-0.0006678093923255801,0.001252914546057582,-0.001021013013087213
0.004534163512289524,0.0041073989123106,-0.005911881569772959,-0.0006555860163643956,0.0013205953873693943,-0.0009439304121769965
0.004730516113340855,0.003940959461033344,-0.006355799734592438,-0.0010274875676259398,0.00149549322668463,-0.000921395723707974
0.005343584809452295,0.003817337565124035,-0.006238515023142099,-0.0010479044867679477,0.0016947828698903322,-0.0008026208961382508
0.004976595751941204,0.00381959299556911,-0.00632620882242918,-0.0012356947408989072,0.001908286358229816,-0.0006995755829848349
0.004976595751941204,0.00381959299556911,-0.00632620882242918,-0.0012356947408989072,0.001908286358229816,-0.0006995755829848349
0.00472624134272337,0.004082506988197565,-0.006544439122080803,-0.0014293624553829432,0.0017350761918351054,-0.0007078562048263848
0.004664543084800243,0.0041658915579319,-0.005904858000576496,-0.0014236877905204892,0.00167219212744385,-0.0006470566731877625
0.005014610011130571,0.004330864176154137,-0.0064312126487493515,-0.0016206662403419614,0.0015232638688758016,-0.0006596983876079321
0.00508769741281867,0.004522854927927256,-0.006156947463750839,-0.0016885390505194664,0.0014789854176342487,-0.0006133218994364142
0.006016388535499573,0.004398109391331673,-0.005889569874852896,-0.0018385109724476933,0.0015698231291025877,-0.0005105093005113304
0.005534394644200802,0.004517971072345972,-0.0062156193889677525,-0.00186474050860852,0.0017198427813127637,-0.0004447067913133651
0.005819323472678661,0.004397490061819553,-0.006300622131675482,-0.002222774550318718,0.0020321300253272057,-0.0004733091627713293
0.00601086625829339,0.004881613422185183,-0.00642052898183465,-0.002500855131074786,0.0021798976231366396,-0.00044375937432050705
0.006102879531681538,0.004855185281485319,-0.0066118743270635605,-0.0027625965885818005,0.002133591566234827,-0.00046968230162747204
0.006862616166472435,0.004972659517079592,-0.006484866142272949,-0.0028247113805264235,0.0020324524957686663,-0.00044461185461841524
0.0070491391234099865,0.004911535419523716,-0.00610939459875226,-0.002801119117066264,0.0018203312065452337,-0.00044463694212026894
0.00643263291567564,0.005232028663158417,-0.006386704742908478,-0.002758728340268135,0.0016917022876441479,-0.0004437868483364582
0.006541766691952944,0.004975144285708666,-0.007153299171477556,-0.002770255785435438,0.0015607421519234776,-0.00041965232230722904
0.007140458095818758,0.004933491349220276,-0.006028009112924337,-0.0033143109176307917,0.001595301553606987,-0.000431067164754495
0.00748105812817812,0.0053675188682973385,-0.005902950651943684,-0.003448316128924489,0.001665211282670498,-0.00039457890670746565
0.007587359752506018,0.005224070977419615,-0.0069970437325537205,-0.003218257101252675,0.0019795538391917944,-0.0004254059458617121
0.006690015085041523,0.005419001914560795,-0.007753876969218254,-0.0032690202351659536,0.0020209653303027153,-0.0004022338252980262
0.007171535864472389,0.005083195865154266,-0.0069992998614907265,-0.003327056998386979,0.0022655376233160496,-0.0003748509625438601
0.00738907465711236,0.005372275598347187,-0.006178974639624357,-0.003573014633730054,0.0020606708712875843,-0.00035053910687565804
0.007021700032055378,0.005604952108114958,-0.006358240731060505,-0.003646191908046603,0.0018821172416210175,-0.00036956442636437714
0.007026994600892067,0.006052125710994005,-0.0070661017671227455,-0.0032204966992139816,0.0018524860497564077,-0.0003610076382756233
0.007790704257786274,0.005706089083105326,-0.0074977329932153225,-0.003202385501936078,0.0017208701465278864,-0.0003422159352339804
0.007868179120123386,0.005908563733100891,-0.0069777704775333405,-0.0033660843037068844,0.0017365781823173165,-0.0003246314008720219
0.007351824548095465,0.005652395077049732,-0.006342834793031216,-0.0036820503883063793,0.001976599218323827,-0.0003087216173298657
0.007440244313329458,0.005748748313635588,-0.006361071486026049,-0.003568768734112382,0.0020025859121233225,-0.0002942958672065288
0.008342664688825607,0.005571112036705017,-0.006706766784191132,-0.0034525578375905752,0.0020276550203561783,-0.0002811586018651724
0.008679093793034554,0.00563815189525485,-0.007147536613047123,-0.0035951652098447084,0.001982086570933461,-0.0002691454137675464
0.008679093793034554,0.00563815189525485,-0.007147536613047123,-0.0035951652098447084,0.001982086570933461,-0.0002691454137675464
0.008538774214684963,0.006112809758633375,-0.007539160083979368,-0.004192568827420473,0.001849346561357379,-0.00024795529316179454
0.008452198468148708,0.005679426249116659,-0.00710449181497097,-0.0038157182279974222,0.001819816417992115,-0.00023856412735767663
0.008452198468148708,0.005679426249116659,-0.00710449181497097,-0.0038157182279974222,0.001819816417992115,-0.00023856412735767663
0.008345682173967361,0.0057660965248942375,-0.006346686743199825,-0.0035033810418099165,0.001812879228964448,-0.00022985853138379753
0.00873749703168869,0.005888915155082941,-0.00655924528837204,-0.0032144905999302864,0.0019883080385625362,-0.00022176644415594637
0.009257648140192032,0.005942921154201031,-0.007283592596650124,-0.003436923725530505,0.002025170484557748,-0.00021422414283733815
0.009109561331570148,0.005876947659999132,-0.007916726171970367,-0.004301740322262049,0.002208397025242448,-0.00020717890583910048
0.00969250500202179,0.0058638909831643105,-0.007111352402716875,-0.004691667389124632,0.0021460913121700287,-0.0002005821734201163
0.00931453611701727,0.005917016416788101,-0.0063377441838383675,-0.004385220352560282,0.002009393647313118,-0.00019439235620666295
0.009620431810617447,0.0065357377752661705,-0.006225026678293943,-0.0037329019978642464,0.0018443878507241607,-0.00018857359827961773
0.00898725911974907,0.006193982437252998,-0.0069781276397407055,-0.0032511816825717688,0.0016978291096165776,-0.0001830927503760904
0.00972981657832861,0.006057984195649624,-0.007054646033793688,-0.0034009546507149935,0.0017156630055978894,-0.00017792102880775928
0.009712645784020424,0.006453544832766056,-0.007183103822171688,-0.003686165437102318,0.0018508897628635168,-0.0001730343501549214
0.009187968447804451,0.006474832538515329,-0.007365371100604534,-0.0038897402118891478,0.0019735959358513355,-0.00016402362962253392
0.010005473159253597,0.006110107060521841,-0.0076445830054581165,-0.0039756037294864655,0.0019502900540828705,-0.00015986150538083166
0.009926053695380688,0.006090452894568443,-0.0068957568146288395,-0.003692193189635873,0.001863014535047114,-0.0001559054508106783
0.010298159904778004,0.006246313452720642,-0.006959636230021715,-0.002988252090290189,0.0018500048900023103,-0.00015214011364150792
0.009708300232887268,0.006607570685446262,-0.007183401845395565,-0.003725732211023569,0.00178395991679281,-0.00014855273184366524
0.009430425241589546,0.006715178955346346,-0.007516669109463692,-0.004573747981339693,0.001686187693849206,-6.457337440224364e-05
0.010558243840932846,0.0062790620140731335,-0.007001863792538643,-0.004477075766772032,0.0016403578920289874,-5.172770397621207e-05
0.010387459769845009,0.0062256744131445885,-0.006561778020113707,-0.0040290215983986855,0.0017203479073941708,-4.958411227562465e-05
0.009713318198919296,0.006182035431265831,-0.007015938870608807,-0.003812959184870124,0.0019747596234083176,-4.820906542590819e-05
0.010328404605388641,0.007141501642763615,-0.007801864296197891,-0.0038384906947612762,0.0021557046566158533,-2.9551798434113152e-05
0.010401788167655468,0.006474935915321112,-0.00771953584626317,-0.0037952845450490713,0.0025592446327209473,-2.327428592252545e-05
0.010663123801350594,0.0062624323181807995,-0.0069250972010195255,-0.003915834240615368,0.002343208994716406,-1.1374329005775508e-05
0.011454112827777863,0.005994792096316814,-0.006331668701022863,-0.0039734854362905025,0.002182531636208296,-7.426623938044941e-07
0.010443167760968208,0.0064233047887682915,-0.007072365377098322,-0.0038489769212901592,0.0019627029541879892,-4.8490552018165545e-08
0.010443167760968208,0.0064233047887682915,-0.007072365377098322,-0.0038489769212901592,0.0019627029541879892,-4.8490552018165545e-08
0.009921116754412651,0.006663931533694267,-0.007356485351920128,-0.0037213871255517006,0.0018292868044227362,-3.1660867261251724e-09
0.010734611190855503,0.006715141702443361,-0.006751387380063534,-0.0036951599176973104,0.001729687093757093,-2.0672281941802595e-10
0.0107219647616148,0.0068058595061302185,-0.0068742660805583,-0.0038150555919855833,0.0018966851057484746,-1.3497523411454271e-11
0.008957093581557274,0.006480556912720203,-0.007298048119992018,-0.004014524631202221,0.0020302049815654755,-8.812917843409318e-13
0.008263100869953632,0.006658956408500671,-0.007342945318669081,-0.004257583990693092,0.002113883849233389,-5.754205841196694e-14
0.008507679216563702,0.007006404455751181,-0.006481387186795473,-0.003803035942837596,0.0019889625255018473,-3.757085364797545e-15
0.009488988667726517,0.006673859898000956,-0.0060460567474365234,-0.003485166234895587,0.002096786629408598,0.00022931728744879365
0.009335893206298351,0.007157173007726669,-0.006664475426077843,-0.003502247156575322,0.002111770212650299,0.0007075323374010623
0.009496348910033703,0.007022317498922348,-0.007882476784288883,-0.004370716866105795,0.002152938861399889,0.0007018236210569739
0.008647013455629349,0.007263842038810253,-0.007371914107352495,-0.004584518261253834,0.0025003324262797832,0.0007227185415104032
0.00891081988811493,0.006677194498479366,-0.006448639091104269,-0.004614934790879488,0.0025618223007768393,0.0007225772133097053
0.00890375953167677,0.00601186603307724,-0.006881304085254669,-0.004417853895574808,0.0024191655684262514,0.0007742482703179121
0.009207370691001415,0.006237637717276812,-0.007787461392581463,-0.004031780641525984,0.0021521325688809156,0.0008559419075027108
0.00913607981055975,0.006407708395272493,-0.007096013054251671,-0.003610569052398205,0.0020409743301570415,0.0008833424653857946
0.010190978646278381,0.006679383106529713,-0.006582140922546387,-0.0034598365891724825,0.0017624270403757691,0.0008945020963437855
0.009712621569633484,0.006681733764708042,-0.007242250721901655,-0.004138599149882793,0.0017962898127734661,0.0012039555003866553
0.01052163541316986,0.006273053586483002,-0.007247071247547865,-0.004194589331746101,0.0020601493306457996,0.0013844675850123167
0.00975356251001358,0.006602103356271982,-0.0065845465287566185,-0.004348543472588062,0.0025383925531059504,0.0016267778119072318
0.009621923789381981,0.006816369481384754,-0.006361908745020628,-0.004166068509221077,0.0024166032671928406,0.0018004875164479017
0.010314908809959888,0.006803910247981548,-0.0072363452054560184,-0.003858726006001234,0.002425751881673932,0.0019087785622105002
0.011005979962646961,0.0064075724221765995,-0.0077990395948290825,-0.004144599661231041,0.0022380175068974495,0.0017676249844953418
0.010600014589726925,0.006646620109677315,-0.006806804332882166,-0.004114485811442137,0.0022059425245970488,0.0015944803599268198
0.010918043553829193,0.006966838613152504,-0.0063072736375033855,-0.003964385949075222,0.0023198958951979876,0.0016229493776336312
0.010724765248596668,0.00686998013406992,-0.006659777369350195,-0.003864158410578966,0.0028166847769171,0.0017857997445389628
0.011886159889400005,0.0062984926626086235,-0.007304716389626265,-0.004346371162682772,0.0031791282817721367,0.0019560707733035088
0.011415697634220123,0.0065741166472435,-0.0074819172732532024,-0.004773998633027077,0.0030965758487582207,0.0027613709680736065
0.011318684555590153,0.007168694399297237,-0.007046530023217201,-0.004803135059773922,0.003027849830687046,0.003300454467535019
0.011438896879553795,0.006651324685662985,-0.0064836107194423676,-0.004498303402215242,0.0026524951681494713,0.002963121049106121
0.011438896879553795,0.006651324685662985,-0.0064836107194423676,-0.004498303402215242,0.0026524951681494713,0.002963121049106121
0.011057675816118717,0.006385577376931906,-0.00666876882314682,-0.004379065241664648,0.0023761445190757513,0.002681570593267679
0.011429945006966591,0.006345247384160757,-0.006961341015994549,-0.004316995851695538,0.002059714403003454,0.002361393067985773
0.011730401776731014,0.006834888365119696,-0.0062718172557652,-0.004530834499746561,0.0019796306733042,0.0021035766694694757
0.012579347938299179,0.007116230204701424,-0.006344726774841547,-0.005454668775200844,0.002192094689235091,0.0023966652806848288
0.01162667479366064,0.0070084379985928535,-0.007092036306858063,-0.0053496090695261955,0.002416416769847274,0.0030526588670909405
0.01162667479366064,0.0070084379985928535,-0.007092036306858063,-0.0053496090695261955,0.002416416769847274,0.0030526588670909405
0.011918245814740658,0.00696420855820179,-0.00683851633220911,-0.004818624351173639,0.0024138703010976315,0.003566168947145343
0.012165671214461327,0.007307019550353289,-0.006640398409217596,-0.004604973364621401,0.0023632445372641087,0.0034268279559910297
0.011880040168762207,0.007392337545752525,-0.005935507360845804,-0.004575623665004969,0.0024070690851658583,0.003269274951890111
0.01205356139689684,0.007045953068882227,-0.006501645315438509,-0.004781763069331646,0.002452434506267309,0.003156468737870455
0.01157331932336092,0.007535623386502266,-0.007149712648242712,-0.005107956472784281,0.002372967777773738,0.003081459319218993
0.011837180703878403,0.007831456139683723,-0.00732714869081974,-0.0050354404374957085,0.0024831085465848446,0.0033547943457961082
0.011994916945695877,0.006952895782887936,-0.006861088331788778,-0.004676453769207001,0.0027122653555125,0.0035911533050239086
0.011776459403336048,0.006850437726825476,-0.006274717394262552,-0.004195595625787973,0.002597206272184849,0.003268113825470209
0.011758653447031975,0.0067747668363153934,-0.00665451493114233,-0.004323039203882217,0.002603349043056369,0.0030006973538547754
0.011386102996766567,0.0072244564071297646,-0.00683453306555748,-0.0048360880464315414,0.002566225128248334,0.0028125976677984
0.011985920369625092,0.00716061145067215,-0.007184471003711224,-0.005298069212585688,0.0023958689998835325,0.002909361617639661
0.012069553136825562,0.0070875599049031734,-0.00746777281165123,-0.005515047814697027,0.002437417395412922,0.0033033317886292934
0.011474573984742165,0.007067481055855751,-0.007554176263511181,-0.0051127271726727486,0.00225812173448503,0.0036245412193238735
0.011616460047662258,0.007607403211295605,-0.006404991261661053,-0.004907944239675999,0.002353410702198744,0.0034003127366304398
0.011732838116586208,0.006867448799312115,-0.006909279152750969,-0.005518837366253138,0.002309087198227644,0.0032472379971295595
0.01207487192004919,0.007218281272798777,-0.007194092962890863,-0.00633207056671381,0.0024249127600342035,0.0038973765913397074
0.012323988601565361,0.008269690908491611,-0.007592790760099888,-0.006443637888878584,0.0021949431393295527,0.0040961881168186665
0.012048553675413132,0.00787187647074461,-0.006819934584200382,-0.00559490779414773,0.0021967580541968346,0.00444798544049263
0.011668071150779724,0.00703163119032979,-0.006679396145045757,-0.004932968877255917,0.002301432192325592,0.004129015374928713
0.011862322688102722,0.007259150967001915,-0.006675270386040211,-0.005189134273678064,0.002251913072541356,0.004335888661444187
0.011940058320760727,0.008212503977119923,-0.007395523134618998,-0.005910151172429323,0.002248772419989109,0.004106087144464254
0.012264964170753956,0.007955656386911869,-0.00802278146147728,-0.006267009302973747,0.002249574987217784,0.00423276424407959
0.012824063189327717,0.007685653865337372,-0.0071039097383618355,-0.006438648793846369,0.0025632460601627827,0.004638684447854757
0.012180835008621216,0.007374945096671581,-0.0065591768361628056,-0.005482104606926441,0.0027298845816403627,0.005052438471466303
0.012427268549799919,0.007982388138771057,-0.006955472752451897,-0.005471508018672466,0.0025040521286427975,0.004650936461985111
0.012236281298100948,0.00783474463969469,-0.006743154488503933,-0.005761038511991501,0.0025422521866858006,0.00430162250995636
0.012236281298100948,0.00783474463969469,-0.006743154488503933,-0.005761038511991501,0.0025422521866858006,0.00430162250995636
0.01229911856353283,0.008144145831465721,-0.0068477485328912735,-0.00638382975012064,0.002323475433513522,0.0042700134217739105
0.012407764792442322,0.007879145443439484,-0.006949641741812229,-0.006390964612364769,0.0022793514654040337,0.004442022182047367
0.012674490921199322,0.008125041611492634,-0.006883138325065374,-0.006216777488589287,0.0029279282316565514,0.004797981586307287
0.012674490921199322,0.008125041611492634,-0.006883138325065374,-0.006216777488589287,0.0029279282316565514,0.004797981586307287
0.012260494753718376,0.007740436587482691,-0.0071520558558404446,-0.005932451691478491,0.003087615594267845,0.00430906331166625
0.012615120969712734,0.00810219720005989,-0.006507374346256256,-0.005803030449897051,0.0029802897479385138,0.004205315839499235
0.012703198939561844,0.008246599696576595,-0.006704101338982582,-0.005528721492737532,0.0028789073694497347,0.004545200616121292
0.012989744544029236,0.008261436596512794,-0.007108905352652073,-0.005644860677421093,0.0025707948952913284,0.004706523381173611
0.012293948791921139,0.007858875207602978,-0.006929353345185518,-0.005997163243591785,0.0024018948897719383,0.004445071332156658
0.012910599820315838,0.008192997425794601,-0.0068320403806865215,-0.006235456559807062,0.0022462198976427317,0.004484163131564856
0.011830303817987442,0.00803379900753498,-0.0063299862667918205,-0.006174288224428892,0.0021464272867888212,0.004582492634654045
0.012423334643244743,0.008514645509421825,-0.006576473359018564,-0.005690766032785177,0.002310347743332386,0.004736029077321291
0.012807661667466164,0.008586462587118149,-0.0067118629813194275,-0.005536758806556463,0.0026624349411576986,0.0046562678180634975
0.0123688243329525,0.008447435684502125,-0.006998164113610983,-0.005850180517882109,0.0027107573114335537,0.0048024533316493034
0.012216047383844852,0.008450270630419254,-0.0076388465240597725,-0.006570400670170784,0.0029483444523066282,0.0044839046895504
0.012977133505046368,0.008632305078208447,-0.006699679885059595,-0.005813525523990393,0.002875588834285736,0.004960051737725735
0.012895514257252216,0.008265277370810509,-0.006439985707402229,-0.005471731070429087,0.002472509164363146,0.004909851122647524
0.012915981002151966,0.008154533803462982,-0.00698974821716547,-0.006358338054269552,0.002210873644798994,0.004906284622848034
0.012567086145281792,0.008426595479249954,-0.007336546201258898,-0.006608836352825165,0.002146987710148096,0.0053399708122015
0.012685001827776432,0.008517846465110779,-0.007672922220081091,-0.0064789834432303905,0.0024069990031421185,0.0050093019381165504
0.01307770051062107,0.008122025988996029,-0.0070320237427949905,-0.006020525470376015,0.002633125288411975,0.0045288726687431335
0.012602400965988636,0.008294430561363697,-0.007026663050055504,-0.005408786237239838,0.002659496618434787,0.004535026382654905
0.013284273445606232,0.009150993078947067,-0.007675359956920147,-0.006376784760504961,0.002534828381612897,0.005155840888619423
0.01295379363000393,0.008132724091410637,-0.007849538698792458,-0.006825817283242941,0.0024937503039836884,0.005119146313518286
0.013004157692193985,0.008084370754659176,-0.007412191480398178,-0.006859626621007919,0.002385753905400634,0.005276532378047705
0.013265317305922508,0.008180253207683563,-0.00726229976862669,-0.006292286328971386,0.002570443321019411,0.005566495470702648
0.013698031194508076,0.008810159750282764,-0.007983740419149399,-0.006388907320797443,0.002946950728073716,0.005273609422147274
0.013698031194508076,0.008810159750282764,-0.007983740419149399,-0.006388907320797443,0.002946950728073716,0.005273609422147274
0.012750090099871159,0.008241579867899418,-0.007882744073867798,-0.006741541437804699,0.0030957679264247417,0.00518912123516202
0.012822640128433704,0.008285758085548878,-0.006884628441184759,-0.0067194500006735325,0.003219673177227378,0.00530862994492054
0.01343664899468422,0.009105169214308262,-0.007120923139154911,-0.0069922092370688915,0.0029576681554317474,0.005577011965215206
0.012952183373272419,0.008529085665941238,-0.007980630733072758,-0.006644401233643293,0.0028179078362882137,0.005706210155040026
0.013153758831322193,0.008365157060325146,-0.007959680631756783,-0.00673435814678669,0.002679035533219576,0.005599489435553551
0.013275451958179474,0.008896528743207455,-0.007344346027821302,-0.007105854339897633,0.0025057420134544373,0.0055835614912211895
0.013850069604814053,0.008996768854558468,-0.007242995779961348,-0.007363564800471067,0.0025818313006311655,0.005725456867367029
0.013136901892721653,0.00832704734057188,-0.008865723386406898,-0.006914218887686729,0.0026539352256804705,0.0055050356313586235
0.013678771443665028,0.008414773270487785,-0.008108196780085564,-0.007097696419805288,0.002753844950348139,0.005604884587228298
0.013387092389166355,0.008814395405352116,-0.00749078718945384,-0.006973908748477697,0.0026916046626865864,0.005484417080879211
0.013733254745602608,0.008791767992079258,-0.007700874004513025,-0.007053988520056009,0.002875111997127533,0.006236473564058542
0.013801239430904388,0.008663548156619072,-0.008337626233696938,-0.007117097731679678,0.0029193516820669174,0.006678602658212185
0.013772822916507721,0.008252725936472416,-0.007719364482909441,-0.0071007367223501205,0.003003419376909733,0.006066841538995504
0.013843150809407234,0.00963647197932005,-0.00740318838506937,-0.007380856201052666,0.0034062175545841455,0.005695539526641369
0.013746651820838451,0.008112546056509018,-0.008688097819685936,-0.0069316294975578785,0.0030611688271164894,0.0059656607918441296
0.013705641962587833,0.008586933836340904,-0.007745417766273022,-0.00684382114559412,0.003045921213924885,0.006418318022042513
0.014081388711929321,0.00847963523119688,-0.007721675559878349,-0.007173662539571524,0.0034722413402050734,0.005917825270444155
0.01389661617577076,0.008206239901483059,-0.007757152430713177,-0.00793874729424715,0.003267192281782627,0.006289458367973566
0.014722470194101334,0.008655611425638199,-0.00817910023033619,-0.007385716773569584,0.0030437943059951067,0.005889495834708214
0.014358184300363064,0.008931370452046394,-0.008188440464437008,-0.007002830505371094,0.0029029238503426313,0.006116450298577547
0.014340132474899292,0.008764234371483326,-0.008208868093788624,-0.007453917991369963,0.0028172796592116356,0.006290974095463753
0.014171683229506016,0.009031407535076141,-0.008135995827615261,-0.007712916005402803,0.0030286419205367565,0.005917101167142391
0.014381791464984417,0.009197345934808254,-0.008402468636631966,-0.007088302168995142,0.002897754078730941,0.006099348422139883
0.014356608502566814,0.00879230909049511,-0.008424760773777962,-0.006372273433953524,0.002828364260494709,0.006424269638955593
0.014618126675486565,0.008414301089942455,-0.008434312418103218,-0.006981940940022469,0.0027281877119094133,0.006579842884093523
0.014618126675486565,0.008414301089942455,-0.008434312418103218,-0.006981940940022469,0.0027281877119094133,0.006579842884093523
0.014494613744318485,0.009862874634563923,-0.009389841929078102,-0.007568507920950651,0.0030550213996320963,0.0070670065470039845
0.0147022670134902,0.008958862163126469,-0.007791429292410612,-0.007500254083424807,0.003271722001954913,0.006952072028070688
0.014446523040533066,0.008411978371441364,-0.0072823031805455685,-0.007106798700988293,0.003209167392924428,0.00667787017300725
0.014873964712023735,0.00907904002815485,-0.007954314351081848,-0.007486667949706316,0.0031501881312578917,0.0064811501652002335
0.014632024802267551,0.009250733070075512,-0.008821331895887852,-0.008342316374182701,0.0031586443074047565,0.007022903300821781
0.014877106994390488,0.008499294519424438,-0.007920232601463795,-0.007876280695199966,0.0035906503908336163,0.006509646773338318
0.014877106994390488,0.008499294519424438,-0.007920232601463795,-0.007876280695199966,0.0035906503908336163,0.006509646773338318
0.014649841003119946,0.009398982860147953,-0.008803481236100197,-0.007637933362275362,0.00350995734333992,0.006483190227299929
0.014699369668960571,0.008917206898331642,-0.008534060791134834,-0.007482040207833052,0.003228846238926053,0.007099131587892771
0.015103529207408428,0.008735773153603077,-0.00889386422932148,-0.0077721672132611275,0.0029538751114159822,0.006878961343318224
0.015380333177745342,0.009148173965513706,-0.008845440112054348,-0.007805380504578352,0.0030791752506047487,0.006652818992733955
0.015339347533881664,0.00908694788813591,-0.008346096612513065,-0.008057748898863792,0.0032869165297597647,0.0065423487685620785
0.014934257604181767,0.008773259818553925,-0.008100451901555061,-0.0077287438325583935,0.003109829965978861,0.006808233913034201
0.015057295560836792,0.009189216420054436,-0.008700238540768623,-0.007998441345989704,0.0030339073855429888,0.007334985304623842
0.01541201677173376,0.009278974495828152,-0.009205486625432968,-0.008280121721327305,0.003168186405673623,0.006986026652157307
0.01527140662074089,0.008982600644230843,-0.008468985557556152,-0.00792612787336111,0.0030289744026958942,0.007369562052190304
0.015103344805538654,0.010000795125961304,-0.008825438097119331,-0.008455554954707623,0.0029631457291543484,0.0070210532285273075
0.015599090605974197,0.009456925094127655,-0.00884128175675869,-0.008278831839561462,0.0028609060682356358,0.007099855225533247
0.015560584142804146,0.00938849151134491,-0.00854360032826662,-0.00861381459981203,0.003172503784298897,0.007392498664557934
0.015829352661967278,0.009740413166582584,-0.00814472883939743,-0.008227845653891563,0.003337948117405176,0.007122496608644724
0.015562530606985092,0.009575679898262024,-0.008827672339975834,-0.00823087990283966,0.003388524055480957,0.007694438099861145
0.015596676617860794,0.010214832611382008,-0.008332897908985615,-0.008259627036750317,0.003374075051397085,0.0076330541633069515
0.016128232702612877,0.00953988078981638,-0.008223447017371655,-0.008185604587197304,0.00331512070260942,0.00741723133251071
0.016730139032006264,0.009409703314304352,-0.008392476476728916,-0.008162655867636204,0.0031671696342527866,0.0072857229970395565
0.017417192459106445,0.00931769423186779,-0.008542102761566639,-0.0085661755874753,0.003510864684358239,0.007501659914851189
0.01675284281373024,0.00990146491676569,-0.008184310048818588,-0.008299027569591999,0.003340435214340687,0.0074720559641718864
0.01729811541736126,0.009770619682967663,-0.008367453701794147,-0.008004339411854744,0.0034521210473030806,0.007548165041953325
0.01702234148979187,0.009497133083641529,-0.008830093778669834,-0.007969564758241177,0.0031832309905439615,0.007557304576039314
0.01702234148979187,0.009497133083641529,-0.008830093778669834,-0.007969564758241177,0.0031832309905439615,0.007557304576039314
0.017095724120736122,0.009792739525437355,-0.008301503956317902,-0.008291616104543209,0.0032382796052843332,0.007701264228671789
0.01750972867012024,0.009965330362319946,-0.008358093909919262,-0.008443950675427914,0.0032956416253000498,0.0073613496497273445
0.01729484088718891,0.009634334594011307,-0.008716789074242115,-0.008087574504315853,0.0035408043768256903,0.007905162870883942
0.01784554310142994,0.010037166997790337,-0.008376063778996468,-0.008246099576354027,0.003812439041212201,0.007592530455440283
0.017857301980257034,0.009938955307006836,-0.008639663457870483,-0.008417809382081032,0.0038157713133841753,0.0080381715670228
0.017096268013119698,0.00971190445125103,-0.008249315433204174,-0.008357543498277664,0.0034939360339194536,0.007964910939335823
0.017782000824809074,0.009999514557421207,-0.008843245916068554,-0.008189239539206028,0.0031993831507861614,0.0075836461037397385
0.01755933277308941,0.009634412825107574,-0.009012360125780106,-0.008204963058233261,0.0031880175229161978,0.0078056734055280685
0.018341772258281708,0.009534538723528385,-0.008048190735280514,-0.008772731758654118,0.003044308163225651,0.007814629003405571
0.018075095489621162,0.010082780383527279,-0.00891952496021986,-0.008263841271400452,0.0033584360498934984,0.007424253039062023
0.017486557364463806,0.009430479258298874,-0.008931385353207588,-0.008450953289866447,0.003559925826266408,0.00727273803204298
0.01803259365260601,0.009254719130694866,-0.00791317131370306,-0.009112494997680187,0.0035846494138240814,0.007228999864310026
0.017669005319476128,0.009646087884902954,-0.008222105912864208,-0.008611313067376614,0.0036382940597832203,0.007900960743427277
0.017908703535795212,0.009932350367307663,-0.00867738202214241,-0.00849064253270626,0.00343084754422307,0.00820896029472351
0.01755804754793644,0.01005518063902855,-0.007986380718648434,-0.008399388752877712,0.0032752600964158773,0.008017619140446186
0.01671447791159153,0.010263684205710888,-0.008927473798394203,-0.00798878539353609,0.0030785745475441217,0.00786484032869339
0.018478840589523315,0.009870748966932297,-0.008288907818496227,-0.008403532207012177,0.0029415234457701445,0.007867613807320595
0.01837160624563694,0.010177219286561012,-0.008141419850289822,-0.008912220597267151,0.0031601095106452703,0.0077428063377738
0.018465064465999603,0.010082107968628407,-0.00881583709269762,-0.008729862049221992,0.0036081119906157255,0.007677800487726927
0.017782054841518402,0.010187143459916115,-0.009273961186408997,-0.008634590543806553,0.0036553186364471912,0.007349370513111353
0.01799190044403076,0.009984871372580528,-0.008153680711984634,-0.008744223043322563,0.003446271177381277,0.00773468567058444
0.018366767093539238,0.009658841416239738,-0.008576336316764355,-0.008541549555957317,0.003311260137706995,0.007689444348216057
0.018358003348112106,0.009951808489859104,-0.009319672361016273,-0.008694971911609173,0.0035040401853621006,0.007782576140016317
0.01855129934847355,0.010776827111840248,-0.008245391771197319,-0.008761148899793625,0.0037370258942246437,0.007962689734995365
0.018483679741621017,0.01012943685054779,-0.008142814040184021,-0.009107990190386772,0.003950195852667093,0.008283975534141064
0.01848195120692253,0.00996491126716137,-0.009686112403869629,-0.00901139434427023,0.00386928697116673,0.007874378934502602
0.01881139539182186,0.01010844111442566,-0.009016123600304127,-0.009216314181685448,0.0035700355656445026,0.008235410787165165
0.01881139539182186,0.01010844111442566,-0.009016123600304127,-0.009216314181685448,0.0035700355656445026,0.008235410787165165
0.018793340772390366,0.01029463205486536,-0.008366531692445278,-0.009342881850898266,0.0036006923764944077,0.008174360729753971
0.018418729305267334,0.010090893134474754,-0.00906673539429903,-0.00906692910939455,0.0037889473605901003,0.00819198414683342
0.019136108458042145,0.010422288440167904,-0.009420179761946201,-0.009228307753801346,0.003934566862881184,0.008466032333672047
0.018799979239702225,0.00982037652283907,-0.009244349785149097,-0.009593423455953598,0.0038952981121838093,0.008130392991006374
0.0188852958381176,0.010351737961173058,-0.008264700882136822,-0.009366467595100403,0.004029516130685806,0.008313416503369808
0.01918497122824192,0.010486929677426815,-0.009078730829060078,-0.009624645113945007,0.003629287239164114,0.008579130284488201
0.018542811274528503,0.009916311129927635,-0.009065055288374424,-0.009757203981280327,0.0033817091025412083,0.008765997365117073
0.01852109469473362,0.010713926516473293,-0.008674095384776592,-0.009476061910390854,0.0033809721935540438,0.00888815987855196
0.019122054800391197,0.010169514454901218,-0.00923582911491394,-0.009414510801434517,0.00363910268060863,0.008922253735363483
0.01885431818664074,0.010293051600456238,-0.008851018734276295,-0.009392697364091873,0.003858480602502823,0.008367237634956837
0.019145602360367775,0.010671902447938919,-0.009434649720788002,-0.009744426235556602,0.004008838441222906,0.00852327048778534
0.019712811335921288,0.009993483312427998,-0.008614220656454563,-0.009036180563271046,0.004049627110362053,0.008958356454968452
0.019012201577425003,0.009815899655222893,-0.008761949837207794,-0.009450656361877918,0.003952942788600922,0.008467492647469044
0.01955590210855007,0.010057936422526836,-0.008541014045476913,-0.009571201168000698,0.0036500843707472086,0.008665468543767929
0.01958942972123623,0.010301685892045498,-0.009422356262803078,-0.009985256008803844,0.003600612748414278,0.009134138934314251
0.01958548277616501,0.010172721929848194,-0.009145927615463734,-0.010338212363421917,0.003318555187433958,0.00936419703066349
0.020039435476064682,0.01072530448436737,-0.008565236814320087,-0.009102864190936089,0.003456654492765665,0.009086067788302898
0.01997070573270321,0.010385208763182163,-0.008964791893959045,-0.009547881782054901,0.004164077807217836,0.008943662978708744
0.019770434126257896,0.010500629432499409,-0.009077501483261585,-0.009645281359553337,0.004161229357123375,0.008924026042222977
0.019906049594283104,0.009870128706097603,-0.008450972847640514,-0.009312332607805729,0.0044519053772091866,0.008957330137491226
0.0200667567551136,0.01049714908003807,-0.008791587315499783,-0.009576711803674698,0.003723139874637127,0.008697735145688057
0.019612614065408707,0.010508161969482899,-0.00925061758607626,-0.00937076099216938,0.003098525805398822,0.008417410776019096
0.019771287217736244,0.010589651763439178,-0.00844311062246561,-0.009302129037678242,0.0032718488946557045,0.008593889884650707
0.020222848281264305,0.011307881213724613,-0.00852895062416792,-0.009874757379293442,0.003977596759796143,0.008714381605386734
0.020222848281264305,0.011307881213724613,-0.00852895062416792,-0.009874757379293442,0.003977596759796143,0.008714381605386734
0.02058994583785534,0.01041271910071373,-0.009267183020710945,-0.010187145322561264,0.004340763669461012,0.008669015020132065
0.020266106352210045,0.010299836285412312,-0.00900788139551878,-0.009543457068502903,0.004564167931675911,0.009008435532450676
0.020625844597816467,0.010349538177251816,-0.0087813138961792,-0.009582667611539364,0.004190185107290745,0.008695478551089764
0.01999060995876789,0.010148117318749428,-0.009204661473631859,-0.01003886479884386,0.0038503101095557213,0.008799456059932709
0.019594065845012665,0.010131198912858963,-0.009173853322863579,-0.009526318870484829,0.0038747387006878853,0.009277408942580223
0.020527107641100883,0.010790666565299034,-0.00841333344578743,-0.010062623769044876,0.0036794941406697035,0.009128154255449772
0.020829785615205765,0.01097080484032631,-0.00882031861692667,-0.010034610517323017,0.0035775043070316315,0.009266382083296776
0.020820774137973785,0.011622180230915546,-0.008865556679666042,-0.009902830235660076,0.0036115888506174088,0.010151412338018417
0.02030046470463276,0.010631239041686058,-0.008751689456403255,-0.009949909523129463,0.0039195348508656025,0.009347239509224892
0.021236369386315346,0.01057020016014576,-0.008601268753409386,-0.00988555047661066,0.003940375056117773,0.009366711601614952
0.02107865735888481,0.011109831742942333,-0.009050999768078327,-0.00952425878494978,0.0038488537538796663,0.0095902094617486
0.020940719172358513,0.010650034062564373,-0.009139993228018284,-0.010544748976826668,0.0038291059900075197,0.009585032239556313
0.021390311419963837,0.010419604368507862,-0.008525477722287178,-0.010412252508103848,0.003807024797424674,0.009722628630697727
0.021348029375076294,0.010550075210630894,-0.009468229487538338,-0.010198821313679218,0.0034075966104865074,0.009793260134756565
0.020927712321281433,0.010394942946732044,-0.008909585885703564,-0.010546083562076092,0.0034337088000029325,0.009560123085975647
0.02130196802318096,0.010678185150027275,-0.009152868762612343,-0.010338764637708664,0.003808882785961032,0.009451499208807945
0.022272614762187004,0.010436871089041233,-0.008687921799719334,-0.010194556787610054,0.004020032472908497,0.009581431746482849
0.02182500995695591,0.010730333626270294,-0.008642377331852913,-0.009328954853117466,0.003987160045653582,0.009587946347892284
0.021353846415877342,0.0107942009344697,-0.009223273023962975,-0.010100294835865498,0.004708865657448769,0.00973429810255766
0.022034309804439545,0.010921475477516651,-0.009371302090585232,-0.010942931286990643,0.004724796395748854,0.009985469281673431
0.022366467863321304,0.012076819315552711,-0.008578812703490257,-0.01036276575177908,0.003777299076318741,0.010408629663288593
0.02264595590531826,0.010687894187867641,-0.00836588442325592,-0.010207497514784336,0.003263247199356556,0.009975836612284184
0.022369109094142914,0.01117029134184122,-0.009044360369443893,-0.010761857964098454,0.0029467775020748377,0.009652533568441868
0.02264724113047123,0.011683213524520397,-0.009032456204295158,-0.010191066190600395,0.0035177157260477543,0.00991833209991455
0.02270747348666191,0.010632814839482307,-0.00894448347389698,-0.010147897526621819,0.004172525368630886,0.009830744937062263
0.02270747348666191,0.010632814839482307,-0.00894448347389698,-0.010147897526621819,0.004172525368630886,0.009830744937062263
0.02295348234474659,0.011023310013115406,-0.009215077385306358,-0.010504409670829773,0.004387186374515295,0.0100590530782938
0.022888874635100365,0.011586879380047321,-0.009304267354309559,-0.010197476483881474,0.004229933954775333,0.01036440022289753
0.02307334542274475,0.011222079396247864,-0.009045752696692944,-0.010715112090110779,0.004343211185187101,0.010422229766845703
0.023123791441321373,0.01203739084303379,-0.009278295561671257,-0.01080661453306675,0.004147264175117016,0.010459493845701218
0.023139070719480515,0.01262645237147808,-0.009405363351106644,-0.01060473546385765,0.003918742295354605,0.010599270462989807
0.023242976516485214,0.01270213257521391,-0.009227405302226543,-0.011081835255026817,0.004287428688257933,0.011149583384394646
0.023470444604754448,0.01242676842957735,-0.009769856929779053,-0.011280559934675694,0.004190461244434118,0.010562105104327202
0.023605259135365486,0.012553420849144459,-0.0102329570800066,-0.011518366634845734,0.0043917931616306305,0.010258298367261887
0.023275183513760567,0.012471185065805912,-0.009857644326984882,-0.011467047035694122,0.004207699093967676,0.010530431754887104
0.02378590777516365,0.012568523176014423,-0.009775546379387379,-0.011136219836771488,0.0041959225200116634,0.010581864044070244
0.023981668055057526,0.013268766924738884,-0.009714956395328045,-0.011513247154653072,0.004663228988647461,0.01040016207844019
0.0238308347761631,0.012270614504814148,-0.009399127215147018,-0.011789331212639809,0.004749668762087822,0.010515500791370869
0.02412780001759529,0.012981119565665722,-0.01022391114383936,-0.011795219033956528,0.004422629717737436,0.0105212964117527
0.02427319996058941,0.012650975026190281,-0.009907611645758152,-0.01094419788569212,0.004408332984894514,0.010477150790393353
0.024583639577031136,0.013057052157819271,-0.010319339111447334,-0.010981258004903793,0.004329165443778038,0.010560007765889168
0.024495478719472885,0.013333573006093502,-0.01103124301880598,-0.011057635769248009,0.0043938783928751945,0.010863304138183594
0.02461942844092846,0.013306673616170883,-0.010150370188057423,-0.01139660831540823,0.004746133927255869,0.010279633104801178
0.02526165172457695,0.012867304496467113,-0.01029935572296381,-0.011785322800278664,0.004694920498877764,0.010347576811909676
0.02479693666100502,0.01372171938419342,-0.010251871310174465,-0.010720890015363693,0.004135636612772942,0.010515831410884857
0.024725478142499924,0.013291540555655956,-0.010142683051526546,-0.011153879575431347,0.0042611644603312016,0.01047422643750906
0.02260500378906727,0.013454045169055462,-0.01110433042049408,-0.011778170242905617,0.004196725320070982,0.010501580312848091
0.025168780237436295,0.01268596202135086,-0.010262765921652317,-0.011803936213254929,0.004335412289947271,0.010946528986096382
0.02581987902522087,0.013200975954532623,-0.01007026620209217,-0.011789476498961449,0.00455022556707263,0.010432186536490917
0.02491247095167637,0.013111300766468048,-0.010711458511650562,-0.011564579792320728,0.004717498552054167,0.01056436263024807
0.02491247095167637,0.013111300766468048,-0.010711458511650562,-0.011564579792320728,0.004717498552054167,0.01056436263024807
0.024899709969758987,0.013765675015747547,-0.01049868855625391,-0.011819079518318176,0.004851379431784153,0.010926298797130585
0.02496948279440403,0.013895991258323193,-0.010306879878044128,-0.012165995314717293,0.004399534314870834,0.010604015551507473
0.025455035269260406,0.013030876405537128,-0.010807685554027557,-0.011812038719654083,0.003990390338003635,0.010872007347643375
0.025390446186065674,0.0128744812682271,-0.010283639654517174,-0.012501086108386517,0.003987358417361975,0.011325580067932606
0.02449711039662361,0.012752247042953968,-0.010963551700115204,-0.012179714627563953,0.004113856237381697,0.011197756975889206
0.024601077660918236,0.013379027135670185,-0.011573133058845997,-0.012127122841775417,0.004475685767829418,0.010893672704696655
0.025230931118130684,0.01263328455388546,-0.009792263619601727,-0.012307614088058472,0.004761055111885071,0.01138262264430523
0.025584828108549118,0.013284054584801197,-0.01037517748773098,-0.011781970970332623,0.004555374383926392,0.011134025640785694
0.0256839320063591,0.012776224873960018,-0.010864033363759518,-0.012129700742661953,0.004389041103422642,0.010934989899396896
0.025512315332889557,0.013387247920036316,-0.01006615161895752,-0.011745363473892212,0.00405870471149683,0.011515988036990166
0.025352710857987404,0.013065071776509285,-0.01079054269939661,-0.012811528518795967,0.004120572004467249,0.011437046341598034
0.025427525863051414,0.013777817599475384,-0.010377214290201664,-0.011965754441916943,0.004061788786202669,0.011657207272946835
0.02551744505763054,0.013400760479271412,-0.010328356176614761,-0.011180008761584759,0.004380520433187485,0.011688209138810635
0.025801949203014374,0.013279005885124207,-0.010823240503668785,-0.011645427905023098,0.004303415305912495,0.011027648113667965
0.025812702253460884,0.013282029889523983,-0.010207917541265488,-0.011828063987195492,0.004457963164895773,0.011479489505290985
0.02602238766849041,0.013467873446643353,-0.010923024266958237,-0.012307971715927124,0.004449385683983564,0.011621912010014057
0.026341646909713745,0.012870191596448421,-0.010073504410684109,-0.012792379595339298,0.004149556625634432,0.011372177861630917
0.02666776441037655,0.013200041837990284,-0.010552944615483284,-0.012633128091692924,0.0038909714203327894,0.0117898965254426
0.026575827971100807,0.012933164834976196,-0.01076717209070921,-0.012413055635988712,0.004182685632258654,0.011313611641526222
0.025901298969984055,0.01360107772052288,-0.010128962807357311,-0.01288770791143179,0.004878950770944357,0.01172158308327198
0.025922562927007675,0.013162930496037006,-0.010679450817406178,-0.012432566843926907,0.004825083538889885,0.011453809216618538
0.02603890188038349,0.013367246836423874,-0.01064338069409132,-0.012958500534296036,0.004471340216696262,0.011814603582024574
0.02614252083003521,0.013111216947436333,-0.01098328921943903,-0.012408331967890263,0.004452969413250685,0.011710931546986103
0.026362920179963112,0.01337901595979929,-0.011507848277688026,-0.012750149704515934,0.004634331911802292,0.011583448387682438
0.02651587314903736,0.013044789433479309,-0.010297410190105438,-0.012746365740895271,0.004622163251042366,0.0119487214833498
0.02631431445479393,0.013090722262859344,-0.010066565126180649,-0.012922212481498718,0.004173569846898317,0.012089121155440807
0.026303347200155258,0.013318256475031376,-0.010978884994983673,-0.012831900268793106,0.004429526161402464,0.012132033705711365
0.02694597840309143,0.012541492469608784,-0.01063069049268961,-0.012680296786129475,0.004172559827566147,0.011811353266239166
0.026618972420692444,0.01295104343444109,-0.010942385531961918,-0.013032330200076103,0.004253440536558628,0.011468273587524891
0.026203293353319168,0.012692980468273163,-0.010795770213007927,-0.012743423692882061,0.0044509489089250565,0.011762176640331745
0.02624380774796009,0.013291734270751476,-0.010188572108745575,-0.013134987093508244,0.004520350135862827,0.011930444277822971
0.02644011564552784,0.01301273237913847,-0.01069822907447815,-0.01262008398771286,0.004346730653196573,0.012639354914426804
0.02644011564552784,0.01301273237913847,-0.01069822907447815,-0.01262008398771286,0.004346730653196573,0.012639354914426804
0.026304930448532104,0.013036109507083893,-0.010545296594500542,-0.01217789575457573,0.0043546357192099094,0.012604576535522938
0.02552073635160923,0.012905340641736984,-0.01000958401709795,-0.013116050511598587,0.004411781672388315,0.011889103800058365
0.027038121595978737,0.01309468224644661,-0.010920793749392033,-0.013939746655523777,0.004547469783574343,0.011828599497675896
0.027328992262482643,0.013234464451670647,-0.010740391910076141,-0.013418798334896564,0.0045891557820141315,0.011972918175160885
0.02717396803200245,0.013301628641784191,-0.010601634159684181,-0.013132244348526001,0.004557768348604441,0.012794043868780136
0.027259930968284607,0.013088134117424488,-0.010766171850264072,-0.013395043089985847,0.004155264236032963,0.012394851073622704
0.026492854580283165,0.012590554542839527,-0.01010526530444622,-0.013367289677262306,0.004182710312306881,0.012239640578627586
0.02655833587050438,0.013430764898657799,-0.010623462498188019,-0.013748787343502045,0.004310918971896172,0.012262475676834583
0.02743128314614296,0.01271012518554926,-0.010607399977743626,-0.013761994428932667,0.004484821576625109,0.012198626063764095
0.02734941616654396,0.013166442513465881,-0.010331323370337486,-0.014170612208545208,0.005261826794594526,0.012549235485494137
0.027126748114824295,0.012991596013307571,-0.010610679164528847,-0.012929464690387249,0.005267107859253883,0.012402588501572609
0.028209960088133812,0.01340935006737709,-0.010930756106972694,-0.013238446786999702,0.004656715784221888,0.013012942858040333
0.027543378993868828,0.014295908622443676,-0.011036678217351437,-0.013706449419260025,0.0040565538220107555,0.01278745848685503
0.027469130232930183,0.013017946854233742,-0.010828771628439426,-0.012901488691568375,0.004769135266542435,0.012516472488641739
0.026895849034190178,0.012342114001512527,-0.010239134542644024,-0.013572289608418941,0.004781421273946762,0.012801788747310638
0.027325641363859177,0.013285398483276367,-0.010429219342768192,-0.01323292963206768,0.004748801235109568,0.01287777815014124
0.028236912563443184,0.012981360778212547,-0.01018335297703743,-0.013459130190312862,0.004863884299993515,0.012411647476255894
0.027844514697790146,0.013499335385859013,-0.011304721236228943,-0.013582843355834484,0.004898778162896633,0.012813988141715527
0.027698444202542305,0.013163168914616108,-0.010405872948467731,-0.014000503346323967,0.004843099974095821,0.012960518710315228
0.027833549305796623,0.013680790551006794,-0.01023759227246046,-0.0134996073320508,0.00506296893581748,0.013540145009756088
0.027448980137705803,0.01350113470107317,-0.010497567243874073,-0.013196572661399841,0.004877723753452301,0.013116072863340378
0.028098253533244133,0.014129197224974632,-0.010392935015261173,-0.013801109977066517,0.004488959442824125,0.013369903899729252
0.027961015701293945,0.013490523211658001,-0.009977249428629875,-0.01413808949291706,0.00453562568873167,0.013537390157580376
0.028098518028855324,0.013652723282575607,-0.010584335774183273,-0.014131076633930206,0.004747320432215929,0.013566163368523121
0.027821220457553864,0.01312254834920168,-0.01078853476792574,-0.013655555434525013,0.004893809091299772,0.013813495635986328
0.028329171240329742,0.013642496429383755,-0.010158054530620575,-0.014072831720113754,0.004906922113150358,0.013564277440309525
0.027949199080467224,0.013790016993880272,-0.010750186629593372,-0.013794535771012306,0.004710410721600056,0.01376571785658598
0.02844514511525631,0.013705393299460411,-0.010114002041518688,-0.014390561729669571,0.005245520733296871,0.01372018177062273
0.028399337083101273,0.013786932453513145,-0.0099760377779603,-0.013660416938364506,0.0052721938118338585,0.013674828223884106
0.028044670820236206,0.013636267744004726,-0.010561821050941944,-0.013772217556834221,0.004922146908938885,0.01375475712120533
0.028044670820236206,0.013636267744004726,-0.010561821050941944,-0.013772217556834221,0.004922146908938885,0.01375475712120533
0.029435237869620323,0.01349580753594637,-0.010523646138608456,-0.013564223423600197,0.004762259311974049,0.013840238563716412
0.029190072789788246,0.013193424791097641,-0.01001761108636856,-0.014286802150309086,0.005058869253844023,0.013493558391928673
0.02870813198387623,0.014217790216207504,-0.010024361312389374,-0.014139948412775993,0.0049525718204677105,0.013958437368273735
0.029076481238007545,0.01376466266810894,-0.009909889660775661,-0.014702768996357918,0.0049313632771372795,0.014472588896751404
0.028943881392478943,0.014548738487064838,-0.010487818159162998,-0.014230943284928799,0.004942114930599928,0.01406156923621893
0.02994026057422161,0.013792291283607483,-0.010854658670723438,-0.014483186416327953,0.004783677868545055,0.013684284873306751
0.030257219448685646,0.014407811686396599,-0.010075623169541359,-0.013963746838271618,0.004707171116024256,0.01395710650831461
0.030493080615997314,0.014183230698108673,-0.010419923812150955,-0.014175370335578918,0.005077993031591177,0.013890598900616169
0.0288713239133358,0.014719592407345772,-0.010251571424305439,-0.013661198318004608,0.005213186144828796,0.014102243818342686
0.029862895607948303,0.013531162403523922,-0.010073397308588028,-0.01425688061863184,0.004782845266163349,0.013345487415790558
0.03055332414805889,0.01414753682911396,-0.01121821254491806,-0.013929123990237713,0.004448393359780312,0.014646010473370552
0.03097209893167019,0.015194028615951538,-0.010191889479756355,-0.014096592552959919,0.0050473762676119804,0.014333914034068584
0.03167037293314934,0.014692651107907295,-0.010359943844377995,-0.014451977796852589,0.005155081860721111,0.013977359049022198
0.032054755836725235,0.014993318356573582,-0.010462098754942417,-0.013999995775520802,0.005346240475773811,0.014375567436218262
0.030548475682735443,0.014342046342790127,-0.010545121505856514,-0.014595147222280502,0.005099849309772253,0.014267157763242722
0.03032180666923523,0.014935260638594627,-0.010871089063584805,-0.014287283644080162,0.005372768733650446,0.014538198709487915
0.03153577819466591,0.01441526971757412,-0.010219229385256767,-0.014920596033334732,0.00502080237492919,0.014489742927253246
0.03153577819466591,0.01441526971757412,-0.010219229385256767,-0.014920596033334732,0.00502080237492919,0.014489742927253246
0.03148922696709633,0.014854352921247482,-0.011520080268383026,-0.014925090596079826,0.004652793984860182,0.014176836237311363
0.03188210353255272,0.014858859591186047,-0.010901512578129768,-0.01451919786632061,0.005766489077359438,0.014655087143182755
0.03188948333263397,0.014953560195863247,-0.01211988553404808,-0.014821517281234264,0.005606004502624273,0.014686230570077896
0.03216563165187836,0.015194229781627655,-0.011739598587155342,-0.014240026473999023,0.005430303048342466,0.014798605814576149
0.031724024564027786,0.015392711386084557,-0.01162191666662693,-0.01486809179186821,0.005165382754057646,0.014347109012305737
0.03329138085246086,0.01523819100111723,-0.011494393460452557,-0.01461750641465187,0.005359861999750137,0.014392323791980743
0.03311736136674881,0.015428297221660614,-0.011201135814189911,-0.014952142722904682,0.005226348992437124,0.014587036333978176
0.033058762550354004,0.014653000049293041,-0.012151451781392097,-0.013144643977284431,0.005390510894358158,0.014968098141252995
0.033058762550354004,0.014653000049293041,-0.012151451781392097,-0.013144643977284431,0.005390510894358158,0.014968098141252995
0.03227318450808525,0.015073970891535282,-0.01196769904345274,-0.015510350465774536,0.005453041289001703,0.014873301610350609
