davideferrari95/blind_handover_controller/data/Test 167 - [2024-02-08 -- 11-10-35]/joint_states_data.csv
shoulder_pan_joint,shoulder_lift_joint,elbow_joint,wrist_1_joint,wrist_2_joint,wrist_3_joint
-0.0016315844841301441,-0.01288931630551815,0.0038309006486088037,0.008148622699081898,1.14337203779894e-24,-0.0028950022533535957
-0.0016315844841301441,-0.01288931630551815,0.0038309006486088037,0.008148622699081898,1.14337203779894e-24,-0.0028950022533535957
-0.0016315844841301441,-0.01288931630551815,0.0038309006486088037,0.008148622699081898,1.14337203779894e-24,-0.0028950022533535957
-0.001702415174804628,-0.013152942061424255,0.0037651213351637125,0.008370952680706978,7.465401816593765e-26,-0.0028064732905477285
-0.0018637985922396183,-0.012575446628034115,0.0043030292727053165,0.009061621502041817,4.874373459290576e-27,-0.002532428130507469
-0.001712904078885913,-0.013043125160038471,0.004108851309865713,0.008582034148275852,3.182617529434379e-28,-0.0022245896980166435
-0.0015517605934292078,-0.012906966730952263,0.003486951347440481,0.007916582748293877,2.078021986264988e-29,-0.0021604839712381363
-0.0013560662046074867,-0.013241090811789036,0.003514658659696579,0.00829809159040451,1.3567998723462232e-30,-0.0020958350505679846
-0.0011296869488433003,-0.013452802784740925,0.0037209829315543175,0.008234426379203796,8.858932736589319e-32,-0.0021222548093646765
-0.0012022668961435556,-0.013116980902850628,0.003384839743375778,0.007890140637755394,5.78425027664543e-33,-0.002463728655129671
-0.0017748255049809813,-0.013567487709224224,0.00354769011028111,0.008388650603592396,3.776701948307512e-34,-0.0027430260088294744
-0.001801072619855404,-0.013222732581198215,0.0036758887581527233,0.00874257180839777,2.465916233311493e-35,-0.0024791478645056486
-0.001987180905416608,-0.013490659184753895,0.003700417932122946,0.00878691952675581,1.6100672726562427e-36,-0.0023811219725757837
-0.001888786326162517,-0.013153442181646824,0.003645749995484948,0.008107943460345268,1.051258816299318e-37,-0.002360425889492035
-0.0015564400237053633,-0.013537812978029251,0.0036561309825628996,0.008957594633102417,6.863969057414537e-39,-0.0022974375169724226
-0.001397733693011105,-0.01280501764267683,0.003650203812867403,0.00946421455591917,4.48167478755756e-40,-0.0025590176228433847
-0.0016768580535426736,-0.013048410415649414,0.004067094996571541,0.009885478764772415,1.9099698068747257e-42,-0.0030715211760252714
-0.0017431284068152308,-0.013398404233157635,0.004252632614225149,0.009201577864587307,1.2471556332490872e-43,-0.002861638553440571
-0.0021747557912021875,-0.01320621557533741,0.0035601879935711622,0.008621005341410637,8.407790785948902e-45,-0.0025924425572156906
-0.0019057008903473616,-0.012964942492544651,0.0035274424590170383,0.008904870599508286,0.0,-0.0023124453146010637
-0.0018179723992943764,-0.012888948433101177,0.004119588062167168,0.009193557314574718,0.0,-0.0024378106463700533
-0.0017547175521031022,-0.012837545946240425,0.004323059227317572,0.00902171153575182,0.0,-0.002542652655392885
-0.0018288452411070466,-0.013200696557760239,0.003959244582802057,0.00904342532157898,0.0,-0.002900003222748637
-0.001837167888879776,-0.012652202509343624,0.003802267834544182,0.009223580360412598,0.0,-0.0027981966268271208
-0.0020496679935604334,-0.012962764129042625,0.003922255244106054,0.009061633609235287,0.0,-0.002813385333865881
-0.0019919034093618393,-0.01241189893335104,0.003981895744800568,0.008951188065111637,0.0,-0.0027163538616150618
-0.0019850132521241903,-0.01258128322660923,0.004202555865049362,0.00898717064410448,0.0,-0.0026596463285386562
-0.0019850132521241903,-0.01258128322660923,0.004202555865049362,0.00898717064410448,0.0,-0.0026596463285386562
-0.001994719263166189,-0.011977249756455421,0.0042213439010083675,0.00925963930785656,0.0,-0.0027276077307760715
-0.002183092525228858,-0.011936280876398087,0.004086598753929138,0.008313738740980625,0.0,-0.0028213192708790302
-0.002130387118086219,-0.012838016264140606,0.003887883620336652,0.008682718500494957,0.0,-0.002638658042997122
-0.002086479449644685,-0.012236105278134346,0.003943153657019138,0.00916319154202938,0.0,-0.0026655527763068676
-0.0022051658015698195,-0.01282793004065752,0.0040314700454473495,0.008245067670941353,0.0,-0.0026351981796324253
-0.0021310008596628904,-0.01237549725919962,0.00400167191401124,0.008146656677126884,0.0,-0.0024414018262177706
-0.0021066998597234488,-0.012755152769386768,0.004285898990929127,0.008420221507549286,0.0,-0.0025010029785335064
-0.002035686047747731,-0.012194306589663029,0.004502841271460056,0.00884602777659893,0.0,-0.0023934885393828154
-0.0020163478329777718,-0.012139835394918919,0.004294210579246283,0.0081332391127944,0.0,-0.0023238686844706535
-0.0020364467054605484,-0.012683188542723656,0.003936272580176592,0.008150577545166016,0.0,-0.002535431180149317
-0.0022564197424799204,-0.012142658233642578,0.0037967839743942022,0.008090588264167309,0.0,-0.0026007848791778088
-0.002024351852014661,-0.012357869185507298,0.0038324547931551933,0.00858620647341013,0.0,-0.0025482948403805494
-0.0021537861321121454,-0.011957359500229359,0.0038592407945543528,0.008244866505265236,0.0,-0.0026478171348571777
-0.0019175783963873982,-0.012437807396054268,0.004233587067574263,0.008710495196282864,0.0,-0.002513387706130743
-0.002026163972914219,-0.012189561501145363,0.004148951731622219,0.008458392694592476,0.0,-0.002326996996998787
-0.002051362069323659,-0.012603985145688057,0.003913590684533119,0.008149072527885437,0.0,-0.0021435548551380634
-0.001871270127594471,-0.011594557203352451,0.0039024867583066225,0.00836312398314476,0.0,-0.0023244377225637436
-0.0020259185694158077,-0.0117145124822855,0.003876358037814498,0.008112038485705853,0.0,-0.002684834646061063
-0.0018645762465894222,-0.011207448318600655,0.0038393139839172363,0.008099124766886234,0.0,-0.002876175567507744
-0.0020032974425703287,-0.011514296755194664,0.004017598461359739,0.008387720212340355,0.0,-0.0027822833508253098
-0.0018416779348626733,-0.012284611351788044,0.004046393092721701,0.008236373774707317,0.0,-0.002759180963039398
-0.0019782560411840677,-0.011117322370409966,0.004426843021064997,0.007972745224833488,0.0,-0.0027565602213144302
-0.0018033361993730068,-0.011631843633949757,0.004227383062243462,0.00813834648579359,0.0,-0.002607916947454214
-0.00199245591647923,-0.011473599821329117,0.0044296798296272755,0.008402849547564983,0.0,-0.0025111602153629065
-0.0018481789156794548,-0.011477145366370678,0.004339112434536219,0.008257406763732433,0.0,-0.002427491592243314
-0.0018481789156794548,-0.011477145366370678,0.004339112434536219,0.008257406763732433,0.0,-0.002427491592243314
-0.0020415019243955612,-0.011882402002811432,0.004019022919237614,0.007922793738543987,0.0,-0.002336486941203475
-0.0020398611668497324,-0.011133314110338688,0.00430820370092988,0.00776011822745204,0.0,-0.0022346642799675465
-0.0020454467739909887,-0.011169896461069584,0.004201444797217846,0.008123968727886677,0.0,-0.002123458543792367
-0.0018308188300579786,-0.011492730118334293,0.0042185536585748196,0.007198645267635584,0.0,-0.0021424361038953066
-0.0018867012113332748,-0.011236408725380898,0.0039816792123019695,0.006862784270197153,0.0,-0.0020432586316019297
-0.0017491461476311088,-0.011487401090562344,0.0038479422219097614,0.007291082292795181,0.0,-0.002383661223575473
-0.001955704065039754,-0.011056831106543541,0.004356028512120247,0.007417844142764807,0.0,-0.002339341677725315
-0.002068392699584365,-0.011169681325554848,0.004200743976980448,0.007348447572439909,0.0,-0.0023986410815268755
-0.002098897472023964,-0.011151894927024841,0.0039299591444432735,0.006800050847232342,0.0,-0.0026725430507212877
-0.0023007404524832964,-0.011049089021980762,0.004338622093200684,0.006738342810422182,0.0,-0.0026124007999897003
-0.002175863366574049,-0.011896111071109772,0.0044884406961500645,0.007095169275999069,0.0,-0.002531794598326087
-0.0020984725560992956,-0.010999207384884357,0.004353153519332409,0.0069679091684520245,0.0,-0.0026786793023347855
-0.0018572701374068856,-0.012005222029983997,0.004084169398993254,0.006508474238216877,0.0,-0.0028245768044143915
-0.001982526620849967,-0.011348332278430462,0.004110254347324371,0.006836338900029659,0.0,-0.0029899287037551403
-0.0022030980326235294,-0.011021643877029419,0.0037728461902588606,0.006857697386294603,0.0,-0.00243012560531497
-0.0021201560739427805,-0.010834833607077599,0.003923451527953148,0.006821557879447937,0.0,-0.0021842275746166706
-0.0020154868252575397,-0.010888727381825447,0.004482345189899206,0.007067333906888962,0.0,-0.0021008560433983803
-0.0019588787108659744,-0.01111704483628273,0.004131074994802475,0.0073035708628594875,0.0,-0.002269890857860446
-0.0017988223116844893,-0.010661283507943153,0.004296531900763512,0.007293316535651684,0.0,-0.0023234246764332056
-0.0017947881715372205,-0.010905553586781025,0.004352780990302563,0.0069368751719594,0.0,-0.002749006962403655
-0.0019573080353438854,-0.010905611328780651,0.004533161409199238,0.006534640211611986,0.0,-0.002904111286625266
-0.0019392174435779452,-0.01069651823490858,0.004230552818626165,0.0070241475477814674,0.0,-0.0029137576930224895
-0.0020152763463556767,-0.010768904350697994,0.004195565357804298,0.00675559276714921,0.0,-0.0027182779740542173
-0.0019638098310679197,-0.010589971207082272,0.004194942303001881,0.006428487133234739,0.0,-0.002694883616641164
-0.0019638098310679197,-0.010589971207082272,0.004194942303001881,0.006428487133234739,0.0,-0.002694883616641164
-0.0018915175460278988,-0.010128907859325409,0.003982736729085445,0.0063032773323357105,0.0,-0.0026246390771120787
-0.0018695940962061286,-0.010939628817141056,0.0042791529558598995,0.006672468036413193,0.0,-0.0025948560796678066
-0.001861394732259214,-0.010597574524581432,0.004073056858032942,0.006630105432122946,0.0,-0.0025223083794116974
-0.001788746565580368,-0.010262402705848217,0.0039024637080729008,0.006331121549010277,0.0,-0.002230919897556305
-0.0018694516038522124,-0.010796884074807167,0.0038637188263237476,0.0060477470979094505,0.0,-0.0022732624784111977
-0.0016920423367992043,-0.010279946960508823,0.004371142480522394,0.006066623143851757,0.0,-0.0024756290949881077
-0.0015588131500408053,-0.010313017293810844,0.004532209597527981,0.006440202705562115,0.0,-0.0027078422717750072
-0.0015044630272313952,-0.010601653717458248,0.00431644544005394,0.006412895396351814,0.0,-0.0026933946646749973
-0.0015221897047013044,-0.011062448844313622,0.004081100691109896,0.00615924084559083,0.0,-0.0026790641713887453
-0.0016879854956641793,-0.011664710007607937,0.004283918533474207,0.006056202109903097,0.0,-0.0027036448009312153
-0.0015728184953331947,-0.011433473788201809,0.004201639909297228,0.006124446168541908,0.0,-0.0026049131993204355
-0.0016522094374522567,-0.010595802217721939,0.004325183108448982,0.006594203412532806,0.0,-0.0028325659222900867
-0.0016988500719889998,-0.011776241473853588,0.004175589419901371,0.006336649414151907,1.5317858924390748e-05,-0.00288554560393095
-0.0015770314494147897,-0.010492941364645958,0.004489273298531771,0.005868237931281328,1.0001467671827413e-06,-0.0026445002295076847
-0.0014053352642804384,-0.010750285349786282,0.004362114705145359,0.005885465536266565,6.530243723545937e-08,-0.0026451298035681248
-0.0014066759031265974,-0.01068178005516529,0.0043168081901967525,0.0061623393557965755,2.7839452965139344e-10,-0.002264714101329446
-0.0014913585036993027,-0.010865581221878529,0.004073233809322119,0.005797004792839289,1.8177173308209227e-11,-0.002343926578760147
-0.0015133107081055641,-0.010675329715013504,0.003960483707487583,0.005994712468236685,1.1868393637662344e-12,-0.00285780499689281
-0.0014288341626524925,-0.010298010893166065,0.004040975123643875,0.005859203636646271,7.749213055095738e-14,-0.00304448907263577
-0.0013531293952837586,-0.01085919700562954,0.004062727093696594,0.005697000306099653,5.0596827007548355e-15,-0.002940236357972026
-0.0013838820159435272,-0.010470359586179256,0.004273631609976292,0.005445285700261593,0.00025953209842555225,-0.0028884399216622114
-0.0013107463018968701,-0.010576972737908363,0.004058943595737219,0.00531398132443428,0.0004841580521315336,-0.002874888014048338
-0.0013936754548922181,-0.011125612072646618,0.0039603328332304955,0.005359265021979809,0.0005330689018592238,-0.002881300402805209
-0.0013469071127474308,-0.010024073533713818,0.003949824720621109,0.005340417847037315,0.0005280778859741986,-0.002984734484925866
-0.0013321973383426666,-0.010663927532732487,0.00424558948725462,0.0054963380098342896,0.0005499871913343668,-0.00301148509606719
-0.0013920569326728582,-0.011052832938730717,0.004261144436895847,0.005394795909523964,0.0006842155708000064,-0.0029417730402201414
-0.0013920569326728582,-0.011052832938730717,0.004261144436895847,0.005394795909523964,0.0006842155708000064,-0.0029417730402201414
-0.0013403781922534108,-0.011051363311707973,0.004107906017452478,0.005774958524852991,0.0008540801354683936,-0.0024279446806758642
-0.0012806130107492208,-0.011374006047844887,0.004205836448818445,0.005677748471498489,0.000869578798301518,-0.0022865014616400003
-0.00121474196203053,-0.010398256592452526,0.004214750602841377,0.0056098331697285175,0.0008739348850212991,-0.0024480128195136786
-0.0011566918110474944,-0.010086800903081894,0.004093142691999674,0.005221158731728792,0.0009832471841946244,-0.003411267651244998
-0.0011263617780059576,-0.01072267722338438,0.004003734793514013,0.005092252511531115,0.00101307756267488,-0.003704811679199338
-0.0010057594627141953,-0.010508912615478039,0.003905263263732195,0.005629920866340399,0.0009786162991076708,-0.0035127419978380203
-0.0008231826359406114,-0.010294738225638866,0.004035355523228645,0.005454103462398052,0.0008756081806495786,-0.003092858474701643
-0.0006957231089472771,-0.010588119737803936,0.003972961567342281,0.005168272648006678,0.0008648970979265869,-0.0028359643183648586
-0.0006024694885127246,-0.010534060187637806,0.004425737075507641,0.005005444400012493,0.0007928058039397001,-0.0026290009263902903
-0.0005312790162861347,-0.009985147044062614,0.004183663520962,0.0049162358045578,0.0007037970353849232,-0.0028912147972732782
-0.0004751464002765715,-0.010549725033342838,0.003962324466556311,0.004925380926579237,0.0007149273296818137,-0.0027085028123110533
-0.0004297461418900639,-0.00983244739472866,0.0038779170718044043,0.00487610325217247,0.0006952594267204404,-0.0025545989628881216
-0.000392268062569201,-0.010243610478937626,0.004334367346018553,0.005022713448852301,0.0006682922830805182,-0.002636323217302561
-0.0003608055703807622,-0.010113652795553207,0.0040763686411082745,0.0048675560392439365,0.0006069174851290882,-0.0028185213450342417
-0.0003340171242598444,-0.00980575941503048,0.0038886673282831907,0.004673912189900875,0.0006271492457017303,-0.00337343942373991
-0.00031093243160285056,-0.010071468539536,0.003902380121871829,0.004239133559167385,0.0006097861332818866,-0.0037271128967404366
-0.000327028043102473,-0.009553652256727219,0.004244228824973106,0.0046882955357432365,0.0005887604784220457,-0.0030492651276290417
-0.00030903509468771517,-0.009674454107880592,0.00404796376824379,0.004798037000000477,0.000541479850653559,-0.0029316656291484833
-0.0002923135762102902,-0.00949764158576727,0.0039902194403111935,0.004801437258720398,0.0005690193502232432,-0.0028970118146389723
-0.0002773013256955892,-0.009545447304844856,0.003918295260518789,0.004694961477071047,0.0005816419143229723,-0.0026363565120846033
-0.00026375497691333294,-0.009952981024980545,0.0038588347379118204,0.0045874700881540775,0.0005542662693187594,-0.002719490323215723
-0.0002514717052690685,-0.01034869160503149,0.003859237302094698,0.0046296329237520695,0.0005156828556209803,-0.0026651679072529078
-0.00024028107873164117,-0.009140643291175365,0.004086730070412159,0.0046969931572675705,0.0005130135104991496,-0.003116175066679716
-0.00023004414106253535,-0.00983042549341917,0.003989490680396557,0.004661543760448694,0.0004888178664259613,-0.0032560997642576694
-0.0002206439821748063,-0.009633824229240417,0.0038554256316274405,0.004238010849803686,0.00044273806270211935,-0.0034442259930074215
-0.0002119819400832057,-0.009202532470226288,0.004377618432044983,0.0042168390937149525,0.0004622193519026041,-0.0032774251885712147
-0.00020397439948283136,-0.00888320803642273,0.0041531771421432495,0.004066103603690863,0.00044257304398342967,-0.0031629966106265783
-0.00020397439948283136,-0.00888320803642273,0.0041531771421432495,0.004066103603690863,0.00044257304398342967,-0.0031629966106265783
-0.00019654975039884448,-0.009486803784966469,0.0038842870853841305,0.003855201182886958,0.0004101351660210639,-0.0031355295795947313
-0.00018321203242521733,-0.008467099629342556,0.003908486571162939,0.0033226071391254663,0.00041486648842692375,-0.003691361052915454
-0.000177200126927346,-0.00916281994432211,0.003883801167830825,0.0031835229601711035,0.00043781596468761563,-0.00332505046389997
-0.000177200126927346,-0.00916281994432211,0.003883801167830825,0.0031835229601711035,0.00043781596468761563,-0.00332505046389997
-0.00017156984540633857,-0.008620698936283588,0.004253764171153307,0.00346083240583539,0.00041893977322615683,-0.0034415568225085735
-0.00016628624871373177,-0.008809168823063374,0.004237303044646978,0.0037000777665525675,0.0003982288180850446,-0.0032681047450751066
-0.00016131882148329169,-0.009239166043698788,0.004450544249266386,0.003781804582104087,0.000399438024032861,-0.003147643990814686
-0.0001566393329994753,-0.00891077145934105,0.0038688478525727987,0.003356699366122484,0.0004327370843384415,-0.003109715413302183
-0.0001522235688753426,-0.008281667716801167,0.003543097758665681,0.003492949064821005,0.00045890401815995574,-0.0031445755157619715
-0.00014805009413976222,-0.008651087991893291,0.0036764200776815414,0.0032710423693060875,0.0004735698166768998,-0.003409295342862606
-0.00014409930736292154,-0.008599475026130676,0.003936088178306818,0.0034307425376027822,0.0004749100480694324,-0.003730572760105133
-0.00014035392086952925,-0.008208323270082474,0.004042413085699081,0.003435290651395917,0.0008057854720391333,-0.00381019851192832
-0.00013679833500646055,-0.008187434636056423,0.004111395683139563,0.0033493791706860065,0.0007750802324153483,-0.003532971488311887
-0.00013341840531211346,-0.008406697772443295,0.003546064253896475,0.003170071868225932,0.0007801117026247084,-0.0033781433012336493
-0.00013020136975683272,-0.008245999924838543,0.003620850620791316,0.00306951766833663,0.0007545589469373226,-0.0031473946291953325
-0.00012421165592968464,-0.007862802594900131,0.00379760074429214,0.0030347530264407396,0.0007003281498327851,-0.0034083544742316008
-0.00012141869956394657,-0.008602318353950977,0.003502461826428771,0.003013135399669409,0.0006457370473071933,-0.0033517414703965187
-0.00011874872143380344,-0.008041318506002426,0.0036715888418257236,0.0030286202672868967,0.0006497289869002998,-0.0034317553509026766
-0.0001161935506388545,-0.008042356930673122,0.003902193158864975,0.00341003923676908,0.0006025026086717844,-0.0036267454270273447
-0.00011374601308489218,-0.008410841226577759,0.004435138311237097,0.003279502969235182,0.0006096631404943764,-0.0036748102866113186
-0.00011139958951389417,-0.008344393223524094,0.004178062081336975,0.003066035220399499,0.0005745041416957974,-0.0034636317286640406
-0.00010914786980720237,-0.008013580925762653,0.0035278666764497757,0.0030940903816372156,0.0005977092660032213,-0.0033166033681482077
-0.00010698544065235183,-0.007694564294070005,0.0036224129144102335,0.0032718193251639605,0.0006137299933470786,-0.003291924949735403
-0.0001049070488079451,-0.007634964305907488,0.003699243301525712,0.003111468628048897,0.000655964482575655,-0.0031814556568861008
-0.00010290787759004161,-0.007993142120540142,0.003727698465809226,0.0029928619042038918,0.0006902406457811594,-0.003382266964763403
-0.00010290787759004161,-0.007993142120540142,0.003727698465809226,0.0029928619042038918,0.0006902406457811594,-0.003382266964763403
-8.438299119006842e-05,-0.007548531051725149,0.003825125051662326,0.002627270994707942,0.0007133407634682953,-0.003628669073805213
-8.261110633611679e-05,-0.008104798384010792,0.003245759755373001,0.002200739923864603,0.0010827737860381603,-0.003775545861572027
-8.111901115626097e-05,-0.007920968346297741,0.0027874873485416174,0.0021384069696068764,0.0010714654345065355,-0.0037617774214595556
-7.968259160406888e-05,-0.007620104588568211,0.002583774272352457,0.0022885389626026154,0.0010462059872224927,-0.0036929461639374495
-6.285076233325526e-05,-0.0071072690188884735,0.002492327708750963,0.0022773209493607283,0.000978439929895103,-0.0036452680360525846
-6.156862946227193e-05,-0.007367975544184446,0.0030329518485814333,0.002427533734589815,0.0010659177787601948,-0.0036321235820651054
-6.053066681488417e-05,-0.007486594375222921,0.00333173805847764,0.0023706466890871525,0.0010442497441545129,-0.0036995175760239363
-5.952969513600692e-05,-0.007451471872627735,0.0031528195831924677,0.00221830140799284,0.0010234438814222813,-0.003842554986476898
-5.8561341575114056e-05,-0.007365639787167311,0.002917925361543894,0.002016626764088869,0.0010186118306592107,-0.003999887965619564
-5.762395085184835e-05,-0.007607134059071541,0.00261689443141222,0.0019530858844518661,0.0010464828228577971,-0.00406328309327364
-5.671612962032668e-05,-0.007761932909488678,0.002563757821917534,0.0018599886680021882,0.0010452423011884093,-0.0036224746145308018
-4.206761150271632e-05,-0.007586004678159952,0.0027266088873147964,0.0018464872846379876,0.0010085414396598935,-0.0033938053529709578
-4.1240320570068434e-05,-0.007470902055501938,0.0028854557313024998,0.0017672323156148195,0.0009912269888445735,-0.003239446086809039
-4.061744766659103e-05,-0.0074536604806780815,0.002947587287053466,0.0016710171476006508,0.001011288957670331,-0.0034266237635165453
-4.0015474951360375e-05,-0.007528364192694426,0.0027893672231584787,0.001624633208848536,0.0009955401765182614,-0.0037282078992575407
2.4650717023178004e-05,-0.0068834275007247925,0.002590437885373831,0.001399075030349195,0.0009053142857737839,-0.004075992852449417
2.6848229026654735e-05,-0.007218504324555397,0.002858503023162484,0.0013116436311975121,0.0009547342197038233,-0.0038810507394373417
2.6487565264687873e-05,-0.007723227608948946,0.002923602005466819,0.0012205546954646707,0.000879507337231189,-0.0037555494345724583
3.763303175219335e-05,-0.00719385826960206,0.0028458356391638517,0.0011570078786462545,0.0008778020273894072,-0.003723582485690713
3.8575737562496215e-05,-0.006837361957877874,0.0026337732560932636,0.0010433463612571359,0.0008725968073122203,-0.0038149720057845116
3.8051959563745186e-05,-0.007163723930716515,0.0028242911212146282,0.001017873059026897,0.0008340263739228249,-0.0038874864112585783
3.7523404898820445e-05,-0.007324093487113714,0.0029591810889542103,0.0009154189028777182,0.0007489206036552787,-0.003922668285667896
4.8854064516490325e-05,-0.007295338436961174,0.0026753703132271767,0.0008539714617654681,0.0007551772869192064,-0.004255588166415691
4.867162715527229e-05,-0.00681557459756732,0.0027671768330037594,0.0007937299669720232,0.0007576493662782013,-0.004127998370677233
4.802871626452543e-05,-0.00714986864477396,0.0028042702469974756,0.0007509568822570145,0.0007475304882973433,-0.0039391908794641495
5.908448656555265e-05,-0.007095096632838249,0.002686246996745467,0.0007150624878704548,0.0007259332342073321,-0.003859724849462509
5.84735898883082e-05,-0.006855454761534929,0.002516490872949362,0.0006450025248341262,0.0008491387707181275,-0.0034610331058502197
5.772562144557014e-05,-0.006720171310007572,0.0028220934327691793,0.0006572113488800824,0.0009497636929154396,-0.003438072744756937
0.00029239594005048275,-0.006774183362722397,0.0030262148939073086,0.0006155259907245636,0.0011598170967772603,-0.0036084286402910948
0.00029239594005048275,-0.006774183362722397,0.0030262148939073086,0.0006155259907245636,0.0011598170967772603,-0.0036084286402910948
0.000283795699942857,-0.006858811713755131,0.0026702487375587225,0.0004918531631119549,0.0014362656511366367,-0.004102220758795738
0.000283795699942857,-0.006858811713755131,0.0026702487375587225,0.0004918531631119549,0.0014362656511366367,-0.004102220758795738
0.00031959335319697857,-0.006526371464133263,0.002515103667974472,0.0004433639987837523,0.0013480467023327947,-0.004229838494211435
0.000302402040688321,-0.0064644599333405495,0.0025901179760694504,0.00047847474343143404,0.001362256589345634,-0.004367016721516848
0.0003284212725702673,-0.0067353565245866776,0.002519066911190748,0.00044399366015568376,0.0012815427035093307,-0.004606620874255896
0.00031719793332740664,-0.007027097977697849,0.0028740440029650927,0.00041053115273825824,0.0012205791426822543,-0.004403035156428814
0.0003434455138631165,-0.006641100626438856,0.002649658126756549,0.00038152612978592515,0.0011393658351153135,-0.004336388316005468
0.0003293922054581344,-0.00686007970944047,0.0025311638601124287,0.0003563353093340993,0.0010857217712327838,-0.004805887583643198
0.0004701564903371036,-0.006851688493043184,0.002642611972987652,0.0003342646232340485,0.0010530359577387571,-0.005008023697882891
0.0005144225433468819,-0.00746917212381959,0.002777442568913102,0.00031477102311328053,0.0010477581527084112,-0.004754757974296808
0.000524122326169163,-0.006688506808131933,0.002538815839216113,0.00029742595506832004,0.001079606357961893,-0.0048246788792312145
0.0005068135214969516,-0.006396929267793894,0.002584956120699644,0.00028189399745315313,0.0011902385158464313,-0.004831388592720032
0.000504099705722183,-0.006951112765818834,0.0023302654735744,0.0002552373334765434,0.0013276261743158102,-0.004340665880590677
0.0006538949673995376,-0.007504123263061047,0.002501105424016714,0.00024371492327190936,0.0013170811580494046,-0.00430305628105998
0.0007077456102706492,-0.006399927195161581,0.0024001121055334806,0.00018645085219759494,0.001108391908928752,-0.004760419484227896
0.0007077456102706492,-0.006399927195161581,0.0024001121055334806,0.00018645085219759494,0.001108391908928752,-0.004760419484227896
0.0006991979898884892,-0.006917849648743868,0.002653975272551179,0.00017888301226776093,0.001074967673048377,-0.004777999594807625
0.0006660248036496341,-0.007312270812690258,0.0025383401662111282,0.00017203285824507475,0.001084718620404601,-0.0045518833212554455
0.000833088590297848,-0.007136995904147625,0.002406159183010459,0.00016569686704315245,0.0010592457838356495,-0.004186762496829033
0.0008735003648325801,-0.006724788341671228,0.002676483942195773,0.00015981149044819176,0.0010342918103560805,-0.004333306569606066
0.0008772329892963171,-0.007440668530762196,0.00289983581751585,0.00015432956570293754,0.0010002226335927844,-0.004128248896449804
0.0008065079455263913,-0.00784140545874834,0.0029972747433930635,0.0001492118026362732,0.0009828552138060331,-0.004341503605246544
0.0010259135160595179,-0.006945488508790731,0.002740107011049986,0.00012303896073717624,0.0009088072692975402,-0.004468951374292374
0.0009098502923734486,-0.006863762624561787,0.0027024922892451286,0.00011243464541621506,0.0009034365066327155,-0.004389024805277586
0.0009070021333172917,-0.006988880690187216,0.0026640198193490505,0.00010860039765248075,0.0008373630698770285,-0.004553775303065777
0.0009060261072590947,-0.007681061513721943,0.0024965053889900446,0.00010539202048676088,0.0007353677065111697,-0.004963656421750784
0.0009060261072590947,-0.007681061513721943,0.0024965053889900446,0.00010539202048676088,0.0007353677065111697,-0.004963656421750784
0.0009903648169711232,-0.007568657863885164,0.0025496340822428465,8.982676081359386e-05,0.0008112667128443718,-0.004920979496091604
0.001025283825583756,-0.006777991075068712,0.0025998950004577637,7.552108581876382e-05,0.0008258462767116725,-0.004573733080178499
0.001033108332194388,-0.006674319040030241,0.00249106134288013,7.271605136338621e-05,0.0009172077989205718,-0.004769851453602314
0.001407671719789505,-0.007274930831044912,0.0027933274395763874,-2.4753388061071746e-05,0.00099859363399446,-0.0047861733473837376
0.0014329871628433466,-0.007557610981166363,0.0026588954497128725,-5.4218340665102005e-05,0.001007604761980474,-0.00488807400688529
0.0014180936850607395,-0.007492899429053068,0.002535368548706174,-7.827775698387995e-05,0.0010137070203199983,-0.00447849603369832
0.0015093297697603703,-0.006322764325886965,0.002675251802429557,-7.937054033391178e-05,0.0012408256297931075,-0.004435479175299406
0.001414835569448769,-0.006578553002327681,0.002799844369292259,-9.641477663535625e-05,0.001310266787186265,-0.004527499433606863
0.0015289022121578455,-0.0068694790825247765,0.0024530012160539627,-0.00011210791126359254,0.0012046195333823562,-0.004504889249801636
0.0015899002319201827,-0.006937370635569096,0.002582422224804759,-0.00012138721649535,0.0013356987619772553,-0.004791812505573034
0.0017999146366491914,-0.006699813064187765,0.002759306225925684,-0.0006794517976231873,0.0012731801252812147,-0.004905312322080135
0.0017499232199043036,-0.0066887675784528255,0.00293137738481164,-0.0007433487335219979,0.0012109266826882958,-0.005119772627949715
0.0019293202785775065,-0.006604932248592377,0.0028474561404436827,-0.0015984374331310391,0.0011631000088527799,-0.005100658163428307
0.001930694212205708,-0.006618465296924114,0.0027549131773412228,-0.0021864608861505985,0.0011573552619665861,-0.005218008998781443
0.0018960681045427918,-0.006368117872625589,0.0028889793902635574,-0.0023435447365045547,0.0011552432551980019,-0.0050481166690588
0.0018975842976942658,-0.006165935657918453,0.002774614840745926,-0.0026783538050949574,0.0012800389667972922,-0.004913155920803547
0.001883910852484405,-0.006845788098871708,0.0031337402760982513,-0.0027265555690973997,0.0012759935343638062,-0.00476286094635725
0.001970005454495549,-0.006739214528352022,0.0029639105778187513,-0.002767503261566162,0.0015396272065117955,-0.0047108083963394165
0.0019445164361968637,-0.0061070481315255165,0.0027672317810356617,-0.003355802269652486,0.0015281258383765817,-0.004585179965943098
0.001980361295863986,-0.006021665874868631,0.0025229190941900015,-0.0038590843323618174,0.0014559312257915735,-0.0046271709725260735
0.0019507238175719976,-0.0061570522375404835,0.0025841586757451296,-0.004010377451777458,0.0015266153495758772,-0.005094711668789387
0.002438029507175088,-0.006748747546225786,0.0027707736007869244,-0.004448078107088804,0.0014510113978758454,-0.004745283164083958
0.003304362064227462,-0.00688288826495409,0.0027347016148269176,-0.004219420254230499,0.001594935660250485,-0.004959471058100462
0.0032227642368525267,-0.00585677195340395,0.0028252038173377514,-0.0044913883320987225,0.0015646571991965175,-0.005289821419864893
0.0029476266354322433,-0.005902919452637434,0.002492676954716444,-0.004354536533355713,0.0014915266074240208,-0.005241237115114927
0.0029476266354322433,-0.005902919452637434,0.002492676954716444,-0.004354536533355713,0.0014915266074240208,-0.005241237115114927
0.002920644823461771,-0.006070964504033327,0.0025581978261470795,-0.00485576456412673,0.001377519452944398,-0.005173681769520044
0.002975945360958576,-0.005613184068351984,0.002926879795268178,-0.005151605699211359,0.0012389019830152392,-0.004978103097528219
0.00336127239279449,-0.005611601285636425,0.0029856967739760876,-0.005334109533578157,0.001210581511259079,-0.005154652055352926
0.0037518301978707314,-0.00602252222597599,0.0027291695587337017,-0.0054819658398628235,0.0011771834688261151,-0.005187882110476494
0.0037518301978707314,-0.00602252222597599,0.0027291695587337017,-0.0054819658398628235,0.0011771834688261151,-0.005187882110476494
0.003447221126407385,-0.0058738901279866695,0.002542642643675208,-0.005197681020945311,0.001320091774687171,-0.005614179186522961
0.0034914142452180386,-0.0061652930453419685,0.0022130196448415518,-0.005395630840212107,0.0016571952728554606,-0.00539362570270896
0.004172694403678179,-0.00568535877391696,0.002312716329470277,-0.005630457773804665,0.0020757275633513927,-0.005137560423463583
0.004080874379724264,-0.005773129407316446,0.0025573999155312777,-0.006163738667964935,0.0021073780953884125,-0.00557106314226985
0.004441750235855579,-0.005454117897897959,0.0028878492303192616,-0.005948380567133427,0.002015138976275921,-0.00580441253259778
0.004139538388699293,-0.005945201031863689,0.0027247443795204163,-0.005859564058482647,0.0018434235826134682,-0.0060310945846140385
0.0042515704408288,-0.005605912301689386,0.0026543671265244484,-0.005952017847448587,0.001724375644698739,-0.006115540862083435
0.004279489163309336,-0.005800229497253895,0.0023239809088408947,-0.006160359364002943,0.001687167794443667,-0.005639503709971905
0.0044672247022390366,-0.005167524795979261,0.0022217445075511932,-0.006439972668886185,0.0015989354578778148,-0.0057068620808422565
0.004634415730834007,-0.005493387579917908,0.0023612123914062977,-0.0068052890710532665,0.0015972746768966317,-0.005895976908504963
0.004701819270849228,-0.005878449883311987,0.0027816672809422016,-0.005982774775475264,0.0017278242157772183,-0.005764609668403864
0.004434213973581791,-0.005484720226377249,0.0025519581977277994,-0.0065041580237448215,0.0017937269294634461,-0.0057097384706139565
0.004518234636634588,-0.005802157334983349,0.002320490777492523,-0.006929134950041771,0.0016854585846886039,-0.006039354018867016
0.005069222766906023,-0.00534681836143136,0.0022906027734279633,-0.006369701121002436,0.0017160852439701557,-0.005563792772591114
0.005148452706634998,-0.005522207356989384,0.0022364940959960222,-0.005990269128233194,0.00165656884200871,-0.00538897467777133
0.004886950366199017,-0.005585693288594484,0.0024736474733799696,-0.006053204648196697,0.001795350224711001,-0.005432983860373497
0.0052104066126048565,-0.005342183168977499,0.0026479370426386595,-0.006919363979250193,0.0017168885096907616,-0.005339462775737047
0.005124904215335846,-0.005332730710506439,0.0023767200764268637,-0.00743787782266736,0.0017397453775629401,-0.005719425622373819
0.004957466386258602,-0.005166574381291866,0.0024397571105509996,-0.006905011832714081,0.0017545087030157447,-0.006273840554058552
0.006503591313958168,-0.004992795642465353,0.0022262928541749716,-0.006281209643930197,0.001787672284990549,-0.005879472475498915
0.006184745579957962,-0.005344689358025789,0.0021762889809906483,-0.00655756238847971,0.0017287979135289788,-0.005907808430492878
0.005257694981992245,-0.005075810942798853,0.0023086564615368843,-0.0073180291801691055,0.0016389776719734073,-0.005731694865971804
0.005257694981992245,-0.005075810942798853,0.0023086564615368843,-0.0073180291801691055,0.0016389776719734073,-0.005731694865971804
0.0056337472051382065,-0.00505738565698266,0.00245001376606524,-0.00751325162127614,0.0015667913248762488,-0.006030053365975618
0.0056337472051382065,-0.00505738565698266,0.00245001376606524,-0.00751325162127614,0.0015667913248762488,-0.006030053365975618
0.0061384872533380985,-0.004431174136698246,0.002196083776652813,-0.007985272444784641,0.002148487837985158,-0.0060897935181856155
0.0061384872533380985,-0.004431174136698246,0.002196083776652813,-0.007985272444784641,0.002148487837985158,-0.0060897935181856155
0.005825062748044729,-0.00523120304569602,0.002083053346723318,-0.00712702888995409,0.002267877571284771,-0.005879456643015146
0.0061218636110424995,-0.005275741685181856,0.0020763850770890713,-0.0063951280899345875,0.0019379715668037534,-0.006231018342077732
0.005618472117930651,-0.00478424271568656,0.0022512241266667843,-0.006309852935373783,0.0016625302378088236,-0.006432803347706795
0.005882199853658676,-0.004819158930331469,0.002467576414346695,-0.007885600440204144,0.001595625770278275,-0.00583385955542326
0.006558968219906092,-0.004800808150321245,0.0023557073436677456,-0.008555097505450249,0.0014981763670220971,-0.005893609952181578
0.006198772694915533,-0.004425931256264448,0.0021973189432173967,-0.008724788203835487,0.0015242258086800575,-0.005980873014777899
0.006355526391416788,-0.004442572593688965,0.00202425685711205,-0.007412306033074856,0.0017955312505364418,-0.00636670459061861
0.005842078011482954,-0.00431649899110198,0.0019529527053236961,-0.007591770496219397,0.002064109081402421,-0.0068663121201097965
0.0066458252258598804,-0.004805778618901968,0.0023699593730270863,-0.007399376016110182,0.0021384593565016985,-0.0058393459767103195
0.006670204922556877,-0.004342840984463692,0.002497616922482848,-0.008016668260097504,0.0024195851292461157,-0.005624658428132534
0.006191023625433445,-0.004452906083315611,0.002344916108995676,-0.008337114937603474,0.0025392475072294474,-0.005956492852419615
0.006184467114508152,-0.004068221431225538,0.0021516026463359594,-0.008260047994554043,0.0024419284891337156,-0.006634674500674009
0.006378591526299715,-0.0045010000467300415,0.0020535800140351057,-0.007628462743014097,0.0022101975046098232,-0.0066188303753733635
0.006437972653657198,-0.004375716671347618,0.0023036806378513575,-0.00750135350972414,0.002095963107421994,-0.0062346067279577255
0.006620471365749836,-0.004454907961189747,0.00212277309037745,-0.008212084881961346,0.002209323225542903,-0.006512445397675037
0.006404899526387453,-0.0044566551223397255,0.0025338924024254084,-0.008606739342212677,0.0020119049586355686,-0.00660843076184392
0.006404899526387453,-0.0044566551223397255,0.0025338924024254084,-0.008606739342212677,0.0020119049586355686,-0.00660843076184392
0.006289350334554911,-0.004156721755862236,0.0022067781537771225,-0.008281644433736801,0.0017947591841220856,-0.006455997470766306
0.006289350334554911,-0.004156721755862236,0.0022067781537771225,-0.008281644433736801,0.0017947591841220856,-0.006455997470766306
0.00639234809204936,-0.003923199139535427,0.0020766512025147676,-0.008450646884739399,0.0017157256370410323,-0.006127995904535055
0.006664940156042576,-0.004414553288370371,0.0020054348278790712,-0.008366036228835583,0.0017947460291907191,-0.006138975732028484
0.006506352685391903,-0.0041242241859436035,0.0019910535775125027,-0.008824842981994152,0.0022140510845929384,-0.006176119204610586
0.006297376472502947,-0.004239519126713276,0.002017583232372999,-0.009858282282948494,0.0022663287818431854,-0.006387319881469011
0.006782417185604572,-0.004537442699074745,0.0020307451486587524,-0.009100685827434063,0.002257169224321842,-0.0067559340968728065
0.006856522988528013,-0.004239340778440237,0.0019739505369216204,-0.009828122332692146,0.0020356830209493637,-0.007012235000729561
0.006941314786672592,-0.0039896476082503796,0.0018571473192423582,-0.009991953149437904,0.001987827243283391,-0.006895250175148249
0.0068654343485832214,-0.003402155824005604,0.0016926851822063327,-0.009724905714392662,0.0021396668162196875,-0.00731709785759449
0.007164997514337301,-0.0033538080751895905,0.001658600871451199,-0.00977909006178379,0.002163122408092022,-0.007417312823235989
0.007482527289539576,-0.0042010145261883736,0.0016746422043070197,-0.010684194974601269,0.002227063523605466,-0.006676980759948492
0.007092383224517107,-0.004101671744138002,0.0016144004184752703,-0.010149601846933365,0.002155433176085353,-0.006460385862737894
0.007192819379270077,-0.0035714341793209314,0.0018247795524075627,-0.010308182798326015,0.0020397440530359745,-0.006603040732443333
0.0075950101017951965,-0.0033802965190261602,0.0017198983114212751,-0.010668648406863213,0.001984013943001628,-0.006817700807005167
0.007580403238534927,-0.0035843111108988523,0.0017490986501798034,-0.010018525645136833,0.001994016347452998,-0.007080285809934139
0.007015109062194824,-0.003748111193999648,0.0014728413661941886,-0.01053985022008419,0.001960480585694313,-0.0067472923547029495
0.007389476988464594,-0.003175292629748583,0.0010396362049505115,-0.010123610496520996,0.0019403672777116299,-0.006850223056972027
0.007389476988464594,-0.003175292629748583,0.0010396362049505115,-0.010123610496520996,0.0019403672777116299,-0.006850223056972027
0.007794676348567009,-0.003422592766582966,0.0008033968624658883,-0.009503224864602089,0.0018980060704052448,-0.0067362114787101746
0.007725970353931189,-0.003767539281398058,0.0007567013381049037,-0.00904983188956976,0.0019344879547134042,-0.006454779766499996
0.008004477247595787,-0.003390326863154769,0.0007828548550605774,-0.01010565273463726,0.0019155106274411082,-0.006968138739466667
0.0077489083632826805,-0.0030616079457104206,0.0008094343356788158,-0.010577631182968616,0.001884069642983377,-0.006867671851068735
0.007462133187800646,-0.0029942262917757034,0.0012141847983002663,-0.010775001719594002,0.0018874407978728414,-0.006646103225648403
0.00804554857313633,-0.003261631354689598,0.0011218177387490869,-0.011424312368035316,0.0023644110187888145,-0.006728216540068388
0.007887826301157475,-0.0031769282650202513,0.0009946576319634914,-0.010741445235908031,0.0028361224103718996,-0.006486020982265472
0.007887826301157475,-0.0031769282650202513,0.0009946576319634914,-0.010741445235908031,0.0028361224103718996,-0.006486020982265472
0.007895058020949364,-0.0030407586600631475,0.0008594834362156689,-0.01067720539867878,0.002690996276214719,-0.00671189371496439
0.007468577474355698,-0.0027086969930678606,0.0008595811668783426,-0.011051357723772526,0.0026835810858756304,-0.006963647436350584
0.007819644175469875,-0.0025710687041282654,0.0007715194369666278,-0.010807175189256668,0.002304117428138852,-0.007131175138056278
0.007859977893531322,-0.00270271603949368,0.0006403515581041574,-0.011041936464607716,0.0021312797907739878,-0.0066811093129217625
0.008067944087088108,-0.002601335057988763,0.0006662380183115602,-0.01124055590480566,0.0019605860579758883,-0.007078470662236214
0.008125376887619495,-0.0028695575892925262,0.0006919847219251096,-0.010385905392467976,0.0019187630387023091,-0.006752852350473404
0.00791782233864069,-0.0029151695780456066,0.0007151617319323123,-0.010820244438946247,0.002111630979925394,-0.006958378944545984
0.008052356541156769,-0.002824990078806877,0.0009348419844172895,-0.01087353564798832,0.00220418069511652,-0.006847733166068792
0.006183180026710033,-0.002585014561191201,0.000939557736273855,-0.010541386902332306,0.0024062716402113438,-0.007094156462699175
0.004961042199283838,-0.002588722389191389,0.0009336946532130241,-0.010656644590198994,0.0021464931778609753,-0.00728939613327384
0.005871532950550318,-0.0019219809910282493,0.0009166281088255346,-0.010283391922712326,0.002200343180447817,-0.007082980591803789
0.006285289768129587,-0.0009563415660522878,0.0008241884061135352,-0.010499942116439342,0.0022100144997239113,-0.007359125651419163
0.006532796658575535,-9.494709956925362e-05,0.0007824396598152816,-0.010754509828984737,0.0024771294556558132,-0.007521269377321005
0.006742639932781458,-1.2738364603137597e-06,0.0007968627032823861,-0.01094514224678278,0.0028388244099915028,-0.0074886754155159
0.005784877575933933,-1.7090142634401673e-08,0.0007742377929389477,-0.011277140118181705,0.003206567605957389,-0.007776090409606695
0.005957558751106262,-2.2928609011430012e-10,0.0007212716154754162,-0.011351877823472023,0.00271801371127367,-0.0076794796623289585
0.00656856270506978,-3.0761656243105673e-12,0.0007287848275154829,-0.010571884922683239,0.0024132931139320135,-0.007352212909609079
0.0061252908781170845,-5.536989260543541e-16,0.0007456665043719113,-0.01082813460379839,0.0022220653481781483,-0.007053300738334656
0.006170484237372875,-7.42857820909372e-18,0.0006912808166816831,-0.01160697266459465,0.002448583021759987,-0.007247544825077057
0.006191859021782875,-9.966384484277748e-20,0.0007139398367144167,-0.011437123641371727,0.0024425324518233538,-0.0075384178198874
0.006944112479686737,-0.00035409891279414296,0.0007328729843720794,-0.010534461587667465,0.002299355808645487,-0.007824879139661789
0.0068114264868199825,-0.0002792182785924524,0.0008768506231717765,-0.01159152202308178,0.002087868982926011,-0.007453591097146273
0.00656864745542407,-0.00024144894268829376,0.0008722824859432876,-0.011326820589601994,0.002055952325463295,-0.0076300459913909435
0.007162440102547407,-0.00021286790433805436,0.0007645708392374218,-0.011198622174561024,0.0022441642358899117,-0.007743720896542072
0.007679171860218048,-0.000190343038411811,0.0007797838188707829,-0.011423274874687195,0.0028472773265093565,-0.007542696315795183
0.007665366865694523,-0.00017213185492437333,0.0007902171346358955,-0.01120363362133503,0.0030853217467665672,-0.007438041735440493
0.007665366865694523,-0.00017213185492437333,0.0007902171346358955,-0.01120363362133503,0.0030853217467665672,-0.007438041735440493
0.0071462723426520824,-0.0001571020984556526,0.0007858598255552351,-0.011283906176686287,0.003011278109624982,-0.007237912621349096
0.007746839430183172,-0.00014448627189267427,0.0008079924737103283,-0.011683905497193336,0.002771206898614764,-0.007941453717648983
0.008029567077755928,-0.00013374871923588216,0.0008200873853638768,-0.012068334966897964,0.0026682012248784304,-0.007926203310489655
0.007677563466131687,-0.00012449549103621393,0.000829323660582304,-0.012248239479959011,0.0029772103298455477,-0.007542612496763468
0.008168636821210384,-6.0632235545199364e-05,0.0007546186097897589,-0.011883726343512535,0.002935472410172224,-0.007889380678534508
0.007160433568060398,-5.471460099215619e-05,0.0008079263498075306,-0.012497847899794579,0.0030718445777893066,-0.007960186339914799
0.00801139883697033,-5.1550192438298836e-05,0.0008071594638749957,-0.012509757652878761,0.002697915770113468,-0.007544497959315777
0.008099306374788284,-4.875681042904034e-05,0.000714915688149631,-0.012508881278336048,0.0024094213731586933,-0.007697083987295628
0.007696610875427723,-4.6250966988736764e-05,0.0007237346726469696,-0.013599195517599583,0.002055930905044079,-0.007759827189147472
0.007861277088522911,-4.398995588417165e-05,0.0006593472207896411,-0.012515257112681866,0.00205186172388494,-0.007659385912120342
0.007915465161204338,-4.194010762148537e-05,0.0006719000521115959,-0.013147429563105106,0.0026476953644305468,-0.007864422164857388
0.008144112303853035,-4.0072478441288695e-05,0.0006230563740245998,-0.012950441800057888,0.0032268636859953403,-0.008281022310256958
0.008133860304951668,-3.836430187220685e-05,0.0005620343144983053,-0.013034757226705551,0.003128961194306612,-0.008379299193620682
0.007965355180203915,-3.679572182591073e-05,0.0005643387557938695,-0.013053711503744125,0.0026833005249500275,-0.00806625559926033
0.008368541486561298,-4.936615596307092e-07,0.0005389486905187368,-0.013178763911128044,0.002576227765530348,-0.00761442631483078
0.008751347661018372,-6.6230998463368e-09,0.000570928561501205,-0.012805686332285404,0.0024745771661400795,-0.007981515489518642
0.008488575927913189,-8.885733815411356e-11,0.0005962501745671034,-0.013203558512032032,0.0025342614389955997,-0.00823697168380022
0.008963734842836857,-1.5994006452905128e-14,0.0006913620163686574,-0.013000464998185635,0.0026993341743946075,-0.007780761923640966
0.008671799674630165,-2.1457999472845478e-16,0.0007169533637352288,-0.013735654763877392,0.002825612435117364,-0.007961099967360497
0.008929300121963024,-2.878864810009129e-18,0.0007058416958898306,-0.013911549001932144,0.002855494385585189,-0.007802111096680164
0.009153802879154682,-3.8623641277166555e-20,0.0006642063963226974,-0.014209667220711708,0.003070469480007887,-0.00788052286952734
0.008801535703241825,-5.181854872957381e-22,0.0006858436390757561,-0.013443047180771828,0.0030492928344756365,-0.007859070785343647
0.008856058120727539,-6.952119139464236e-24,0.0007458745967596769,-0.014189484529197216,0.0028919647447764874,-0.00785206351429224
0.00947452150285244,-9.32715484485336e-26,0.0007686899625696242,-0.014274275861680508,0.0027703961823135614,-0.008440959267318249
0.009499681182205677,-1.2513568035540736e-27,0.0007593656773678958,-0.015112684108316898,0.002866092836484313,-0.008509204722940922
0.009499681182205677,-1.2513568035540736e-27,0.0007593656773678958,-0.015112684108316898,0.002866092836484313,-0.008509204722940922
0.009800090454518795,-1.6788547992342278e-29,0.0007090783328749239,-0.01488489005714655,0.003033895045518875,-0.007975229062139988
0.009744166396558285,-2.2523981096501484e-31,0.0007274802192114294,-0.014856581576168537,0.0031942911446094513,-0.007914019748568535
0.009715963155031204,-3.021879143502356e-33,0.0006698048091493547,-0.014288698323071003,0.002903340384364128,-0.007999337278306484
0.010081345215439796,-4.05423668111132e-35,0.0006834627129137516,-0.015029935166239738,0.0026484066620469093,-0.007672599516808987
0.009693826548755169,-5.439276083383633e-37,0.0006716803181916475,-0.014368299394845963,0.0024397531524300575,-0.008070946671068668
0.009264149703085423,-7.297483158128848e-39,0.0006296756910160184,-0.01479799672961235,0.002564679365605116,-0.008245506323873997
0.008789513260126114,-9.7904519806982e-41,0.0005643231561407447,-0.014676481485366821,0.0026171840727329254,-0.007834868505597115
0.009461859241127968,0.00036745279794558883,0.00054450414609164,-0.015274068340659142,0.003302859142422676,-0.008288065902888775
0.009461859241127968,0.00036745279794558883,0.00054450414609164,-0.015274068340659142,0.003302859142422676,-0.008288065902888775
0.008985856547951698,0.0004509048303589225,0.000564144691452384,-0.015490091405808926,0.003192298114299774,-0.008504560217261314
0.009850065223872662,0.0004113058967050165,0.0005304510123096406,-0.015135558322072029,0.002755432389676571,-0.008295669220387936
0.010030494071543217,0.0003768688766285777,0.0004944474785588682,-0.015530699864029884,0.0027457168325781822,-0.008199713192880154
0.0097165796905756,0.000347737135598436,0.0004470554122235626,-0.015538537874817848,0.002952147740870714,-0.0088369594886899
0.009953225031495094,0.000379587261704728,0.00047812442062422633,-0.015130876563489437,0.0031013628467917442,-0.008590053766965866
0.010251794941723347,0.00036131025990471244,0.0004474018351174891,-0.0153706856071949,0.0030290326103568077,-0.008204614743590355
0.009434963576495647,0.000338737852871418,0.0004811506369151175,-0.015415845438838005,0.002750642132014036,-0.008441699668765068
0.009896433912217617,0.000369675166439265,0.000504148134496063,-0.015959590673446655,0.002523820847272873,-0.00902183260768652
0.010405720211565495,0.00039529180503450334,0.00047776452265679836,-0.015740109607577324,0.0022508767433464527,-0.008488125167787075
0.010438531637191772,0.0003987483505625278,0.0005315617308951914,-0.01613706722855568,0.003103702561929822,-0.008927954360842705
0.010242989286780357,0.000439229334006086,0.0004886923707090318,-0.016555821523070335,0.0036548434291034937,-0.008553058840334415
0.010701739229261875,0.00047211069613695145,0.0004409773391671479,-0.016857389360666275,0.0037230183370411396,-0.008728200569748878
0.011010807007551193,0.0005020860116928816,0.0004016083257738501,-0.016727356240153313,0.0032828596886247396,-0.008850234560668468
0.010528938844799995,0.0008495267247781157,0.0003686921263579279,-0.017005229368805885,0.002925935434177518,-0.009058966301381588
0.01052632462233305,0.0009003041195683181,0.0003407635085750371,-0.016386212781071663,0.00272576417773962,-0.008970612660050392
0.010663500055670738,0.0008903425186872482,0.00031676969956606627,-0.017024744302034378,0.0028357086703181267,-0.008962021209299564
0.01052703708410263,0.000865657813847065,0.0002392016613157466,-0.01693873107433319,0.0032371808774769306,-0.009243018925189972
0.011095840483903885,0.0008038766100071371,0.00022216922661755234,-0.017000680789351463,0.0032470892183482647,-0.009151354432106018
0.011095840483903885,0.0008038766100071371,0.00022216922661755234,-0.017000680789351463,0.0032470892183482647,-0.009151354432106018
0.01088208332657814,0.000798514811322093,0.000134005123982206,-0.017023494467139244,0.0032715550623834133,-0.009010515175759792
0.011058647185564041,0.0008081650594249368,8.601250738138333e-05,-0.01694442518055439,0.003294634399935603,-0.009140846319496632
0.011441327631473541,0.0008299096953123808,7.807138899806887e-05,-0.01784580945968628,0.00306552741676569,-0.009435995481908321
0.010942740365862846,0.0008514398941770196,7.183162961155176e-05,-0.01850762404501438,0.003017128212377429,-0.009515024721622467
0.011536316946148872,0.0012924823677167296,6.652076990576461e-05,-0.017350653186440468,0.0033066391479223967,-0.00925694964826107
0.011353898793458939,0.0013201789697632194,6.194146408233792e-05,-0.017420321702957153,0.0033083162270486355,-0.009188944473862648
0.011378605850040913,0.0020335286390036345,5.79522384214215e-05,-0.017742039635777473,0.0031275239307433367,-0.009120207279920578
0.011731277219951153,0.0018532609101384878,5.4445790738100186e-05,-0.0182354599237442,0.0029644197784364223,-0.009833975695073605
0.011543014086782932,0.001726796617731452,5.133957165526226e-05,-0.01773420348763466,0.00284472550265491,-0.009621921926736832
0.011819008737802505,0.0017230373341590166,4.856854138779454e-05,-0.018511461094021797,0.0028195239137858152,-0.009440316818654537
0.012532680295407772,0.0017061021644622087,4.608157178154215e-05,-0.01917281188070774,0.0030127952340990305,-0.009432855062186718
0.01166390348225832,0.0016813509864732623,4.3836764234583825e-05,-0.01945299468934536,0.0032621314749121666,-0.009398308582603931
0.01177319884300232,0.0019198197405785322,4.1800583858275786e-05,-0.018760984763503075,0.0035722488537430763,-0.00962035357952118
0.011514964513480663,0.0019071109127253294,3.994512007921003e-05,-0.019254174083471298,0.0036365624982863665,-0.009646340273320675
0.011850975453853607,0.0021997704170644283,3.668824865599163e-05,-0.01840648613870144,0.003017589682713151,-0.009476825594902039
0.01189959142357111,0.0023636152036488056,4.92219669467886e-07,-0.01885630376636982,0.002980282297357917,-0.00936041958630085
0.012172472663223743,0.0026255003176629543,6.603754432177311e-09,-0.018923426046967506,0.0032522152177989483,-0.00993261393159628
0.011846892535686493,0.002842006739228964,8.859779576653182e-11,-0.019664501771330833,0.003988216631114483,-0.009948625229299068
0.011934855952858925,0.002782883821055293,1.188652475059282e-12,-0.019748089835047722,0.004141255281865597,-0.009433755651116371
0.011849653907120228,0.0029788941610604525,1.5947289197732264e-14,-0.018931429833173752,0.004000963643193245,-0.009364611469209194
0.012634556740522385,0.0028649086598306894,2.139532432870458e-16,-0.01896957866847515,0.0034364585299044847,-0.009377758018672466
0.01177000068128109,0.0028834661934524775,2.870455691901915e-18,-0.01990332081913948,0.003024011617526412,-0.009946302510797977
0.01130752358585596,0.0027775743510574102,3.851083128995537e-20,-0.019849104806780815,0.0032197136897593737,-0.009700438939034939
0.01208201702684164,0.0030925197061151266,5.166718840996725e-22,-0.01963839679956436,0.0031940783374011517,-0.009505173191428185
0.012102035805583,0.0032873565796762705,6.931812282042036e-24,-0.019939977675676346,0.0034018701408058405,-0.010365783236920834
0.012062327936291695,0.003129431512206793,9.299910177636872e-26,-0.019625410437583923,0.0034879299346357584,-0.01027186680585146
0.012029534205794334,0.0035810545086860657,1.2477016774091183e-27,-0.019632216542959213,0.003539140336215496,-0.009978068992495537
0.011388091370463371,0.00335861393250525,1.6739510505766088e-29,-0.0201408788561821,0.003390750614926219,-0.009988965466618538
0.011388091370463371,0.00335861393250525,1.6739510505766088e-29,-0.0201408788561821,0.003390750614926219,-0.009988965466618538
0.012131192721426487,0.0035603942815214396,2.245818632669726e-31,-0.020833883434534073,0.003161156550049782,-0.01054720114916563
0.01190915796905756,0.0037201568484306335,3.013052466624627e-33,-0.021100414916872978,0.0034434334374964237,-0.009916901588439941
0.011959672905504704,0.0038371067494153976,4.042394493881747e-35,-0.02054068073630333,0.0037545219529420137,-0.009879473596811295
0.011873727664351463,0.0044039105996489525,5.4233878250834865e-37,-0.021135559305548668,0.003908267244696617,-0.01013727393001318
0.012156234122812748,0.004213979467749596,7.276166605889539e-39,-0.021166140213608742,0.003992932382971048,-0.009867504239082336
0.013062918558716774,0.003965270239859819,9.761865492025973e-41,-0.02080073207616806,0.0035702406894415617,-0.009853850118815899
0.011916031129658222,0.0034930717665702105,1.310214064143704e-42,-0.02069692313671112,0.003602613229304552,-0.009915752336382866
0.012186742387712002,0.0041489810682833195,1.8216880036222622e-44,-0.02116350084543228,0.003645665477961302,-0.010153036564588547
0.012271187268197536,0.004579760599881411,0.0,-0.02109893411397934,0.0037320402916520834,-0.009825113229453564
0.011928129941225052,0.004385955631732941,-0.0,-0.02105947770178318,0.0037697837688028812,-0.009579770267009735
0.0124477194622159,0.004399329889565706,-0.0,-0.021462274715304375,0.003813413204625249,-0.010560129769146442
0.012185996398329735,0.004698201082646847,-0.0,-0.021853508427739143,0.0037919229362159967,-0.010343153029680252
0.012142480351030827,0.004824800882488489,-0.0,-0.021957628428936005,0.0039978488348424435,-0.010021707974374294
0.012375452555716038,0.004774199798703194,-0.0,-0.021661490201950073,0.004201269708573818,-0.010582317598164082
0.012322699651122093,0.004716133698821068,-0.0,-0.022313518449664116,0.004033216740936041,-0.009824268519878387
0.012575638480484486,0.005260653328150511,-0.0,-0.022495940327644348,0.003961062524467707,-0.010501131415367126
0.012383364140987396,0.005529351532459259,-0.0,-0.022726846858859062,0.003927685786038637,-0.010543099604547024
0.012224678881466389,0.005639778450131416,-0.0,-0.023027943447232246,0.004292672034353018,-0.01059308648109436
0.0123434504494071,0.006063357926905155,-0.0,-0.023338643833994865,0.004168941639363766,-0.010865245945751667
0.012351397424936295,0.005535530392080545,-0.0,-0.023446155712008476,0.003904843470081687,-0.010634410195052624
0.012630202807486057,0.00540769612416625,-0.0,-0.023452147841453552,0.003817909397184849,-0.010701832361519337
0.012774059548974037,0.005716077052056789,-0.00041030877036973834,-0.02315593510866165,0.004169718828052282,-0.010482477955520153
0.013005577959120274,0.005963628180325031,-0.00038900182698853314,-0.023019226267933846,0.004425395280122757,-0.01042727567255497
0.013005577959120274,0.005963628180325031,-0.00038900182698853314,-0.023019226267933846,0.004425395280122757,-0.01042727567255497
0.012276210822165012,0.006127840373665094,-0.0003317992086522281,-0.023674093186855316,0.003946543205529451,-0.010196576826274395
0.012858875095844269,0.0062360516749322414,-0.00030900901765562594,-0.02421104535460472,0.003792482428252697,-0.010055423714220524
0.012858875095844269,0.0062360516749322414,-0.00030900901765562594,-0.02421104535460472,0.003792482428252697,-0.010055423714220524
0.012134800665080547,0.006420549005270004,-0.00028915004804730415,-0.02368597872555256,0.0037838395219296217,-0.01059440616518259
0.012202519923448563,0.006187251303344965,-0.0002716895251069218,-0.02334216982126236,0.0038165696896612644,-0.011115144938230515
0.012829190120100975,0.006453599780797958,-0.0002897644299082458,-0.023315703496336937,0.004222658462822437,-0.011265766806900501
0.012680837884545326,0.006588177289813757,-0.0002906580048147589,-0.0237171221524477,0.004263542126864195,-0.011264382861554623
0.013136766850948334,0.006484704557806253,-0.0002760218339972198,-0.023718640208244324,0.004426704719662666,-0.011200149543583393
0.012493129819631577,0.006880987901240587,-0.0002626003697514534,-0.02388893812894821,0.004222989082336426,-0.011051378212869167
0.013281380757689476,0.006660485174506903,-0.00029157070093788207,-0.02387845888733864,0.003958927467465401,-0.011055835522711277
0.01256165374070406,0.006914985831826925,-0.00027920142747461796,-0.02359432727098465,0.004036267753690481,-0.010703531093895435
0.012880456633865833,0.006927845999598503,-0.0003050180384889245,-0.024010825902223587,0.004044633824378252,-0.010482755489647388
0.012418628670275211,0.007952781394124031,-0.0002931063936557621,-0.024704502895474434,0.004458272829651833,-0.010923406109213829
0.013003741391003132,0.007256786338984966,-0.0002867431321647018,-0.02579588070511818,0.004488086327910423,-0.010936676524579525
0.012782317586243153,0.0072320750914514065,-0.00027043139562010765,-0.025237301364541054,0.0043353550136089325,-0.011586591601371765
0.013775542378425598,0.007626332342624664,-0.00028967869002372026,-0.02423267997801304,0.004254915285855532,-0.0114481495693326
0.012998285703361034,0.008022492751479149,-0.00031890039099380374,-0.02416965924203396,0.004296362400054932,-0.011517984792590141
0.0133356973528862,0.007927021943032742,-0.00030521146254613996,-0.02547868900001049,0.004174449946731329,-0.011100300587713718
0.014052500016987324,0.007953576743602753,-0.00033213375718332827,-0.025760572403669357,0.004422957077622414,-0.010983913205564022
0.013429058715701103,0.00781881995499134,-0.0005601986194960773,-0.02594919502735138,0.004589109681546688,-0.011260738596320152
0.012685752473771572,0.0077930050902068615,-0.0006184727535583079,-0.027737561613321304,0.004658615682274103,-0.010899477638304234
0.013022763654589653,0.00748571427538991,-0.0005655019776895642,-0.02614675462245941,0.004305835347622633,-0.011647802777588367
0.01329133752733469,0.008011174388229847,-0.0005869725719094276,-0.025221800431609154,0.004319554660469294,-0.011396619491279125
0.013592641800642014,0.0084416838362813,-0.0005454607889987528,-0.02469886653125286,0.003997190855443478,-0.011507823131978512
0.013283622451126575,0.00846425537019968,-0.0005489061586558819,-0.024524550884962082,0.003769738832488656,-0.011702918447554111
0.013523469679057598,0.008279990404844284,-0.000531126803252846,-0.025434644892811775,0.0042817783541977406,-0.012247645296156406
0.013356336392462254,0.008504936471581459,-0.00059017154853791,-0.026021037250757217,0.004540502559393644,-0.011187484487891197
0.013489515520632267,0.008197055198252201,-0.0006030471995472908,-0.026370596140623093,0.00479894457384944,-0.01138601079583168
0.013489515520632267,0.008197055198252201,-0.0006030471995472908,-0.026370596140623093,0.00479894457384944,-0.01138601079583168
0.013833628036081791,0.008238153532147408,-0.0005722283967770636,-0.026170669123530388,0.004452886059880257,-0.011986217461526394
0.013163571245968342,0.00893231388181448,-0.0006027980707585812,-0.025984736159443855,0.004464427940547466,-0.011783444322645664
0.013519981876015663,0.008999338373541832,-0.0006266131531447172,-0.02602783590555191,0.004434031900018454,-0.011839569546282291
0.013156500644981861,0.008346069604158401,-0.0007356712594628334,-0.026230990886688232,0.0045552933588624,-0.012029660865664482
0.013836313039064407,0.008665132336318493,-0.0007902280776761472,-0.02611004188656807,0.0044742911122739315,-0.011743650771677494
0.013438449241220951,0.0091688372194767,-0.0008055443176999688,-0.02595287747681141,0.004362528678029776,-0.011886882595717907
0.014210161752998829,0.008591591380536556,-0.0007474981830455363,-0.026374099776148796,0.004491582978516817,-0.012491107918322086
0.013952040113508701,0.009065117686986923,-0.0007600490935146809,-0.026300420984625816,0.005082889460027218,-0.012268026359379292
0.01421494223177433,0.009154385887086391,-0.0008461411925964057,-0.026200203225016594,0.005099881906062365,-0.01250132080167532
0.013621325604617596,0.008812901563942432,-0.0008708853274583817,-0.026214193552732468,0.004861281253397465,-0.012328676879405975
0.013999523594975471,0.008526353165507317,-0.000865004607476294,-0.026175545528531075,0.004613101948052645,-0.012144048698246479
0.014081296510994434,0.008809062652289867,-0.0008691864786669612,-0.026566123589873314,0.004476920235902071,-0.01187841221690178
0.014642326161265373,0.009409620426595211,-0.000927568064071238,-0.02692735753953457,0.004418582655489445,-0.012155469506978989
0.014461252838373184,0.00921402033418417,-0.0009842648869380355,-0.026977846398949623,0.004616019316017628,-0.012072294019162655
0.014458909630775452,0.009295734576880932,-0.0010661891428753734,-0.026996348053216934,0.004703190643340349,-0.012101685628294945
0.014013386331498623,0.009437208995223045,-0.0012058462016284466,-0.0265682153403759,0.0045267329551279545,-0.012285463511943817
0.014498522505164146,0.008902275003492832,-0.0013317986158654094,-0.027129976078867912,0.00437086820602417,-0.012529650703072548
0.01480253878980875,0.009567582979798317,-0.0013145854463800788,-0.02720694988965988,0.004596368409693241,-0.01242027897387743
0.014437241479754448,0.009942376054823399,-0.0014248297084122896,-0.02797464281320572,0.005191659089177847,-0.012729540467262268
0.01499841921031475,0.009299102239310741,-0.0013574992772191763,-0.028591500595211983,0.005393891129642725,-0.012385121546685696
0.014289861544966698,0.010195189155638218,-0.001544961822219193,-0.02840484492480755,0.0049831448122859,-0.012234997004270554
0.014946956187486649,0.009963610209524632,-0.0015857524704188108,-0.026987100020051003,0.004501721356064081,-0.01251576840877533
0.014509913511574268,0.009620719589293003,-0.0017735539004206657,-0.02688136138021946,0.0043697902001440525,-0.012235956266522408
0.01519234012812376,0.010049092583358288,-0.0017897330690175295,-0.029874542728066444,0.004530886188149452,-0.01257739681750536
0.014594760723412037,0.009887883439660072,-0.001955503597855568,-0.028124714270234108,0.004689888563007116,-0.012432298623025417
0.014594760723412037,0.009887883439660072,-0.001955503597855568,-0.028124714270234108,0.004689888563007116,-0.012432298623025417
0.014969537034630775,0.009821467101573944,-0.0019238906679674983,-0.027912093326449394,0.004864365328103304,-0.012431913986802101
0.014624404720962048,0.010741219855844975,-0.002145208418369293,-0.02955096773803234,0.0052332510240375996,-0.012728973291814327
0.01638258621096611,0.010152856819331646,-0.00199274905025959,-0.02997002750635147,0.005274611059576273,-0.013037237338721752
0.016394177451729774,0.010313330218195915,-0.002198545727878809,-0.028724558651447296,0.005006397143006325,-0.012895364314317703
0.016382360830903053,0.010410048998892307,-0.002400157507508993,-0.028467893600463867,0.004655479919165373,-0.012362350709736347
0.016409981995821,0.010394342243671417,-0.002308623632416129,-0.029991786926984787,0.004669289570301771,-0.012433180585503578
0.016222991049289703,0.01100261602550745,-0.0024284448008984327,-0.03080461546778679,0.004557834472507238,-0.012515884824097157
0.016666777431964874,0.010967868380248547,-0.0026035956107079983,-0.030576864257454872,0.0045287637040019035,-0.01290044654160738
0.01642320305109024,0.010829964652657509,-0.002533095423132181,-0.030442748218774796,0.004627877380698919,-0.013069563545286655
0.01681634411215782,0.011039755307137966,-0.002599388128146529,-0.030200330540537834,0.0050994097255170345,-0.012662981636822224
0.016459889709949493,0.010697316378355026,-0.0025600383523851633,-0.03052745945751667,0.004722858313471079,-0.012669418007135391
0.016689682379364967,0.01072391215711832,-0.0025244744028896093,-0.03012664243578911,0.00455954484641552,-0.012552479282021523
0.016667641699314117,0.01093856431543827,-0.0027209853287786245,-0.030499599874019623,0.005026924889534712,-0.012961949221789837
0.016399186104536057,0.01100651454180479,-0.0028513246215879917,-0.03055776283144951,0.00553481699898839,-0.012986177578568459
0.017324287444353104,0.011367413215339184,-0.002567589282989502,-0.03097025491297245,0.006256885826587677,-0.013279459439218044
0.017696768045425415,0.011191612109541893,-0.0026069721207022667,-0.03138396888971329,0.005328920669853687,-0.01316918432712555
0.01727955788373947,0.011685661971569061,-0.002859103726223111,-0.031427811831235886,0.004498806316405535,-0.01327283401042223
0.01727955788373947,0.011685661971569061,-0.002859103726223111,-0.031427811831235886,0.004498806316405535,-0.01327283401042223
0.017082074657082558,0.011081358417868614,-0.002976994961500168,-0.03159898519515991,0.004871368873864412,-0.013549561612308025
0.01700560189783573,0.011182072572410107,-0.0031305321026593447,-0.03164895251393318,0.005004568491131067,-0.013053550384938717
0.017262063920497894,0.010831281542778015,-0.003063485724851489,-0.0319577120244503,0.005587482359260321,-0.013178384862840176
0.017049523070454597,0.01176169142127037,-0.0030163489282131195,-0.031774066388607025,0.005502614658325911,-0.013162212446331978
0.01718756929039955,0.01111496239900589,-0.00278938515111804,-0.03207829222083092,0.005311703775078058,-0.01324268989264965
0.017161900177598,0.011881462298333645,-0.0030302403029054403,-0.03247835114598274,0.005151604767888784,-0.013251219876110554
0.01673734560608864,0.011304558254778385,-0.003440776141360402,-0.03204010799527168,0.004775188397616148,-0.013083145953714848
0.01673734560608864,0.011304558254778385,-0.003440776141360402,-0.03204010799527168,0.004775188397616148,-0.013083145953714848
0.01751234568655491,0.011259516701102257,-0.0032398186158388853,-0.032043106853961945,0.0048850285820662975,-0.012664485722780228
0.017520355060696602,0.011589941568672657,-0.003478345926851034,-0.031981099396944046,0.005215607117861509,-0.013065078295767307
0.0173773355782032,0.011241419240832329,-0.0032856969628483057,-0.03161221742630005,0.005310432519763708,-0.012996884062886238
0.01733078993856907,0.011190583929419518,-0.0035921733360737562,-0.03162689507007599,0.005248608998954296,-0.013182932510972023
0.017295951023697853,0.011357584036886692,-0.003778762649744749,-0.03368838131427765,0.005054857581853867,-0.0135766277089715
0.01771264709532261,0.01057455874979496,-0.003305510152131319,-0.03241792693734169,0.005257637705653906,-0.013503719121217728
0.017122162505984306,0.010858596302568913,-0.0032336977310478687,-0.03205903246998787,0.005475728772580624,-0.013411600142717361
0.016947507858276367,0.011089416220784187,-0.003304470796138048,-0.031803444027900696,0.005433530081063509,-0.013206154108047485
0.01766413077712059,0.010693631134927273,-0.0036095071118324995,-0.03272612765431404,0.005400100722908974,-0.01353422924876213
0.017715347930788994,0.01130006369203329,-0.003402960952371359,-0.03316130489110947,0.005062967073172331,-0.013331202790141106
0.01642843522131443,0.0111616225913167,-0.00346003076992929,-0.032448939979076385,0.005178916733711958,-0.013638333417475224
0.01827678643167019,0.010841735638678074,-0.0036618944723159075,-0.03396057337522507,0.005542099010199308,-0.015291532501578331
0.017902126535773277,0.011693737469613552,-0.004289816599339247,-0.03419681265950203,0.005467942450195551,-0.014017828740179539
0.01790197566151619,0.011417105793952942,-0.004085127729922533,-0.032764747738838196,0.005751489195972681,-0.013564013876020908
0.017355475574731827,0.011279148980975151,-0.003887976985424757,-0.032256461679935455,0.005344140809029341,-0.013794700615108013
0.017563268542289734,0.012105517089366913,-0.0038104683626443148,-0.03310038149356842,0.005187942646443844,-0.013997343368828297
0.017904235050082207,0.011592409573495388,-0.004027178511023521,-0.03371052443981171,0.005030245054513216,-0.014045195654034615
0.017986202612519264,0.011559786275029182,-0.00395354675129056,-0.03352263569831848,0.0056708683259785175,-0.014141885563731194
0.018269989639520645,0.011304005980491638,-0.0038947155699133873,-0.03348977118730545,0.005539659410715103,-0.014042766764760017
0.018188361078500748,0.01154816709458828,-0.004349539987742901,-0.033487290143966675,0.005824022460728884,-0.013998362235724926
0.018327586352825165,0.011489124968647957,-0.004114255774766207,-0.03320068493485451,0.005587407853454351,-0.014498051255941391
0.018310515210032463,0.012101921252906322,-0.004415329545736313,-0.03359462320804596,0.005309325642883778,-0.015097131952643394
0.018095608800649643,0.011639313772320747,-0.004511024337261915,-0.03335171565413475,0.005785339046269655,-0.015143519267439842
0.01834286004304886,0.011653362773358822,-0.00438385084271431,-0.03378239646553993,0.00549294101074338,-0.01491828728467226
0.01815340854227543,0.012230051681399345,-0.004343078937381506,-0.03403979167342186,0.005451865494251251,-0.01440222654491663
0.018586527556180954,0.011641786433756351,-0.004671006463468075,-0.03426617756485939,0.005486631765961647,-0.014857301488518715
0.018407398834824562,0.011986992321908474,-0.004721327219158411,-0.0340786837041378,0.005242207087576389,-0.014898804016411304
0.017965463921427727,0.012647565454244614,-0.004227021709084511,-0.03404826298356056,0.005185254849493504,-0.014975622296333313
0.018507927656173706,0.012532670982182026,-0.004275031853467226,-0.03473476693034172,0.005110975354909897,-0.014968275092542171
0.018469199538230896,0.012520285323262215,-0.004677150398492813,-0.03559039533138275,0.0057285139337182045,-0.01513858325779438
0.018469199538230896,0.012520285323262215,-0.004677150398492813,-0.03559039533138275,0.0057285139337182045,-0.01513858325779438
0.01875953935086727,0.012000756338238716,-0.0046857926063239574,-0.03564302995800972,0.005814305506646633,-0.014518649317324162
0.019432326778769493,0.012426130473613739,-0.004769396968185902,-0.03545333445072174,0.005730767268687487,-0.014738970436155796
0.019192751497030258,0.012690074741840363,-0.005177118815481663,-0.036602333188056946,0.0054726917296648026,-0.014293759129941463
0.01881534792482853,0.012813227251172066,-0.004882770124822855,-0.037288598716259,0.005563472397625446,-0.014489884488284588
0.019496511667966843,0.012792404741048813,-0.004846434574574232,-0.03528912365436554,0.005390617530792952,-0.014717396348714828
0.01938384212553501,0.012960410676896572,-0.004748720210045576,-0.03437386825680733,0.005686389282345772,-0.015327095054090023
0.01890755631029606,0.012716038152575493,-0.005357882007956505,-0.03626350685954094,0.005761593114584684,-0.01538974791765213
0.019543027505278587,0.012872899882495403,-0.005335032474249601,-0.03745778650045395,0.005599223542958498,-0.015348974615335464
0.019428232684731483,0.012951303273439407,-0.00520697794854641,-0.03719748184084892,0.005218298174440861,-0.01499573327600956
0.019185146316885948,0.012924942187964916,-0.005170381162315607,-0.037016160786151886,0.005748684983700514,-0.014983754605054855
0.019561782479286194,0.0132115688174963,-0.00523574510589242,-0.0358494408428669,0.006027457304298878,-0.014970694668591022
0.01976476050913334,0.013016586191952229,-0.005590319167822599,-0.036153752356767654,0.006095590069890022,-0.015173639170825481
0.019129550084471703,0.013454019092023373,-0.00519963726401329,-0.03757580369710922,0.005620058160275221,-0.015005393885076046
0.019547488540410995,0.01271130982786417,-0.005374263506382704,-0.03766664117574692,0.005506427492946386,-0.015008711256086826
0.019562803208827972,0.013493740931153297,-0.005746377166360617,-0.03801976516842842,0.00572572648525238,-0.015366540290415287
0.01964697428047657,0.013332041911780834,-0.005604807287454605,-0.038276758044958115,0.0062828087247908115,-0.015670716762542725
0.02008063904941082,0.013618924655020237,-0.005521039012819529,-0.0384397991001606,0.006628116592764854,-0.01585647091269493
0.020206086337566376,0.013541904278099537,-0.005197001155465841,-0.03868761658668518,0.005828833673149347,-0.015457399189472198
0.019812380895018578,0.013769453391432762,-0.0053154597990214825,-0.038407325744628906,0.005391046404838562,-0.015346076339483261
0.020022975280880928,0.0138701768592,-0.005639764480292797,-0.038289736956357956,0.00527263293042779,-0.015245919115841389
0.01942417398095131,0.013944637961685658,-0.0051030972972512245,-0.039034679532051086,0.005639566108584404,-0.015696575865149498
0.020015807822346687,0.013894596137106419,-0.005650676321238279,-0.038846455514431,0.0060277399607002735,-0.016166118904948235
0.020856911316514015,0.014271856285631657,-0.005456564947962761,-0.03944796696305275,0.006155120208859444,-0.016001082956790924
0.02026895433664322,0.014232383109629154,-0.005900153424590826,-0.03950490057468414,0.005576875992119312,-0.01606561616063118
0.019574053585529327,0.014078794047236443,-0.005639703944325447,-0.03905860707163811,0.005766750779002905,-0.017169341444969177
0.02070433460175991,0.014264305122196674,-0.005469371099025011,-0.039337098598480225,0.005590735003352165,-0.0158498827368021
0.021007871255278587,0.014392716810107231,-0.005572080612182617,-0.03924138844013214,0.006210402585566044,-0.01545011717826128
0.020883362740278244,0.014300523325800896,-0.0060393670573830605,-0.039448101073503494,0.005836608354002237,-0.015408780425786972
0.02108810469508171,0.014474188908934593,-0.005773381795734167,-0.03894450515508652,0.005415664985775948,-0.016164010390639305
0.02108810469508171,0.014474188908934593,-0.005773381795734167,-0.03894450515508652,0.005415664985775948,-0.016164010390639305
0.021212030202150345,0.014587118290364742,-0.004678359255194664,-0.03924958035349846,0.005717098247259855,-0.01602083630859852
0.020332830026745796,0.014637580141425133,-0.0036043550353497267,-0.040440283715724945,0.006105516105890274,-0.01622711308300495
0.019977351650595665,0.014753461815416813,-0.0029161404818296432,-0.0390307791531086,0.0062705217860639095,-0.016022026538848877
0.020784733816981316,0.014937693253159523,-0.0034939765464514494,-0.038127265870571136,0.006104049272835255,-0.016025513410568237
0.021729743108153343,0.014608158729970455,-0.004811272025108337,-0.04000591114163399,0.006432964000850916,-0.015803908929228783
0.021364804357290268,0.014661652036011219,-0.004709567874670029,-0.03996230289340019,0.006642210762947798,-0.016177497804164886
0.021423788741230965,0.014806192368268967,-0.004045054316520691,-0.04079483449459076,0.006590811535716057,-0.016418207436800003
0.022024359554052353,0.014861141331493855,-0.0038832626305520535,-0.039823900908231735,0.006429925560951233,-0.01643546298146248
0.022122574970126152,0.015168319456279278,-0.004372862633317709,-0.038154635578393936,0.006284462288022041,-0.016739796847105026
0.021971294656395912,0.01530373189598322,-0.004198459442704916,-0.0398135706782341,0.006313064135611057,-0.016531482338905334
0.02157037891447544,0.015825625509023666,-0.003932520747184753,-0.04051081836223602,0.006189713254570961,-0.016468191519379616
0.022275829687714577,0.015299986116588116,-0.004063205327838659,-0.04064280539751053,0.0060780537314713,-0.01610824652016163
0.02216811291873455,0.015622506849467754,-0.0040367296896874905,-0.04076911509037018,0.0061263227835297585,-0.016279540956020355
0.022212080657482147,0.015301845967769623,-0.0037866749335080385,-0.04047740250825882,0.005577769596129656,-0.01657192036509514
0.022421589121222496,0.01605510525405407,-0.0037581620272248983,-0.04134964570403099,0.005946391262114048,-0.016504108905792236
0.02262311615049839,0.01583319529891014,-0.004459888208657503,-0.041964996606111526,0.006906888447701931,-0.016947487369179726
0.02270166203379631,0.016481494531035423,-0.004154557827860117,-0.042292043566703796,0.006882824469357729,-0.017079435288906097
0.022276077419519424,0.01619163155555725,-0.0040762219578027725,-0.04316999390721321,0.006409402936697006,-0.016571227461099625
0.022239619866013527,0.016358107328414917,-0.004268845543265343,-0.04337265342473984,0.0061653004959225655,-0.01677573285996914
0.022986430674791336,0.01624191366136074,-0.004352284595370293,-0.04366674646735191,0.006450037471950054,-0.017502522096037865
0.023024363443255424,0.01630276069045067,-0.005061321891844273,-0.043774478137493134,0.0068994974717497826,-0.017749030143022537
0.023133736103773117,0.015671785920858383,-0.004852745682001114,-0.0443231463432312,0.0069782487116754055,-0.01730595901608467
0.02287941798567772,0.016149897128343582,-0.0045868284069001675,-0.04440424591302872,0.006887407507747412,-0.016406400129199028
0.023012680932879448,0.015928346663713455,-0.004182884469628334,-0.04361460357904434,0.006141624879091978,-0.016350852325558662
0.023388419300317764,0.016627544537186623,-0.004986281506717205,-0.04565894231200218,0.0060346066020429134,-0.01626950316131115
0.023388419300317764,0.016627544537186623,-0.004986281506717205,-0.04565894231200218,0.0060346066020429134,-0.01626950316131115
0.02385322004556656,0.016750795766711235,-0.005045714322477579,-0.04534147307276726,0.00660756416618824,-0.01636039838194847
0.0237033199518919,0.015882520005106926,-0.00493582570925355,-0.04373427480459213,0.006693866103887558,-0.016789574176073074
0.02382873371243477,0.01674148440361023,-0.0051207211799919605,-0.04513689503073692,0.006457061972469091,-0.017133086919784546
0.023397931829094887,0.01663430966436863,-0.004875085316598415,-0.04608287289738655,0.006530179642140865,-0.016992788761854172
0.023596083745360374,0.017039166763424873,-0.00478994520381093,-0.04755493253469467,0.006662906613200903,-0.01712659001350403
0.023821620270609856,0.016994094476103783,-0.004850754048675299,-0.045104507356882095,0.006742228288203478,-0.018099769949913025
0.024719849228858948,0.016894329339265823,-0.005223492626100779,-0.04453030228614807,0.00630597211420536,-0.016631659120321274
0.0247260220348835,0.017492616549134254,-0.005113870836794376,-0.045672785490751266,0.006209568120539188,-0.01627621054649353
0.024225037544965744,0.016911126673221588,-0.005984659306704998,-0.046422336250543594,0.006609276868402958,-0.016995450481772423
0.021559379994869232,0.017224300652742386,-0.0054629528895020485,-0.04617265984416008,0.007279398385435343,-0.017160043120384216
0.024671271443367004,0.016824226826429367,-0.005377874709665775,-0.04542321339249611,0.006746436003595591,-0.017377400770783424
0.02503488026559353,0.017428407445549965,-0.005575899034738541,-0.04566597566008568,0.006975553464144468,-0.017573673278093338
0.024124111980199814,0.018496138975024223,-0.005621541757136583,-0.04588133841753006,0.007361231371760368,-0.017308974638581276
0.02482219971716404,0.017977772280573845,-0.0060567716136574745,-0.045710884034633636,0.0074407486245036125,-0.01748860441148281
0.025019338354468346,0.018005067482590675,-0.005968016106635332,-0.04544582962989807,0.007111463230103254,-0.017196768894791603
0.024891139939427376,0.01806991919875145,-0.005412336438894272,-0.04552961885929108,0.006716847885400057,-0.01733877696096897
0.02418019063770771,0.017725469544529915,-0.0058934371918439865,-0.045484572649002075,0.006896853446960449,-0.017723863944411278
0.023906107991933823,0.018246803432703018,-0.005493499338626862,-0.04603758454322815,0.006946544628590345,-0.01768358424305916
0.024689186364412308,0.018367836251854897,-0.0059951734729111195,-0.04552535340189934,0.00681026978418231,-0.01779947802424431
0.0253317691385746,0.018492436036467552,-0.005794624797999859,-0.04518786445260048,0.007046381011605263,-0.017265943810343742
0.02503940649330616,0.018567034974694252,-0.005487315356731415,-0.0454786978662014,0.0073877666145563126,-0.017908185720443726
0.02464933879673481,0.01913883164525032,-0.005873934831470251,-0.04575290158390999,0.00734613137319684,-0.01821090653538704
0.02469659596681595,0.018969029188156128,-0.006397181656211615,-0.04700852558016777,0.006746438331902027,-0.018014296889305115
0.02448543719947338,0.018686970695853233,-0.006015356630086899,-0.0469331368803978,0.0064460174180567265,-0.017927242442965508
0.025289850309491158,0.018829962238669395,-0.005677346605807543,-0.04518117383122444,0.006251574959605932,-0.018089057877659798
0.025241218507289886,0.018978862091898918,-0.0054803648963570595,-0.046890635043382645,0.0071608866564929485,-0.01806085929274559
0.02489994466304779,0.01872424967586994,-0.005709666293114424,-0.04772909730672836,0.007373739033937454,-0.01812174916267395
0.02532528154551983,0.01918085105717182,-0.006070868112146854,-0.04978448525071144,0.007263876497745514,-0.018212372437119484
0.02532528154551983,0.01918085105717182,-0.006070868112146854,-0.04978448525071144,0.007263876497745514,-0.018212372437119484
0.025339400395751,0.019212638959288597,-0.006079066079109907,-0.04681381210684776,0.006923797074705362,-0.018406910821795464
0.02505757287144661,0.019258365035057068,-0.005988720804452896,-0.04764699935913086,0.0071736592799425125,-0.01822139509022236
0.025520725175738335,0.019608598202466965,-0.005886913742870092,-0.04916703328490257,0.007017064839601517,-0.01798754744231701
0.02533971145749092,0.019601933658123016,-0.0060104443691670895,-0.04911552742123604,0.006818125024437904,-0.018180320039391518
0.025249622762203217,0.019264118745923042,-0.006513162516057491,-0.04891062155365944,0.007114009000360966,-0.01818738877773285
0.025592653080821037,0.019654758274555206,-0.006230508908629417,-0.048814691603183746,0.007532401941716671,-0.018382878974080086
0.025828680023550987,0.0201423279941082,-0.006173126865178347,-0.04900038242340088,0.007592298090457916,-0.019497860223054886
0.025598643347620964,0.01944977603852749,-0.006312661338597536,-0.04893486574292183,0.007077912334352732,-0.01850377395749092
0.025782497599720955,0.019940832629799843,-0.006049789488315582,-0.048952847719192505,0.006887335795909166,-0.017929594963788986
0.026014728471636772,0.020273994654417038,-0.006675062235444784,-0.04923265427350998,0.007157971151173115,-0.018467146903276443
0.025404706597328186,0.019701797515153885,-0.006381497718393803,-0.04977286234498024,0.007327075116336346,-0.018896082416176796
0.02524922415614128,0.019946753978729248,-0.0058312322944402695,-0.0502421110868454,0.007086275611072779,-0.01899212971329689
0.02583572454750538,0.020776376128196716,-0.006349153816699982,-0.049990665167570114,0.007094001863151789,-0.01872336119413376
0.02624046988785267,0.021513361483812332,-0.006716764997690916,-0.051513418555259705,0.00734243169426918,-0.018908321857452393
0.025866180658340454,0.020528340712189674,-0.0065390621311962605,-0.0524466298520565,0.0077819316647946835,-0.019198575988411903
0.026370717212557793,0.02040117420256138,-0.006382992956787348,-0.05049387738108635,0.007487884722650051,-0.01886267587542534
0.02644519694149494,0.02073785662651062,-0.006602059584110975,-0.05067913979291916,0.007006506435573101,-0.019177628681063652
0.026042653247714043,0.020601393654942513,-0.006142206024378538,-0.052022479474544525,0.007145516574382782,-0.019891660660505295
0.026415346190333366,0.02127058245241642,-0.006669065915048122,-0.051201771944761276,0.007708285935223103,-0.01942090503871441
0.027085162699222565,0.02157759852707386,-0.006838460918515921,-0.050931308418512344,0.007517523132264614,-0.0195059422403574
0.027059607207775116,0.0205240361392498,-0.00623879162594676,-0.0520319789648056,0.007954088039696217,-0.019204560667276382
0.026763996109366417,0.020794780924916267,-0.006334255449473858,-0.052139606326818466,0.008559031412005424,-0.019677629694342613
0.026945270597934723,0.021743282675743103,-0.006907156202942133,-0.051325723528862,0.0075940401293337345,-0.020289532840251923
0.025271877646446228,0.022405605763196945,-0.007026340812444687,-0.051579948514699936,0.0074556139297783375,-0.020456558093428612
0.025898871943354607,0.020510777831077576,-0.0064854309894144535,-0.051269423216581345,0.006968605797737837,-0.01954016275703907
0.02713286131620407,0.021555783227086067,-0.006304354872554541,-0.05135706067085266,0.007279138080775738,-0.019401516765356064
0.026547010987997055,0.021327916532754898,-0.00684579461812973,-0.05129026621580124,0.008583114482462406,-0.01936844177544117
0.026547010987997055,0.021327916532754898,-0.00684579461812973,-0.05129026621580124,0.008583114482462406,-0.01936844177544117
0.026724636554718018,0.02124832011759281,-0.006785241886973381,-0.05117621272802353,0.008139682933688164,-0.018910249695181847
0.027735542505979538,0.02118891105055809,-0.006684810854494572,-0.05149226263165474,0.007487088907510042,-0.019054487347602844
0.027284301817417145,0.021725069731473923,-0.006754506845027208,-0.052469659596681595,0.007274276111274958,-0.019866006448864937
0.027085021138191223,0.021825596690177917,-0.006524011492729187,-0.05326247960329056,0.00745053356513381,-0.020201675593852997
0.026950236409902573,0.021995101124048233,-0.006882041227072477,-0.053119271993637085,0.007509009446948767,-0.019786784425377846
0.02677392028272152,0.02194710075855255,-0.006631689611822367,-0.05368928611278534,0.007513979449868202,-0.02060895785689354
0.0271659716963768,0.021915288642048836,-0.006854791659861803,-0.05419627204537392,0.007081232964992523,-0.019805336371064186
0.027280904352664948,0.02199241705238819,-0.00691714184358716,-0.05501924082636833,0.007367393933236599,-0.020203543826937675
0.02716718055307865,0.02211783640086651,-0.0065939947962760925,-0.05693133547902107,0.008047686889767647,-0.0200990978628397
0.026809049770236015,0.02206607162952423,-0.006945976056158543,-0.05372077226638794,0.007800820283591747,-0.019350619986653328
0.02698861062526703,0.02220921963453293,-0.00657193036749959,-0.05431055650115013,0.00765205966308713,-0.019428975880146027
0.026843104511499405,0.022512059658765793,-0.006320219021290541,-0.055367592722177505,0.00761792017146945,-0.01972695253789425
0.027299782261252403,0.02253945916891098,-0.00718506146222353,-0.057056985795497894,0.007693074643611908,-0.020108237862586975
0.027129489928483963,0.02221618965268135,-0.007744604256004095,-0.054764822125434875,0.00773957185447216,-0.020388824865221977
0.027394000440835953,0.022371847182512283,-0.006838897708803415,-0.055746570229530334,0.007923338562250137,-0.020168421790003777
0.026967842131853104,0.022485971450805664,-0.006329948548227549,-0.05689038336277008,0.008137807250022888,-0.020042091608047485
0.02741856686770916,0.022668104618787766,-0.006717262789607048,-0.05705370754003525,0.008434572257101536,-0.019617293030023575
0.027518494054675102,0.022275181487202644,-0.007200997788459063,-0.05686180293560028,0.007570580579340458,-0.020231474190950394
0.027581319212913513,0.022365152835845947,-0.007277320139110088,-0.056721385568380356,0.00786224938929081,-0.02052435837686062
0.02599618211388588,0.022921329364180565,-0.006928513757884502,-0.0572008416056633,0.007829638198018074,-0.020023973658680916
0.028787028044462204,0.02292909473180771,-0.007401963230222464,-0.05676426365971565,0.007952086627483368,-0.02021835744380951
0.028673427179455757,0.022731930017471313,-0.0075789885595440865,-0.05552295967936516,0.008166652172803879,-0.020386790856719017
0.028014035895466805,0.02258937433362007,-0.0066930814646184444,-0.058587148785591125,0.00846108514815569,-0.020367126911878586
0.02824822999536991,0.022672440856695175,-0.006710516754537821,-0.05904600769281387,0.00814768671989441,-0.020480578765273094
0.02828291431069374,0.022989751771092415,-0.007242244202643633,-0.056031566113233566,0.007860872894525528,-0.020814673975110054
0.028432033956050873,0.023123420774936676,-0.007640194147825241,-0.05562805384397507,0.007456391118466854,-0.020216576755046844
0.029696904122829437,0.022705884650349617,-0.0069658211432397366,-0.057367172092199326,0.007826672866940498,-0.020298831164836884
0.02977864257991314,0.02268427424132824,-0.006981435231864452,-0.05692678317427635,0.00801755953580141,-0.021128589287400246
0.02977864257991314,0.02268427424132824,-0.006981435231864452,-0.05692678317427635,0.00801755953580141,-0.021128589287400246
0.028943141922354698,0.022893697023391724,-0.007448636461049318,-0.05487627908587456,0.008042273111641407,-0.021901635453104973
0.02811376191675663,0.02282809279859066,-0.007430902682244778,-0.055981650948524475,0.008161010220646858,-0.020681263878941536
0.029380401596426964,0.022862577810883522,-0.0071770367212593555,-0.05681591108441353,0.008064447902143002,-0.020120443776249886
0.02983698435127735,0.022364988923072815,-0.0070579564198851585,-0.05712060630321503,0.008324425667524338,-0.020628957077860832
0.029618943110108376,0.022194039076566696,-0.007398998364806175,-0.057160746306180954,0.00879468023777008,-0.02113872952759266
0.030275771394371986,0.022709516808390617,-0.0076339999213814735,-0.05792658403515816,0.008606883697211742,-0.021598011255264282
0.030282005667686462,0.02312091551721096,-0.00760045787319541,-0.05817381665110588,0.008162255398929119,-0.021732840687036514
0.030410442501306534,0.022866666316986084,-0.007052897941321135,-0.05824896693229675,0.007744316942989826,-0.021062638610601425
0.029911423102021217,0.023049449548125267,-0.007285410072654486,-0.05879131332039833,0.008017904125154018,-0.02065078355371952
0.029910629615187645,0.02330920100212097,-0.007771815173327923,-0.05870726704597473,0.008382847532629967,-0.020183101296424866
0.030738743022084236,0.0235188826918602,-0.007123755756765604,-0.058955106884241104,0.008540689013898373,-0.020987968891859055
0.03065411001443863,0.023709597066044807,-0.006936417426913977,-0.059188973158597946,0.008426136337220669,-0.021119240671396255
0.030625589191913605,0.02330748550593853,-0.006656210403889418,-0.05949047952890396,0.008087598718702793,-0.02160099521279335
0.030545607209205627,0.022581513971090317,-0.007069991435855627,-0.059415798634290695,0.0085632698610425,-0.021231666207313538
0.0305338054895401,0.022981800138950348,-0.007196364924311638,-0.059046074748039246,0.008536134846508503,-0.02088063582777977
0.03087949939072132,0.023882979527115822,-0.007055695168673992,-0.06153982877731323,0.008350681513547897,-0.021401608362793922
0.03200969099998474,0.0240391343832016,-0.007799426559358835,-0.05985642597079277,0.008274135179817677,-0.021702922880649567
0.03180892765522003,0.024627774953842163,-0.007775199133902788,-0.061121534556150436,0.008312844671308994,-0.021192150190472603
0.032150641083717346,0.024676082655787468,-0.00766096031293273,-0.06416381150484085,0.008721668273210526,-0.02073795720934868
0.03196811303496361,0.024056581780314445,-0.007030000910162926,-0.06137094274163246,0.008538327179849148,-0.021391110494732857
0.03207835927605629,0.023758701980113983,-0.007942358031868935,-0.06117953732609749,0.008112550713121891,-0.02158169262111187
0.03201965615153313,0.02352549321949482,-0.007908848114311695,-0.062154799699783325,0.008399998769164085,-0.0222310870885849
0.03197582811117172,0.02377646043896675,-0.007512172684073448,-0.06233293190598488,0.008457155898213387,-0.023164672777056694
0.03166808560490608,0.024385279044508934,-0.0073537565767765045,-0.06101047247648239,0.008471726439893246,-0.021075230091810226
0.032211802899837494,0.024569442495703697,-0.00786939263343811,-0.060566551983356476,0.008732554502785206,-0.021049410104751587
0.0329357385635376,0.024046532809734344,-0.007616791408509016,-0.06132081523537636,0.008585670962929726,-0.021588996052742004
0.032601822167634964,0.02467646449804306,-0.007509010378271341,-0.06174280121922493,0.0084784971550107,-0.022038858383893967
0.032601822167634964,0.02467646449804306,-0.007509010378271341,-0.06174280121922493,0.0084784971550107,-0.022038858383893967
0.03274808079004288,0.024413255974650383,-0.007441509980708361,-0.06078879535198212,0.008228691294789314,-0.02221142128109932
0.03243669494986534,0.024444598704576492,-0.007873090915381908,-0.06232185289263725,0.008247003890573978,-0.02210356667637825
0.03295193985104561,0.02535254880785942,-0.007517178077250719,-0.06050258129835129,0.00882782693952322,-0.02198166400194168
0.03311402350664139,0.02509930543601513,-0.00813778955489397,-0.06047654524445534,0.008458498865365982,-0.02216760627925396
0.03305966407060623,0.02476521208882332,-0.008641630411148071,-0.06222115829586983,0.008476766757667065,-0.022656578570604324
0.03318791091442108,0.024659348651766777,-0.008056518621742725,-0.062441419810056686,0.00906688254326582,-0.022686952725052834
0.03336750343441963,0.025064250454306602,-0.007884166203439236,-0.061666008085012436,0.008534717373549938,-0.02252361550927162
0.033773232251405716,0.025723423808813095,-0.007766424212604761,-0.06342191249132156,0.008434785529971123,-0.02256038784980774
0.03515930846333504,0.025520574301481247,-0.008211693726480007,-0.06388714909553528,0.009061678312718868,-0.022825416177511215
0.03457050770521164,0.02585754543542862,-0.008153244853019714,-0.0639384314417839,0.009222683496773243,-0.023037750273942947
0.0324045829474926,0.026134589686989784,-0.00814114511013031,-0.06386245787143707,0.009544828906655312,-0.022958099842071533
0.034435950219631195,0.025964312255382538,-0.00781300850212574,-0.06367785483598709,0.009282585233449936,-0.022784337401390076
0.03464984521269798,0.025088787078857422,-0.008526990190148354,-0.06333977729082108,0.009221403859555721,-0.023047108203172684
0.034525707364082336,0.025661665946245193,-0.008571214973926544,-0.0637505054473877,0.009069938212633133,-0.02307138778269291
0.03536393493413925,0.02632789872586727,-0.007930362597107887,-0.06463465839624405,0.009490984492003918,-0.022760406136512756
0.034930821508169174,0.025758860632777214,-0.008187871426343918,-0.06488564610481262,0.009051487781107426,-0.022902503609657288
0.034125916659832,0.02706553041934967,-0.0079124066978693,-0.06553275883197784,0.008738274686038494,-0.02332763560116291
0.03534751012921333,0.02686278149485588,-0.007529950235038996,-0.06685660779476166,0.00897945836186409,-0.02276470698416233
0.03512149676680565,0.026299042627215385,-0.00830979086458683,-0.06666427105665207,0.009113114327192307,-0.02331869676709175
0.03505370020866394,0.026271935552358627,-0.009099059738218784,-0.06564522534608841,0.009221866726875305,-0.023750748485326767
0.0350792296230793,0.02683507278561592,-0.007754219695925713,-0.06751282513141632,0.008884459733963013,-0.02372552827000618
0.03473526984453201,0.027353797107934952,-0.00752311060205102,-0.06543079018592834,0.009226310066878796,-0.023953264579176903
0.03422326222062111,0.02642977051436901,-0.0083956653252244,-0.06520909816026688,0.009384755045175552,-0.02383432723581791
0.03440041095018387,0.02716830186545849,-0.00870857760310173,-0.06787921488285065,0.009212697856128216,-0.023747967556118965
0.034620705991983414,0.027750913053750992,-0.007946265861392021,-0.06535151600837708,0.00905205961316824,-0.02392646111547947
0.034620705991983414,0.027750913053750992,-0.007946265861392021,-0.06535151600837708,0.00905205961316824,-0.02392646111547947
0.03486889228224754,0.026631217449903488,-0.008319394662976265,-0.06431131809949875,0.009156245738267899,-0.02398732677102089
0.0347030907869339,0.02646290510892868,-0.008661612868309021,-0.06436723470687866,0.009442745707929134,-0.02398495562374592
0.034739505499601364,0.02654321864247322,-0.00845087319612503,-0.06471651792526245,0.009748034179210663,-0.024185897782444954
0.03485497459769249,0.0269356407225132,-0.008060174062848091,-0.06519287079572678,0.009603030979633331,-0.024020321667194366
0.03436046093702316,0.02762909047305584,-0.008799339644610882,-0.06444894522428513,0.009367548860609531,-0.02380215749144554
0.03423270583152771,0.02722969651222229,-0.00882947538048029,-0.06448706984519958,0.009408039972186089,-0.02409067004919052
0.035882122814655304,0.0277165025472641,-0.008365457877516747,-0.06462287902832031,0.009303643368184566,-0.024156594648957253
0.03669466823339462,0.027941718697547913,-0.008619651198387146,-0.06809453666210175,0.009326745755970478,-0.02402189001441002
0.035342104732990265,0.028066132217645645,-0.008494488894939423,-0.06582354009151459,0.008981562219560146,-0.024072546511888504
0.034659549593925476,0.0283618476241827,-0.008152207359671593,-0.0656760036945343,0.009273465722799301,-0.02421049401164055
0.03596853092312813,0.028316214680671692,-0.00823348481208086,-0.06896468251943588,0.009044499136507511,-0.02461891435086727
0.03592808544635773,0.028101958334445953,-0.00902487151324749,-0.0664050355553627,0.009132478386163712,-0.025105033069849014
0.03594038635492325,0.02864830568432808,-0.00852586142718792,-0.06634224206209183,0.009000682272017002,-0.023926597088575363
0.03653470426797867,0.028328748419880867,-0.008028519339859486,-0.06663450598716736,0.009720207192003727,-0.023035317659378052
0.03670883923768997,0.028672052547335625,-0.009165547788143158,-0.06758183985948563,0.009775593876838684,-0.023835640400648117
0.0359041802585125,0.029025403782725334,-0.008868998847901821,-0.0683627724647522,0.009175325743854046,-0.024705106392502785
0.03637194260954857,0.02858937904238701,-0.008245103061199188,-0.06871010363101959,0.009336392395198345,-0.025353116914629936
0.03686177358031273,0.02913726679980755,-0.00827814545482397,-0.0686042532324791,0.009808903560042381,-0.02474229596555233
0.036625105887651443,0.028918106108903885,-0.00849282369017601,-0.0679205134510994,0.009447494521737099,-0.025971516966819763
0.036088816821575165,0.02942570112645626,-0.008218344300985336,-0.06988301128149033,0.009497694671154022,-0.02594790980219841
0.03663896769285202,0.029355667531490326,-0.008602650836110115,-0.07036096602678299,0.009775608777999878,-0.024961721152067184
0.03686106204986572,0.029487138614058495,-0.008436367847025394,-0.06989357620477676,0.00897215586155653,-0.024278506636619568
