davideferrari95/blind_handover_controller/data/Test 243 - [2024-02-08 -- 12-35-30]/joint_states_data.csv
shoulder_pan_joint,shoulder_lift_joint,elbow_joint,wrist_1_joint,wrist_2_joint,wrist_3_joint
0.005342358257621527,0.008361924439668655,-0.011631461791694164,0.00451270118355751,-0.0013374423142522573,0.0053840395994484425
0.005342358257621527,0.008361924439668655,-0.011631461791694164,0.00451270118355751,-0.0013374423142522573,0.0053840395994484425
0.0050450097769498825,0.00916385930031538,-0.01200875360518694,0.004301176872104406,-0.0012698842911049724,0.00529387267306447
0.005103549920022488,0.008549072779715061,-0.0111380061134696,0.004322008229792118,-0.001239966368302703,0.005386767443269491
0.005255742929875851,0.00785147212445736,-0.011443558149039745,0.004130576271563768,-0.0014025872806087136,0.005523073952645063
0.005053420085459948,0.008770679123699665,-0.011375956237316132,0.004245111718773842,-0.0014049384044483304,0.0054405382834374905
0.0057582310400903225,0.008741708472371101,-0.011465714313089848,0.004242779687047005,-0.0017023805994540453,0.005537915974855423
0.0057582310400903225,0.008741708472371101,-0.011465714313089848,0.004242779687047005,-0.0017023805994540453,0.005537915974855423
0.0054934401996433735,0.007745692040771246,-0.011629761196672916,0.0040563009679317474,-0.0015604395885020494,0.00533020356670022
0.005023132544010878,0.007953190244734287,-0.011101549491286278,0.004313113633543253,-0.0013601378304883838,0.004996515344828367
0.0056990101002156734,0.008003325201570988,-0.011913060210645199,0.004169692285358906,-0.001206343062222004,0.005292166955769062
0.0054646083153784275,0.008535115979611874,-0.011273929849267006,0.004069055430591106,-0.0009882207959890366,0.005277051590383053
0.005303533747792244,0.008401625789701939,-0.011177711188793182,0.004025347530841827,-0.0007849939283914864,0.004892278462648392
0.005121949128806591,0.007950300350785255,-0.011144774965941906,0.004311058670282364,-0.0006946815410628915,0.005091027822345495
0.00565742515027523,0.008132463321089745,-0.01185406744480133,0.00365097145549953,-0.000711382192093879,0.004936200100928545
0.005317725706845522,0.007773956283926964,-0.012049100361764431,0.00437775906175375,-0.0007240364793688059,0.005435026716440916
0.00525411032140255,0.008192762732505798,-0.011731702834367752,0.004622782114893198,-0.00066882319515571,0.005303653888404369
0.004978283308446407,0.008547495119273663,-0.011945730075240135,0.00397537974640727,-0.0006339180399663746,0.00530665460973978
0.005067033227533102,0.007973941043019295,-0.011339770630002022,0.0035198372788727283,-0.0005589423235505819,0.005704597570002079
0.00532537279650569,0.007657932583242655,-0.011832806281745434,0.003622962161898613,-0.0005894619971513748,0.0052710422314703465
0.0051042973063886166,0.007391313556581736,-0.011584321968257427,0.004283130634576082,-0.0005368309211917222,0.005173101089894772
0.00491531053557992,0.008099294267594814,-0.011453455314040184,0.0041453116573393345,-0.0005641822353936732,0.005241243168711662
0.0051656137220561504,0.0077796862460672855,-0.011445517651736736,0.0038948901928961277,-0.0005223262123763561,0.005611191503703594
0.005153433419764042,0.008117880672216415,-0.011203824542462826,0.004012192599475384,-0.000542099995072931,0.00540423346683383
0.005529920104891062,0.007854264229536057,-0.011995963752269745,0.003927259705960751,-0.0005116831744089723,0.0050897374749183655
0.005493874661624432,0.008207245729863644,-0.011707139201462269,0.003793623996898532,-0.0005011599278077483,0.005114131607115269
0.005065551958978176,0.0076410723850131035,-0.011098860763013363,0.0034693998750299215,-0.000460337963886559,0.005060659721493721
0.005439354572445154,0.00740773556753993,-0.010608826763927937,0.0035605530720204115,-0.00047942306264303625,0.005083933472633362
0.00517257209867239,0.007938905619084835,-0.010937599465250969,0.004117527045309544,-0.00045770389260724187,0.005147002171725035
0.005314661655575037,0.007980839349329472,-0.012266846373677254,0.0040750158950686455,-0.0004839034518226981,0.004983512684702873
0.005574387032538652,0.007432352285832167,-0.011950215324759483,0.004302761517465115,-0.0004888601833954453,0.005028397310525179
0.005456740502268076,0.007138777524232864,-0.011280318722128868,0.004115118645131588,-0.0004883428337052464,0.004913979675620794
0.005087309516966343,0.007865061052143574,-0.011215969920158386,0.003972650971263647,-0.000663844752125442,0.0051083434373140335
0.004846123047173023,0.007691664155572653,-0.010958376340568066,0.0038459221832454205,-0.0006483627948909998,0.0050775096751749516
0.005164358299225569,0.008054684847593307,-0.01158866472542286,0.004255775362253189,-0.0006660364451818168,0.005196641199290752
0.005164358299225569,0.008054684847593307,-0.01158866472542286,0.004255775362253189,-0.0006660364451818168,0.005196641199290752
0.005390794016420841,0.007855614647269249,-0.011749329045414925,0.0038794376887381077,-0.0006127746310085058,0.005018528085201979
0.0051810406148433685,0.007839161902666092,-0.010615764185786247,0.0035676502157002687,-0.0006332435877993703,0.005004449747502804
0.004818579647690058,0.007639419753104448,-0.011234443634748459,0.0038904936518520117,-0.000664988299831748,0.005036510061472654
0.00511712022125721,0.007661673240363598,-0.011025890707969666,0.004171880893409252,-0.00064563233172521,0.005004390142858028
0.005039868410676718,0.007767123635858297,-0.011343112215399742,0.003980621695518494,-0.0006232785526663065,0.005318793933838606
0.00518257450312376,0.007410882040858269,-0.010628520511090755,0.0037101416382938623,-0.0005884437705390155,0.004748278763145208
0.005348553881049156,0.008018344640731812,-0.01138592604547739,0.00398410065099597,-0.0005743657238781452,0.004896996542811394
0.005492172669619322,0.007870735600590706,-0.01169395912438631,0.004262158647179604,-0.0005287209642119706,0.0048220716416835785
0.005032177548855543,0.0077528078109025955,-0.010569295845925808,0.004102496895939112,-0.0004879073239862919,0.004978883545845747
0.0049079773016273975,0.007468868978321552,-0.011600826866924763,0.004196607042104006,-0.00048420342500321567,0.005651123821735382
0.0052555399015545845,0.0073795015923678875,-0.011119475588202477,0.004104275722056627,-0.0004806111683137715,0.004851190373301506
0.005305230151861906,0.0072656539268791676,-0.011053082533180714,0.003896852023899555,-0.0004541170783340931,0.0045635029673576355
0.005685371812433004,0.007736627012491226,-0.010960213840007782,0.0037834548857063055,-0.000403227168135345,0.004592202603816986
0.0051472545601427555,0.007051872555166483,-0.0106687406077981,0.004200090188533068,-0.00042360645602457225,0.0047521330416202545
0.0049225338734686375,0.007283599581569433,-0.011332104913890362,0.003731956472620368,-0.0004083095118403435,0.005097978748381138
0.005198752507567406,0.007675292901694775,-0.011374478228390217,0.003528097178786993,-0.00043540491606108844,0.004716118797659874
0.004997539799660444,0.007829916663467884,-0.01094642374664545,0.004091577138751745,-0.0004143054538872093,0.0045394585467875
0.005594448186457157,0.007131165824830532,-0.011211448349058628,0.004078957252204418,-0.00043726348667405546,0.004475666210055351
0.00527561642229557,0.007195733021944761,-0.010755720548331738,0.0039186361245810986,-0.00041844401857815683,0.004674255847930908
0.005781701300293207,0.006681390106678009,-0.011279087513685226,0.0033962035086005926,-0.0005444136913865805,0.004755941219627857
0.005426796153187752,0.007344139739871025,-0.010907194577157497,0.0033755265176296234,-0.0005547792534343898,0.004332778975367546
0.0050988467410206795,0.0081267599016428,-0.01041574776172638,0.003419388085603714,-0.0005439993110485375,0.004439441952854395
0.005804318469017744,0.006930230185389519,-0.011149626225233078,0.003451212542131543,-0.0005575119866989553,0.004998465068638325
0.005649808794260025,0.006767118349671364,-0.01083605457097292,0.0036472759675234556,-0.0005295415176078677,0.005071328952908516
0.005636158399283886,0.006919370964169502,-0.01103023998439312,0.0036254157312214375,-0.0005499545950442553,0.004790013190358877
0.0053713698871433735,0.007181044667959213,-0.011382272467017174,0.004084552172571421,-0.0006284708506427705,0.0049459682777523994
0.005776398349553347,0.006904343143105507,-0.010649457573890686,0.004103523213416338,-0.0005861286190338433,0.005084870848804712
0.005776398349553347,0.006904343143105507,-0.010649457573890686,0.004103523213416338,-0.0005861286190338433,0.005084870848804712
0.005536949262022972,0.006865313742309809,-0.011186415329575539,0.004191752057522535,-0.000617282057646662,0.0053747654892504215
0.005915304180234671,0.006726516410708427,-0.01091830711811781,0.004066788125783205,-0.0006278921500779688,0.005518642254173756
0.006491263397037983,0.006934619043022394,-0.010219774208962917,0.003858181182295084,-0.0006632134900428355,0.00513459974899888
0.006278960965573788,0.006506496574729681,-0.010590845718979836,0.0034225424751639366,-0.0008070033509284258,0.005772692151367664
0.0064267562702298164,0.006555948406457901,-0.010714584030210972,0.003489712020382285,-0.0008237789734266698,0.005898051895201206
0.006337905768305063,0.007179989479482174,-0.010872380807995796,0.003756270045414567,-0.0008332817233167589,0.005778912454843521
0.0063047767616808414,0.007304596249014139,-0.01023831032216549,0.0043312921188771725,-0.0008980813436210155,0.005525512155145407
0.006344854831695557,0.006684457417577505,-0.010493134148418903,0.004460237454622984,-0.0009773020865395665,0.005275083240121603
0.006007806397974491,0.006506398785859346,-0.010674741119146347,0.0038114578928798437,-0.0008656519930809736,0.005305720027536154
0.006168144755065441,0.006834186613559723,-0.010659227147698402,0.0035063037648797035,-0.0008636205457150936,0.005159455351531506
0.006408241577446461,0.007300043944269419,-0.011209639720618725,0.0035072695463895798,-0.0008675102726556361,0.00571907265111804
0.006322032306343317,0.007107640150934458,-0.011154776439070702,0.0036165150813758373,-0.000840905006043613,0.0054784491658210754
0.006108676549047232,0.006822572555392981,-0.010022123344242573,0.003772047581151128,-0.0008555786334909499,0.004932299256324768
0.006257560104131699,0.007325843907892704,-0.010425507090985775,0.004377956502139568,-0.0008621218730695546,0.004460216965526342
0.006204747129231691,0.007114750798791647,-0.010333861224353313,0.004300589673221111,-0.0008524211007170379,0.0043867104686796665
0.006379724945873022,0.007304988335818052,-0.01048289518803358,0.003978501074016094,-0.0007904317462816834,0.004850753583014011
0.006366277579218149,0.0068671260960400105,-0.011011799797415733,0.0037828017957508564,-0.0008162718149833381,0.005156944505870342
0.006079260725528002,0.0068091438151896,-0.010528698563575745,0.003799889236688614,-0.0008198674768209457,0.00528703723102808
0.006191324442625046,0.007279420271515846,-0.010943436063826084,0.003826545085757971,-0.0007840017206035554,0.005002157296985388
0.0065850852988660336,0.006992689333856106,-0.010403934866189957,0.004089029505848885,-0.0007947647827677429,0.004793883766978979
0.006315350532531738,0.00704130157828331,-0.010509548708796501,0.004321865737438202,-0.0008274543797597289,0.005088564939796925
0.006029005628079176,0.007107233628630638,-0.011538633145391941,0.004577850457280874,-0.0009658729541115463,0.005070851184427738
0.006179125979542732,0.007310186978429556,-0.01062819268554449,0.004333534277975559,-0.0010067032417282462,0.0048909736797213554
0.0061615752056241035,0.007146780379116535,-0.01065722107887268,0.004050632938742638,-0.0011537433601915836,0.004900720436125994
0.006593021564185619,0.006978517863899469,-0.011029103770852089,0.003908183425664902,-0.0010973011376336217,0.004756759852170944
0.006585871335119009,0.006538424640893936,-0.010597179643809795,0.0039475588127970695,-0.0008933800854720175,0.0047042155638337135
0.006755320820957422,0.007043214049190283,-0.01021653600037098,0.003957406152039766,-0.0007455542800016701,0.0045249867253005505
0.005936930887401104,0.007360365707427263,-0.010786870494484901,0.004213986452668905,-0.0006392783834598958,0.004264508374035358
0.006432624068111181,0.007044375408440828,-0.010429191403090954,0.0041797831654548645,-0.0006130624678917229,0.0044736796990036964
0.006432624068111181,0.007044375408440828,-0.010429191403090954,0.0041797831654548645,-0.0006130624678917229,0.0044736796990036964
0.006734234280884266,0.007074935827404261,-0.010803544893860817,0.004320445004850626,-0.000593251024838537,0.004725031554698944
0.006004794966429472,0.0073125907219946384,-0.011208201758563519,0.004104589577764273,-0.0005372835439629853,0.004736016504466534
0.006004794966429472,0.0073125907219946384,-0.011208201758563519,0.004104589577764273,-0.0005372835439629853,0.004736016504466534
0.006508561782538891,0.0071091498248279095,-0.010605057701468468,0.003989010117948055,-0.00041381624760106206,0.004526412580162287
0.006547067314386368,0.007036255206912756,-0.01090355683118105,0.0035622769501060247,-0.00038433997542597353,0.004593975376337767
0.006412579212337732,0.007323589641600847,-0.011336790397763252,0.0034388178028166294,-0.00035878727794624865,0.004737229086458683
0.005720584187656641,0.007260167971253395,-0.011086922138929367,0.003584184218198061,-0.00033642223570495844,0.005123520735651255
0.005877106916159391,0.007269986905157566,-0.01140776090323925,0.004337497986853123,-0.0003658018831629306,0.004514413420110941
0.007070050574839115,0.007507497910410166,-0.011520879343152046,0.0046542915515601635,-0.00034874872653745115,0.0044911629520356655
0.006408550310879946,0.007082212250679731,-0.01073236484080553,0.0045748380944132805,-0.00033064844319596887,0.004676430951803923
0.006338793318718672,0.007228263653814793,-0.011953111737966537,0.004222828894853592,-0.0003141675260849297,0.004329306073486805
0.005767601542174816,0.006741010118275881,-0.011519880965352058,0.00400021206587553,-0.00029924139380455017,0.004297493491321802
0.006044567096978426,0.0070948791690170765,-0.011561959981918335,0.0039213295094668865,-0.0002856688224710524,0.004591614939272404
0.006720800884068012,0.0074630253948271275,-0.011259985156357288,0.003916044253855944,-0.00027327454881742597,0.004711528308689594
0.0067358859814703465,0.007152857258915901,-0.011070835404098034,0.004195074550807476,-0.00026191119104623795,0.004486271180212498
0.006177558563649654,0.007049585226923227,-0.011322876438498497,0.004179501906037331,-0.00028493429999798536,0.00457506999373436
0.006332844961434603,0.006795011926442385,-0.010919532738626003,0.004283993970602751,-0.0002761859796009958,0.004423776641488075
0.005852576345205307,0.007176301442086697,-0.011068967171013355,0.004060552921146154,-0.0002661190810613334,0.004729548469185829
0.006220243871212006,0.007041516713798046,-0.011143111623823643,0.004213498905301094,-0.00025664104032330215,0.0048041739501059055
0.006527002435177565,0.006857619620859623,-0.010846496559679508,0.004250338301062584,-0.0002478074165992439,0.00493291299790144
0.006491403561085463,0.007241229526698589,-0.011224191635847092,0.00434827571734786,-0.00023956119548529387,0.004427993204444647
0.005791024770587683,0.007627623621374369,-0.010590068995952606,0.0043447865173220634,-0.0002318462502444163,0.0043671526946127415
0.00636916933581233,0.00759053835645318,-0.011032713577151299,0.004267961718142033,-0.00016331749793607742,0.004470999352633953
0.006670105736702681,0.006584544666111469,-0.011247174814343452,0.004220037255436182,-0.00014944457507226616,0.00428635161370039
0.006406848784536123,0.006545976735651493,-0.010704606771469116,0.003996975254267454,-0.00014410588482860476,0.0044759600423276424
0.006406848784536123,0.006545976735651493,-0.010704606771469116,0.003996975254267454,-0.00014410588482860476,0.0044759600423276424
0.006058346014469862,0.007115306798368692,-0.010508845560252666,0.004257276188582182,-0.0001395988801959902,0.00471209641546011
0.00622150581330061,0.0071029216051101685,-0.011234604753553867,0.004156851675361395,-0.00013539580686483532,0.0043932171538472176
0.006241056136786938,0.006726526189595461,-0.010897243395447731,0.004014922771602869,-0.00015596057346556336,0.004453146364539862
0.006397157441824675,0.0073646255768835545,-0.011101608164608479,0.0042531793005764484,-0.0001531364250695333,0.004643578547984362
0.006007418967783451,0.007175948470830917,-0.010156537406146526,0.004429292399436235,-0.00014501948317047209,0.004226382356137037
0.006026421673595905,0.006848630961030722,-0.01077668834477663,0.004218934569507837,-0.0001412269484717399,0.0038989491295069456
0.006287694443017244,0.006750394590198994,-0.010549040511250496,0.004177550785243511,-0.00015754447667859495,0.004221729002892971
0.006121678743511438,0.006934448145329952,-0.010991943068802357,0.003980438690632582,-0.0001563772966619581,0.004426714964210987
0.006355976685881615,0.007465538568794727,-0.011313858442008495,0.0038842004723846912,-0.00015276441990863532,0.004384928848594427
0.006095162592828274,0.0074180541560053825,-0.011262024752795696,0.003952576778829098,-0.00014915918291080743,0.004366244655102491
0.006291486322879791,0.0068636308424174786,-0.011683925986289978,0.0043780445121228695,-0.0001457099278923124,0.004267566371709108
0.006570031866431236,0.007141450885683298,-0.010619021020829678,0.004642148967832327,-0.0001614019856788218,0.00447502825409174
0.0065455129370093346,0.00759523082524538,-0.01029952708631754,0.004449458327144384,-0.000159074246766977,0.004681019578129053
0.006353106815367937,0.007467532996088266,-0.010614166036248207,0.004040910396724939,-0.0001557499635964632,0.004407329019159079
0.0061128162778913975,0.006770574953407049,-0.01055642869323492,0.004212276544421911,-0.00023435450566466898,0.004247008357197046
0.006335018202662468,0.006720486097037792,-0.01027754507958889,0.004210231825709343,-0.00022814127441961318,0.004179893061518669
0.006753222551196814,0.006967686582356691,-0.01084945723414421,0.004443336743861437,-0.000238723136135377,0.003946823999285698
0.00718064047396183,0.007133809849619865,-0.010725639760494232,0.004552706144750118,-0.0002475194924045354,0.003774857148528099
0.006848848890513182,0.0069780899211764336,-0.010639884509146214,0.004618566017597914,-0.00023790393606759608,0.0036654972936958075
0.006599400192499161,0.006910134106874466,-0.011031588539481163,0.0046565779484808445,-0.0002279437758261338,0.0034714294597506523
0.006879717577248812,0.007346393074840307,-0.010349957272410393,0.004348635207861662,-0.00021871518401894718,0.0035173604264855385
0.0071126422844827175,0.0076878913678228855,-0.010828518308699131,0.00432440172880888,-0.00024285302788484842,0.004013877362012863
0.006857347209006548,0.006939938757568598,-0.010918645188212395,0.004407078493386507,-0.0002358884084969759,0.0040885875932872295
0.006824360229074955,0.006729762069880962,-0.010624692775309086,0.004276215564459562,-0.00022750756761524826,0.004286603536456823
0.007276845630258322,0.006762094330042601,-0.011428405530750751,0.00450097443535924,-0.0002427969448035583,0.004091296344995499
0.007276845630258322,0.006762094330042601,-0.011428405530750751,0.00450097443535924,-0.0002427969448035583,0.004091296344995499
0.0074816918931901455,0.007331300526857376,-0.010542158037424088,0.004595109727233648,-0.0002419696975266561,0.003960194066166878
0.006960536353290081,0.007129835430532694,-0.01049281470477581,0.004225257318466902,-0.00023456537746824324,0.003915085457265377
0.007193607743829489,0.006808364298194647,-0.011270040646195412,0.0041297501884400845,-0.00031257630325853825,0.0038551068864762783
0.007711363956332207,0.007081379182636738,-0.010921210050582886,0.0039123836904764175,-0.00030403179698623717,0.00382372853346169
0.007089161779731512,0.007539265789091587,-0.010706636123359203,0.003903221571817994,-0.0002855535421986133,0.004137767944484949
0.006910656578838825,0.007174319587647915,-0.010952288284897804,0.004428985062986612,-0.00026855780743062496,0.004260730464011431
0.006912505719810724,0.0068952832370996475,-0.011077365837991238,0.004641134291887283,-0.0002874491910915822,0.003939167596399784
0.007093703839927912,0.00738705275580287,-0.010857775807380676,0.004453497938811779,-0.0002732892753556371,0.004007718525826931
0.007151286583393812,0.007345833349972963,-0.010283487848937511,0.004093104507774115,-0.0002601453452371061,0.0035718262661248446
0.007042781915515661,0.00719093531370163,-0.011011390015482903,0.0038791086990386248,-0.0002481875126250088,0.004043581895530224
0.007511018309742212,0.006748802028596401,-0.010697737336158752,0.00409639161080122,-0.00023727919324301183,0.004415236879140139
0.006980053149163723,0.0069085643626749516,-0.01047880481928587,0.004595013335347176,-0.00022728968178853393,0.004500039853155613
0.0072087738662958145,0.007192086428403854,-0.01108747161924839,0.004705660976469517,-0.0002181078161811456,0.004073436371982098
0.006643783766776323,0.006749218795448542,-0.01078055426478386,0.004727719351649284,-0.00020963868882972747,0.0034407838247716427
0.007021809462457895,0.00704024825245142,-0.011302447877824306,0.004479114431887865,-0.00020180281717330217,0.003540473524481058
0.007444068789482117,0.007066347636282444,-0.011224796064198017,0.004324021283537149,-0.0001945320109371096,0.0038732236716896296
0.00672466866672039,0.007226038258522749,-0.010431358590722084,0.004079288337379694,-0.00018776657816488296,0.004041117150336504
0.006865489762276411,0.007279649842530489,-0.010902704671025276,0.004488738253712654,-0.0001814564602682367,0.0039833057671785355
0.0074882544577121735,0.007443082984536886,-0.010598588734865189,0.0047815944999456406,-0.00017555642989464104,0.0038882209919393063
0.0071621248498559,0.007030445616692305,-0.010515225119888783,0.004747158382087946,-0.0001700280699878931,0.003888316685333848
0.007171736564487219,0.007205912843346596,-0.011159174144268036,0.004644519183784723,-0.0001648374745855108,0.0034811035729944706
0.007448280230164528,0.007384912576526403,-0.01076482329517603,0.0049586170352995396,-0.00015995443391148,0.003546807449311018
0.00755568640306592,0.006688740570098162,-0.010817385278642178,0.004610804840922356,-0.00015535207057837397,0.003727089613676071
0.0077134715393185616,0.006903603672981262,-0.01072640623897314,0.004655980970710516,-0.00015100753807928413,0.0038478542119264603
0.008222153410315514,0.007344404235482216,-0.010463430546224117,0.00517574418336153,-0.0001650399062782526,0.0034216875210404396
0.0076955994591116905,0.006857358384877443,-0.011215902864933014,0.005489332135766745,-0.00016642920672893524,0.0034270845353603363
0.00782177597284317,0.006812179461121559,-0.010977399535477161,0.00504242954775691,-0.00016251177294179797,0.0034003369510173798
0.008322210982441902,0.006669082213193178,-0.010783535428345203,0.004860155750066042,-0.0001584485435159877,0.0031972508877515793
0.008480066433548927,0.007519132923334837,-0.011110610328614712,0.00482085719704628,-0.00015456271648872644,0.0032193725928664207
0.008480066433548927,0.007519132923334837,-0.011110610328614712,0.00482085719704628,-0.00015456271648872644,0.0032193725928664207
0.007664850447326899,0.006907621864229441,-0.010751922614872456,0.004785394761711359,-0.0001508615823695436,0.003168685594573617
0.008060726337134838,0.0063833389431238174,-0.011101867072284222,0.00488834735006094,-0.00014733332500327379,0.00335967680439353
0.008144055493175983,0.006718943826854229,-0.011217579245567322,0.005160427186638117,-0.00014396618644241244,0.003162889275699854
0.007703091949224472,0.007500277366489172,-0.01109567005187273,0.004781241994351149,-0.00013767370546702296,0.003343503922224045
0.00898987241089344,0.006898997817188501,-0.010846110060811043,0.0050260447897017,-0.00013472960563376546,0.003182272193953395
0.008267657831311226,0.006413022521883249,-0.01124186348170042,0.004553256090730429,-0.0001319084403803572,0.0032428638078272343
0.008027099072933197,0.006436054594814777,-0.012248728424310684,0.004625558853149414,-0.0001292030792683363,0.0031350564677268267
0.008107504807412624,0.006955680903047323,-0.011561273597180843,0.004684393759816885,-0.00012660666834563017,0.0030870777554810047
0.008707854896783829,0.006502644624561071,-0.011602281592786312,0.005142507143318653,-0.00012411238276399672,0.0031856277491897345
0.008667672984302044,0.006475221831351519,-0.011241957545280457,0.004978230223059654,-0.00012171440903330222,0.003200974315404892
0.008755476213991642,0.006549563724547625,-0.010269591584801674,0.004744322504848242,-0.00011940739204874262,0.0030571783427149057
0.008722283877432346,0.006646131165325642,-0.011976848356425762,0.004560117609798908,-0.00011718635505530983,0.0028642737306654453
0.008221167139708996,0.006909378804266453,-0.011596587486565113,0.00468708761036396,-0.00011504644498927519,0.0026539629325270653
0.008409884758293629,0.0061391983181238174,-0.01154947280883789,0.004832599312067032,-0.0001129830998252146,0.0028678621165454388
0.009652282111346722,0.006025330629199743,-0.011227083392441273,0.004714753944426775,-0.00011099262337666005,0.0030206625815480947
0.00865813996642828,0.0065177856013178825,-0.010777496732771397,0.004985610954463482,-4.9340364057570696e-05,0.002932111732661724
0.008222293108701706,0.0066597904078662395,-0.011552420444786549,0.005109057761728764,-4.00621174776461e-05,0.0028271935880184174
0.00784552562981844,0.006404892075806856,-0.011361815966665745,0.005049549043178558,-3.866691258735955e-05,0.0028257411904633045
0.009027844294905663,0.006389404181391001,-0.01128548663109541,0.0051131178624928,-3.7819507269887254e-05,0.0031982678920030594
0.008645275607705116,0.006637868471443653,-0.01178706530481577,0.005410030484199524,-3.7039004382677376e-05,0.0031832819804549217
0.008253701031208038,0.0071372054517269135,-0.011406412348151207,0.0055098263546824455,-3.629204002209008e-05,0.003071077400818467
0.008300078101456165,0.0070562162436544895,-0.01176441926509142,0.005261408165097237,-3.5574750654632226e-05,0.0028746998868882656
0.008794419467449188,0.006312589161098003,-0.011424345895648003,0.005710361059755087,-3.488525908323936e-05,0.002900098916143179
0.008242934010922909,0.006516874302178621,-0.011142430827021599,0.005487716291099787,-3.422200461500324e-05,0.0027196283917874098
0.008242934010922909,0.006516874302178621,-0.011142430827021599,0.005487716291099787,-3.422200461500324e-05,0.0027196283917874098
0.008219265379011631,0.006453686859458685,-0.011759288609027863,0.0057609505020082,-3.358354661031626e-05,0.0026035693008452654
0.009170209057629108,0.0062036337330937386,-0.011638925410807133,0.005642394069582224,-3.2968426239676774e-05,0.002706622239202261
0.008749439381062984,0.00657127657905221,-0.011595381423830986,0.005146766547113657,-3.2375399314332753e-05,0.002723909914493561
0.00833516102284193,0.006102005951106548,-0.011067768558859825,0.005373742897063494,-3.1803385354578495e-05,0.0025183537509292364
0.009043843485414982,0.005965325981378555,-0.01120990701019764,0.005186938215047121,-3.1251212931238115e-05,0.002652661642059684
0.00886564888060093,0.006143499631434679,-0.011580360122025013,0.005239800084382296,-3.07178997900337e-05,0.002697001677006483
0.008594019338488579,0.006187093909829855,-0.012258331291377544,0.005167064722627401,-2.9704058761126362e-05,0.002413035137578845
0.008877863176167011,0.005951687227934599,-0.011608583852648735,0.005279807839542627,-2.922182648035232e-05,0.0022323327139019966
0.008916288614273071,0.005971947684884071,-0.010997021570801735,0.0048229629173874855,-2.8755024686688557e-05,0.0022303126752376556
0.008401810191571712,0.006016287952661514,-0.011323222890496254,0.004978472832590342,-2.8302867576712742e-05,0.0026549501344561577
0.008881848305463791,0.006111710797995329,-0.010916858911514282,0.005524410866200924,-2.7864723961101845e-05,0.002896323101595044
0.009306440129876137,0.006059159059077501,-0.011508019641041756,0.006023287773132324,-2.743992990872357e-05,0.0026080263778567314
0.008380499668419361,0.005768560338765383,-0.011483241803944111,0.0055577694438397884,-2.702792153286282e-05,0.0024309016298502684
0.00852122064679861,0.005642162635922432,-0.010714958421885967,0.005137990694493055,-2.006929753406439e-05,0.0023720008321106434
0.008969850838184357,0.005635389126837254,-0.011705473065376282,0.0055428482592105865,-1.3561025298258755e-05,0.002437828341498971
0.009090098552405834,0.006198970600962639,-0.011184550821781158,0.0058375513181090355,-1.2960236745129805e-05,0.002767251804471016
0.008517088368535042,0.006316019222140312,-0.011372602544724941,0.00598539924249053,-1.2750158930430189e-05,0.0028429937083274126
0.008637008257210255,0.005621225107461214,-0.011139838956296444,0.006048507988452911,-1.2570344551932067e-05,0.0024907223414629698
0.009085691533982754,0.005955861881375313,-0.010915831662714481,0.005484526511281729,-1.2397079444781411e-05,0.0022717679385095835
0.008763863705098629,0.005446966737508774,-0.011210644617676735,0.0056752716191112995,-8.094406780401187e-07,0.002025801222771406
0.008578073233366013,0.005938435439020395,-0.012234140187501907,0.005430129356682301,-5.285069804017439e-08,0.0018781601684167981
0.009669399820268154,0.005996787454932928,-0.011370728723704815,0.005862555932253599,-3.450772778634814e-09,0.0019026685040444136
0.008967285975813866,0.00609652791172266,-0.011258038692176342,0.005649973638355732,-2.2531081167453948e-10,0.00211554067209363
0.008977885358035564,0.005729089956730604,-0.011010142974555492,0.005817249417304993,-1.471118539486671e-11,0.002553071128204465
0.008928767405450344,0.005921351257711649,-0.012213394977152348,0.005459104664623737,-9.605352537661593e-13,0.0024096418637782335
0.009007944725453854,0.006492826156318188,-0.012291774153709412,0.005120891146361828,-6.271609479576584e-14,0.002433836692944169
0.008802131749689579,0.00588042801246047,-0.01156399492174387,0.0051545011810958385,-4.094912597348661e-15,0.002152633387595415
0.009066409431397915,0.005801054649055004,-0.011689335107803345,0.005425505340099335,-2.6736854383922087e-16,0.0020284042693674564
0.009155900217592716,0.005951894447207451,-0.011071301996707916,0.005661544390022755,-1.74572547443213e-17,0.0017897745128720999
0.009093744680285454,0.005789392162114382,-0.012045055627822876,0.005656297318637371,-1.1398338943900286e-18,0.0015378202078863978
0.009281089529395103,0.006347572430968285,-0.01215373445302248,0.005521348211914301,-7.442300359974151e-20,0.0014400349464267492
0.009373756125569344,0.0064126974903047085,-0.011688534170389175,0.005294948350638151,-4.859290279901234e-21,0.0016800838056951761
0.009373756125569344,0.0064126974903047085,-0.011688534170389175,0.005294948350638151,-4.859290279901234e-21,0.0016800838056951761
0.009059451520442963,0.005829199682921171,-0.011211960576474667,0.005688789300620556,-3.172769783153087e-22,0.001832476002164185
0.009079031646251678,0.005830212030559778,-0.010923830792307854,0.006000182591378689,0.0004964507534168661,0.0020482090767472982
0.009141574613749981,0.006506313104182482,-0.01113108079880476,0.005485524423420429,0.0005421340465545654,0.0020860349759459496
0.009003892540931702,0.006348139606416225,-0.011045236140489578,0.005060905124992132,0.0005695084691978991,0.0019416713621467352
0.009202850982546806,0.0057832226157188416,-0.011808314360678196,0.005196728277951479,0.0005632842658087611,0.001723430585116148
0.009127527475357056,0.006062859203666449,-0.011044387705624104,0.005702206399291754,0.0005534357042051852,0.0017145696328952909
0.00883748009800911,0.006124542094767094,-0.011317545548081398,0.005656335037201643,0.0006280611269176006,0.00170194695238024
0.009413931518793106,0.007061424665153027,-0.011768031865358353,0.005546545144170523,0.0006713700713589787,0.0017258800799027085
0.0093127666041255,0.006366058252751827,-0.01134905032813549,0.005192772019654512,0.0006984343635849655,0.001653752289712429
0.008866390213370323,0.006259538233280182,-0.011603078804910183,0.004836755339056253,0.0006512781255878508,0.001858259318396449
0.009221780113875866,0.005726924631744623,-0.011363697238266468,0.005358745343983173,0.0006324546993710101,0.0017825090326368809
0.009336634539067745,0.006096784491091967,-0.011744441464543343,0.00588303804397583,0.000615350145380944,0.0019601969979703426
0.008878313936293125,0.006229774560779333,-0.011191779747605324,0.005813810974359512,0.000569100258871913,0.0017921230755746365
0.009148508310317993,0.0059918188489973545,-0.01088745053857565,0.005449984222650528,0.0005304327933117747,0.001674144878052175
0.009537594392895699,0.006100839469581842,-0.012222629971802235,0.005280700512230396,0.0005313163273967803,0.0015827446477487683
0.009266495704650879,0.006346425041556358,-0.011273062787950039,0.0057774921879172325,0.000548854295630008,0.0014802863588556647
0.010086724534630775,0.006247589364647865,-0.011368973180651665,0.006120009813457727,0.0005179296713322401,0.0014201727462932467
0.009395469911396503,0.006408302113413811,-0.011303849518299103,0.005597997456789017,0.0005317410686984658,0.0013390168314799666
0.009350992739200592,0.00570804625749588,-0.010813030414283276,0.005444577895104885,0.0005420628585852683,0.001287712948396802
0.00935102254152298,0.005802768748253584,-0.011965204030275345,0.005245930049568415,0.0005354749737307429,0.001319285947829485
0.00935102254152298,0.005802768748253584,-0.011965204030275345,0.005245930049568415,0.0005354749737307429,0.001319285947829485
0.009347804822027683,0.006570878438651562,-0.011605271138250828,0.005282201338559389,0.0006392470677383244,0.0014120069099590182
0.009248345158994198,0.006258494220674038,-0.012004972435534,0.005554683040827513,0.0007302575395442545,0.001902353367768228
0.009492665529251099,0.005914509296417236,-0.011607193388044834,0.005587851628661156,0.0007047197432257235,0.0018238341435790062
0.01000432949513197,0.005897797644138336,-0.01093271654099226,0.005129768513143063,0.0007215013611130416,0.0018638483015820384
0.009476905688643456,0.005805691238492727,-0.01144262682646513,0.005263224244117737,0.0008956441306509078,0.0017890133894979954
0.009294022805988789,0.006326137576252222,-0.011373700574040413,0.0056304484605789185,0.000913510681129992,0.001554325339384377
0.009894190356135368,0.007191578391939402,-0.011408267542719841,0.006085102446377277,0.0008951809140853584,0.0013713715597987175
0.00951644778251648,0.006895698141306639,-0.011262976564466953,0.005653186701238155,0.0008103820728138089,0.001295763999223709
0.009657153859734535,0.006360250990837812,-0.011235264129936695,0.005670750513672829,0.0007371869869530201,0.0011840863153338432
0.009657153859734535,0.006360250990837812,-0.011235264129936695,0.005670750513672829,0.0007371869869530201,0.0011840863153338432
0.009199267253279686,0.006426698993891478,-0.011493228375911713,0.005783068016171455,0.0005979443667456508,0.0013625670690089464
0.010222400538623333,0.006178395356982946,-0.011435394175350666,0.006118966266512871,0.000625964836217463,0.001529995701275766
0.009620847180485725,0.006441014353185892,-0.01137105654925108,0.005624719895422459,0.0006356450030580163,0.001502387342043221
0.009096929803490639,0.005917599890381098,-0.011732358485460281,0.005731936078518629,0.0005969895282760262,0.0015732478350400925
0.009929012507200241,0.00648197578266263,-0.011689942330121994,0.005877730902284384,0.0006138641620054841,0.0014390847645699978
0.010111376643180847,0.006587557960301638,-0.010870367288589478,0.006357301492244005,0.0006304139969870448,0.0013332465896382928
0.009947596117854118,0.007074347697198391,-0.011925975792109966,0.00682209013029933,0.0006625066744163632,0.0012029942590743303
0.010919834487140179,0.006400642916560173,-0.011426816694438457,0.0061497995629906654,0.0006392925861291587,0.0009665981051512063
0.009990965947508812,0.006312426179647446,-0.0119694909080863,0.00576827535405755,0.0006636267062276602,0.0009426672477275133
0.009960814379155636,0.0072275069542229176,-0.011787931434810162,0.005523517727851868,0.000686132232658565,0.0009993636049330235
0.00991757307201624,0.006925169378519058,-0.011064887046813965,0.005958890076726675,0.0008120560669340193,0.0010272631188854575
0.00972842425107956,0.006279626861214638,-0.012109125964343548,0.005738997366279364,0.0008794795139692724,0.0010762960882857442
0.010020319372415543,0.006269875913858414,-0.011173722334206104,0.00582542410120368,0.0009467253112234175,0.0011342907091602683
0.010440985672175884,0.006878898944705725,-0.011928479187190533,0.005324068479239941,0.0010754931718111038,0.0010456308955326676
0.009925887919962406,0.006997854448854923,-0.01250646822154522,0.0051472303457558155,0.0011993477819487453,0.0010795018170028925
0.010411087423563004,0.006240075919777155,-0.01193531509488821,0.005505870096385479,0.0011543349828571081,0.0010123549727723002
0.010411087423563004,0.006240075919777155,-0.01193531509488821,0.005505870096385479,0.0011543349828571081,0.0010123549727723002
0.01111624389886856,0.0061417799443006516,-0.011668005026876926,0.006348904222249985,0.001114843413233757,0.000884940498508513
0.01001807488501072,0.005651728715747595,-0.01113096997141838,0.006785903126001358,0.0010110203875228763,0.0007621929398737848
0.010091210715472698,0.006212725304067135,-0.012774934992194176,0.006239357404410839,0.0007264019805006683,0.0006912637618370354
0.010091210715472698,0.006212725304067135,-0.012774934992194176,0.006239357404410839,0.0007264019805006683,0.0006912637618370354
0.009761949069797993,0.0059462543576955795,-0.011594272218644619,0.0063987551257014275,0.0007408628007397056,0.0006242879899218678
0.009989043697714806,0.006209116894751787,-0.011630933731794357,0.006425727624446154,0.0006579786422662437,0.0006379358819685876
0.010058115236461163,0.0063252695836126804,-0.011082727462053299,0.005983204115182161,0.0006708849687129259,0.000594711338635534
0.010102648288011551,0.006084875203669071,-0.011715211905539036,0.006057564169168472,0.0006165695376694202,0.00048451340990141034
0.009980329312384129,0.006362803280353546,-0.012406906113028526,0.005458114203065634,0.0006367955356836319,0.00046021823072806
0.010100985877215862,0.00592225044965744,-0.012854690663516521,0.005266019608825445,0.0005058128153905272,0.00048391631571576
0.010201996192336082,0.00611397298052907,-0.011758754961192608,0.00590794812887907,0.000445247016614303,0.00045722207869403064
0.010585776530206203,0.0060450430028140545,-0.012103484012186527,0.006571528501808643,0.0004637212259694934,0.00042677950114011765
0.009897252544760704,0.006307544186711311,-0.011963978409767151,0.006517354864627123,0.00044384790817275643,0.00039972373633645475
0.010474861599504948,0.0057982876896858215,-0.012473727576434612,0.00613017613068223,0.000411218119552359,0.0004222995776217431
0.00997574720531702,0.0056989435106515884,-0.013042629696428776,0.005834362469613552,0.0004371766990516335,0.00040489144157618284
0.009587638080120087,0.005952042993158102,-0.012071092613041401,0.005579742603003979,0.00041581859113648534,0.0003837210824713111
0.010322880931198597,0.006514775101095438,-0.01249879039824009,0.006029482930898666,0.0004424329672474414,0.00036432541674003005
0.010204113088548183,0.006327134557068348,-0.011475068517029285,0.005870799534022808,0.00042003020644187927,0.00034677551593631506
0.010159352794289589,0.006160224787890911,-0.012105575762689114,0.0062876977026462555,0.00046342131099663675,0.0003308363084215671
0.010626745410263538,0.006297351326793432,-0.012254330329596996,0.006807925645262003,0.00047158831148408353,0.00032816347084008157
0.010382208041846752,0.006017688661813736,-0.012619244866073132,0.0064872857183218,0.00046888485667295754,0.0003102963964920491
0.009947015903890133,0.006507579702883959,-0.0125050013884902,0.006091000512242317,0.0004960831720381975,0.0002905623987317085
0.010068994015455246,0.006395705975592136,-0.012023082934319973,0.006195898167788982,0.00046787725295871496,0.0002729492844082415
0.010140419006347656,0.0059628356248140335,-0.012393652461469173,0.006413063034415245,0.00048184648039750755,0.00025733516667969525
0.01042775809764862,0.006243790499866009,-0.012023832648992538,0.006127216387540102,0.00046501876204274595,0.00024341024982277304
0.010830896906554699,0.006012181285768747,-0.012503985315561295,0.0060251327231526375,0.00043767495662905276,0.0002309154369868338
0.010170487686991692,0.006339663174003363,-0.012178990058600903,0.00574206467717886,0.0004126407438889146,0.00021964071493130177
0.010793252848088741,0.006420853082090616,-0.012400785461068153,0.005798114463686943,0.0003902690077666193,0.0002094166848110035
0.010063419118523598,0.005941126029938459,-0.012583157047629356,0.0063136485405266285,0.00037019632873125374,0.00020010239677503705
0.01204934436827898,0.005909061525017023,-0.011775156483054161,0.006181847304105759,0.00035208722692914307,0.00019158139184582978
0.01204934436827898,0.005909061525017023,-0.011775156483054161,0.006181847304105759,0.00035208722692914307,0.00019158139184582978
0.012157216668128967,0.006479044910520315,-0.012453985400497913,0.006353649310767651,0.0003367612953297794,0.0001837565068854019
0.011276398785412312,0.006188436411321163,-0.011902623809874058,0.006036821752786636,0.00032902727252803743,0.00017654626572038978
0.011629392392933369,0.006026289891451597,-0.012476157397031784,0.005961262155324221,0.00030762856476940215,0.00016988035349640995
0.012344648130238056,0.006512052845209837,-0.012013670988380909,0.006392063573002815,0.00028800126165151596,0.00016369944205507636
0.01158623956143856,0.00595894968137145,-0.011855015531182289,0.006087077781558037,0.0002706737141124904,0.00015795246872585267
0.011653149500489235,0.006172021385282278,-0.012275299057364464,0.006026074290275574,0.0002553106751292944,0.00015259576321113855
0.011460651643574238,0.006640010513365269,-0.011785131879150867,0.006398452445864677,0.00024159769236575812,0.00014759067562408745
0.01190999336540699,0.006171072367578745,-0.012493794783949852,0.007738977205008268,0.000218164233956486,0.000138504256028682
0.011783860623836517,0.006123650819063187,-0.012520764023065567,0.007560273166745901,0.00020807335386052728,0.00013436803419608623
0.0122266486287117,0.006518167909234762,-0.012305621057748795,0.0069519090466201305,0.0001988756121136248,0.00013047223910689354
0.01232133898884058,0.006320590618997812,-0.011367833241820335,0.00639751460403204,0.000218603468965739,0.00012679547944571823
0.011656402610242367,0.006008828990161419,-0.01194404624402523,0.006585861090570688,0.00021861681307200342,0.00012332061305642128
0.01186435017734766,0.006075313314795494,-0.011861694976687431,0.006666865665465593,0.0002106656029354781,0.00012003103620372713
0.012215301394462585,0.0059922728687524796,-0.012540818192064762,0.006591070909053087,0.00020279122691135854,0.00010542725794948637
0.011976057663559914,0.006472384091466665,-0.011939194984734058,0.006313946098089218,0.0001954527833731845,9.193818550556898e-05
0.011777139268815517,0.006548420060425997,-0.011819504201412201,0.006491802632808685,0.000188643200090155,8.89605435077101e-05
0.011987505480647087,0.006045822519809008,-0.012185485102236271,0.006794154178351164,0.0001822583144530654,8.677018922753632e-05
0.01215522363781929,0.006078735925257206,-0.011508937925100327,0.0071281855925917625,0.00017630630463827401,8.472501212963834e-05
0.012011077255010605,0.006735526490956545,-0.012266833335161209,0.0069471197202801704,0.00017074654169846326,6.743174162693322e-05
0.012256431393325329,0.006441042758524418,-0.011996804736554623,0.00647364417091012,0.0001654990774113685,6.103626947151497e-05
0.011496630497276783,0.005829538218677044,-0.01223936676979065,0.0066255307756364346,0.00016057649918366224,5.9375768614700064e-05
0.012138389982283115,0.005715828854590654,-0.012199213728308678,0.006905939895659685,0.00015593887655995786,5.8077719586435705e-05
0.011964604258537292,0.005890590604394674,-0.01130383275449276,0.007017641328275204,0.00015156174777075648,-2.3989654437173158e-05
0.012262699194252491,0.00620111683383584,-0.012496995739638805,0.006902839057147503,0.00014742370694875717,-4.8940863052848727e-05
0.011907091364264488,0.006699392572045326,-0.011508083902299404,0.0075493366457521915,0.00014350577839650214,-4.927263580611907e-05
0.01191261038184166,0.005780413746833801,-0.011909786611795425,0.007761382032185793,0.00013979033974464983,-6.587758980458602e-05
0.012151003815233707,0.0059679970145225525,-0.012297971174120903,0.0072243050672113895,0.0001362627954222262,-6.98279109201394e-05
0.012151003815233707,0.0059679970145225525,-0.012297971174120903,0.0072243050672113895,0.0001362627954222262,-6.98279109201394e-05
0.011619320139288902,0.005955001339316368,-0.011855282820761204,0.006884327158331871,0.00014379505591932684,-8.534009975846857e-05
0.011976384557783604,0.006025206297636032,-0.012183585204184055,0.006905348505824804,0.00015059996803756803,-8.862779213814065e-05
0.012075715698301792,0.005935403518378735,-0.011636486276984215,0.007043025456368923,0.00014773975999560207,-0.00010294166713720188
0.012322363443672657,0.005334652494639158,-0.011765035800635815,0.007178102619946003,0.0001443948713131249,-0.00010565710545051843
0.012007875367999077,0.006276389118283987,-0.012626010924577713,0.007011570036411285,0.0001351095997961238,-0.00046848904457874596
0.012007875367999077,0.006276389118283987,-0.012626010924577713,0.007011570036411285,0.0001351095997961238,-0.00046848904457874596
0.011616785079240799,0.006689353846013546,-0.01172469649463892,0.00722196651622653,0.000132270812173374,-0.000467299745650962
0.012010596692562103,0.0058546955697238445,-0.012385793030261993,0.007030564825981855,0.00012955814599990845,-0.0004647221358027309
0.012434001080691814,0.005882462486624718,-0.01180258672684431,0.006936573889106512,0.00012694066390395164,-0.0004924963577650487
0.012311980128288269,0.005961623974144459,-0.012283955700695515,0.007163356989622116,0.00012443291780073196,-0.0006176905008032918
0.012544690631330013,0.006167644169181585,-0.012304931879043579,0.007291440386325121,0.00012202446669107303,-0.0007548608700744808
0.011969304643571377,0.005691210273653269,-0.0121811768040061,0.007017301861196756,0.00011971251660725102,-0.0007785133784636855
0.012541787698864937,0.004993844777345657,-0.01256411150097847,0.006932373158633709,0.00011748045653803274,-0.0007481720531359315
0.012313715182244778,0.004688149783760309,-0.01225462555885315,0.007400353439152241,0.00011532378994161263,-0.0009737469372339547
0.01245418842881918,0.005183829925954342,-0.012497108429670334,0.007518565282225609,0.00011325465311529115,-0.0009730069432407618
0.012612281367182732,0.0054539223201572895,-0.012606902979314327,0.007530401460826397,0.00011125069431727752,-0.001028263010084629
0.01247384399175644,0.00542623084038496,-0.012492761015892029,0.007449401542544365,0.00010932393342955038,-0.0009581753402017057
0.012621010653674603,0.005295379552990198,-0.012285871431231499,0.007724516559392214,0.0001074608153430745,-0.0009228532435372472
0.01237345952540636,0.00492394482716918,-0.012202862650156021,0.007946995086967945,0.00010565860429778695,-0.000997317722067237
0.012860617600381374,0.005024980753660202,-0.012009932659566402,0.007691745646297932,0.0001039109265548177,-0.0010214553913101554
0.012013363651931286,0.005342282820492983,-0.011830195784568787,0.007983403280377388,0.0001022293436108157,-0.0012776890071108937
0.012735583819448948,0.005010356195271015,-0.012938190251588821,0.007916852831840515,0.00010059714259114116,-0.001401059445925057
0.012695666402578354,0.005550506059080362,-0.01264536939561367,0.007566342130303383,9.901608427753672e-05,-0.001464839675463736
0.012957241386175156,0.00517963245511055,-0.012293576262891293,0.007492936681956053,9.748404409037903e-05,-0.00166791130322963
0.012957241386175156,0.00517963245511055,-0.012293576262891293,0.007492936681956053,9.748404409037903e-05,-0.00166791130322963
0.013122696429491043,0.0049213990569114685,-0.01224058959633112,0.006866580341011286,9.599441546015441e-05,-0.0015497594140470028
0.013254259712994099,0.005086395423859358,-0.012056121602654457,0.00715327775105834,9.455745748709887e-05,-0.0015760379610583186
0.013559350743889809,0.004958336241543293,-0.01274015661329031,0.007238485850393772,9.315944043919444e-05,-0.0015728535363450646
0.013112356886267662,0.004870293196290731,-0.012700737453997135,0.007088850252330303,9.180192137137055e-05,-0.0016898359172046185
0.013323836028575897,0.005698725581169128,-0.012871100567281246,0.006724229548126459,9.04834087123163e-05,-0.0017531297635287046
0.013037306256592274,0.005206129979342222,-0.012462442740797997,0.007195673882961273,8.92023163032718e-05,-0.0018477787962183356
0.0132192587479949,0.005088027101010084,-0.01271501462906599,0.007221328094601631,8.674582204548642e-05,-0.0017203461611643434
0.013259698636829853,0.004929047543555498,-0.012036668136715889,0.0071450648829340935,8.556759712519124e-05,-0.0018022909061983228
0.013356916606426239,0.005495921708643436,-0.013782128691673279,0.007535680662840605,8.442107355222106e-05,-0.0018165974179282784
0.013475536368787289,0.005349033512175083,-0.012873570434749126,0.007786144036799669,8.330468699568883e-05,-0.0020388213451951742
0.01353948749601841,0.005241552367806435,-0.012681961059570312,0.0078462865203619,8.221756434068084e-05,-0.0021892862860113382
0.01372019574046135,0.005397035740315914,-0.01249676663428545,0.007793200667947531,8.115848322631791e-05,-0.0021415494848042727
0.014037623070180416,0.005356453359127045,-0.01359341200441122,0.007889728993177414,8.012626494746655e-05,-0.0020356483291834593
0.013599438592791557,0.005348623264580965,-0.013112297281622887,0.007933169603347778,7.911996362963691e-05,-0.0019797845743596554
0.01350859459489584,0.00511777400970459,-0.012991984374821186,0.007903979159891605,7.813864795025438e-05,-0.0019347493071109056
0.013768181204795837,0.005261311307549477,-0.012941752560436726,0.0076935505494475365,7.718140113865957e-05,-0.0019157505594193935
0.014185662381350994,0.005251471418887377,-0.012731119059026241,0.007882949896156788,7.62472627684474e-05,-0.0019347756169736385
0.01370400469750166,0.004901614040136337,-0.013004060834646225,0.008086401969194412,7.533551979577169e-05,-0.0020033365581184626
0.014440460130572319,0.004980148747563362,-0.012522462755441666,0.007676218636333942,7.44453354855068e-05,-0.002685200423002243
0.01409932691603899,0.005277561489492655,-0.013000276871025562,0.007628581952303648,7.35759167582728e-05,-0.003456613514572382
0.014292137697339058,0.00528189679607749,-0.012584288604557514,0.008261593990027905,7.272657239809632e-05,-0.0033911033533513546
0.013646184466779232,0.005288752727210522,-0.013234835118055344,0.008160172961652279,7.189664029283449e-05,-0.0030015618540346622
0.014517740346491337,0.0052527436055243015,-0.012733086943626404,0.00786404125392437,7.108539284672588e-05,-0.002702027326449752
0.013931402005255222,0.00500867934897542,-0.012957978062331676,0.008674818091094494,7.029229163890705e-05,-0.0024380560498684645
0.014047307893633842,0.005369639489799738,-0.012419471517205238,0.008710498921573162,6.951664545340464e-05,-0.002268519951030612
0.0137937031686306,0.0051353140734136105,-0.012716337107121944,0.007837601006031036,4.538940629572608e-06,-0.002352876355871558
0.014586001634597778,0.005805803928524256,-0.013052430935204029,0.007290102541446686,2.963603833450179e-07,-0.0027186316438019276
0.014586001634597778,0.005805803928524256,-0.013052430935204029,0.007290102541446686,2.963603833450179e-07,-0.0027186316438019276
0.014517438597977161,0.005394525360316038,-0.012488989159464836,0.007320994045585394,1.9350213875668487e-08,-0.0031276221852749586
0.014752828516066074,0.005345153156667948,-0.01325126551091671,0.007958034053444862,1.2634308044212617e-09,-0.003143992740660906
0.013752443715929985,0.005181021057069302,-0.012719211168587208,0.00812236312776804,8.249299854323766e-11,-0.0030195098370313644
0.014156607910990715,0.0059095886535942554,-0.012735999189317226,0.008652862161397934,3.51680652915104e-13,-0.002614080673083663
0.01459629274904728,0.005709115881472826,-0.013182980939745903,0.008121701888740063,2.2962234801841667e-14,-0.0024986332282423973
0.014125132001936436,0.005746892187744379,-0.012918803840875626,0.007891648449003696,1.4992698101011482e-15,-0.0028113366570323706
0.014949806034564972,0.0052315169014036655,-0.013061948120594025,0.00807986967265606,9.789160433162439e-17,-0.0031695112120360136
0.014336030930280685,0.005485571455210447,-0.013225090689957142,0.008587457239627838,6.3916225252457135e-18,-0.0033413672354072332
0.01496670488268137,0.005531921051442623,-0.012522812932729721,0.008028019219636917,4.17327249790087e-19,-0.0033478382974863052
0.014560133218765259,0.005601980723440647,-0.012917302548885345,0.00812484696507454,2.7248489369058867e-20,-0.003145855152979493
0.014961988665163517,0.005459926091134548,-0.012475339695811272,0.008752064779400826,1.779131605817841e-21,-0.003041182179003954
0.014601818285882473,0.0055291010066866875,-0.01340506598353386,0.00935294758528471,1.161645898116467e-22,-0.003074660198763013
0.015071704983711243,0.005261754617094994,-0.012637712061405182,0.008652606047689915,7.584717743413638e-24,-0.0033128384966403246
0.015035837888717651,0.005746699869632721,-0.013269367627799511,0.008421894162893295,4.952278450284128e-25,-0.00339395459741354
0.015183080919086933,0.0057426453568041325,-0.012905706651508808,0.0085044139996171,3.2334841511233646e-26,-0.003581882920116186
0.015028499066829681,0.005676459055393934,-0.01306234486401081,0.008783114142715931,2.111233871765437e-27,-0.0036272606812417507
0.015365108847618103,0.00542152626439929,-0.013169503770768642,0.008226606994867325,1.3784848391776502e-28,-0.0036145271733403206
0.015228294767439365,0.005590613000094891,-0.012666662223637104,0.008835614658892155,9.000520631477784e-30,-0.003643075469881296
0.015355660580098629,0.0053044697269797325,-0.013238067738711834,0.008636540733277798,5.8766968682353755e-31,-0.00373065541498363
0.015283104963600636,0.005775891710072756,-0.012655497528612614,0.007988395169377327,3.837063353633496e-32,-0.0038154232315719128
0.015126558020710945,0.005792571697384119,-0.013350146822631359,0.00824123527854681,3.5280688734928844e-06,-0.0037984296213835478
0.01513910572975874,0.005653518717736006,-0.013020209968090057,0.008549443446099758,2.303576849271849e-07,-0.003844489576295018
0.01513910572975874,0.005653518717736006,-0.013020209968090057,0.008549443446099758,2.303576849271849e-07,-0.003844489576295018
0.015509582124650478,0.005244210362434387,-0.01286091934889555,0.00809388980269432,9.820508850566512e-10,-0.0035389000549912453
0.01520348060876131,0.005453972611576319,-0.013004335574805737,0.008461511693894863,6.41209099705442e-11,-0.0036520601715892553
0.01520348060876131,0.005453972611576319,-0.013004335574805737,0.008461511693894863,6.41209099705442e-11,-0.0036520601715892553
0.015364822000265121,0.005563050042837858,-0.01300934236496687,0.008855240419507027,4.1866371480736575e-12,-0.0037632123567163944
0.015300356782972813,0.005671367980539799,-0.013333373703062534,0.00807295273989439,2.7335745429388214e-13,-0.004035215359181166
0.015985842794179916,0.00534613523632288,-0.013451462611556053,0.008012053556740284,1.784828862938688e-14,-0.0042695594020187855
0.01525401696562767,0.005540322512388229,-0.013132670894265175,0.008366323076188564,1.1653656106452403e-15,-0.004092166665941477
0.015582319349050522,0.005868851672858,-0.012795906513929367,0.008036813698709011,4.968136508089946e-18,-0.00384857808239758
0.015863941982388496,0.0057076746597886086,-0.013391846790909767,0.008061683736741543,3.24383814446951e-19,-0.004062203224748373
0.015880947932600975,0.005710230208933353,-0.012903946451842785,0.008634519763290882,2.1179946659723202e-20,-0.004146309569478035
0.01544838398694992,0.005170487333089113,-0.01378778275102377,0.00850397627800703,1.382899066733674e-21,-0.004344216547906399
0.015887640416622162,0.005218349862843752,-0.013435873202979565,0.00803433172404766,9.029342941926773e-23,-0.004194189328700304
0.015893464908003807,0.005339240655303001,-0.0138963358476758,0.008455040864646435,5.895515293137139e-24,-0.004317712038755417
0.016258925199508667,0.006052613724023104,-0.013283951207995415,0.008892354555428028,3.8493500785007045e-25,-0.004565475508570671
0.015300218015909195,0.005589339882135391,-0.013668086379766464,0.008425123989582062,2.5133504411538002e-26,-0.004554767161607742
0.016053400933742523,0.005365290213376284,-0.013352468609809875,0.008702341467142105,1.6410382981077095e-27,-0.004479480441659689
0.016140516847372055,0.0051079606637358665,-0.013660133816301823,0.00922998134046793,1.0714807726863876e-28,-0.004444011952728033
0.01624497026205063,0.005224755499511957,-0.013533270917832851,0.008714253082871437,6.996003717562934e-30,-0.004269687458872795
0.01673336699604988,0.0055138603784143925,-0.013403062708675861,0.008755752816796303,4.567890643481813e-31,-0.0045258221216499805
0.016560299322009087,0.0061158123426139355,-0.013783627189695835,0.009100203402340412,2.982505996955762e-32,-0.004635083954781294
0.01671185903251171,0.005429144017398357,-0.013278588652610779,0.008889934979379177,1.947363247164557e-33,-0.00468182098120451
0.01663977839052677,0.005352272652089596,-0.013735560700297356,0.009371615014970303,1.2714891913956443e-34,-0.005251407623291016
0.016305886209011078,0.005630508530884981,-0.01349835004657507,0.009769225493073463,8.301915938315758e-36,-0.005261110607534647
0.014482381753623486,0.005231975112110376,-0.014168011024594307,0.009693610481917858,5.420558323224322e-37,-0.005024247337132692
0.017335977405309677,0.0057021938264369965,-0.013652430847287178,0.010170839726924896,3.5392371105697613e-38,-0.005202110391110182
0.017122261226177216,0.00541708804666996,-0.014255518093705177,0.010024456307291985,2.310868685831877e-39,-0.004947213921695948
0.01690591685473919,0.005207165610045195,-0.013619255274534225,0.009748587384819984,1.5088341084771035e-40,-0.004646037705242634
0.01690591685473919,0.005207165610045195,-0.013619255274534225,0.009748587384819984,1.5088341084771035e-40,-0.004646037705242634
0.017180103808641434,0.004957161843776703,-0.014600425958633423,0.009790446609258652,9.851128204203464e-42,-0.005092809908092022
0.01639626920223236,0.005092868581414223,-0.013686246238648891,0.009004948660731316,6.43195995125091e-43,-0.0052611129358410835
0.017204927280545235,0.005556963384151459,-0.0140745984390378,0.008487417362630367,4.203895392974451e-44,-0.004716213792562485
0.016833143308758736,0.005559702403843403,-0.013508567586541176,0.008192198351025581,2.802596928649634e-45,-0.004146106541156769
0.017078185454010963,0.0051550534553825855,-0.013560070656239986,0.00909104198217392,0.0,-0.00534259807318449
0.01682642661035061,0.005414687562733889,-0.014135872945189476,0.008929521776735783,0.0,-0.005287694279104471
0.017556514590978622,0.00521452073007822,-0.013991069979965687,0.009169556200504303,0.0,-0.005261796526610851
0.017013203352689743,0.005828056018799543,-0.014512868598103523,0.009392580948770046,0.0,-0.00508582778275013
0.016916818916797638,0.0053025963716208935,-0.013845469802618027,0.009116086177527905,0.0,-0.005329428240656853
0.01722024194896221,0.005001889541745186,-0.01478582713752985,0.009320833720266819,0.0,-0.005744496360421181
0.017251020297408104,0.005604196339845657,-0.014608452096581459,0.009703085757791996,0.0,-0.005336923059076071
0.017904479056596756,0.005347053520381451,-0.015409084036946297,0.009478691965341568,0.0,-0.005322527140378952
0.017718259245157242,0.005368764046579599,-0.015006586909294128,0.010150347836315632,0.0,-0.005399476271122694
0.017745349556207657,0.005629582796245813,-0.015217422507703304,0.01004584226757288,0.0,-0.005986446049064398
0.017995603382587433,0.005497493781149387,-0.014786144718527794,0.009542303159832954,0.0,-0.0060570333153009415
0.017513377591967583,0.0054181586019694805,-0.015524864196777344,0.009100547060370445,0.0,-0.005913332104682922
0.01805107295513153,0.005499124992638826,-0.014485517516732216,0.009548828937113285,0.0,-0.006010912358760834
0.01800529845058918,0.005176353733986616,-0.015306618995964527,0.009968776255846024,0.0,-0.005915365647524595
0.018048610538244247,0.005931925494223833,-0.014574969187378883,0.009017753414809704,0.0,-0.005966541822999716
0.01824127696454525,0.00552155589684844,-0.015481467358767986,0.009794185869395733,0.0,-0.006308322306722403
0.018157264217734337,0.005694475024938583,-0.01550228800624609,0.009809263981878757,0.0,-0.005878022406250238
0.01835469901561737,0.0056810094974935055,-0.015375561080873013,0.00987141951918602,0.0,-0.006286210846155882
0.01872817426919937,0.005614219233393669,-0.014776986092329025,0.010487254709005356,0.0,-0.00595394941046834
0.018639976158738136,0.005284846294671297,-0.015147721394896507,0.01011920440942049,0.0,-0.006119313649833202
0.018552742898464203,0.006012454628944397,-0.015474529936909676,0.010403983294963837,0.0,-0.0066166468895971775
0.018809786066412926,0.005521868821233511,-0.015352170914411545,0.010182935744524002,0.0,-0.005976228043437004
0.018941041082143784,0.005767178256064653,-0.014980078674852848,0.009705865755677223,0.0,-0.006012747064232826
0.018941041082143784,0.005767178256064653,-0.014980078674852848,0.009705865755677223,0.0,-0.006012747064232826
0.018907293677330017,0.005328724160790443,-0.01539132371544838,0.0099813062697649,0.0,-0.006161508150398731
0.018907293677330017,0.005328724160790443,-0.01539132371544838,0.0099813062697649,0.0,-0.006161508150398731
0.018307650461792946,0.005685788579285145,-0.014899270609021187,0.00958224106580019,0.0,-0.0067712836898863316
0.019089823588728905,0.005560986697673798,-0.015166830271482468,0.00969014223664999,-0.00018993046251125634,-0.00672185281291604
0.019203361123800278,0.005119906738400459,-0.014266404323279858,0.00991655420511961,-0.00029933135374449193,-0.006409279070794582
0.018697675317525864,0.005240533035248518,-0.01515723206102848,0.009907434694468975,-0.00034186753327958286,-0.006184275262057781
0.01898805797100067,0.00509478896856308,-0.015487234108150005,0.009944871068000793,-0.0003577540919650346,-0.0068713896907866
0.019167460501194,0.0049582174979150295,-0.014721856452524662,0.009724006056785583,-0.00038401869824156165,-0.00713757611811161
0.019289212301373482,0.005163676105439663,-0.015199714340269566,0.009555724449455738,-0.0003673861501738429,-0.006516810040920973
0.01878945901989937,0.005224774591624737,-0.014642552472651005,0.009935556910932064,-0.00034972972935065627,-0.006136883515864611
0.01919376291334629,0.005552348680794239,-0.015374894253909588,0.00977491308003664,-0.00033353769686073065,-0.006475850008428097
0.020039716735482216,0.005320423748344183,-0.01479932852089405,0.009778577834367752,-0.00047243409790098667,-0.006971986498683691
0.020116036757826805,0.005900531075894833,-0.015315912663936615,0.01043583732098341,-0.0004482375516090542,-0.007029639557003975
0.019571499899029732,0.005364060867577791,-0.015272026881575584,0.009885141626000404,-0.0004089618450962007,-0.006829790771007538
0.019651751965284348,0.00526071060448885,-0.015777280554175377,0.010012786835432053,-0.00037494642310775816,-0.0066147842444479465
0.020104795694351196,0.005551194306463003,-0.015586058609187603,0.010584072209894657,-0.0003460909647401422,-0.0070004090666770935
0.02000718005001545,0.00547610642388463,-0.01513638161122799,0.009824695996940136,-0.0003213566087651998,-0.007525350898504257
0.02007901296019554,0.0056694685481488705,-0.01527323853224516,0.009404822252690792,-0.0003440503787714988,-0.007375743240118027
0.020228847861289978,0.005935702007263899,-0.015448661521077156,0.009975799359381199,-0.00033637284650467336,-0.0075046648271381855
0.020339567214250565,0.005375107750296593,-0.015629535540938377,0.009844372048974037,-0.0003174899611622095,-0.008538775146007538
0.01958826556801796,0.004961005412042141,-0.015312018804252148,0.009717481210827827,-0.00029990740586072206,-0.0082006910815835
0.020655473694205284,0.005365496966987848,-0.015750089660286903,0.009763912297785282,-0.0003072249237447977,-0.00803461205214262
0.020810430869460106,0.005513374228030443,-0.015224987640976906,0.009770614095032215,-0.00031332115759141743,-0.008208094164729118
0.020519442856311798,0.005723332520574331,-0.015869753435254097,0.01075271051377058,-0.0003207314002793282,-0.007959949783980846
0.020312748849391937,0.005150901153683662,-0.01518022920936346,0.0103609599173069,-0.0003257376083638519,-0.00806894525885582
0.020312748849391937,0.005150901153683662,-0.01518022920936346,0.0103609599173069,-0.0003257376083638519,-0.00806894525885582
0.02035723626613617,0.005215741228312254,-0.015248725190758705,0.00958365760743618,-0.00030950497603043914,-0.007190536707639694
0.019917258992791176,0.005502165760844946,-0.015914639458060265,0.0101399514824152,-0.00032188245677389205,-0.007800192106515169
0.019917258992791176,0.005502165760844946,-0.015914639458060265,0.0101399514824152,-0.00032188245677389205,-0.007800192106515169
0.020244816318154335,0.005803395994007587,-0.015379362739622593,0.00962240993976593,-0.0003527340304572135,-0.007382918149232864
0.020556611940264702,0.005102138500660658,-0.015448820777237415,0.009791254065930843,-0.0003725887509062886,-0.007913827896118164
0.02047925814986229,0.003775227116420865,-0.015411032363772392,0.009481023997068405,-0.0006951713585294783,-0.007654649671167135
0.020073723047971725,0.004387530963867903,-0.01574481837451458,0.01018692459911108,-0.0007399579044431448,-0.007661139592528343
0.020459633320569992,0.005125456023961306,-0.015565958805382252,0.010131257586181164,-0.0007605392602272332,-0.007200922816991806
0.02116844244301319,0.004993779119104147,-0.015787016600370407,0.009465919807553291,-0.0007757482817396522,-0.007311980705708265
0.020746702328324318,0.0048783933743834496,-0.01494570728391409,0.009835565462708473,-0.0008961030398495495,-0.00804984848946333
0.020077893510460854,0.004630869720131159,-0.015576353296637535,0.010364620015025139,-0.0009073044057004154,-0.007943321950733662
0.02034306339919567,0.004284350201487541,-0.015443683601915836,0.009852043353021145,-0.0007936070905998349,-0.008187495172023773
0.02039947174489498,0.004482761025428772,-0.016066206619143486,0.010302376002073288,-0.000692820583935827,-0.007963006384670734
0.020274657756090164,0.004524671006947756,-0.015552178025245667,0.010787634178996086,-0.0006885586190037429,-0.008183831349015236
0.02031395398080349,0.0047883540391922,-0.015613148920238018,0.010271390900015831,-0.0006412394577637315,-0.007741662673652172
0.02073284238576889,0.0047699701972305775,-0.015204782597720623,0.010953948833048344,-0.0006550699472427368,-0.007459516637027264
0.021082967519760132,0.004855454433709383,-0.015628762543201447,0.010623943991959095,-0.0006094282725825906,-0.007039462216198444
0.021197648718953133,0.004569164477288723,-0.01596425101161003,0.010027396492660046,-0.0005624270415864885,-0.007009660359472036
0.02071913704276085,0.004108615219593048,-0.01551702432334423,0.010684584267437458,-0.00047879869816824794,-0.007204664871096611
0.021195881068706512,0.0038929018191993237,-0.015836918726563454,0.010707825422286987,-0.00042286841198801994,-0.007914804853498936
0.02139533869922161,0.004811067599803209,-0.015367649495601654,0.010980062186717987,-0.0004574951599352062,-0.00791459996253252
0.02101810835301876,0.004916943144053221,-0.01636987365782261,0.01127482857555151,-0.0004260072309989482,-0.007680256385356188
0.021156486123800278,0.004539374727755785,-0.016110854223370552,0.011213923804461956,-0.00045197116560302675,-0.007793978787958622
0.021002458408474922,0.004525486379861832,-0.0160354096442461,0.010668115690350533,-0.0004289540520403534,-0.007753666024655104
0.021619420498609543,0.004412679933011532,-0.015730958431959152,0.010896142572164536,-0.00040207072743214667,-0.008009358309209347
0.021155351772904396,0.004606399219483137,-0.01623637042939663,0.011617311276495457,-0.0004282162117306143,-0.008297320455312729
0.02089596353471279,0.004790204577147961,-0.016642777249217033,0.012075593695044518,-0.000408184714615345,-0.008365926332771778
0.02175014838576317,0.004606969654560089,-0.01602967269718647,0.011246468871831894,-0.0004761446616612375,-0.00802986416965723
0.02175014838576317,0.004606969654560089,-0.01602967269718647,0.011246468871831894,-0.0004761446616612375,-0.00802986416965723
0.021604791283607483,0.004870770499110222,-0.016167767345905304,0.011678041890263557,-0.0005011881003156304,-0.00845212023705244
0.021381737664341927,0.004979896824806929,-0.015842435881495476,0.01128883846104145,-0.0004770914965774864,-0.008485417813062668
0.02174924686551094,0.004756850656121969,-0.016760267317295074,0.011031385511159897,-0.0005076155066490173,-0.008494527079164982
0.021851330995559692,0.004431238863617182,-0.016282012686133385,0.011324786581099033,-0.0004739349242299795,-0.008218498900532722
0.020238664001226425,0.004317368380725384,-0.01583172008395195,0.011128651909530163,-0.0004954476025886834,-0.008513648062944412
0.021824069321155548,0.004961926024407148,-0.016420118510723114,0.011440785601735115,-0.0005034516798332334,-0.008305969648063183
0.02196946181356907,0.005332149565219879,-0.016887003555893898,0.011005043052136898,-0.0005059476825408638,-0.008280779235064983
0.02196524851024151,0.005279257893562317,-0.016418185085058212,0.011535967700183392,-0.0005023939302191138,-0.008227548561990261
0.0218450166285038,0.004837473854422569,-0.016295861452817917,0.01103939674794674,-0.0004962015664204955,-0.008799395523965359
0.02167377807199955,0.00490005686879158,-0.01586848869919777,0.011179734952747822,-0.0004568149452097714,-0.008728417567908764
0.021903520449995995,0.0048399255611002445,-0.01698216050863266,0.011965032666921616,-0.0004213147039990872,-0.008883609436452389
0.022173235192894936,0.0049332198686897755,-0.016453038901090622,0.0113621074706316,-0.0004386727814562619,-0.008785339072346687
0.022908890619874,0.005889005493372679,-0.016339315101504326,0.011616540141403675,-0.00042402796680107713,-0.00888630747795105
0.022073958069086075,0.005349996034055948,-0.01648615673184395,0.011722463183104992,-0.0003981887421105057,-0.008880474604666233
0.02237006276845932,0.004674588330090046,-0.016533128917217255,0.011560927145183086,-0.00042084214510396123,-0.00870608352124691
0.021771429106593132,0.004836230538785458,-0.01682176999747753,0.012068320997059345,-0.00040357577381655574,-0.009354288689792156
0.021897926926612854,0.004958541132509708,-0.01650318317115307,0.011429225094616413,-0.0003918024885933846,-0.009132261388003826
0.022187743335962296,0.004921371582895517,-0.016666676849126816,0.012189545668661594,-0.000369407469406724,-0.008624029345810413
0.022457510232925415,0.005111539736390114,-0.016380662098526955,0.012569054961204529,-0.00034195493208244443,-0.00881895050406456
0.022312868386507034,0.004886544309556484,-0.01669907569885254,0.012323825620114803,-0.00034868071088567376,-0.009087125770747662
0.02247580513358116,0.00470705097541213,-0.016933739185333252,0.01270972192287445,-0.0003540862235240638,-0.009161761030554771
0.022587193176150322,0.004687645472586155,-0.016319001093506813,0.012109526433050632,-0.0003611224819906056,-0.009395703673362732
0.02318720333278179,0.004920097067952156,-0.01666681282222271,0.012055871076881886,-0.00036525330506265163,-0.009169617667794228
0.023005325347185135,0.00495337275788188,-0.01650680974125862,0.011985652148723602,-0.00038966353167779744,-0.009366968646645546
0.023149684071540833,0.005894913338124752,-0.016988083720207214,0.012148240581154823,-0.00037688208976760507,-0.009195606224238873
0.022685913369059563,0.0053836144506931305,-0.017300225794315338,0.011787804774940014,-0.0004788300720974803,-0.009087727405130863
0.023151176050305367,0.004510978236794472,-0.01637834496796131,0.011666109785437584,-0.00044119299855083227,-0.009566166438162327
0.02350432239472866,0.004492643289268017,-0.016723087057471275,0.012255973182618618,-0.00040231659659184515,-0.009765870869159698
0.0236751027405262,0.005114559084177017,-0.01600615307688713,0.012077145278453827,-0.0004329993389546871,-0.01071595773100853
0.023854296654462814,0.004979942925274372,-0.016612142324447632,0.012874823063611984,-0.00040886810165829957,-0.010326217859983444
0.023854296654462814,0.004979942925274372,-0.016612142324447632,0.012874823063611984,-0.00040886810165829957,-0.010326217859983444
0.023959139361977577,0.005138138774782419,-0.016455112025141716,0.012219533324241638,-0.00038059864891692996,-0.009491548873484135
0.024299241602420807,0.004827439319342375,-0.0166619885712862,0.012308867648243904,-0.00035555934300646186,-0.009501813910901546
0.02413060888648033,0.0046936827711761,-0.016234874725341797,0.012304632924497128,-0.0003141688648611307,-0.010364227928221226
0.02410111017525196,0.005140149500221014,-0.016747811809182167,0.012530945241451263,-0.0003333670028951019,-0.010289736092090607
0.024262823164463043,0.004955620039254427,-0.01617378368973732,0.012226210907101631,-0.0003274640766903758,-0.010007821954786777
0.024388398975133896,0.004625964444130659,-0.01660344935953617,0.01305993739515543,-0.0003119903558399528,-0.009963824413716793
0.024774080142378807,0.005005409941077232,-0.016144296154379845,0.012546222656965256,-0.0003368749166838825,-0.010165049694478512
0.024353886023163795,0.004835416097193956,-0.01670295000076294,0.013079277239739895,-0.00032428069971501827,-0.01037607528269291
0.024598253890872,0.004395673982799053,-0.016764909029006958,0.012581581249833107,-0.00030251112184487283,-0.009993646293878555
0.024932509288191795,0.0045638903975486755,-0.01657680794596672,0.013085796497762203,-0.0003105815558228642,-0.010003730654716492
0.024573741480708122,0.004506391007453203,-0.016903454437851906,0.012838408350944519,-0.00031761950231157243,-0.010966499336063862
0.024589819833636284,0.004627229645848274,-0.01642039231956005,0.01269509270787239,-0.0003483341133687645,-0.010470093227922916
0.024880439043045044,0.004870917648077011,-0.0172911137342453,0.012595715001225471,-0.00037740651168860495,-0.01074070855975151
0.025460876524448395,0.004823697730898857,-0.01680721901357174,0.012074842117726803,-0.0006711033638566732,-0.011247916147112846
0.02578181028366089,0.004540998954325914,-0.01659126952290535,0.012067202478647232,-0.0007694089435972273,-0.010709913447499275
0.024834366515278816,0.004854358267039061,-0.017351068556308746,0.011918358504772186,-0.0007051744614727795,-0.010699845850467682
0.025450823828577995,0.004856474231928587,-0.01694335602223873,0.011999934911727905,-0.0007017191383056343,-0.010824154131114483
0.02542976662516594,0.0048811063170433044,-0.017536869272589684,0.013269282877445221,-0.0006523823249153793,-0.01090692076832056
0.02533310279250145,0.004889223258942366,-0.01709897257387638,0.01331316214054823,-0.0006544413045048714,-0.01096577662974596
0.025725126266479492,0.005117753986269236,-0.01744513399899006,0.013772698119282722,-0.0006174853187985718,-0.011093007400631905
0.02585218846797943,0.005002798978239298,-0.017785286530852318,0.013093889690935612,-0.0005891733453609049,-0.011348273605108261
0.025650614872574806,0.0047540003433823586,-0.016740484163165092,0.013035434298217297,-0.0005389798316173255,-0.011583345010876656
0.026073545217514038,0.00479493010789156,-0.01783902384340763,0.012680661864578724,-0.0005653980188071728,-0.011338000185787678
0.026083890348672867,0.005173254758119583,-0.0180721003562212,0.013057279400527477,-0.0005640075542032719,-0.011070005595684052
0.02607104368507862,0.005202888045459986,-0.01810942217707634,0.013167301192879677,-0.0005914990906603634,-0.010629384778439999
0.026276515796780586,0.005299569573253393,-0.017955152317881584,0.013174595311284065,-0.0005833841278217733,-0.010913345962762833
0.026276515796780586,0.005299569573253393,-0.017955152317881584,0.013174595311284065,-0.0005833841278217733,-0.010913345962762833
0.026548447087407112,0.004937359131872654,-0.01740431785583496,0.013675791211426258,-0.0007785781635902822,-0.010886291041970253
0.026320239529013634,0.004754024092108011,-0.018120544031262398,0.01328829862177372,-0.0008365398389287293,-0.011539827100932598
0.026388810947537422,0.004980475176125765,-0.018598290160298347,0.012961486354470253,-0.0008470978355035186,-0.011330400593578815
0.026908837258815765,0.0052329860627651215,-0.01759561151266098,0.01257642637938261,-0.0007870075642131269,-0.011319765821099281
0.02802298590540886,0.005028424318879843,-0.017584655433893204,0.013078608550131321,-0.0009090711828321218,-0.011358425952494144
0.02756471000611782,0.004881085827946663,-0.017741911113262177,0.012256631627678871,-0.000913958007004112,-0.011110390536487103
0.027459239587187767,0.004273171536624432,-0.017555484548211098,0.012657559476792812,-0.0008871406316757202,-0.011062409728765488
0.02820536680519581,0.004495555534958839,-0.017241859808564186,0.012825394980609417,-0.0008564338204450905,-0.010740108788013458
0.02796279266476631,0.004381716717034578,-0.017705151811242104,0.013379585929214954,-0.0008367076516151428,-0.010830048471689224
0.027630874887108803,0.004197178408503532,-0.01823827624320984,0.014066599309444427,-0.0007818980375304818,-0.011075248941779137
0.028582897037267685,0.004527501296252012,-0.017734091728925705,0.014131741598248482,-0.0007698910776525736,-0.011098390445113182
0.02888062410056591,0.004673130344599485,-0.018055127933621407,0.014222558587789536,-0.0007575182244181633,-0.011425195261836052
0.02863447554409504,0.004436029586941004,-0.017507405951619148,0.014494833536446095,-0.0007333708344958723,-0.011071677319705486
0.027568161487579346,0.004048048052936792,-0.017415298148989677,0.014706590212881565,-0.0007383311167359352,-0.010657509788870811
0.028033891692757607,0.004323235247284174,-0.017532046884298325,0.014725260436534882,-0.0007597905932925642,-0.010799363255500793
0.02941156178712845,0.004217441193759441,-0.017037363722920418,0.014868171885609627,-0.0006731931352987885,-0.010947581380605698
0.029072152450680733,0.003976483829319477,-0.01785307377576828,0.014253217726945877,-0.0006846765172667801,-0.011590203270316124
0.029160400852560997,0.00382883008569479,-0.01768326759338379,0.0139347268268466,-0.0006279973895289004,-0.01180177740752697
0.02908785082399845,0.00398049084469676,-0.017268236726522446,0.01405729167163372,-0.0006315119680948555,-0.011331607587635517
0.029102927073836327,0.00380972889252007,-0.017577562481164932,0.013813893310725689,-0.0005975860403850675,-0.011614376679062843
0.029202891513705254,0.0035021724179387093,-0.017261851578950882,0.013908440247178078,-0.0005631649401038885,-0.011816895566880703
0.02935233898460865,0.0035336920991539955,-0.018234675750136375,0.013799705542623997,-0.0005971278296783566,-0.011814632453024387
0.02935214154422283,0.0037164445966482162,-0.018362319096922874,0.013988039456307888,-0.0005869506276212633,-0.011709624901413918
0.029345955699682236,0.004056577105075121,-0.01776065118610859,0.013743499293923378,-0.0005732412682846189,-0.011874203570187092
0.029314491897821426,0.00394962914288044,-0.01809474267065525,0.014063188806176186,-0.0005277835880406201,-0.01204350683838129
0.02932754158973694,0.0037303990684449673,-0.017886921763420105,0.013669168576598167,-0.0004871113633271307,-0.012062686495482922
0.029666608199477196,0.0036390337627381086,-0.01811911351978779,0.014265250414609909,-0.00045213542762212455,-0.012055328115820885
0.029159896075725555,0.003677787259221077,-0.018167629837989807,0.013901547528803349,-0.0004661710117943585,-0.011765430681407452
0.029244128614664078,0.003777178702875972,-0.01742139458656311,0.014431449584662914,-0.0004507935664150864,-0.01172001101076603
0.029244128614664078,0.003777178702875972,-0.01742139458656311,0.014431449584662914,-0.0004507935664150864,-0.01172001101076603
0.028794709593057632,0.003886980004608631,-0.01848713308572769,0.013632022775709629,-0.0004250729689374566,-0.011718528345227242
0.02883775159716606,0.00433950312435627,-0.018718266859650612,0.014074917882680893,-0.000415785179939121,-0.011679129675030708
0.02895849570631981,0.0040569850243628025,-0.01791216805577278,0.013793081045150757,-0.0003837275435216725,-0.011769693344831467
0.029766323044896126,0.004401549696922302,-0.01829531230032444,0.014322630129754543,-0.00041479902574792504,-0.011768266558647156
0.02971290424466133,0.004466784652322531,-0.01808597519993782,0.013956311158835888,-0.00036677130265161395,-0.012123673222959042
0.02883288450539112,0.004257961641997099,-0.018894728273153305,0.01375582441687584,-0.0003967171651311219,-0.012465684674680233
0.02912743017077446,0.00439557246863842,-0.017957326024770737,0.014045479707419872,-0.0004161185643170029,-0.012142088264226913
0.029944472014904022,0.004616197198629379,-0.01801145263016224,0.014215987175703049,-0.00040530849946662784,-0.01194046251475811
0.029490824788808823,0.004722466692328453,-0.01860523410141468,0.014870871789753437,-0.0005028664018027484,-0.012351926416158676
0.02953609824180603,0.004588047042489052,-0.018399596214294434,0.01476908940821886,-0.0005377217312343419,-0.012296075001358986
0.03036864660680294,0.004370356444269419,-0.018548594787716866,0.014918556436896324,-0.0005716374143958092,-0.012504251673817635
0.02985057793557644,0.004358423873782158,-0.018515130504965782,0.014638473279774189,-0.0006000502617098391,-0.012542340904474258
0.02945312112569809,0.004071068484336138,-0.01796904020011425,0.015088990330696106,-0.0007600610260851681,-0.012596859596669674
0.029352976009249687,0.004463229328393936,-0.01863788440823555,0.014439716935157776,-0.0009180884226225317,-0.012451313436031342
0.029572566971182823,0.004714618902653456,-0.018827810883522034,0.014936099760234356,-0.0008245259523391724,-0.012364465743303299
0.029980583116412163,0.004584133625030518,-0.018295755609869957,0.014523696154356003,-0.0008202276076190174,-0.012409655377268791
0.030050041154026985,0.004725098144263029,-0.01871349848806858,0.01504888292402029,-0.0007379997987300158,-0.013273708522319794
0.02987862192094326,0.004743995610624552,-0.018545931205153465,0.01453645434230566,-0.0006613221485167742,-0.01193301659077406
0.030163222923874855,0.004408906679600477,-0.018869614228606224,0.014844462275505066,-0.0006396841490641236,-0.012565188109874725
0.030084559693932533,0.004505886230617762,-0.01924341730773449,0.01480082981288433,-0.0006216726033017039,-0.013059559278190136
0.03035193681716919,0.0046697030775249004,-0.018450230360031128,0.01506973709911108,-0.0005789261194877326,-0.013502439484000206
0.03032866306602955,0.005164285656064749,-0.01850193738937378,0.014912767335772514,-0.0004934033495374024,-0.013084487058222294
0.030702557414770126,0.004975270014256239,-0.019082430750131607,0.01524372585117817,-0.0005195355624891818,-0.013302022591233253
0.03094973973929882,0.004633292090147734,-0.01956731267273426,0.014752139337360859,-0.0004832568229176104,-0.01319072861224413
0.03094973973929882,0.004633292090147734,-0.01956731267273426,0.014752139337360859,-0.0004832568229176104,-0.01319072861224413
0.03090079315006733,0.004971514921635389,-0.01981082744896412,0.01487822737544775,-0.0005129063501954079,-0.013538233004510403
0.030978653579950333,0.00485280342400074,-0.019534176215529442,0.014875379391014576,-0.000478459958685562,-0.013739342801272869
0.030912460759282112,0.0048069702461361885,-0.018542680889368057,0.015361976809799671,-0.0004916658508591354,-0.01365165039896965
0.03038531169295311,0.0044429064728319645,-0.01879802718758583,0.015710409730672836,-0.00047386091318912804,-0.013464720919728279
0.031103186309337616,0.004538422916084528,-0.019290171563625336,0.015567531809210777,-0.0005470803589560091,-0.013782409019768238
0.030788924545049667,0.004783476237207651,-0.01991015300154686,0.014899015426635742,-0.0006206357502378523,-0.013477012515068054
0.030795371159911156,0.004401527810841799,-0.019535942003130913,0.015098746865987778,-0.0006355954683385789,-0.013377614319324493
0.030941952019929886,0.00409594364464283,-0.01877460442483425,0.015295512974262238,-0.0007693681982345879,-0.013509776443243027
0.03118148259818554,0.004304097034037113,-0.019281571730971336,0.016069630160927773,-0.0007945520337671041,-0.013883276842534542
0.031159905716776848,0.0045300438068807125,-0.01940877176821232,0.015922587364912033,-0.0007832294213585556,-0.013689619489014149
0.03171340376138687,0.004632923286408186,-0.019726429134607315,0.016045289114117622,-0.000710603198967874,-0.013790092431008816
0.03179699927568436,0.0049881599843502045,-0.0196844469755888,0.015319299884140491,-0.0006296051433309913,-0.013678780756890774
0.03209259361028671,0.005028152372688055,-0.020004617050290108,0.01562967151403427,-0.0005638687871396542,-0.013998297043144703
0.03182266652584076,0.004837267100811005,-0.01868136040866375,0.015348394401371479,-0.0005837471690028906,-0.01410686131566763
0.03187490999698639,0.004728283267468214,-0.01962708868086338,0.014994591474533081,-0.000543308153282851,-0.014103946276009083
0.031888414174318314,0.004507043398916721,-0.01901426911354065,0.015063965693116188,-0.0005353771266527474,-0.014117945916950703
0.03213011100888252,0.004857240244746208,-0.019391221925616264,0.015187298879027367,-0.0005277422023937106,-0.01426802296191454
0.03182201460003853,0.005393626634031534,-0.020078144967556,0.015444094315171242,-0.00047119337250478566,-0.013995802961289883
0.03286860138177872,0.004813489969819784,-0.020010190084576607,0.015916289761662483,-0.00041054465691559017,-0.014257200062274933
0.033217620104551315,0.0045927343890070915,-0.01962634176015854,0.016491511836647987,-0.0004114037728868425,-0.01440836675465107
0.031961143016815186,0.004437742754817009,-0.019634827971458435,0.015918711200356483,-0.0004128680157009512,-0.0145432623103261
0.031631648540496826,0.004573524929583073,-0.01999831199645996,0.01640274003148079,-0.00044104221160523593,-0.01467894297093153
0.03312761336565018,0.004634554032236338,-0.019930236041545868,0.016221215948462486,-0.0004712178779300302,-0.01441684365272522
0.032521165907382965,0.005217402707785368,-0.019679032266139984,0.016976000741124153,-0.0006559510948136449,-0.014079978689551353
0.032756682485342026,0.005081981886178255,-0.02015717700123787,0.016496358439326286,-0.0007253880612552166,-0.014038078486919403
0.033230219036340714,0.004850622266530991,-0.02007703296840191,0.016015853732824326,-0.0007216514204628766,-0.014160108752548695
0.03278754651546478,0.004742301534861326,-0.01934848725795746,0.01652851141989231,-0.0006920422310940921,-0.014479896984994411
0.03278754651546478,0.004742301534861326,-0.01934848725795746,0.01652851141989231,-0.0006920422310940921,-0.014479896984994411
0.03238045796751976,0.004947362467646599,-0.02008919045329094,0.016141485422849655,-0.0007094434113241732,-0.014589629136025906
0.032207388430833817,0.0049226549454033375,-0.019954610615968704,0.01654611900448799,-0.0007735223043709993,-0.014690526761114597
0.03352244198322296,0.005317216273397207,-0.01956702210009098,0.015930579975247383,-0.0006987754022702575,-0.01465886551886797
0.03326904773712158,0.005067537538707256,-0.020271986722946167,0.016130737960338593,-0.0006072225514799356,-0.01496118400245905
0.032905541360378265,0.004775503650307655,-0.020149806514382362,0.01648036576807499,-0.0006341192638501525,-0.01502174697816372
0.033725298941135406,0.005011977162212133,-0.0197749063372612,0.017013000324368477,-0.0006017022533342242,-0.014613195322453976
0.03323636204004288,0.004957772325724363,-0.019884807989001274,0.016502458602190018,-0.0006248902063816786,-0.014655250124633312
0.033543262630701065,0.004985195118933916,-0.01998947374522686,0.016585156321525574,-0.0005991547368466854,-0.014713955111801624
0.03361710533499718,0.005132238380610943,-0.0198748130351305,0.016286976635456085,-0.000589176663197577,-0.014893010258674622
0.033355142921209335,0.00489010801538825,-0.020068425685167313,0.01661255583167076,-0.0005732396384701133,-0.014518958516418934
0.03348415344953537,0.0045441859401762486,-0.01960960030555725,0.01626921258866787,-0.0006015233811922371,-0.01448231190443039
0.034143030643463135,0.004224431701004505,-0.019212229177355766,0.016224320977926254,-0.000612065545283258,-0.014339068904519081
0.03414979204535484,0.0043464177288115025,-0.020085088908672333,0.01617073453962803,-0.000584913999773562,-0.014561516232788563
0.03367847949266434,0.004568417090922594,-0.020239725708961487,0.016186164692044258,-0.0006874095997773111,-0.014658113941550255
0.03378678858280182,0.004878987558186054,-0.0200894046574831,0.016332000494003296,-0.0006071921670809388,-0.014929356053471565
0.0351414754986763,0.004671732895076275,-0.02009769156575203,0.015920888632535934,-0.0005868971347808838,-0.01502436213195324
0.03441794216632843,0.004271157085895538,-0.019848661497235298,0.0167307760566473,-0.0005706460797227919,-0.015415203757584095
0.03347159922122955,0.004406317602843046,-0.019530003890395164,0.016556400805711746,-0.0005604751058854163,-0.015502117574214935
0.034545958042144775,0.004783100448548794,-0.019778113812208176,0.016530320048332214,-0.0005494218785315752,-0.015216964296996593
0.034346118569374084,0.004755185917019844,-0.020737959071993828,0.016270607709884644,-0.0005749964620918036,-0.015006516128778458
0.03485675901174545,0.004633128177374601,-0.02014138363301754,0.01610603742301464,-0.0005563725717365742,-0.0150816161185503
0.03541655093431473,0.004610104952007532,-0.01984449476003647,0.016526468098163605,-0.0005045444122515619,-0.015180936083197594
0.03588847070932388,0.004170570056885481,-0.019646907225251198,0.0162904504686594,-0.0005384893738664687,-0.015229359269142151
0.033945757895708084,0.004437470808625221,-0.02000175602734089,0.016548365354537964,-0.0005712432903237641,-0.015126094222068787
0.03444958105683327,0.004498450551182032,-0.019850442185997963,0.01596938818693161,-0.0005937957321293652,-0.015227383933961391
0.03541327640414238,0.004415176808834076,-0.02042349986732006,0.016284052282571793,-0.0007656256202608347,-0.015567144379019737
0.03531646728515625,0.0043784999288618565,-0.020458107814192772,0.01659749262034893,-0.0008387835696339607,-0.01568087562918663
0.03507227078080177,0.004288769792765379,-0.019600560888648033,0.016510479152202606,-0.0008344699162989855,-0.01568456180393696
0.03552008047699928,0.004342949483543634,-0.019940298050642014,0.017126498743891716,-0.0007621587137691677,-0.015686703845858574
0.03552008047699928,0.004342949483543634,-0.019940298050642014,0.017126498743891716,-0.0007621587137691677,-0.015686703845858574
0.035615481436252594,0.0039734854362905025,-0.02095671370625496,0.016796156764030457,-0.0007717075059190392,-0.015709612518548965
0.034933872520923615,0.004310541320592165,-0.020734436810016632,0.016939735040068626,-0.0007930552237667143,-0.0157382320612669
0.03541740030050278,0.004544749855995178,-0.019879471510648727,0.016537919640541077,-0.0007048441329970956,-0.01605585590004921
0.035370927304029465,0.0042693596333265305,-0.020807109773159027,0.016483211889863014,-0.0006451308145187795,-0.016047898679971695
0.03536549583077431,0.004278919659554958,-0.02001744508743286,0.016164623200893402,-0.000659221492242068,-0.015975529327988625
0.03600972890853882,0.0044325413182377815,-0.020330077037215233,0.01664474420249462,-0.0006068652728572488,-0.01547930296510458
0.03599344566464424,0.004560967441648245,-0.02114398404955864,0.016213612630963326,-0.0006276697386056185,-0.01586609147489071
0.035853587090969086,0.004222898278385401,-0.020749473944306374,0.016430573537945747,-0.0006055753910914063,-0.015667421743273735
0.03562694415450096,0.004314018879085779,-0.02038653939962387,0.016355525702238083,-0.0006914520054124296,-0.015805011615157127
0.03503462299704552,0.004294111393392086,-0.02096579037606716,0.016868652775883675,-0.0007413106504827738,-0.015741951763629913
0.03650279715657234,0.004062252584844828,-0.021074805408716202,0.017867952585220337,-0.0009510351810604334,-0.01587236300110817
0.03657867759466171,0.00425515603274107,-0.020473698154091835,0.016730207949876785,-0.0011229697847738862,-0.015258613042533398
0.035828981548547745,0.004602489992976189,-0.020200736820697784,0.017112556844949722,-0.0009773221099749207,-0.015041339211165905
0.036173466593027115,0.004206804558634758,-0.020713292062282562,0.016767457127571106,-0.0008959445403888822,-0.015469102188944817
0.036582134664058685,0.003948521800339222,-0.020793862640857697,0.016678068786859512,-0.0008347376715391874,-0.015650153160095215
0.036134663969278336,0.004392588976770639,-0.02017395757138729,0.01734423078596592,-0.0007909400737844408,-0.01570632867515087
0.03639057278633118,0.004181032534688711,-0.02078145369887352,0.01773929037153721,-0.0007535737240687013,-0.015693778172135353
0.03648524731397629,0.00439473008736968,-0.02110264077782631,0.018127594143152237,-0.0006848082412034273,-0.016032811254262924
0.03615403547883034,0.004421566613018513,-0.02014411799609661,0.01758943498134613,-0.0005700629553757608,-0.015883060172200203
0.03620532155036926,0.0043145595118403435,-0.020397810265421867,0.017114922404289246,-0.0005394580075517297,-0.016047347337007523
0.03586482256650925,0.004345669411122799,-0.021200938150286674,0.01789906434714794,-0.000527964613866061,-0.015981120988726616
0.037570226937532425,0.004159885924309492,-0.020720120519399643,0.017551518976688385,-0.0005423983675427735,-0.01648038998246193
0.0374341681599617,0.004045038018375635,-0.020199274644255638,0.01843624748289585,-0.0005163439782336354,-0.016670629382133484
0.03518719598650932,0.004427770152688026,-0.020735589787364006,0.018170172348618507,-0.0005418320652097464,-0.016448909416794777
0.035466358065605164,0.004354574251919985,-0.02086021564900875,0.017534548416733742,-0.0006387736648321152,-0.01626620627939701
0.03667401894927025,0.004563912283629179,-0.01999124139547348,0.0178372859954834,-0.0006867956835776567,-0.01585337147116661
0.036860719323158264,0.0044853417202830315,-0.020238205790519714,0.01719324104487896,-0.0006355262594297528,-0.01574878580868244
0.036860719323158264,0.0044853417202830315,-0.020238205790519714,0.01719324104487896,-0.0006355262594297528,-0.01574878580868244
0.037711985409259796,0.004095458425581455,-0.020237237215042114,0.017279215157032013,-0.0006519868620671332,-0.015415128320455551
0.03760359063744545,0.004371612332761288,-0.020093174651265144,0.01738235354423523,-0.0006423747399821877,-0.01617995649576187
0.03560915216803551,0.004177852068096399,-0.019902333617210388,0.017374467104673386,-0.0006247830460779369,-0.016307706013321877
0.03600573167204857,0.004428155720233917,-0.020597295835614204,0.018049338832497597,-0.0006333453929983079,-0.01661609672009945
0.037395887076854706,0.004342387430369854,-0.02042553760111332,0.01789265312254429,-0.0006919836741872132,-0.016368646174669266
0.03736771270632744,0.0043726456351578236,-0.02012588270008564,0.01809355989098549,-0.0006564424838870764,-0.016010338440537453
0.03728340566158295,0.004087255802005529,-0.020334867760539055,0.017857305705547333,-0.0006679234793409705,-0.01616583578288555
0.03741433843970299,0.004020417109131813,-0.020100384950637817,0.018123656511306763,-0.0007357950089499354,-0.016926273703575134
0.037367913872003555,0.0039016730152070522,-0.020101046189665794,0.017856856808066368,-0.0008270671823993325,-0.01694588176906109
0.03710358962416649,0.0038868903648108244,-0.0208569522947073,0.01751570962369442,-0.0007506104302592576,-0.016658104956150055
0.03748644143342972,0.0043007684871554375,-0.02095186337828636,0.018098611384630203,-0.0007630678010173142,-0.01572428271174431
0.037342727184295654,0.004227600060403347,-0.020037224516272545,0.0183072742074728,-0.0007775810081511736,-0.015871355310082436
0.03691941872239113,0.00454955967143178,-0.020215993747115135,0.018372701480984688,-0.0008465474238619208,-0.01612338051199913
0.037676069885492325,0.004196086898446083,-0.020848585292696953,0.01829124055802822,-0.0008405916742049158,-0.016332179307937622
0.03878888115286827,0.003923218231648207,-0.021106084808707237,0.017368366941809654,-0.0007563242688775063,-0.01663042977452278
0.03684943914413452,0.004256097599864006,-0.0210192259401083,0.017552444711327553,-0.0006651648436672986,-0.017256535589694977
0.036466408520936966,0.004332285374403,-0.021264640614390373,0.01789834164083004,-0.0006836781976744533,-0.016083750873804092
0.03760872408747673,0.004480484873056412,-0.02124316617846489,0.017836740240454674,-0.0006649019196629524,-0.016104746609926224
0.0372161827981472,0.004540984518826008,-0.020202601328492165,0.017782175913453102,-0.0006443765014410019,-0.016484331339597702
0.0384928323328495,0.004636733327060938,-0.020642857998609543,0.017365235835313797,-0.0005943001015111804,-0.016985364258289337
0.038049887865781784,0.004715501796454191,-0.021658675745129585,0.01772640272974968,-0.0006043745670467615,-0.016765238717198372
0.03644295409321785,0.004426558036357164,-0.021631406620144844,0.01772996224462986,-0.0006102238548919559,-0.016441229730844498
0.03740920498967171,0.0040694004856050014,-0.020418019965291023,0.017409516498446465,-0.0006361554842442274,-0.01656869612634182
0.03840550035238266,0.004178373143076897,-0.02107173576951027,0.018299780786037445,-0.0007759741856716573,-0.016998479142785072
0.038605231791734695,0.004051391966640949,-0.021401211619377136,0.01808806322515011,-0.0009045209153555334,-0.01649612933397293
0.037945836782455444,0.004314932506531477,-0.021211784332990646,0.01782776042819023,-0.0008772835717536509,-0.016362104564905167
0.038047466427087784,0.004532971419394016,-0.020894665271043777,0.017906803637742996,-0.0008785924292169511,-0.016639282926917076
0.03811853379011154,0.004698323551565409,-0.021132785826921463,0.017823349684476852,-0.0008309927070513368,-0.016655893996357918
0.03811853379011154,0.004698323551565409,-0.021132785826921463,0.017823349684476852,-0.0008309927070513368,-0.016655893996357918
0.03838871046900749,0.00439667422324419,-0.020861243829131126,0.018229305744171143,-0.0008576095569878817,-0.016904445365071297
0.03846858814358711,0.004267408512532711,-0.020822733640670776,0.01808832585811615,-0.0008450560853816569,-0.01684596948325634
0.03806468844413757,0.004070347640663385,-0.020668337121605873,0.017854800447821617,-0.0007595300558023155,-0.016953280195593834
0.03805826976895332,0.003938911948353052,-0.02167392708361149,0.018073707818984985,-0.0006676186458207667,-0.0171086173504591
0.03836676478385925,0.004352904856204987,-0.02131546288728714,0.0182297732681036,-0.0006792377098463476,-0.016727924346923828
0.03867269679903984,0.00461368216201663,-0.021123401820659637,0.018275966867804527,-0.0006378492689691484,-0.01659231074154377
0.03908031806349754,0.004447326064109802,-0.021687757223844528,0.01792796142399311,-0.000594677752815187,-0.016886712983250618
0.03923230618238449,0.0045683663338422775,-0.02173013426363468,0.018350329250097275,-0.0005280333571135998,-0.016779344528913498
0.0388152077794075,0.004184853285551071,-0.02152610383927822,0.018363336101174355,-0.000513926730491221,-0.016950231045484543
0.03939764201641083,0.004418285097926855,-0.02202851139008999,0.017971819266676903,-0.0005060028634034097,-0.01719571277499199
0.03943081945180893,0.004657732788473368,-0.022064218297600746,0.019030878320336342,-0.0005370278959162533,-0.016978057101368904
0.03966200351715088,0.004370611160993576,-0.021899288520216942,0.01935080997645855,-0.0005656257853843272,-0.016909388825297356
0.03929536044597626,0.004350975621491671,-0.02162126451730728,0.018783774226903915,-0.0007853864808566868,-0.017034905031323433
0.03961268067359924,0.004495075438171625,-0.022035200148820877,0.0189418513327837,-0.0009005718166008592,-0.01755160465836525
0.03963896632194519,0.004776226822286844,-0.022470692172646523,0.0198769923299551,-0.0009375216322951019,-0.01757662184536457
0.039941269904375076,0.004768644459545612,-0.022356480360031128,0.01975190080702305,-0.0010203552665188909,-0.01735267974436283
0.040189675986766815,0.004319529049098492,-0.022141799330711365,0.01957983337342739,-0.0009664123062975705,-0.01739937625825405
0.04009249806404114,0.004259283188730478,-0.02213107794523239,0.01888088509440422,-0.0009198129992000759,-0.017334312200546265
0.03943054750561714,0.004824071656912565,-0.022126395255327225,0.018418101593852043,-0.0008158360724337399,-0.017331575974822044
0.040532927960157394,0.004921493120491505,-0.022532278671860695,0.019373269751667976,-0.0008119927369989455,-0.017218584194779396
0.041353508830070496,0.004659904632717371,-0.02234392613172531,0.019534261897206306,-0.0007314009708352387,-0.01731041818857193
0.03946823626756668,0.004354777280241251,-0.02186453714966774,0.01943742111325264,-0.0007366171921603382,-0.017275052145123482
