davideferrari95/blind_handover_controller/data/Test 202 - [2024-02-08 -- 11-58-51]/joint_states_data.csv
shoulder_pan_joint,shoulder_lift_joint,elbow_joint,wrist_1_joint,wrist_2_joint,wrist_3_joint
-0.003761555999517441,-0.014813831076025963,-0.004748350940644741,0.016629790887236595,0.0,-0.004351922310888767
-0.003761555999517441,-0.014813831076025963,-0.004748350940644741,0.016629790887236595,0.0,-0.004351922310888767
-0.004294998943805695,-0.014415012672543526,-0.0051987748593091965,0.016415763646364212,0.0,-0.0037866607308387756
-0.004194165114313364,-0.014632409438490868,-0.004937190096825361,0.016326867043972015,0.0,-0.00350709306076169
-0.004078055266290903,-0.014630376361310482,-0.004924222826957703,0.016809923574328423,0.0,-0.0036841966211795807
-0.004292702302336693,-0.01513134129345417,-0.004814514424651861,0.017037400975823402,0.0,-0.004249804187566042
-0.004063970874994993,-0.014693472534418106,-0.0057100942358374596,0.016742005944252014,0.0,-0.004142296966165304
-0.0038748623337596655,-0.015170765109360218,-0.004786001984030008,0.01629597879946232,0.0,-0.003610550193116069
-0.0038933653850108385,-0.015081861056387424,-0.0033935036044567823,0.016949644312262535,0.0,-0.003440535394474864
-0.004298776853829622,-0.015016616322100163,-0.0028242371045053005,0.017676537856459618,0.0,-0.0035567625891417265
-0.004274014849215746,-0.014831027947366238,-0.0024560862220823765,0.017646657302975655,0.0,-0.003697827225551009
-0.004484084434807301,-0.015230714343488216,-0.0032005528919398785,0.017393413931131363,0.0,-0.0041204532608389854
-0.004484084434807301,-0.015230714343488216,-0.0032005528919398785,0.017393413931131363,0.0,-0.0041204532608389854
-0.004217860754579306,-0.014852351509034634,-0.0037538716569542885,0.01631275564432144,0.0,-0.00416406849399209
-0.003963720053434372,-0.014961197040975094,-0.0033325788099318743,0.016583751887083054,0.0,-0.003999856300652027
-0.00381297105923295,-0.014853602275252342,-0.002999750431627035,0.016753064468503,0.0,-0.0038118509110063314
-0.0034882621839642525,-0.015212271362543106,-0.0029292998369783163,0.016536403447389603,0.0,-0.00405716709792614
-0.0038147857412695885,-0.014797425828874111,-0.002892610849812627,0.01700577139854431,0.0,-0.0042169238440692425
-0.004152064677327871,-0.015083355829119682,-0.0028277146629989147,0.01733258366584778,0.0,-0.0040154829621315
-0.004109910689294338,-0.01452628243714571,-0.0025341911241412163,0.0180619228631258,0.0,-0.003828998887911439
-0.003931097220629454,-0.01474433857947588,-0.002463797340169549,0.01841527782380581,0.0,-0.003762154607102275
-0.003465379821136594,-0.014491964131593704,-0.0025482960045337677,0.018153365701436996,0.0,-0.00382387638092041
-0.003986205440014601,-0.015129441395401955,-0.002487471094354987,0.018165191635489464,0.0,-0.004231397062540054
-0.0041508967988193035,-0.014367288909852505,-0.0028638197109103203,0.01745152473449707,0.0,-0.004203902557492256
-0.003988950047641993,-0.014550832100212574,-0.0029364251531660557,0.017208194360136986,0.0,-0.0040506054647266865
-0.0039350190199911594,-0.01418319158256054,-0.002836235100403428,0.01718706637620926,0.0,-0.003925740718841553
-0.003496763529255986,-0.014760293997824192,-0.0025855202693492174,0.016493555158376694,0.0,-0.003853984409943223
-0.00401436910033226,-0.014294725842773914,-0.00256086653098464,0.01651814579963684,0.0,-0.0038671086076647043
-0.004169134423136711,-0.014719143509864807,-0.002816219115629792,0.016357317566871643,0.0,-0.003825506428256631
-0.004034851677715778,-0.014185134321451187,-0.0029461183585226536,0.016436338424682617,0.0,-0.0038185804150998592
-0.0038971647154539824,-0.014528569765388966,-0.003029742045328021,0.01663282886147499,0.0,-0.003774495329707861
-0.003443836234509945,-0.014475814066827297,-0.002994475420564413,0.016799362376332283,0.0,-0.0038270512595772743
-0.003729903372004628,-0.014133185148239136,-0.0026100855320692062,0.016160480678081512,0.0,-0.0038512018509209156
-0.0037872018292546272,-0.014670152217149734,-0.00269729713909328,0.016529954969882965,0.0,-0.0040534078143537045
-0.0036984740290790796,-0.014234842732548714,-0.0030683462973684072,0.015743253752589226,0.0,-0.004015766084194183
-0.0036286781542003155,-0.014869711361825466,-0.0036322379019111395,0.015577889047563076,0.0,-0.003864551428705454
-0.0036690805573016405,-0.014665910974144936,-0.003450712887570262,0.01580427959561348,0.0,-0.003803233616054058
-0.003846394829452038,-0.014096906408667564,-0.0032282997854053974,0.01678413525223732,0.0,-0.00376963266171515
-0.003907881211489439,-0.013711457140743732,-0.002862905850633979,0.0177621990442276,0.0,-0.004255003295838833
-0.0034276945516467094,-0.014296535402536392,-0.002839400665834546,0.0175265371799469,0.0,-0.00450392160564661
-0.003509851871058345,-0.013730639591813087,-0.0028478887397795916,0.017359646037220955,0.0,-0.004296374972909689
-0.003509851871058345,-0.013730639591813087,-0.0028478887397795916,0.017359646037220955,0.0,-0.004296374972909689
-0.003750970819965005,-0.014278477057814598,-0.0032106901053339243,0.01646292954683304,0.0,-0.0039559099823236465
-0.003530379617586732,-0.014693866483867168,-0.0031104052904993296,0.017208002507686615,0.0,-0.0042657204903662205
-0.0033133821561932564,-0.014164443127810955,-0.0030363474506884813,0.01711038500070572,0.0,-0.0041032456792891026
-0.0033133821561932564,-0.014164443127810955,-0.0030363474506884813,0.01711038500070572,0.0,-0.0041032456792891026
-0.0031738411635160446,-0.014472641982138157,-0.003157637780532241,0.01747577078640461,0.0,-0.003873558947816491
-0.0034630263689905405,-0.013756434433162212,-0.002816651714965701,0.01718919537961483,0.0,-0.003919769078493118
-0.003724863985553384,-0.01401866227388382,-0.003056298941373825,0.016585268080234528,0.0,-0.004246525466442108
-0.003507132176309824,-0.013677148148417473,-0.002847309224307537,0.016422336921095848,0.0,-0.0041981409303843975
-0.003447051625698805,-0.014072262682020664,-0.003083247924223542,0.016414865851402283,0.0,-0.003976147156208754
-0.0036441509146243334,-0.013819959945976734,-0.0029819842893630266,0.0171533040702343,0.0,-0.004250837955623865
-0.0033675904851406813,-0.013947359286248684,-0.0028348995838314295,0.017014790326356888,0.0,-0.004093932453542948
-0.0035903863608837128,-0.014142013154923916,-0.002640960505232215,0.01697397790849209,0.0,-0.004210169427096844
-0.003169074421748519,-0.0141441086307168,-0.0028400071896612644,0.016766194254159927,0.0,-0.004210927989333868
-0.003267609514296055,-0.013412665575742722,-0.0029383315704762936,0.016344619914889336,0.0,-0.003991478588432074
-0.0033779642544686794,-0.013852437026798725,-0.0029739041347056627,0.0159273911267519,0.0,-0.0040975771844387054
-0.0035539022646844387,-0.013582168146967888,-0.003424582304432988,0.015920018777251244,0.0,-0.004216376692056656
-0.0031124914530664682,-0.014089209958910942,-0.003219342092052102,0.016768211498856544,0.0,-0.003937598783522844
-0.00337428180500865,-0.014054317027330399,-0.002915832679718733,0.01722138561308384,0.0,-0.0038159408140927553
-0.0031411044765263796,-0.013901758007705212,-0.0027361747343093157,0.017014121636748314,0.0,-0.0039003973361104727
-0.0031033866107463837,-0.013376989401876926,-0.002875830978155136,0.016391104087233543,0.0,-0.004141778219491243
-0.002970324596390128,-0.01391047053039074,-0.003047327045351267,0.016226600855588913,0.0,-0.004359721671789885
-0.002891141688451171,-0.01357324980199337,-0.0033568486105650663,0.01606169156730175,0.0,-0.004223621916025877
-0.0026448513381183147,-0.013965717516839504,-0.0033624814823269844,0.01684611104428768,0.0,-0.003938409499824047
-0.0024996898137032986,-0.013636332005262375,-0.003078639507293701,0.016778556630015373,0.0,-0.0038450544234365225
-0.002480105496942997,-0.01411517895758152,-0.002971882466226816,0.016830574721097946,0.0,-0.004067758563905954
-0.002413625130429864,-0.013588414527475834,-0.00340400543063879,0.01681719347834587,0.0,-0.004183185286819935
-0.002739889780059457,-0.014040656387805939,-0.003151094540953636,0.016581527888774872,0.0,-0.004005884751677513
-0.0026253201067447662,-0.01354379951953888,-0.0032397399190813303,0.016601283103227615,0.0,-0.0038329993840306997
-0.0023895236663520336,-0.013754123821854591,-0.003019824856892228,0.016093406826257706,0.0,-0.0037045690696686506
-0.0023895236663520336,-0.013754123821854591,-0.003019824856892228,0.016093406826257706,0.0,-0.0037045690696686506
-0.002321115927770734,-0.013587295077741146,-0.002873336896300316,0.016876306384801865,0.0,-0.0036381760146468878
-0.002515506697818637,-0.0138561325147748,-0.003150014206767082,0.01650724560022354,0.0,-0.004072349984198809
-0.0024387792218476534,-0.013410934247076511,-0.002912757219746709,0.016363784670829773,0.0,-0.0042258272878825665
-0.0025740640703588724,-0.013549554161727428,-0.003206324763596058,0.016208576038479805,0.0,-0.004034678917378187
-0.0022894705180078745,-0.013438092544674873,-0.003395690117031336,0.01598602533340454,0.0,-0.0038333481643348932
-0.002239916240796447,-0.01362782996147871,-0.00363164022564888,0.016255050897598267,0.0,-0.0038819466717541218
-0.0020566366147249937,-0.01341635175049305,-0.003862168872728944,0.01580309309065342,0.0,-0.004000641405582428
-0.0022238213568925858,-0.013445310294628143,-0.0034138967748731375,0.015784116461873055,0.0,-0.003954824060201645
-0.0023162104189395905,-0.013535472564399242,-0.0027452653739601374,0.015387152321636677,0.0,-0.003854127135127783
-0.0022673173807561398,-0.013544365763664246,-0.0026745935901999474,0.015728134661912918,0.0,-0.004267493728548288
-0.002394088078290224,-0.01364209596067667,-0.0031285458244383335,0.015365369617938995,0.0,-0.004249476362019777
-0.0021432675421237946,-0.013287744484841824,-0.003483425360172987,0.015833573415875435,0.0,-0.004004998132586479
-0.002067445544525981,-0.013767348602414131,-0.0034696483053267,0.015165199525654316,0.0,-0.004358375910669565
-0.0019439122406765819,-0.013564442284405231,-0.0031705237925052643,0.01563560962677002,0.0,-0.0045707649551332
-0.002287909621372819,-0.01327661145478487,-0.0029312330298125744,0.015364289283752441,0.0,-0.00411395775154233
-0.002173174172639847,-0.013650200329720974,-0.003478714032098651,0.014817941002547741,0.0,-0.004152074456214905
-0.0020393964368849993,-0.013154220767319202,-0.0038078795187175274,0.014661010354757309,0.0,-0.004483828321099281
-0.001974888611584902,-0.013589063659310341,-0.003398640314117074,0.015472013503313065,0.0,-0.004204300697892904
-0.0018619116162881255,-0.013603618368506432,-0.002718043979257345,0.015124840661883354,0.0,-0.004393338691443205
-0.0018466616747900844,-0.013462398201227188,-0.0027172951959073544,0.015378553420305252,0.0,-0.004552140831947327
-0.0020722534973174334,-0.013122092001140118,-0.0030489088967442513,0.015155133791267872,0.0,-0.004557670559734106
-0.00191804941277951,-0.013414573855698109,-0.003167263697832823,0.015187369659543037,0.0,-0.004871789366006851
-0.0020881795790046453,-0.013642946258187294,-0.003424339462071657,0.014803467318415642,0.0,-0.004819596651941538
-0.0019460460171103477,-0.013144373893737793,-0.003714202670380473,0.01549993921071291,0.0,-0.0044166757725179195
-0.002067073481157422,-0.013107153587043285,-0.003365820972248912,0.015236933715641499,0.0,-0.004445554222911596
-0.0018662606598809361,-0.012961681932210922,-0.003053611144423485,0.015513401478528976,0.0,-0.004471913445740938
-0.001974811777472496,-0.013216744177043438,-0.002989827422425151,0.01490856148302555,0.0,-0.004773443099111319
-0.001812380738556385,-0.012692985124886036,-0.0031143557280302048,0.015212420374155045,0.0,-0.004785277880728245
-0.001812380738556385,-0.012692985124886036,-0.0031143557280302048,0.015212420374155045,0.0,-0.004785277880728245
-0.0019172425381839275,-0.013147787190973759,-0.0030600803438574076,0.014894654974341393,0.0,-0.004698322620242834
-0.001964620780199766,-0.01262990478426218,-0.0034615329932421446,0.015071110799908638,0.0,-0.0044705006293952465
-0.0020003344397991896,-0.012863253243267536,-0.0033508320339024067,0.014247328042984009,0.0,-0.004456704016774893
-0.002224938478320837,-0.012849738821387291,-0.003467929782345891,0.014611069113016129,0.0,-0.004523292649537325
-0.0021753916516900063,-0.013094938360154629,-0.0030515138059854507,0.014590981416404247,0.0,-0.00458127073943615
-0.0018735742196440697,-0.01295187696814537,-0.003051811596378684,0.0149141326546669,0.0,-0.004373412113636732
-0.0018435168312862515,-0.012893326580524445,-0.00311329890973866,0.014791753143072128,0.0,-0.004532983992248774
-0.0017825339455157518,-0.013376908376812935,-0.0033270760904997587,0.01454066764563322,0.0,-0.004521275870501995
-0.0017629300709813833,-0.012759102508425713,-0.0033370882738381624,0.014457128010690212,0.0,-0.0045884656719863415
-0.0016554660396650434,-0.012948109768331051,-0.003374723484739661,0.014375831000506878,0.0,-0.004676640033721924
-0.0016794292023405433,-0.012648317962884903,-0.0029892439488321543,0.014403900131583214,4.5996657718205824e-06,-0.004823413211852312
-0.0017079665558412671,-0.012813721783459187,-0.0030437021050602198,0.014308709651231766,3.0032529707568756e-07,-0.004572276957333088
-0.0017194903921335936,-0.012353234924376011,-0.00298270839266479,0.01445866096764803,1.960909834508584e-08,-0.004457444418221712
-0.0015948194777593017,-0.01246403157711029,-0.0028220643289387226,0.014278095215559006,8.359665737422972e-11,-0.004854298662394285
-0.0016335573745891452,-0.012599742040038109,-0.0031845816411077976,0.014087858609855175,5.458264049074124e-12,-0.004819698631763458
-0.0015395516529679298,-0.01294997613877058,-0.003561076009646058,0.014097203500568867,3.5638565666282207e-13,-0.004670233465731144
-0.001622742973268032,-0.012348447926342487,-0.0034469091333448887,0.014329765923321247,2.3269436711151857e-14,-0.004978919867426157
-0.001613737316802144,-0.012524035759270191,-0.002913688076660037,0.01413386408239603,0.0002734040026552975,-0.004620476625859737
-0.001515043550170958,-0.011931263841688633,-0.002742707496508956,0.014206095598638058,0.0004799276066478342,-0.004512998275458813
-0.001422374276444316,-0.01179526373744011,-0.0025780927389860153,0.013885697349905968,0.0005309114931151271,-0.0045234765857458115
-0.00148323446046561,-0.012228446081280708,-0.003110689576715231,0.013974091038107872,0.000528621138073504,-0.004858267027884722
-0.0015706298872828484,-0.012007269077003002,-0.0034436630085110664,0.013674122281372547,0.0005210102535784245,-0.005056609399616718
-0.0014846938429400325,-0.012723498046398163,-0.0034957078751176596,0.014044363051652908,0.000483377487398684,-0.004931819159537554
-0.0013865972869098186,-0.011464017443358898,-0.0031950585544109344,0.013781414367258549,0.0004962042439728975,-0.004963420331478119
-0.001507072476670146,-0.011597225442528725,-0.0030767431017011404,0.014104432426393032,0.0004779381852131337,-0.004866122733801603
-0.001524394960142672,-0.012271158397197723,-0.0028037189040333033,0.013714445754885674,0.000498537439852953,-0.004795626271516085
-0.0014686067588627338,-0.0116597143933177,-0.0030482278671115637,0.014004790224134922,0.0004941837396472692,-0.004867962561547756
-0.0014686067588627338,-0.0116597143933177,-0.0030482278671115637,0.014004790224134922,0.0004941837396472692,-0.004867962561547756
-0.0015467870980501175,-0.012188604101538658,-0.0034872239921242,0.013847164809703827,0.0005793626187369227,-0.004848905373364687
-0.0014593566302210093,-0.011846626177430153,-0.0034630768932402134,0.01430470310151577,0.0005677374429069459,-0.005023314151912928
-0.001348038436844945,-0.01199478842318058,-0.0030568570364266634,0.014150083996355534,0.0005780475912615657,-0.004907094873487949
-0.0012558152666315436,-0.011941574513912201,-0.002781496150419116,0.014395381323993206,0.0005843989783897996,-0.004953203722834587
-0.0013029060792177916,-0.011524743400514126,-0.0027233518194407225,0.012921826913952827,0.0005746003007516265,-0.005039590410888195
-0.0012504399055615067,-0.011448357254266739,-0.0031527704559266567,0.012715431861579418,0.0007033828878775239,-0.005068548955023289
-0.0013439292088150978,-0.011109935119748116,-0.003744907211512327,0.012575390748679638,0.0007258865516632795,-0.005332306958734989
-0.0013076161267235875,-0.011477021500468254,-0.0035780915059149265,0.012581508606672287,0.0006971503025852144,-0.005114308558404446
-0.0013171919854357839,-0.011556140147149563,-0.0032060942612588406,0.012932168319821358,0.0007082113297656178,-0.004940362181514502
-0.0012430644128471613,-0.011262550950050354,-0.003229820169508457,0.012957742437720299,0.000654512201435864,-0.004985203966498375
-0.0011834707111120224,-0.011248201131820679,-0.0028910718392580748,0.013117521069943905,0.0006702966638840735,-0.005006151739507914
-0.0011466972064226866,-0.010524678975343704,-0.0030241392087191343,0.012829755432903767,0.0006236988119781017,-0.005099592264741659
-0.0011599523713812232,-0.01112954318523407,-0.0034311204217374325,0.013100404292345047,0.0006099814199842513,-0.005556413438171148
-0.0011511791963130236,-0.012241554446518421,-0.0033261277712881565,0.012605849653482437,0.0005930134211666882,-0.005341070704162121
-0.0011327002430334687,-0.010944223962724209,-0.0037573904264718294,0.012425973080098629,0.0005233685951679945,-0.004654494114220142
-0.0012089484371244907,-0.01161945890635252,-0.00349694793112576,0.012257328256964684,0.0005355348694138229,-0.004509339574724436
-0.001060976879671216,-0.01174033060669899,-0.003400161163881421,0.01271464116871357,0.0005101701244711876,-0.004599283449351788
-0.0010362905450165272,-0.011686136946082115,-0.0030119726434350014,0.012478086166083813,0.0004730190266855061,-0.005181573797017336
-0.0009686711709946394,-0.01140252873301506,-0.003029261250048876,0.012704398483037949,0.0004862489295192063,-0.0053501068614423275
-0.0009584912331774831,-0.011309619061648846,-0.0033869026228785515,0.012172196060419083,0.000468961225124076,-0.0052011278457939625
-0.0009495324338786304,-0.011207100935280323,-0.003702836809679866,0.01239948719739914,0.00044911104487255216,-0.004861209075897932
-0.0009395973174832761,-0.010793213732540607,-0.0033155051060020924,0.012061581946909428,0.00041786322253756225,-0.0046705096028745174
-0.0009433963568881154,-0.011257873848080635,-0.002934057731181383,0.011951474472880363,0.0004489825223572552,-0.004754174035042524
-0.0009327786974608898,-0.011038060300052166,-0.0027489792555570602,0.012248004786670208,0.0004228315956424922,-0.005163855385035276
-0.0008097742684185505,-0.010889244265854359,-0.0028253598138689995,0.011921142227947712,0.00045349448919296265,-0.00554966926574707
-0.0008097742684185505,-0.010889244265854359,-0.0028253598138689995,0.011921142227947712,0.00045349448919296265,-0.00554966926574707
-0.0008198455907404423,-0.011363503523170948,-0.0032983976416289806,0.012078896164894104,0.0004794749547727406,-0.0055301496759057045
-0.0007444930961355567,-0.010857763700187206,-0.003440667176619172,0.011905713006854057,0.000524563598446548,-0.0055181002244353294
-0.0007444930961355567,-0.010857763700187206,-0.003440667176619172,0.011905713006854057,0.000524563598446548,-0.0055181002244353294
-0.0006935923011042178,-0.01092352531850338,-0.003010455286130309,0.012221410870552063,0.0005511200870387256,-0.005371752195060253
-0.0007078780909068882,-0.010855159722268581,-0.0027848216705024242,0.012140362523496151,0.0005687259254045784,-0.005471084266901016
-0.0006372589850798249,-0.011288033798336983,-0.0028433511033654213,0.012153198942542076,0.0005349501152522862,-0.005764427594840527
-0.0006610574782826006,-0.011083142831921577,-0.00311205442994833,0.011406992562115192,0.0005581160075962543,-0.005611245054751635
-0.0006015332182869315,-0.011188361793756485,-0.0034959549084305763,0.011257905513048172,0.0005215067067183554,-0.0051816231571137905
-0.0006242628442123532,-0.011375599540770054,-0.003759152488783002,0.010011766105890274,0.0005155652761459351,-0.00531700300052762
-0.0005771981086581945,-0.010859143920242786,-0.0034287229645997286,0.009965785779058933,0.0005095921223983169,-0.005500434432178736
-0.0005343860830180347,-0.011917241849005222,-0.0032385271042585373,0.011739177629351616,0.0004777587892021984,-0.0058471160009503365
-0.0005087011959403753,-0.01120528019964695,-0.003304530866444111,0.011598643846809864,0.0004513997700996697,-0.005859108176082373
-0.00045801018131896853,-0.011365918442606926,-0.0029378794133663177,0.011294595897197723,0.00044410733971744776,-0.005445731803774834
-0.0004156949289608747,-0.011613938957452774,-0.0030605681240558624,0.011087006889283657,0.0004456622409634292,-0.005280450917780399
-0.000453430024208501,-0.011144489049911499,-0.003469854360446334,0.010507931001484394,0.0004446869425009936,-0.005176815669983625
-0.00042097867117263377,-0.011255239136517048,-0.0034714029170572758,0.010663221590220928,0.0004129998560529202,-0.00565741304308176
-0.00039056071545928717,-0.01128801517188549,-0.0033840646501630545,0.010902843438088894,0.00044324921327643096,-0.0060201180167496204
-0.00039777971687726676,-0.011513657867908478,-0.002837733132764697,0.011315491050481796,0.0004403933708090335,-0.005560611840337515
-0.0004214980872347951,-0.010797066614031792,-0.0032305687200278044,0.010880682617425919,0.00042125163599848747,-0.00591809069737792
-0.00040379594429396093,-0.010895848274230957,-0.0036022274289280176,0.010740469209849834,0.0004004706279374659,-0.005680921021848917
-0.0003824253799393773,-0.01128818653523922,-0.0034987488761544228,0.010679327882826328,0.0004447753890417516,-0.005788393318653107
-0.00036313687451183796,-0.01105407439172268,-0.003120907349511981,0.009944597259163857,0.00040975864976644516,-0.005983399692922831
-0.00034569925628602505,-0.011873263865709305,-0.0030172609258443117,0.009826003573834896,0.00037585967220366,-0.0057321712374687195
-0.0003298608062323183,-0.011106600053608418,-0.0028603593818843365,0.010107547976076603,0.00040674599586054683,-0.005720288492739201
-0.0003154093283228576,-0.011053998954594135,-0.002954513067379594,0.01024626474827528,0.0003858294221572578,-0.005549962166696787
-0.0002922949497587979,-0.011464021168649197,-0.0033750226721167564,0.010066076181828976,0.00038978434167802334,-0.005674258340150118
-0.00027032537036575377,-0.01063571311533451,-0.0036789514124393463,0.00977966096252203,0.000392355490475893,-0.005289984401315451
-0.0002549481578171253,-0.010705201886594296,-0.003519503166899085,0.010052279569208622,0.00037099880864843726,-0.005759780760854483
-0.0002549481578171253,-0.010705201886594296,-0.003519503166899085,0.010052279569208622,0.00037099880864843726,-0.005759780760854483
-0.00022899654868524522,-0.010609983466565609,-0.002834618790075183,0.009210514836013317,0.00037898810114711523,-0.005859862081706524
-0.00022899654868524522,-0.010609983466565609,-0.002834618790075183,0.009210514836013317,0.00037898810114711523,-0.005859862081706524
-0.00021790681057609618,-0.01097329892218113,-0.003284175880253315,0.008625402115285397,0.00036039925180375576,-0.005676351021975279
-0.00019866506045218557,-0.010892491787672043,-0.003466055728495121,0.008761191740632057,0.00034738751128315926,-0.005555442068725824
-0.00019026463269256055,-0.01100444421172142,-0.0034439165610820055,0.00873606838285923,0.0003788149915635586,-0.005577655043452978
-0.00019026463269256055,-0.01100444421172142,-0.0034439165610820055,0.00873606838285923,0.0003788149915635586,-0.005577655043452978
-0.00018254586029797792,-0.010853001847863197,-0.003258933313190937,0.00877444352954626,0.0003611186402849853,-0.00539030646905303
-0.00017542937712278217,-0.011172912083566189,-0.0029923892579972744,0.009192277677357197,0.0003915021079592407,-0.005783622618764639
-0.00016884648357518017,-0.010656326077878475,-0.0028992376755923033,0.009032266214489937,0.00037184698157943785,-0.005902993958443403
-0.00016274033987428993,-0.01051171962171793,-0.003322417149320245,0.009113006293773651,0.0003980488108936697,-0.006083880551159382
-0.00015705989790149033,-0.01085793599486351,-0.003766116453334689,0.009409806691110134,0.000380559271434322,-0.0056937034241855145
-0.0001517631026217714,-0.010787620209157467,-0.003324708202853799,0.009439303539693356,0.0005247545195743442,-0.0059669725596904755
-0.0001468115660827607,-0.010344594717025757,-0.0031857844442129135,0.009220455773174763,0.0005703857750631869,-0.0062486534006893635
-0.00013781881716568023,-0.010349723510444164,-0.0028967726975679398,0.009477881714701653,0.00059240817790851,-0.005825957283377647
-0.00013372320972848684,-0.010206821374595165,-0.002785415854305029,0.00933836493641138,0.000580711173824966,-0.005498975049704313
-0.00012986442015971988,-0.010735300369560719,-0.0029154776129871607,0.008831284008920193,0.0006474079564213753,-0.006291642785072327
-0.0001262217410840094,-0.01026629563421011,-0.0034137368202209473,0.00851756427437067,0.0006560795591212809,-0.0065941703505814075
-0.00012277794303372502,-0.010432615876197815,-0.003696596249938011,0.008703120984137058,0.0006855240208096802,-0.006233051419258118
-0.00011951708438573405,-0.01075783558189869,-0.00338007602840662,0.008482906967401505,0.000663983344566077,-0.005839924328029156
-0.00011642467143246904,-0.010034074075520039,-0.002962013240903616,0.009113343432545662,0.0006408809567801654,-0.005683316383510828
-0.00011348868429195136,-0.010144611820578575,-0.0029211388900876045,0.008013028651475906,0.0006562068010680377,-0.006076212972402573
-9.115356806432828e-05,-0.01039566658437252,-0.0028018851298838854,0.007349041290581226,0.000616805802565068,-0.006519876886159182
-8.646633068565279e-05,-0.009818403981626034,-0.0033611799590289593,0.00796280987560749,0.0006232651649042964,-0.007149210199713707
-8.440545207122341e-05,-0.010000656358897686,-0.0036479292903095484,0.008411628194153309,0.0006550485268235207,-0.006553645711392164
-8.247143705375493e-05,-0.010232765227556229,-0.0035002415534108877,0.008386100642383099,0.0006377093377523124,-0.006316070444881916
-8.062431152211502e-05,-0.010105449706315994,-0.003270955290645361,0.007638226728886366,0.0006179893971420825,-0.005954795051366091
-7.88583856774494e-05,-0.01061976794153452,-0.0030876861419528723,0.008019261993467808,0.0006042994209565222,-0.006082280073314905
-7.716796972090378e-05,-0.009862547740340233,-0.0033847030717879534,0.0078354487195611,0.0005902756238356233,-0.006562994793057442
-7.716796972090378e-05,-0.009862547740340233,-0.0033847030717879534,0.0078354487195611,0.0005902756238356233,-0.006562994793057442
-7.554858166258782e-05,-0.009616547264158726,-0.0037485207431018353,0.007524378132075071,0.0005912771448493004,-0.006455597933381796
-7.399571040878072e-05,-0.009987350553274155,-0.003437746549025178,0.007587770465761423,0.0006145297084003687,-0.0062513635493814945
-7.250542694237083e-05,-0.009626131504774094,-0.0035296487621963024,0.008251750841736794,0.0006454142276197672,-0.006174747366458178
-7.107410056050867e-05,-0.009645190089941025,-0.0032110658939927816,0.007949947379529476,0.0006275416235439479,-0.006554715801030397
-5.2970579417888075e-05,-0.009970394894480705,-0.003153866156935692,0.007456456311047077,0.0006494814297184348,-0.006521434988826513
-5.129005148774013e-05,-0.010217211209237576,-0.003245642175897956,0.006922868080437183,0.000820034823846072,-0.006308756768703461
-5.0325099437031895e-05,-0.009708289988338947,-0.003594391979277134,0.007295065559446812,0.0008582568843849003,-0.0064968327060341835
-4.9467082135379314e-05,-0.00957301165908575,-0.003897271817550063,0.007076572626829147,0.0008656271966174245,-0.006598139647394419
7.966713747009635e-05,-0.00926886685192585,-0.0035376627929508686,0.0066796764731407166,0.0008623945177532732,-0.006790809333324432
0.001446046051569283,-0.009393181651830673,-0.0035188989713788033,0.006285658106207848,0.0007854981813579798,-0.006600575987249613
0.002000618726015091,-0.00990541186183691,-0.003332695458084345,0.006476219277828932,0.0007875805022194982,-0.0063894703052937984
0.0011114226654171944,-0.008733038790524006,-0.0033779432997107506,0.006528649479150772,0.0008031786419451237,-0.0064716762863099575
0.00030757419881410897,-0.008362510241568089,-0.003092596773058176,0.006326406262814999,0.0007923003286123276,-0.0065907761454582214
0.00021875354286748916,-0.009243285283446312,-0.003220522543415427,0.00651872344315052,0.0007273385999724269,-0.006880303379148245
0.0004339922743383795,-0.008735671639442444,-0.004061180632561445,0.006490791216492653,0.0007536425837315619,-0.0063883052207529545
0.0005031903856433928,-0.008666814304888248,-0.003968663513660431,0.006582225672900677,0.0008440609090030193,-0.0063561624847352505
0.00030812580371275544,-0.009142119437456131,-0.002831363119184971,0.006753470748662949,0.0008846530690789223,-0.006831509061157703
0.00024952806415967643,-0.008639819920063019,-0.002474062843248248,0.006123515777289867,0.0010112541494891047,-0.0068297493271529675
0.00021893384109716862,-0.007890683598816395,-0.002598740393295884,0.005944258067756891,0.001125230803154409,-0.006608332507312298
0.0002912932832259685,-0.008597739972174168,-0.0034456097055226564,0.006020891014486551,0.0009762551635503769,-0.006505632307380438
0.00026409022393636405,-0.00853641889989376,-0.004023591987788677,0.006053203251212835,0.000894914148375392,-0.007072945591062307
0.0003195751050952822,-0.008353574201464653,-0.003690978279337287,0.006314173806458712,0.0008338941843248904,-0.006953616160899401
0.00034252728801220655,-0.007901332341134548,-0.0030880391132086515,0.00659507792443037,0.0007396070286631584,-0.006889610085636377
0.00033994248951785266,-0.008398518897593021,-0.002828535158187151,0.007311019580811262,0.0007074565510265529,-0.006783471908420324
0.00031635284540243447,-0.00784318521618843,-0.0032884476240724325,0.0070441062562167645,0.0006813404033891857,-0.007042847108095884
0.00031635284540243447,-0.00784318521618843,-0.0032884476240724325,0.0070441062562167645,0.0006813404033891857,-0.007042847108095884
0.00029557597008533776,-0.00832696445286274,-0.00313187506981194,0.006342584732919931,0.0006248384597711265,-0.006995099131017923
0.00037574523594230413,-0.008680924773216248,-0.003358523128554225,0.006020764820277691,0.0005166656337678432,-0.006265636533498764
0.000391349516576156,-0.008766057901084423,-0.003456147387623787,0.006434897426515818,0.00044940508087165654,-0.006490760482847691
0.0004787728830706328,-0.007792192976921797,-0.003384740324690938,0.006586621515452862,0.00047782150795683265,-0.007094527129083872
0.0005310564883984625,-0.00745184114202857,-0.003440331667661667,0.006095637567341328,0.00048380219959653914,-0.008199581876397133
0.0012427305337041616,-0.008263577707111835,-0.003192674368619919,0.005516962613910437,0.0005310735432431102,-0.007616008631885052
0.00121500832028687,-0.008356490172445774,-0.003041217802092433,0.005476177204400301,0.0006625346723012626,-0.007187483366578817
0.00116485427133739,-0.007713905535638332,-0.0033940684515982866,0.005281830672174692,0.0008060604450292885,-0.006824417971074581
0.001024551340378821,-0.007571154739707708,-0.004334827419370413,0.00587092712521553,0.0008261525654233992,-0.007318159099668264
0.0009443745366297662,-0.008074251934885979,-0.004141789861023426,0.005771100055426359,0.0007566603017039597,-0.006932965479791164
0.0009311113972216845,-0.007418269757181406,-0.0038177568931132555,0.0059884088113904,0.0007603099220432341,-0.00708530331030488
0.0010163289261981845,-0.007179844658821821,-0.003273072186857462,0.005480389576405287,0.0007818285375833511,-0.007090304046869278
0.001221167971380055,-0.007419737987220287,-0.0029107474256306887,0.005040074698626995,0.0008619920699857175,-0.006833547260612249
0.0012234920868650079,-0.007933774031698704,-0.0031134970486164093,0.004969938192516565,0.0008714401046745479,-0.007046987302601337
0.001715470920316875,-0.007272898685187101,-0.0035815283190459013,0.0050093005411326885,0.0009757755324244499,-0.007134187966585159
0.001715470920316875,-0.007272898685187101,-0.0035815283190459013,0.0050093005411326885,0.0009757755324244499,-0.007134187966585159
0.0014227553037926555,-0.0076031796634197235,-0.003931012935936451,0.004817468114197254,0.0009718761430121958,-0.00757118733599782
0.0015021569561213255,-0.007434310391545296,-0.0035513886250555515,0.00469620805233717,0.0008704032516106963,-0.00756427738815546
0.0018756060162559152,-0.007288067601621151,-0.0031340098939836025,0.00434107193723321,0.0008603880414739251,-0.007867414504289627
0.0020234144758433104,-0.008090345188975334,-0.003028769977390766,0.003987305797636509,0.0008019435917958617,-0.007994493469595909
0.002567983465269208,-0.008269031532108784,-0.0032364127691835165,0.003755263751372695,0.0007740011205896735,-0.007634532172232866
0.0023683400359004736,-0.007215813733637333,-0.0030870616901665926,0.0036472254432737827,0.0007883969228714705,-0.007438163738697767
0.0024455818347632885,-0.0072196549735963345,-0.0032592969946563244,0.003979750908911228,0.0007500856299884617,-0.00746314600110054
0.0023072529584169388,-0.008061659522354603,-0.003410839242860675,0.004526511300355196,0.0007672590436413884,-0.0075645484030246735
0.002252174075692892,-0.007786901667714119,-0.0033714117016643286,0.004457288887351751,0.0009993287967517972,-0.007374195847660303
0.0025064959190785885,-0.007533111609518528,-0.003507442306727171,0.004056486766785383,0.001016492722555995,-0.007986749522387981
0.0025064959190785885,-0.007533111609518528,-0.003507442306727171,0.004056486766785383,0.001016492722555995,-0.007986749522387981
0.0027388976886868477,-0.007635544985532761,-0.003257064614444971,0.004131136927753687,0.0010138923535123467,-0.008446813561022282
0.0027290869038552046,-0.007706362288445234,-0.003040826879441738,0.0038837529718875885,0.0012483675964176655,-0.008083637803792953
0.0028060709591954947,-0.007817529141902924,-0.003367770230397582,0.0035113429185003042,0.0011945165460929275,-0.007588548120111227
0.002722972771152854,-0.0076042781583964825,-0.003683802206069231,0.0035127124283462763,0.0010725186439231038,-0.00787295401096344
0.0032073911279439926,-0.007029872853308916,-0.0037330971099436283,0.003432606812566519,0.0010421897750347853,-0.00826617144048214
0.0032844331581145525,-0.007318373303860426,-0.003340550232678652,0.0033992731478065252,0.0009253296302631497,-0.007973214611411095
0.003475913545116782,-0.007458796724677086,-0.0031271367333829403,0.003573203692212701,0.0007796929567120969,-0.008109534159302711
0.0031730851624161005,-0.007290220353752375,-0.003202984342351556,0.003297298215329647,0.0007613139459863305,-0.007725214120000601
0.003261798759922385,-0.007349719293415546,-0.0031932219862937927,0.0031550507992506027,0.0007479769410565495,-0.008101428858935833
0.0034534200094640255,-0.007368126884102821,-0.003543370170518756,0.0029767744708806276,0.0007141369860619307,-0.007623805198818445
0.003563659032806754,-0.007532095070928335,-0.003781689563766122,0.002923074411228299,0.0007116384222172201,-0.007847785949707031
0.0034724969882518053,-0.007475983817130327,-0.0037787260953336954,0.002904922002926469,0.0006717306096106768,-0.0077507211826741695
0.003870767541229725,-0.007638613227754831,-0.0033879780676215887,0.003064100630581379,0.0006247255951166153,-0.00804061722010374
0.004158468451350927,-0.0076684546656906605,-0.0029189863707870245,0.0028663380071520805,0.0006456872215494514,-0.0075858584605157375
0.00430098082870245,-0.007812411990016699,-0.002862967550754547,0.00298573006875813,0.0006353986682370305,-0.007982607930898666
0.004433629103004932,-0.007119087968021631,-0.003560451790690422,0.002983700716868043,0.0006387805915437639,-0.007961795665323734
0.0046005831100046635,-0.0074499682523310184,-0.0039943503215909,0.0027868933975696564,0.0006665960536338389,-0.007536548189818859
0.004439297132194042,-0.007219158113002777,-0.003918479662388563,0.002644453663378954,0.0007409242680296302,-0.007971428334712982
0.004541769623756409,-0.006823921110481024,-0.003552741836756468,0.0027087507769465446,0.000735465670004487,-0.008152468129992485
0.005077887326478958,-0.006976171396672726,-0.0032712274696677923,0.0027201948687434196,0.000752351013943553,-0.008141863159835339
0.00518921110779047,-0.007234600372612476,-0.003410556586459279,0.002739365678280592,0.0007234791410155594,-0.007922674529254436
0.004979610443115234,-0.007154898252338171,-0.003318434115499258,0.002349765272811055,0.0008476790389977396,-0.008217750117182732
0.005338173825293779,-0.0068505811505019665,-0.0033836648799479008,0.0020248335786163807,0.0008768638945184648,-0.008035101927816868
0.005186666268855333,-0.0066298204474151134,-0.003712410107254982,0.0017666839994490147,0.0008813719032332301,-0.007843983359634876
0.005008206702768803,-0.006842609494924545,-0.003956561908125877,0.0015259855426847935,0.0008615851402282715,-0.007979131303727627
0.005421720910817385,-0.008081515319645405,-0.003549212822690606,0.0015427302569150925,0.0007948261918500066,-0.007867858745157719
0.005462534260004759,-0.0065117343328893185,-0.0032331289257854223,0.001372584025375545,0.0007785323541611433,-0.00854488369077444
0.0054024942219257355,-0.006667543202638626,-0.0031803736928850412,0.0014111169148236513,0.0007941852672956884,-0.008174286223948002
0.005417092237621546,-0.00686317402869463,-0.003221379593014717,0.0013645676663145423,0.0007997174398042262,-0.008369049057364464
0.005485348869115114,-0.007210849318653345,-0.0034381169825792313,0.0015669800341129303,0.0007715158280916512,-0.008491252548992634
0.005485348869115114,-0.007210849318653345,-0.0034381169825792313,0.0015669800341129303,0.0007715158280916512,-0.008491252548992634
0.005842851474881172,-0.007371487561613321,-0.003608484286814928,0.0014769552508369088,0.0007448938558809459,-0.008497288450598717
0.006023676600307226,-0.006658083293586969,-0.003714630613103509,0.0013811655808240175,0.0008383070235140622,-0.008085392415523529
0.00611693924292922,-0.006686490494757891,-0.003746455069631338,0.0014276979491114616,0.0008520787814632058,-0.008121313527226448
0.005992936436086893,-0.007220721337944269,-0.0033604255877435207,0.0014497070806100965,0.00080348044866696,-0.007929056882858276
0.006134886760264635,-0.007240938488394022,-0.0030449386686086655,0.0014413543976843357,0.0008038518717512488,-0.007660051342099905
0.006490528583526611,-0.006791479419916868,-0.0029092340264469385,0.0014139004051685333,0.0008120316779240966,-0.00785454548895359
0.007164367940276861,-0.0069560096599161625,-0.002988096559420228,0.0013250787742435932,0.0008833043975755572,-0.008623084984719753
0.007462708279490471,-0.0070613110437989235,-0.0033283806405961514,0.0012400585692375898,0.0008894830825738609,-0.008627968840301037
0.00643764017149806,-0.006726112682372332,-0.0036550979129970074,0.0010735157411545515,0.0008987681358121336,-0.008359897881746292
0.006893794052302837,-0.007212022785097361,-0.0036881831474602222,0.000900274608284235,0.0010257839458063245,-0.008237374015152454
0.007282087113708258,-0.006923763547092676,-0.0029463947284966707,0.000747050391510129,0.0010087231639772654,-0.008234058506786823
0.007282087113708258,-0.006923763547092676,-0.0029463947284966707,0.000747050391510129,0.0010087231639772654,-0.008234058506786823
0.007227085065096617,-0.0065668909810483456,-0.0032613903749734163,0.0006719958037137985,0.0009450730285607278,-0.00872087199240923
0.007106039207428694,-0.006525011267513037,-0.0034378611017018557,0.0006174748996272683,0.0009232971933670342,-0.008552459999918938
0.007564593106508255,-0.006425526924431324,-0.003618535352870822,0.0005629830411635339,0.0009189090342260897,-0.008334728889167309
0.007107926066964865,-0.006591533776372671,-0.003676734631881118,0.0005525173619389534,0.0009164131479337811,-0.008394275791943073
0.007107926066964865,-0.006591533776372671,-0.003676734631881118,0.0005525173619389534,0.0009164131479337811,-0.008394275791943073
0.0077667320147156715,-0.006890295539051294,-0.0032764251809567213,0.00050716771511361,0.0010798845905810595,-0.008622827008366585
0.0077667320147156715,-0.006890295539051294,-0.0032764251809567213,0.00050716771511361,0.0010798845905810595,-0.008622827008366585
0.007345020771026611,-0.006603328511118889,-0.003256950993090868,0.0004446335951797664,0.0011347131803631783,-0.008378087542951107
0.007345020771026611,-0.006603328511118889,-0.003256950993090868,0.0004446335951797664,0.0011347131803631783,-0.008378087542951107
0.007867536507546902,-0.006713292561471462,-0.0038824696093797684,0.00039573508547618985,0.001158468541689217,-0.009071278385818005
0.0076688542030751705,-0.00661764619871974,-0.0037478143349289894,0.0003751097247004509,0.0010991842718794942,-0.008818833157420158
0.0076688542030751705,-0.00661764619871974,-0.0037478143349289894,0.0003751097247004509,0.0010991842718794942,-0.008818833157420158
0.008303632959723473,-0.007272858638316393,-0.0030440757982432842,0.00033970450749620795,0.001001151162199676,-0.008558917790651321
0.008342020213603973,-0.0067002372816205025,-0.0030430294573307037,0.00032439452479593456,0.0010042906505987048,-0.008586261421442032
0.008342020213603973,-0.0067002372816205025,-0.0030430294573307037,0.00032439452479593456,0.0010042906505987048,-0.008586261421442032
0.007812327705323696,-0.00638005044311285,-0.003143176669254899,0.00031040675821714103,0.0010124826803803444,-0.008862001821398735
0.00789638888090849,-0.006728807929903269,-0.0034369491040706635,0.0002975744428113103,0.001253293827176094,-0.008650282397866249
0.008318400010466576,-0.006843812298029661,-0.0036309557035565376,0.00028576276963576674,0.0013216353254392743,-0.009360138326883316
0.008780324831604958,-0.0066727884113788605,-0.0033442277926951647,0.00027485168538987637,0.0012010971549898386,-0.009179125539958477
0.00838557817041874,-0.006481410935521126,-0.0032370213884860277,0.00026474366313777864,0.0012953014811500907,-0.008954190649092197
0.008632678538560867,-0.005741737317293882,-0.0031387959606945515,0.0002553534577600658,0.0012263025855645537,-0.008676571771502495
0.00889028050005436,-0.005902397911995649,-0.0034140809439122677,0.00024660624330863357,0.0011717360466718674,-0.008708177134394646
0.008624514564871788,-0.006276532541960478,-0.0033065639436244965,0.00023843844246584922,0.0010469306726008654,-0.009028938598930836
0.008751708082854748,-0.006518182344734669,-0.0040720547549426556,0.0002307949762325734,0.0010100469226017594,-0.00880189798772335
0.00871917326003313,-0.006582891568541527,-0.004182484000921249,0.00022362571326084435,0.0009181375498883426,-0.008620456792414188
0.008866634219884872,-0.005646670702844858,-0.003997862804681063,0.00019160252122674137,0.00091037672245875,-0.009281697683036327
0.009428567253053188,-0.005866162478923798,-0.0034576281905174255,0.0001843469071900472,0.000909972470253706,-0.00841464288532734
0.009637068957090378,-0.006152390036731958,-0.0038044285029172897,0.00017404829850420356,0.0010276618413627148,-0.009098690003156662
0.008954416029155254,-0.006069081835448742,-0.0038552184123545885,8.539349073544145e-05,0.0010120555525645614,-0.00946186576038599
0.00978209637105465,-0.005339119117707014,-0.004270379431545734,5.625693665933795e-05,0.001035058288834989,-0.008878991939127445
0.009734702296555042,-0.00598948122933507,-0.004098445177078247,3.992948404629715e-05,0.0011000189697369933,-0.008964535780251026
0.009734702296555042,-0.00598948122933507,-0.004098445177078247,3.992948404629715e-05,0.0011000189697369933,-0.008964535780251026
0.010254960507154465,-0.006179614458233118,-0.003988300450146198,1.273966336157173e-05,0.0010602849069982767,-0.009455142542719841
0.010056986473500729,-0.005630283150821924,-0.003978113178163767,8.318089612657786e-07,0.0011597661068663,-0.009276718832552433
0.009962530806660652,-0.005214751232415438,-0.003879148280248046,5.431117955367881e-08,0.0011189640499651432,-0.009723029099404812
0.009962530806660652,-0.005214751232415438,-0.003879148280248046,5.431117955367881e-08,0.0011189640499651432,-0.009723029099404812
0.01065101008862257,-0.0052380370907485485,-0.0038266009651124477,3.5461316105767082e-09,0.0011204469483345747,-0.009659450501203537
0.010423311963677406,-0.0057177916169166565,-0.004335291683673859,2.3153705341893982e-10,0.0010725182946771383,-0.009572258219122887
0.009964317083358765,-0.005573954898864031,-0.004613683093339205,1.5117712637291447e-11,0.0010237273527309299,-0.010108440183103085
0.010884257033467293,-0.005668107885867357,-0.00414839293807745,-0.0003390041529200971,0.0010015424340963364,-0.009923776611685753
0.01039816439151764,-0.0050431289710104465,-0.0038183825090527534,-0.0012785263825207949,0.000986587256193161,-0.009882950223982334
0.008991974405944347,-0.004769671708345413,-0.0037779896520078182,-0.0013171113096177578,0.0009993143612518907,-0.009850695729255676
0.0076623777858912945,-0.005532252136617899,-0.0038778053130954504,-0.001742894877679646,0.0010449235560372472,-0.009287950582802296
0.008022437803447247,-0.0052256216295063496,-0.0038510304875671864,-0.001891908934339881,0.0011062442790716887,-0.00936497189104557
0.008889364078640938,-0.005338990595191717,-0.004253718536347151,-0.0025750496424734592,0.0014541901182383299,-0.009799730964004993
0.008655499666929245,-0.005477264989167452,-0.004168343264609575,-0.003392942948266864,0.0014831467997282743,-0.009556028060615063
0.00914336834102869,-0.005010027904063463,-0.003993546590209007,-0.0036484799347817898,0.0017957533709704876,-0.009479900822043419
0.0086706867441535,-0.004839891102164984,-0.003988734446465969,-0.0035603465512394905,0.0019678028766065836,-0.009572632610797882
0.008433625102043152,-0.004919349681586027,-0.0038365290965884924,-0.003970081452280283,0.0018081482267007232,-0.00953056663274765
0.009474924765527248,-0.0050461431965231895,-0.0037464480847120285,-0.004586090333759785,0.0016426732763648033,-0.009753409773111343
0.008916515856981277,-0.005687232129275799,-0.0037239824887365103,-0.005344101693481207,0.0014863961841911077,-0.010403311811387539
0.008311977609992027,-0.005294891074299812,-0.003533409908413887,-0.005524167791008949,0.0013612780021503568,-0.00990786962211132
0.00890741590410471,-0.004408539272844791,-0.0037884528283029795,-0.00583071680739522,0.0011830410221591592,-0.009707723744213581
0.009323266334831715,-0.004567583557218313,-0.003914548549801111,-0.006261585745960474,0.0008552817744202912,-0.009902439080178738
0.008992760442197323,-0.005066999234259129,-0.0035328310914337635,-0.0060385242104530334,0.0008596767438575625,-0.009772134944796562
0.009779737330973148,-0.00488282972946763,-0.0032871239818632603,-0.006485429592430592,0.0008719541365280747,-0.010106301866471767
0.009508170187473297,-0.004880114458501339,-0.003464578650891781,-0.007369553670287132,0.0010107394773513079,-0.009815779514610767
0.009333341382443905,-0.0048111253418028355,-0.0037564777303487062,-0.0075950175523757935,0.0011006213026121259,-0.009978707879781723
0.010738995857536793,-0.0046165455132722855,-0.004074188880622387,-0.007240356877446175,0.0016039385227486491,-0.010317799635231495
0.00984188076108694,-0.004438361618667841,-0.004010445903986692,-0.007447264157235622,0.0017733349232003093,-0.010206037200987339
0.009408064186573029,-0.004646209068596363,-0.003806081833317876,-0.007094201631844044,0.0016956612234935164,-0.010543870739638805
0.009473725222051144,-0.004979584366083145,-0.0036490140482783318,-0.007346450816839933,0.001556605682708323,-0.010224597528576851
0.009473725222051144,-0.004979584366083145,-0.0036490140482783318,-0.007346450816839933,0.001556605682708323,-0.010224597528576851
0.009637084789574146,-0.004864115733653307,-0.003603037679567933,-0.006723401602357626,0.001436728984117508,-0.009726175107061863
0.00997853372246027,-0.004300703760236502,-0.00441490625962615,-0.007415871601551771,0.001191838295198977,-0.010423884727060795
0.00997853372246027,-0.004300703760236502,-0.00441490625962615,-0.007415871601551771,0.001191838295198977,-0.010423884727060795
0.009866742417216301,-0.004353096708655357,-0.004748857114464045,-0.007396070286631584,0.0011724918149411678,-0.010126317851245403
0.010046862997114658,-0.004428161308169365,-0.004207397811114788,-0.007212814874947071,0.0011497376253828406,-0.010560507886111736
0.01056134607642889,-0.004235982429236174,-0.0037801081780344248,-0.007948419079184532,0.0013552475720643997,-0.010088483802974224
0.010831458494067192,-0.004492421168833971,-0.004192529246211052,-0.008486908860504627,0.0014064013957977295,-0.009885504841804504
0.01013633981347084,-0.004290977492928505,-0.004121807403862476,-0.007752584759145975,0.001418309984728694,-0.009827100671827793
0.010184019804000854,-0.004228211939334869,-0.003965011797845364,-0.007531717419624329,0.0014107062015682459,-0.009988183155655861
0.010308119468390942,-0.0038853157311677933,-0.003967848140746355,-0.008657598868012428,0.00141292589250952,-0.009799444116652012
0.010269677266478539,-0.003694194136187434,-0.004071383737027645,-0.008912659250199795,0.0013623808044940233,-0.010433897376060486
0.010737961158156395,-0.0037583832163363695,-0.004319692961871624,-0.008049885742366314,0.001395324943587184,-0.009907789528369904
0.010870527476072311,-0.0037943331990391016,-0.004151133820414543,-0.00827960018068552,0.0013750276993960142,-0.010121611878275871
0.011170383542776108,-0.0038381065241992474,-0.004231022205203772,-0.008679511956870556,0.0015301465755328536,-0.010378505103290081
0.011404015123844147,-0.003946698736399412,-0.0035891190636903048,-0.008528460748493671,0.0014447575667873025,-0.01009323075413704
0.010256361216306686,-0.0043669468723237514,-0.0034498271998018026,-0.007943959906697273,0.0013706916943192482,-0.010343203321099281
0.01088950876146555,-0.00463501363992691,-0.003649588907137513,-0.008020255714654922,0.0013902875361964107,-0.010070592164993286
0.010810133069753647,-0.004157260991632938,-0.004769000690430403,-0.008768435567617416,0.0014721460174769163,-0.0100508788600564
0.012065473943948746,-0.004147953819483519,-0.00397331640124321,-0.009103182703256607,0.001699059852398932,-0.010749234817922115
0.010547025129199028,-0.004285749047994614,-0.0034085880033671856,-0.009079474955797195,0.001616405788809061,-0.010342787019908428
0.010894629172980785,-0.00407189829275012,-0.0035119829699397087,-0.009351283311843872,0.0016431278781965375,-0.010416089557111263
0.011825940571725368,-0.0038933272007852793,-0.003778305370360613,-0.00946834497153759,0.001556110568344593,-0.010099777951836586
0.011252460069954395,-0.0035325076896697283,-0.004423799924552441,-0.010451426729559898,0.001376172062009573,-0.010388734750449657
0.011260882019996643,-0.003443500492721796,-0.004667891189455986,-0.010273735038936138,0.0014375970931723714,-0.010462954640388489
0.010856971144676208,-0.0036386679857969284,-0.0042583835311234,-0.009797636419534683,0.001376039581373334,-0.010759684257209301
0.01101189199835062,-0.003954532090574503,-0.004042000975459814,-0.010167548432946205,0.0015059167053550482,-0.0114136366173625
0.011276368983089924,-0.0039847916923463345,-0.00366208259947598,-0.010064278729259968,0.001412095851264894,-0.011265936307609081
0.011276368983089924,-0.0039847916923463345,-0.00366208259947598,-0.010064278729259968,0.001412095851264894,-0.011265936307609081
0.011403550393879414,-0.0034569711424410343,-0.003568135667592287,-0.010904219932854176,0.00134384841658175,-0.010853449814021587
0.011533590033650398,-0.003509564558044076,-0.003882275428622961,-0.010683954693377018,0.0013446011580526829,-0.010911008343100548
0.01091260276734829,-0.0038258167915046215,-0.004278107546269894,-0.00962114054709673,0.0014320877380669117,-0.010511107742786407
0.01136073749512434,-0.003942806739360094,-0.004916842095553875,-0.009619691409170628,0.001647353172302246,-0.010472319088876247
0.012012455612421036,-0.003532771486788988,-0.0045198663137853146,-0.009990225546061993,0.0015949326334521174,-0.010484778322279453
0.011568409390747547,-0.0033737532794475555,-0.0040076738223433495,-0.009451561607420444,0.0015927134081721306,-0.01082543097436428
0.011248596012592316,-0.003405526978895068,-0.003994186408817768,-0.010024433955550194,0.001706945477053523,-0.01077716052532196
0.011057207360863686,-0.0036428847815841436,-0.00412758719176054,-0.009905059821903706,0.0017818085616454482,-0.011046400293707848
0.011268076486885548,-0.0037024046760052443,-0.004707851447165012,-0.010329064913094044,0.0016905606025829911,-0.011047981679439545
0.011346941813826561,-0.0035347819793969393,-0.004470461513847113,-0.010446337051689625,0.0016254204092547297,-0.011277135461568832
0.010967419482767582,-0.0035134712234139442,-0.004417796153575182,-0.010239149443805218,0.0014375111786648631,-0.011124642565846443
0.011417391709983349,-0.0036721713840961456,-0.004487347323447466,-0.009611828252673149,0.0013146540150046349,-0.010940124280750751
0.01170195173472166,-0.0037454431876540184,-0.0040468680672347546,-0.010360446758568287,0.001244333223439753,-0.01132514700293541
0.010932059958577156,-0.003760050982236862,-0.0039002476260066032,-0.010174090042710304,0.0012001406867057085,-0.010732614435255527
0.010894246399402618,-0.0037118385080248117,-0.00399123365059495,-0.010401461273431778,0.0011656362330541015,-0.011262509040534496
0.01072184182703495,-0.003762823762372136,-0.004517675843089819,-0.010534401051700115,0.001160052022896707,-0.011437054723501205
0.010921800509095192,-0.003381800139322877,-0.004735719412565231,-0.010179413482546806,0.0011400736402720213,-0.01179200317710638
0.011028840206563473,-0.0033104962203651667,-0.004323970526456833,-0.010974986478686333,0.0012594495201483369,-0.01149720884859562
0.011561867780983448,-0.0036447038874030113,-0.0041509452275931835,-0.010568392463028431,0.001398647204041481,-0.011174940504133701
0.011993041262030602,-0.0033766680862754583,-0.0038145924918353558,-0.009989812038838863,0.0015472052618861198,-0.011337270960211754
0.011466414667665958,-0.003323785262182355,-0.004325638525187969,-0.010971185751259327,0.0015149154933169484,-0.011240294203162193
0.01161158550530672,-0.0032142819836735725,-0.004718434531241655,-0.011449990794062614,0.0016666688024997711,-0.011420024558901787
0.011401615105569363,-0.003045821562409401,-0.004892331548035145,-0.011747710406780243,0.0017219427973031998,-0.011853178031742573
0.011657603085041046,-0.003158453619107604,-0.004476637579500675,-0.011574748903512955,0.0018845085287466645,-0.011487988755106926
0.011072286404669285,-0.0032929389271885157,-0.004250329453498125,-0.010726910084486008,0.001892397180199623,-0.01141008734703064
0.011072286404669285,-0.0032929389271885157,-0.004250329453498125,-0.010726910084486008,0.001892397180199623,-0.01141008734703064
0.010570092126727104,-0.002981336321681738,-0.003959952387958765,-0.010816637426614761,0.001968483906239271,-0.011251484043896198
0.011313713155686855,-0.0030458997935056686,-0.003758143400773406,-0.010909982025623322,0.001881699194200337,-0.011340884491801262
0.01154567301273346,-0.0029351545963436365,-0.004237279295921326,-0.010769917629659176,0.001623369986191392,-0.012060955166816711
0.011345011182129383,-0.0029560953844338655,-0.004624163266271353,-0.011160952039062977,0.0015606496017426252,-0.011935600079596043
0.011424602940678596,-0.0027987316716462374,-0.00471124704927206,-0.010782851837575436,0.0014890703605487943,-0.011993574909865856
0.011084398254752159,-0.0030283962842077017,-0.004198350477963686,-0.010993740521371365,0.001510269590653479,-0.011878164485096931
0.011630557477474213,-0.0029562590643763542,-0.004153686109930277,-0.010832357220351696,0.0015727316495031118,-0.012113523669540882
0.011636649258434772,-0.002482808195054531,-0.003946532029658556,-0.010714187286794186,0.0016219515819102526,-0.011439156718552113
0.011670120060443878,-0.002476010238751769,-0.003869811538606882,-0.01130958553403616,0.0016261395066976547,-0.011279741302132607
0.012003039009869099,-0.0025776459369808435,-0.004358253907412291,-0.011550483293831348,0.001554733025841415,-0.011716816574335098
0.012309109792113304,-0.0023034720215946436,-0.004576366860419512,-0.01220047939568758,0.0015579082537442446,-0.0117676155641675
0.011698147282004356,-0.0025062053464353085,-0.004067302215844393,-0.011849847622215748,0.0014515655348077416,-0.012090551666915417
0.011742685921490192,-0.0023716457653790712,-0.0042056250385940075,-0.011370379477739334,0.0014897700166329741,-0.011772304773330688
0.011806800030171871,-0.0022091560531407595,-0.004148328211158514,-0.011614756658673286,0.0015577476006001234,-0.011502031236886978
0.012262984178960323,-0.0021353834308683872,-0.004213620908558369,-0.012164953164756298,0.0015434457454830408,-0.012024268507957458
0.01194789633154869,-0.002044837921857834,-0.004251861944794655,-0.01252312958240509,0.0018047888297587633,-0.012010118924081326
0.012505432590842247,-0.0022507458925247192,-0.004452476277947426,-0.012251759879291058,0.0017447482096031308,-0.012321027927100658
0.012920437380671501,-0.00208877376280725,-0.004234736319631338,-0.01292495522648096,0.0018806529697030783,-0.012020102702081203
0.012794213369488716,-0.0019104741513729095,-0.004275926388800144,-0.01184732373803854,0.001954107079654932,-0.012517932802438736
0.013267263770103455,-0.0019992997404187918,-0.004253239370882511,-0.013639030046761036,0.0018228983972221613,-0.0125672472640872
0.012909346260130405,-0.0018160840263590217,-0.004089523106813431,-0.013296905905008316,0.001717222505249083,-0.012750014662742615
0.01280946284532547,-0.0017577250255271792,-0.004295055288821459,-0.013641709461808205,0.0015529763186350465,-0.012391667813062668
0.013021859340369701,-0.001767108216881752,-0.004514825064688921,-0.013383463025093079,0.0014932575868442655,-0.0123307378962636
0.0126554686576128,-0.0018139645690098405,-0.004106950480490923,-0.013827872462570667,0.001395082101225853,-0.012388764880597591
0.01300627738237381,-0.0018156516598537564,-0.004303233232349157,-0.01336024422198534,0.0014426965499296784,-0.012301620095968246
0.01300627738237381,-0.0018156516598537564,-0.004303233232349157,-0.01336024422198534,0.0014426965499296784,-0.012301620095968246
0.012807516381144524,-0.0018165636574849486,-0.004313111305236816,-0.013646580278873444,0.0015544730704277754,-0.012410491704940796
0.013145889155566692,-0.001640468486584723,-0.00456677470356226,-0.01376813743263483,0.001689464203082025,-0.012173864990472794
0.013144643977284431,-0.001501346123404801,-0.004501551855355501,-0.01422785222530365,0.0019540213979780674,-0.012242298573255539
0.013112430460751057,-0.0014532909262925386,-0.0043381876312196255,-0.013710331171751022,0.0019517835462465882,-0.011932365596294403
0.01343043614178896,-0.0014763264916837215,-0.004419662058353424,-0.014477448537945747,0.0019059815676882863,-0.012396345846354961
0.013115980662405491,-0.0015293620526790619,-0.004072049632668495,-0.014070357196033001,0.0018061674199998379,-0.012750099413096905
0.013563538901507854,-0.0016057331813499331,-0.0038481170777231455,-0.014397907070815563,0.0015930471708998084,-0.013022860512137413
0.013117281720042229,-0.001478415448218584,-0.004331271164119244,-0.014090565033257008,0.001624667551368475,-0.012961982749402523
0.01342008262872696,-0.0014628435019403696,-0.00461304048076272,-0.014113903045654297,0.001899267197586596,-0.012754992581903934
0.013089855201542377,-0.0013885629596188664,-0.004559372551739216,-0.014180881902575493,0.0021097459830343723,-0.012818317860364914
0.013757636770606041,-0.0013130500447005033,-0.0041212113574147224,-0.014753386378288269,0.002566263312473893,-0.01266936119645834
0.01340859942138195,-0.0013378571020439267,-0.0037712082266807556,-0.015239877626299858,0.002409866778180003,-0.012750918045639992
0.013640477322041988,-0.0012515406124293804,-0.0037194667384028435,-0.01553758792579174,0.0024016641546040773,-0.011995186097919941
0.013572114519774914,-0.0012265767436474562,-0.003837418742477894,-0.015521631576120853,0.0022209598682820797,-0.012452092953026295
0.013828007504343987,-0.0011476497165858746,-0.004359015263617039,-0.01585116982460022,0.002108717802911997,-0.012720497325062752
0.01352465245872736,-0.001130774151533842,-0.004646461922675371,-0.014946569688618183,0.002037296537309885,-0.012931483797729015
0.013616574928164482,-0.0010908771073445678,-0.0044664256274700165,-0.015636183321475983,0.001996160950511694,-0.01307122316211462
0.014144844375550747,-0.0009987232042476535,-0.004208472557365894,-0.016096951439976692,0.00198727217502892,-0.01291987020522356
0.014169690199196339,-0.0009598144679330289,-0.0035659954883158207,-0.016257885843515396,0.0022377155255526304,-0.012625363655388355
0.014007894322276115,-0.0009502010652795434,-0.004121147096157074,-0.016426239162683487,0.002217785455286503,-0.0129484748467803
0.014093589968979359,-0.0009716025670059025,-0.00413419958204031,-0.015804380178451538,0.0022333385422825813,-0.013253008015453815
0.014160146936774254,-0.000999937066808343,-0.004266207106411457,-0.01590234600007534,0.0019690743647515774,-0.013590706512331963
0.014257666654884815,-0.0010236991802230477,-0.004626824054867029,-0.01639566384255886,0.0017305015353485942,-0.013704639859497547
0.014369431883096695,-0.0007822373299859464,-0.004532087128609419,-0.01653435453772545,0.0017208041390404105,-0.013279211707413197
0.014382983557879925,-0.00039898836985230446,-0.0038451494183391333,-0.016937782987952232,0.001935340347699821,-0.012886090204119682
0.014524292200803757,0.0005662264302372932,-0.003968074917793274,-0.017477888613939285,0.0019754120148718357,-0.012948496267199516
0.014524292200803757,0.0005662264302372932,-0.003968074917793274,-0.017477888613939285,0.0019754120148718357,-0.012948496267199516
0.014568290673196316,0.0006758883246220648,-0.004234368447214365,-0.01811053790152073,0.002293540397658944,-0.013202168978750706
0.014770323410630226,0.0006111718830652535,-0.004585888236761093,-0.018552841618657112,0.002102150581777096,-0.012933844700455666
0.015546876937150955,9.802257409319282e-05,-0.004283952061086893,-0.01787175051867962,0.002047596499323845,-0.013595430180430412
0.016579382121562958,1.315097961196443e-06,-0.004375588148832321,-0.0181361623108387,0.001874418812803924,-0.013573907315731049
0.016029540449380875,1.764371582169133e-08,-0.004520987160503864,-0.018293431028723717,0.0017533688805997372,-0.013790193945169449
0.016151759773492813,2.367129547931057e-10,-0.004124904051423073,-0.018058795481920242,0.0017629089998081326,-0.014299189671874046
0.01588023267686367,3.1758061892067646e-12,-0.003981174901127815,-0.018571102991700172,0.0018662090878933668,-0.01352295745164156
0.016186345368623734,4.2607491970367284e-14,-0.004395426716655493,-0.018773483112454414,0.0018730995943769813,-0.013019743375480175
0.016308704391121864,5.716338428608391e-16,-0.00480623310431838,-0.01855708844959736,0.001967107877135277,-0.01318905595690012
0.016529634594917297,7.669197604659883e-18,-0.004900749772787094,-0.018675362691283226,0.0020039912778884172,-0.013360748067498207
0.016447996720671654,1.0289207874197906e-19,-0.004540502559393644,-0.018851779401302338,0.00216869218274951,-0.01387430913746357
0.016447629779577255,1.3804285310833645e-21,-0.004487043712288141,-0.01888297125697136,0.0021375250071287155,-0.013975437730550766
0.01647331938147545,1.852021053417491e-23,-0.0040902444161474705,-0.018786050379276276,0.002115386538207531,-0.013764243572950363
0.01620110124349594,2.484722771347967e-25,-0.004004229791462421,-0.018970351666212082,0.0019761002622544765,-0.013724764809012413
0.017179150134325027,3.333572496254434e-27,-0.004073966294527054,-0.01892729103565216,0.0021258427295833826,-0.01413784921169281
0.01696239784359932,4.4724131743023753e-29,-0.004549271892756224,-0.019794601947069168,0.002470803214237094,-0.014072765596210957
0.016969982534646988,8.050186451878243e-33,-0.004245711024850607,-0.01938571408390999,0.0025987678673118353,-0.013922612182796001
0.01694658026099205,1.0800351407802722e-34,-0.004139153752475977,-0.019590729847550392,0.0023299865424633026,-0.01397464144974947
0.017459802329540253,1.4490050315506557e-36,-0.004009071737527847,-0.01966266520321369,0.0021680083591490984,-0.014103658497333527
0.016891928389668465,1.9440252831935188e-38,-0.003967599011957645,-0.019957901909947395,0.0019727216567844152,-0.014071001671254635
0.01717969961464405,2.6081527537399225e-40,-0.004495049361139536,-0.02032836340367794,0.001981230452656746,-0.014559419825673103
0.017405986785888672,3.499042265419068e-42,-0.004668297711759806,-0.020466536283493042,0.0020713754929602146,-0.014536231756210327
0.017122570425271988,0.00046078237937763333,-0.004184101242572069,-0.020675290375947952,0.0020901011303067207,-0.014941978268325329
0.017122570425271988,0.00046078237937763333,-0.004184101242572069,-0.020675290375947952,0.0020901011303067207,-0.014941978268325329
0.017348119989037514,0.0004818089946638793,-0.004401907324790955,-0.02154385671019554,0.0024383363779634237,-0.014306447468698025
0.017348119989037514,0.0004818089946638793,-0.004401907324790955,-0.02154385671019554,0.0024383363779634237,-0.014306447468698025
0.017913708463311195,0.00044331737444736063,-0.004293360281735659,-0.021327996626496315,0.0023036831989884377,-0.014321094378829002
0.017281701788306236,0.0004542703682091087,-0.004426602274179459,-0.02114032953977585,0.0021204985678195953,-0.014378233812749386
0.01737026497721672,0.0004439414478838444,-0.004732201807200909,-0.021470464766025543,0.002028754912316799,-0.014398225583136082
0.017605751752853394,0.00045374390901997685,-0.004798350855708122,-0.02167392522096634,0.0019245953299105167,-0.014593803323805332
0.017215829342603683,0.0004446806269697845,-0.0042980872094631195,-0.021337362006306648,0.001967567717656493,-0.014667581766843796
0.017644265666604042,0.0005121009307913482,-0.004217406269162893,-0.02131083235144615,0.002397187752649188,-0.0146831925958395
0.01785273291170597,0.0005539787234738469,-0.00424535246565938,-0.02164400741457939,0.002716455142945051,-0.014789622277021408
0.01776907779276371,0.0005674495478160679,-0.004844783339649439,-0.022111108526587486,0.0026495037600398064,-0.014696473255753517
0.018405281007289886,0.0005960309645161033,-0.004893858917057514,-0.02231663092970848,0.0026249608490616083,-0.014620013535022736
0.018179060891270638,0.0005734763690270483,-0.0045256768353283405,-0.022165197879076004,0.0025410859379917383,-0.014705758541822433
0.017888778820633888,0.0007777072605676949,-0.004401307087391615,-0.022351061925292015,0.0024329160805791616,-0.01490088738501072
0.018233252689242363,0.0007804641500115395,-0.004178714007139206,-0.02271595597267151,0.0024216691963374615,-0.014810782857239246
0.01796909049153328,0.000718649651389569,-0.004320876207202673,-0.02287908084690571,0.0021983690094202757,-0.014659409411251545
0.01808035559952259,0.0007388663943856955,-0.004511787556111813,-0.022618204355239868,0.002111297333613038,-0.014627879485487938
0.018310755491256714,0.000753128610085696,-0.004503372125327587,-0.023243974894285202,0.001948707620613277,-0.015104983001947403
0.018335718661546707,0.0009153846767731011,-0.004379245452582836,-0.02390868589282036,0.0019151821034029126,-0.015267780050635338
0.018521230667829514,0.0009509683586657047,-0.00447529461234808,-0.024313680827617645,0.00200667348690331,-0.01545035745948553
0.018523069098591805,0.0009543715859763324,-0.004674631170928478,-0.024334101006388664,0.0022609089501202106,-0.015293722972273827
0.01872280426323414,0.0013347482308745384,-0.004780478309839964,-0.024320455268025398,0.0023427659180015326,-0.015231993049383163
0.018784383311867714,0.0012583251809701324,-0.00444995891302824,-0.024266747757792473,0.0023319607134908438,-0.01518494077026844
0.018493089824914932,0.0011562798172235489,-0.004275836981832981,-0.024041352793574333,0.0021297105122357607,-0.015165487304329872
0.019018108025193214,0.0011279138270765543,-0.004309913143515587,-0.024282941594719887,0.002067830413579941,-0.015514275059103966
0.018748817965388298,0.0011892587644979358,-0.0048917243257164955,-0.025072436779737473,0.0019537389744073153,-0.01549548003822565
0.0186883844435215,0.0012324920389801264,-0.004836468491703272,-0.026142792776226997,0.002094045514240861,-0.01572168990969658
0.0186883844435215,0.0012324920389801264,-0.004836468491703272,-0.026142792776226997,0.002094045514240861,-0.01572168990969658
0.01874415948987007,0.001364164869301021,-0.004454322159290314,-0.025016050785779953,0.002183422213420272,-0.015590077266097069
0.018475662916898727,0.001356296008452773,-0.004230577033013105,-0.024734454229474068,0.002196040004491806,-0.015354742296040058
0.018844513222575188,0.0018212181748822331,-0.004121076315641403,-0.02422052063047886,0.002285022521391511,-0.015325840562582016
0.018913481384515762,0.001712633529677987,-0.004493698012083769,-0.023948466405272484,0.002145417034626007,-0.015202796086668968
0.01902148500084877,0.0017983851721510291,-0.0047739106230437756,-0.025011032819747925,0.002441456774249673,-0.015525425784289837
0.019181525334715843,0.0017794811865314841,-0.0048469053581357,-0.025678381323814392,0.0024987549986690283,-0.015653379261493683
0.01957656443119049,0.0016924210358411074,-0.004440454766154289,-0.025520537048578262,0.0024549190420657396,-0.01600593701004982
0.019150858744978905,0.001722574234008789,-0.004335463512688875,-0.025519588962197304,0.0026060244999825954,-0.015620472840964794
0.01918506622314453,0.0022824262268841267,-0.004162947181612253,-0.02659727819263935,0.002416514325886965,-0.01594465970993042
0.01912509649991989,0.002857556100934744,-0.004329769406467676,-0.026021111756563187,0.0023240670561790466,-0.015664827078580856
0.019138267263770103,0.0026372482534497976,-0.0040479060262441635,-0.024476809427142143,0.0024147892836481333,-0.01592603139579296
0.01982269249856472,0.002506784861907363,-0.004424134735018015,-0.024678433313965797,0.0023114392533898354,-0.01661428064107895
0.020590316504240036,0.0021630474366247654,-0.004676820244640112,-0.02594546601176262,0.002382103120908141,-0.016147488728165627
0.020275983959436417,0.0020653929095715284,-0.004549973178654909,-0.0265621617436409,0.0023939944803714752,-0.016471635550260544
0.019845370203256607,0.0024099613074213266,-0.0048470403999090195,-0.026164663955569267,0.00228932686150074,-0.01647534966468811
0.01975218765437603,0.0024454384110867977,-0.004777197726070881,-0.02646934799849987,0.002460082294419408,-0.016763467341661453
0.020394587889313698,0.002843014197424054,-0.004348812159150839,-0.027406876906752586,0.002530292607843876,-0.01671140268445015
0.020482013002038002,0.003017632756382227,-0.004080025479197502,-0.027336403727531433,0.0024737475905567408,-0.0165342278778553
0.02060440555214882,0.0034294496290385723,-0.00449520954862237,-0.027281954884529114,0.002522328170016408,-0.01674451306462288
0.02028532326221466,0.0036676074378192425,-0.00463529396802187,-0.027284424751996994,0.0026786946691572666,-0.016826843842864037
0.020651457831263542,0.004048334434628487,-0.00477378536015749,-0.027971111238002777,0.0029063124675303698,-0.01755664125084877
0.02153356559574604,0.004130707588046789,-0.004680408630520105,-0.027836523950099945,0.0030577024444937706,-0.016977034509181976
0.021387284621596336,0.0040024686604738235,-0.004267020616680384,-0.027885889634490013,0.002926494227722287,-0.01709148660302162
0.020955562591552734,0.004358052741736174,-0.004203034099191427,-0.02882901020348072,0.0028408432845026255,-0.017360931262373924
0.0208106841892004,0.004223116673529148,-0.0048224907368421555,-0.030040785670280457,0.002580380067229271,-0.017351776361465454
0.020945973694324493,0.00400208355858922,-0.004904074128717184,-0.03028687834739685,0.0025722328573465347,-0.017675288021564484
0.021246135234832764,0.004107926972210407,-0.004811918828636408,-0.02978719025850296,0.0027203925419598818,-0.017596453428268433
0.021812647581100464,0.004119064658880234,-0.004300156608223915,-0.02872287854552269,0.00278001488186419,-0.017037438228726387
0.021812647581100464,0.004119064658880234,-0.004300156608223915,-0.02872287854552269,0.00278001488186419,-0.017037438228726387
0.021521421149373055,0.003935713786631823,-0.004105953965336084,-0.02918914332985878,0.002939635654911399,-0.017064018175005913
0.021726183593273163,0.004244649317115545,-0.003990902565419674,-0.030674977228045464,0.0029100379906594753,-0.016829298809170723
0.0220481026917696,0.004511488601565361,-0.0045426469296216965,-0.03060455620288849,0.002809980185702443,-0.017172522842884064
0.021628521382808685,0.004673551768064499,-0.0049067470245063305,-0.031341034919023514,0.0026326379738748074,-0.017806261777877808
0.021967928856611252,0.004779478069394827,-0.004803594201803207,-0.03158668801188469,0.00291131972335279,-0.017768248915672302
0.022198474034667015,0.00469763670116663,-0.0047138649970293045,-0.030287330970168114,0.00278354506008327,-0.017507988959550858
0.022639166563749313,0.005219524260610342,-0.004627977963536978,-0.02933683805167675,0.00272842263802886,-0.017637262120842934
0.022481581196188927,0.005159529857337475,-0.004634115844964981,-0.029586078599095345,0.0028190389275550842,-0.017599893733859062
0.02201138436794281,0.005176694132387638,-0.004606442525982857,-0.030532794073224068,0.00300867622718215,-0.017691459506750107
0.02260439656674862,0.005456368904560804,-0.004430200904607773,-0.030584456399083138,0.0030520614236593246,-0.017538081854581833
0.022979622706770897,0.00565556762740016,-0.0045881434343755245,-0.03080879896879196,0.002923442516475916,-0.017781345173716545
0.023047899827361107,0.005543924868106842,-0.0049479641020298,-0.03060675412416458,0.0026780408807098866,-0.018202755600214005
0.022717958316206932,0.006109471432864666,-0.004944107495248318,-0.030859876424074173,0.002632084535434842,-0.018090566620230675
0.022884899750351906,0.005842945538461208,-0.004798488225787878,-0.03106122836470604,0.0027311567682772875,-0.01796742156147957
0.02321658283472061,0.006135132163763046,-0.00444967532530427,-0.03146648779511452,0.00273396004922688,-0.018346203491091728
0.023829063400626183,0.006676464341580868,-0.004450091160833836,-0.031327247619628906,0.0028714891523122787,-0.01846713200211525
0.023397089913487434,0.006062909960746765,-0.004679900128394365,-0.03282111883163452,0.0028026741929352283,-0.019075041636824608
0.023406658321619034,0.006593019235879183,-0.005014080088585615,-0.03182479739189148,0.0026355793233960867,-0.018906323239207268
0.02380981482565403,0.006888453382998705,-0.004845343064516783,-0.031530797481536865,0.002732077380642295,-0.01848492957651615
0.02401876449584961,0.007268187589943409,-0.004708442371338606,-0.03192995861172676,0.0029166594613343477,-0.019038774073123932
0.024246037006378174,0.0065186722204089165,-0.004536174237728119,-0.03269559144973755,0.002973188180476427,-0.018542712554335594
0.02432861179113388,0.006664709188044071,-0.004702936392277479,-0.03270699083805084,0.002909993752837181,-0.01824898086488247
0.024546781554818153,0.007389326114207506,-0.004793562460690737,-0.032895881682634354,0.0029520634561777115,-0.018321674317121506
0.023788893595337868,0.007435281295329332,-0.004837299697101116,-0.03288150951266289,0.0028473660349845886,-0.018602820113301277
0.023788893595337868,0.007435281295329332,-0.004837299697101116,-0.03288150951266289,0.0028473660349845886,-0.018602820113301277
0.023883869871497154,0.0069826883263885975,-0.0047840820625424385,-0.03263717144727707,0.0028368323110044003,-0.01904143951833248
0.0244809091091156,0.007053639739751816,-0.0049081891775131226,-0.03277135640382767,0.0027255758177489042,-0.019103890284895897
0.025561731308698654,0.007339817471802235,-0.004802946001291275,-0.03255603834986687,0.002884579822421074,-0.019159262999892235
0.025111716240644455,0.007630676496773958,-0.004801240749657154,-0.03275689482688904,0.002893576631322503,-0.019264496862888336
0.024711132049560547,0.007362839765846729,-0.004469740204513073,-0.03251471742987633,0.002956462325528264,-0.019603224471211433
0.02227778546512127,0.007363345939666033,-0.004521711729466915,-0.03304137662053108,0.003339845919981599,-0.01938767358660698
0.025432875379920006,0.0077463435009121895,-0.005092901643365622,-0.033205121755599976,0.003159554908052087,-0.01976861245930195
0.025626588612794876,0.008025958202779293,-0.005056215450167656,-0.033419735729694366,0.0033503957092761993,-0.01991868205368519
0.024852054193615913,0.007687817793339491,-0.00478516286239028,-0.03310897573828697,0.003532039001584053,-0.01948106475174427
0.026018956676125526,0.008121216669678688,-0.00494374381378293,-0.03360273689031601,0.0034773913212120533,-0.019196677953004837
0.025859525427222252,0.008383180946111679,-0.004920419305562973,-0.03378691524267197,0.0031531918793916702,-0.019122548401355743
0.025779638439416885,0.007962914183735847,-0.005303865764290094,-0.033532049506902695,0.002698588417842984,-0.019264228641986847
0.025749031454324722,0.0075128162279725075,-0.005489130038768053,-0.033155523240566254,0.002726254751905799,-0.01990707591176033
0.02490312233567238,0.008088587783277035,-0.004904815927147865,-0.03396240994334221,0.003019078867509961,-0.01982300914824009
0.024900279939174652,0.008982186205685139,-0.004900072701275349,-0.03501807898283005,0.0031893537379801273,-0.019866442307829857
0.025918023660779,0.008825663477182388,-0.005024102050811052,-0.035023320466279984,0.0034120401833206415,-0.0201884713023901
0.026357606053352356,0.008334429934620857,-0.004998895805329084,-0.03354514390230179,0.0036733876913785934,-0.020490283146500587
0.026106107980012894,0.0087941475212574,-0.005149716045707464,-0.03381815180182457,0.003406987991183996,-0.020708149299025536
0.02597033418715,0.008569476194679737,-0.005463410168886185,-0.03530589118599892,0.0032124908175319433,-0.019953584298491478
0.0263071171939373,0.008768594823777676,-0.004864037502557039,-0.0360213965177536,0.0031845292542129755,-0.01950071193277836
0.0263071171939373,0.008768594823777676,-0.004864037502557039,-0.0360213965177536,0.0031845292542129755,-0.01950071193277836
0.026540352031588554,0.008550462312996387,-0.0051751211285591125,-0.03533873334527016,0.0030346999410539865,-0.019926564767956734
0.026614924892783165,0.008805828168988228,-0.0052184066735208035,-0.03533850610256195,0.003000711789354682,-0.020223837345838547
0.02686251699924469,0.0094150360673666,-0.00545016024261713,-0.03656606376171112,0.0031073458958417177,-0.02044064737856388
0.026571018621325493,0.008895665407180786,-0.005499224178493023,-0.03690661862492561,0.0031629845034331083,-0.02115561254322529
0.027147946879267693,0.008899874985218048,-0.005079059861600399,-0.036793265491724014,0.0030365355778485537,-0.020230604335665703
0.0268093328922987,0.009613005444407463,-0.0053458791226148605,-0.03782239928841591,0.0030047674663364887,-0.019436344504356384
0.026839708909392357,0.009488716721534729,-0.005549853201955557,-0.03738609328866005,0.003312858520075679,-0.019804611802101135
0.02718740701675415,0.009752128273248672,-0.00537722697481513,-0.03763497993350029,0.0032690137159079313,-0.02058853954076767
0.02718740701675415,0.009752128273248672,-0.00537722697481513,-0.03763497993350029,0.0032690137159079313,-0.02058853954076767
0.027352092787623405,0.010016296990215778,-0.005387014243751764,-0.037539854645729065,0.003238498931750655,-0.02084561064839363
0.02729283645749092,0.009575290605425835,-0.005008624400943518,-0.037235043942928314,0.003170710289850831,-0.02050154283642769
0.027541056275367737,0.009239966049790382,-0.005026278086006641,-0.038177940994501114,0.0027998804580420256,-0.020459935069084167
0.027881799265742302,0.010137761943042278,-0.0053193289786577225,-0.03763965517282486,0.0026184197049587965,-0.020490754395723343
0.02762145735323429,0.009553972631692886,-0.005200545769184828,-0.03890549764037132,0.002844185335561633,-0.02075887843966484
0.02776286192238331,0.00955488532781601,-0.0058991615660488605,-0.03874729573726654,0.003453201614320278,-0.020741920918226242
0.027924221009016037,0.010352726094424725,-0.005453614983707666,-0.037441547960042953,0.003756997874006629,-0.020819177851080894
0.027835557237267494,0.009384945966303349,-0.0054412721656262875,-0.03720546513795853,0.003610714804381132,-0.02064492367208004
0.028183460235595703,0.007775384467095137,-0.005558375269174576,-0.03924578055739403,0.003281394485384226,-0.020574316382408142
0.028318164870142937,0.00805304478853941,-0.006078954320400953,-0.039529815316200256,0.003228124463930726,-0.021394507959485054
0.02842097543179989,0.009184896014630795,-0.006663547828793526,-0.04047213867306709,0.003590569132938981,-0.021610133349895477
0.0273550096899271,0.0085019925609231,-0.006254621781408787,-0.04088737815618515,0.0036907901521772146,-0.020969990640878677
0.02836991287767887,0.008678849786520004,-0.005202527157962322,-0.039162296801805496,0.003730980446562171,-0.02143985964357853
0.028988687321543694,0.009126953780651093,-0.0045293280854821205,-0.03958544507622719,0.0037460702005773783,-0.021549062803387642
0.028674205765128136,0.008533373475074768,-0.005694987718015909,-0.040683869272470474,0.003357043256983161,-0.021243110299110413
0.02890780009329319,0.00910048559308052,-0.005979922600090504,-0.040883660316467285,0.0032251907978206873,-0.021340403705835342
0.028530536219477654,0.008837704546749592,-0.005850179586559534,-0.04153834283351898,0.0032641952857375145,-0.021454481407999992
0.028827568516135216,0.008835285902023315,-0.005427754949778318,-0.041362449526786804,0.004121319390833378,-0.02166418544948101
0.029322892427444458,0.00955093465745449,-0.005351793486624956,-0.04149310290813446,0.004173480439931154,-0.02170518785715103
0.02876109443604946,0.009392260573804379,-0.005999899003654718,-0.04124333709478378,0.003947905730456114,-0.022046009078621864
0.02963394485414028,0.009625040926039219,-0.005771043244749308,-0.041833601891994476,0.0033829445019364357,-0.02388111501932144
0.02970723807811737,0.009641130454838276,-0.0059341746382415295,-0.04116985201835632,0.003060575108975172,-0.021767446771264076
0.029167449101805687,0.009341975674033165,-0.006123729050159454,-0.04111037775874138,0.002973519265651703,-0.021407699212431908
0.029146868735551834,0.009448600001633167,-0.005589752458035946,-0.04086827114224434,0.003333690110594034,-0.021814029663801193
0.029045840725302696,0.009650406427681446,-0.005921897478401661,-0.04112812876701355,0.003297426039353013,-0.022371355444192886
0.029045840725302696,0.009650406427681446,-0.005921897478401661,-0.04112812876701355,0.003297426039353013,-0.022371355444192886
0.029410570859909058,0.010716887190937996,-0.006556781008839607,-0.04039831459522247,0.0034508209209889174,-0.022619519382715225
0.029733549803495407,0.009080695919692516,-0.006536522880196571,-0.04081837087869644,0.0035857134498655796,-0.022618062794208527
0.029810085892677307,0.009361526928842068,-0.006217483896762133,-0.041688039898872375,0.003634883090853691,-0.022258296608924866
0.029679425060749054,0.010606964118778706,-0.005669140722602606,-0.04043355956673622,0.003610500367358327,-0.022517865523695946
0.029824158176779747,0.010030794888734818,-0.005878166761249304,-0.04042106121778488,0.0033046880271285772,-0.023078501224517822
0.029526162892580032,0.009905149228870869,-0.006498713977634907,-0.04101147875189781,0.003178400918841362,-0.02297024056315422
0.029515964910387993,0.010352768935263157,-0.006162170320749283,-0.04123047739267349,0.0033199202734977007,-0.022765830159187317
0.02996714785695076,0.009991897270083427,-0.005591059569269419,-0.04146960750222206,0.0034241988323628902,-0.022466052323579788
0.029666554182767868,0.010016947984695435,-0.005517674144357443,-0.04229165241122246,0.0035212074872106314,-0.022806715220212936
0.02971971593797207,0.01059423852711916,-0.005576749797910452,-0.04128171131014824,0.003712432226166129,-0.023815330117940903
0.029517674818634987,0.010174733586609364,-0.005872601177543402,-0.04234137386083603,0.004022505134344101,-0.024293890222907066
0.02985473908483982,0.01088036596775055,-0.006036899983882904,-0.04448834806680679,0.0037143307272344828,-0.02352825552225113
0.02952420897781849,0.010759244672954082,-0.005519386380910873,-0.041942331939935684,0.003180563682690263,-0.023381337523460388
0.02927987650036812,0.010688847862184048,-0.005564996041357517,-0.041847601532936096,0.0029009466525167227,-0.022611886262893677
0.03054662048816681,0.010934985242784023,-0.005426808260381222,-0.042887650430202484,0.0032048302236944437,-0.02296932227909565
0.030415087938308716,0.010892517864704132,-0.006005359813570976,-0.044620297849178314,0.0031746109016239643,-0.023603292182087898
0.02976878359913826,0.011468864046037197,-0.005771230906248093,-0.04512874037027359,0.003964843228459358,-0.023994596675038338
0.030123360455036163,0.011008558794856071,-0.005898778792470694,-0.043816499412059784,0.0041106450371444225,-0.023347217589616776
0.029814647510647774,0.010784258134663105,-0.00523764081299305,-0.04326570779085159,0.003953930921852589,-0.02377420850098133
0.03112046979367733,0.011407469399273396,-0.005215827375650406,-0.04440980777144432,0.0037591811269521713,-0.023685814812779427
0.031041545793414116,0.011514141224324703,-0.006353226490318775,-0.044340044260025024,0.0032496133353561163,-0.02354045957326889
0.029762903228402138,0.011147351935505867,-0.006201202515512705,-0.04581409692764282,0.0031756374519318342,-0.023225119337439537
0.031004853546619415,0.010912037454545498,-0.005315866786986589,-0.04448579624295235,0.0031264855060726404,-0.02343062311410904
0.03169618919491768,0.011763002723455429,-0.005283270962536335,-0.04476584866642952,0.0036965354811400175,-0.023824073374271393
0.03168100863695145,0.011507528834044933,-0.00560174323618412,-0.046059802174568176,0.004193431232124567,-0.02417582832276821
0.03244274482131004,0.011711977422237396,-0.006628664210438728,-0.04599609971046448,0.004525578115135431,-0.024032918736338615
0.03245251253247261,0.011935480870306492,-0.0059676156379282475,-0.04593063145875931,0.004427357576787472,-0.023657020181417465
0.031430214643478394,0.011333522386848927,-0.00531860813498497,-0.045965470373630524,0.0038600817788392305,-0.02378544956445694
0.0314200222492218,0.012203418649733067,-0.005342790391296148,-0.04787249118089676,0.0034922685008496046,-0.0244034044444561
0.0314200222492218,0.012203418649733067,-0.005342790391296148,-0.04787249118089676,0.0034922685008496046,-0.0244034044444561
0.03280803561210632,0.011154679581522942,-0.005769385956227779,-0.04513410106301308,0.0033502248115837574,-0.024028563871979713
0.03292352706193924,0.01169460080564022,-0.00586663419380784,-0.04577064514160156,0.0037459128070622683,-0.02440178208053112
0.03292352706193924,0.01169460080564022,-0.00586663419380784,-0.04577064514160156,0.0037459128070622683,-0.02440178208053112
0.033219851553440094,0.011317850090563297,-0.00548781082034111,-0.047035325318574905,0.003917520400136709,-0.024050887674093246
0.03288063034415245,0.011614345945417881,-0.005850296001881361,-0.04764346405863762,0.003903007134795189,-0.02404504269361496
0.03276951611042023,0.011153282597661018,-0.0056914640590548515,-0.04487153887748718,0.004250142257660627,-0.02366468869149685
0.03185906633734703,0.010882893577218056,-0.005754899233579636,-0.04588800296187401,0.004036447033286095,-0.023665787652134895
0.03342398628592491,0.0116936219856143,-0.006229923106729984,-0.04672260582447052,0.0036487379111349583,-0.024464085698127747
0.0341612845659256,0.011454589664936066,-0.00564918015152216,-0.04704592376947403,0.0037037450820207596,-0.026035068556666374
0.034243471920490265,0.011370742693543434,-0.0057814097963273525,-0.04714033007621765,0.0033885552547872066,-0.02397279441356659
0.03378906473517418,0.011595112271606922,-0.005677792709320784,-0.045981720089912415,0.0034862691536545753,-0.023553334176540375
0.033913079649209976,0.011315654031932354,-0.006102986168116331,-0.04637714475393295,0.004208697006106377,-0.024185236543416977
0.03415124863386154,0.011502724140882492,-0.006142960861325264,-0.04680052027106285,0.004185963422060013,-0.025096669793128967
0.03462366759777069,0.011091903783380985,-0.005875974427908659,-0.04700559750199318,0.004019764252007008,-0.025907713919878006
0.03443439304828644,0.011261409148573875,-0.005545803811401129,-0.046628426760435104,0.003816130803897977,-0.02499007247388363
0.03483996167778969,0.01244939211755991,-0.005642174277454615,-0.0469534657895565,0.003804744454100728,-0.024413367733359337
0.0347759835422039,0.011045287363231182,-0.005679315887391567,-0.0475686751306057,0.004324902780354023,-0.024268103763461113
0.034705568104982376,0.011738942004740238,-0.005929913371801376,-0.047544389963150024,0.00411659199744463,-0.024223020300269127
0.035158269107341766,0.011350423097610474,-0.005958411376923323,-0.04763421043753624,0.0041147866286337376,-0.02491896227002144
0.035631198436021805,0.011280933395028114,-0.005737148690968752,-0.048134058713912964,0.003996700514107943,-0.024613918736577034
0.03548163175582886,0.011850656941533089,-0.005545054562389851,-0.048514917492866516,0.0037074319552630186,-0.02470678836107254
0.035967469215393066,0.011547760106623173,-0.006252025719732046,-0.04973428696393967,0.003849279135465622,-0.026222465559840202
0.03630340099334717,0.011704244650900364,-0.006506767589598894,-0.05014258250594139,0.004733624402433634,-0.024821888655424118
0.03633039817214012,0.011920015327632427,-0.0056679947301745415,-0.05044567584991455,0.00440980913117528,-0.023876439779996872
0.03769037127494812,0.012273099273443222,-0.005845196545124054,-0.05083435773849487,0.003948775120079517,-0.024579791352152824
0.03690851852297783,0.011735537089407444,-0.005547282285988331,-0.04921900853514671,0.003778239246457815,-0.025254910811781883
0.03569262474775314,0.012087314389646053,-0.006371408235281706,-0.04888027533888817,0.0038588254246860743,-0.025721753016114235
0.0375143326818943,0.011779406107962132,-0.006624849513173103,-0.050389278680086136,0.004348359070718288,-0.025873368605971336
0.03694331645965576,0.011673454195261002,-0.0057944185100495815,-0.052075982093811035,0.004342832136899233,-0.024835895746946335
0.03789514675736427,0.011752423830330372,-0.005831700749695301,-0.05220955237746239,0.004645511042326689,-0.024893498048186302
0.03789514675736427,0.011752423830330372,-0.005831700749695301,-0.05220955237746239,0.004645511042326689,-0.024893498048186302
0.0385742150247097,0.011677934788167477,-0.005820656660944223,-0.0497424378991127,0.004659224767237902,-0.025566624477505684
0.037107836455106735,0.012337366119027138,-0.0063574351370334625,-0.051678817719221115,0.0045265392400324345,-0.025864431634545326
0.036541104316711426,0.012019324116408825,-0.0061386823654174805,-0.052988581359386444,0.004126114305108786,-0.025943992659449577
0.03792888671159744,0.011673659086227417,-0.005776203703135252,-0.052513983100652695,0.004370579496026039,-0.025705408304929733
0.03813706710934639,0.011689463630318642,-0.005625393241643906,-0.05224273353815079,0.004383040126413107,-0.02634025365114212
0.03813706710934639,0.011689463630318642,-0.005625393241643906,-0.05224273353815079,0.004383040126413107,-0.02634025365114212
0.037803664803504944,0.012473208829760551,-0.006169509142637253,-0.052802301943302155,0.004336791578680277,-0.026515785604715347
0.03766388073563576,0.011972378008067608,-0.006465337239205837,-0.05224504694342613,0.004412345588207245,-0.026493702083826065
0.03808300942182541,0.012306665070354939,-0.005629026796668768,-0.05253984406590462,0.004387345165014267,-0.026599964126944542
0.038249704986810684,0.012052631936967373,-0.006016298197209835,-0.05174529179930687,0.003988711163401604,-0.02670181170105934
0.03797316923737526,0.012162623926997185,-0.0055365669541060925,-0.05221053212881088,0.004183259792625904,-0.026596371084451675
0.038231559097766876,0.012473494745790958,-0.006637210492044687,-0.05439838394522667,0.004147120751440525,-0.026678061112761497
0.037857118993997574,0.012359929271042347,-0.006132961716502905,-0.0519593320786953,0.0042284755036234856,-0.02685704082250595
0.03826798498630524,0.012731323018670082,-0.005917856004089117,-0.05174295976758003,0.004311207681894302,-0.02666143700480461
0.03830978274345398,0.012355191633105278,-0.005618509836494923,-0.051866378635168076,0.004275415558367968,-0.02704516425728798
0.03765692189335823,0.012984377332031727,-0.005745286587625742,-0.05352295562624931,0.004174031317234039,-0.02770567126572132
0.03908442333340645,0.012502304278314114,-0.006662772968411446,-0.0514645054936409,0.003964421804994345,-0.02626357041299343
0.03770681470632553,0.012597864493727684,-0.0057887486182153225,-0.05204746499657631,0.003729855176061392,-0.02717858925461769
0.037199389189481735,0.012901602312922478,-0.005963403265923262,-0.05226944386959076,0.00378416501916945,-0.027218246832489967
0.03934619948267937,0.013004055246710777,-0.005875096656382084,-0.051987648010253906,0.0037486825603991747,-0.027302894741296768
0.0395531952381134,0.013013348914682865,-0.006387070287019014,-0.053006380796432495,0.004686017986387014,-0.027799885720014572
0.039553720504045486,0.013584593310952187,-0.006247650366276503,-0.05433133617043495,0.004929370246827602,-0.028001394122838974
0.039553720504045486,0.013584593310952187,-0.006247650366276503,-0.05433133617043495,0.004929370246827602,-0.028001394122838974
0.03878311440348625,0.013129699043929577,-0.0061098565347492695,-0.05236007645726204,0.004480377305299044,-0.027914447709918022
0.03878311440348625,0.013129699043929577,-0.0061098565347492695,-0.05236007645726204,0.004480377305299044,-0.027914447709918022
0.03884779289364815,0.012791396118700504,-0.005623409524559975,-0.05316643789410591,0.0041135442443192005,-0.02805427275598049
0.03938360512256622,0.013161124661564827,-0.006307048257440329,-0.05307100713253021,0.00417873403057456,-0.027578571811318398
0.03887271136045456,0.01325537171214819,-0.005566219333559275,-0.053464312106370926,0.0043454477563500404,-0.02790037728846073
0.03887271136045456,0.01325537171214819,-0.005566219333559275,-0.053464312106370926,0.0043454477563500404,-0.02790037728846073
0.03854028135538101,0.013121835887432098,-0.005537619814276695,-0.05346737429499626,0.004712129011750221,-0.027383025735616684
0.03854028135538101,0.013121835887432098,-0.005537619814276695,-0.05346737429499626,0.004712129011750221,-0.027383025735616684
0.03885490447282791,0.013469197787344456,-0.0060104988515377045,-0.05405551567673683,0.004550021607428789,-0.027743391692638397
0.03913380950689316,0.012924747541546822,-0.005983168724924326,-0.053509220480918884,0.004483076278120279,-0.02940886840224266
0.03839493170380592,0.013479395769536495,-0.005916175432503223,-0.05503129959106445,0.004103656392544508,-0.02857280895113945
0.037772614508867264,0.013395793735980988,-0.005999439861625433,-0.05396970361471176,0.004098895937204361,-0.026480533182621002
0.037772614508867264,0.013395793735980988,-0.005999439861625433,-0.05396970361471176,0.004098895937204361,-0.026480533182621002
0.03923769295215607,0.014761178754270077,-0.006343377288430929,-0.0544351302087307,0.004146145656704903,-0.027322158217430115
0.03907090425491333,0.012874418869614601,-0.005966588854789734,-0.05690011754631996,0.004213149193674326,-0.02860450930893421
0.038709815591573715,0.012953158468008041,-0.006040845066308975,-0.05490899831056595,0.0040534245781600475,-0.028260642662644386
0.03896836191415787,0.01336666103452444,-0.005688901990652084,-0.054297275841236115,0.0038055325858294964,-0.02811715193092823
0.039207328110933304,0.013700578361749649,-0.0058853537775576115,-0.05605864152312279,0.0037039541639387608,-0.029238702729344368
0.03930026292800903,0.01392400823533535,-0.006507122423499823,-0.055836211889982224,0.003953642677515745,-0.028488963842391968
0.039318062365055084,0.013818660750985146,-0.006277953740209341,-0.05542920529842377,0.004567969590425491,-0.027415599673986435
0.039263177663087845,0.013688638806343079,-0.006295682396739721,-0.05520741268992424,0.004608167335391045,-0.027164096012711525
0.03958945348858833,0.013369795866310596,-0.005843645893037319,-0.0553065724670887,0.004402055870741606,-0.02894207276403904
0.03958945348858833,0.013369795866310596,-0.005843645893037319,-0.0553065724670887,0.004402055870741606,-0.02894207276403904
0.03961027413606644,0.014178415760397911,-0.006543691270053387,-0.05498926714062691,0.004407454282045364,-0.028519026935100555
0.040733836591243744,0.014998720027506351,-0.005949101876467466,-0.05452563613653183,0.004227587953209877,-0.028059888631105423
0.04115825891494751,0.014005674980580807,-0.006132550071924925,-0.05454447120428085,0.004423497244715691,-0.028164278715848923
0.03863609954714775,0.014737976714968681,-0.0058001261204481125,-0.05636674910783768,0.004162233788520098,-0.027739999815821648
0.03863609954714775,0.014737976714968681,-0.0058001261204481125,-0.05636674910783768,0.004162233788520098,-0.027739999815821648
0.040468309074640274,0.014766069129109383,-0.006440679542720318,-0.055403389036655426,0.004389959387481213,-0.02766965888440609
0.04124591499567032,0.014081777073442936,-0.005756232887506485,-0.054435908794403076,0.004322171676903963,-0.02807258442044258
0.041001830250024796,0.014580003917217255,-0.005975707899779081,-0.05653088539838791,0.004419933073222637,-0.02815067209303379
0.04005927965044975,0.014416838996112347,-0.006286681164056063,-0.05443991348147392,0.004451211076229811,-0.02820068784058094
0.03970633074641228,0.015343520790338516,-0.006301691755652428,-0.05547293275594711,0.004361708182841539,-0.02788068726658821
0.03970633074641228,0.015343520790338516,-0.006301691755652428,-0.05547293275594711,0.004361708182841539,-0.02788068726658821
0.04128522053360939,0.015005342662334442,-0.006247754208743572,-0.056721847504377365,0.004142894875258207,-0.02857280895113945
0.040018290281295776,0.014582641422748566,-0.0063750166445970535,-0.05658227950334549,0.0039939056150615215,-0.02921481244266033
0.041809290647506714,0.014678055420517921,-0.0062077948823571205,-0.05652357637882233,0.00452833529561758,-0.02778611145913601
0.041809290647506714,0.014678055420517921,-0.0062077948823571205,-0.05652357637882233,0.00452833529561758,-0.02778611145913601
0.04095275700092316,0.01478220522403717,-0.006549470126628876,-0.05673674866557121,0.004193049855530262,-0.027453960850834846
0.0416501946747303,0.01493201032280922,-0.006088766735047102,-0.05691046640276909,0.003937141038477421,-0.028101284056901932
0.041147395968437195,0.014670932665467262,-0.00636191526427865,-0.05697929114103317,0.004114938899874687,-0.02850658819079399
0.04168161004781723,0.014505051076412201,-0.006057648919522762,-0.05711912363767624,0.004084886983036995,-0.02840687893331051
0.042071565985679626,0.014867860823869705,-0.006112999282777309,-0.05753146857023239,0.004449201747775078,-0.028829267248511314
0.0420653410255909,0.01494667585939169,-0.006642392370849848,-0.058196064084768295,0.004691983573138714,-0.02930111065506935
0.04208771884441376,0.015505822375416756,-0.006569245830178261,-0.058419451117515564,0.0043458216823637486,-0.02878205105662346
0.043706610798835754,0.015449819155037403,-0.005877941381186247,-0.05827869847416878,0.0043931142427027225,-0.027206405997276306
0.04246470332145691,0.015362769365310669,-0.006381616927683353,-0.05951807647943497,0.004888270981609821,-0.027174314484000206
0.04157694801688194,0.01476061437278986,-0.006922953296452761,-0.05919771268963814,0.005028028506785631,-0.028711602091789246
0.04290945827960968,0.015485205687582493,-0.006374623626470566,-0.05606922134757042,0.0045431992039084435,-0.029328851029276848
0.0440240316092968,0.015189940109848976,-0.006049765273928642,-0.05889274552464485,0.0044701602309942245,-0.029014959931373596
0.04348137229681015,0.014415415935218334,-0.006159263662993908,-0.05876827612519264,0.00463152676820755,-0.02897772006690502
0.04184092581272125,0.015133550390601158,-0.006863666232675314,-0.05623103678226471,0.004709975328296423,-0.029040109366178513
0.043481823056936264,0.01489739678800106,-0.006891457363963127,-0.057142652571201324,0.00469240453094244,-0.028816459700465202
0.04370609298348427,0.015383593738079071,-0.006116323173046112,-0.05714432895183563,0.005001976154744625,-0.02882707491517067
0.04370609298348427,0.015383593738079071,-0.006116323173046112,-0.05714432895183563,0.005001976154744625,-0.02882707491517067
0.04336775839328766,0.0152605464681983,-0.006793965119868517,-0.056327272206544876,0.004559054970741272,-0.029417548328638077
0.04283592849969864,0.014772693626582623,-0.007007351145148277,-0.05623026564717293,0.00447014719247818,-0.028979701921343803
0.04325951635837555,0.01547724287956953,-0.0061067622154951096,-0.05663292855024338,0.004606993868947029,-0.029333757236599922
0.04303038865327835,0.015354321338236332,-0.0060096560046076775,-0.05650990456342697,0.004693009424954653,-0.02942650392651558
