davideferrari95/blind_handover_controller/data/Test 53 - [2024-02-07 -- 15-38-41]/joint_states_data.csv
shoulder_pan_joint,shoulder_lift_joint,elbow_joint,wrist_1_joint,wrist_2_joint,wrist_3_joint
0.0035498638171702623,0.004038046579807997,-0.0040010130032896996,-2.3909439247578685e-38,0.00019168792641721666,0.0030089912470430136
0.0035498638171702623,0.004038046579807997,-0.0040010130032896996,-2.3909439247578685e-38,0.00019168792641721666,0.0030089912470430136
0.003567351493984461,0.0034974943846464157,-0.004857076797634363,-1.561115152882598e-39,0.00018676533363759518,0.0024867469910532236
0.003567351493984461,0.0034974943846464157,-0.004857076797634363,-1.561115152882598e-39,0.00018676533363759518,0.0024867469910532236
0.00432983972132206,0.003540388774126768,-0.004931566305458546,-1.0192904899652287e-40,0.00035202642902731895,0.0020434593316167593
0.0047090919688344,0.004207076970487833,-0.004521938506513834,-6.654766407078556e-42,0.00034897131263278425,0.001909515238367021
0.004406322725117207,0.003943386022001505,-0.00493400264531374,0.00022665923461318016,0.00036386511055752635,0.0024168305099010468
0.0045103589072823524,0.0038377561140805483,-0.004488229285925627,0.00031941884662956,0.0003902799217030406,0.0024196419399231672
0.0043645575642585754,0.004263569135218859,-0.00451107881963253,0.00033456951496191323,0.00037384394090622663,0.0024319912772625685
0.004493978805840015,0.004342423751950264,-0.0042115189135074615,0.0003411311481613666,0.0003905163612216711,0.00215006060898304
0.0044381460174918175,0.004500009585171938,-0.004280992783606052,0.00036217697197571397,0.00038149920874275267,0.0019729638006538153
0.004836689215153456,0.004162400960922241,-0.004638691432774067,0.00035430764546617866,0.00036399788223206997,0.0019291748758405447
0.004306119401007891,0.0039373585022985935,-0.0047406903468072414,0.00037778716068714857,0.0004608295566868037,0.002147827297449112
0.004341763909906149,0.003907529637217522,-0.004649787675589323,0.00048453890485689044,0.00042599160224199295,0.0026493400800973177
0.0042616757564246655,0.003943750634789467,-0.004403610713779926,0.0005927491583861411,0.0003896447888109833,0.0027745466213673353
0.004514100030064583,0.003939151298254728,-0.004847658332437277,0.0005830901209264994,0.000420466618379578,0.002613427583128214
0.004255698993802071,0.004101550672203302,-0.004840412177145481,0.0005939936963841319,0.00039789677248336375,0.002249760553240776
0.004051061347126961,0.004147286061197519,-0.004178657196462154,0.0005611639935523272,0.0004165726713836193,0.0021105939522385597
0.004327117931097746,0.0044942391104996204,-0.004363900516182184,0.0005849833833053708,0.000404052872909233,0.0021402519196271896
0.004327117931097746,0.0044942391104996204,-0.004363900516182184,0.0005849833833053708,0.000404052872909233,0.0021402519196271896
0.0044137234799563885,0.0042516011744737625,-0.004453829489648342,0.0005493579665198922,0.00038056488847360015,0.0020048506557941437
0.00516953319311142,0.003962150774896145,-0.0039050602354109287,0.0006305731949396431,0.0004032894503325224,0.0023327080998569727
0.0047845314256846905,0.004187137819826603,-0.004728989209979773,0.0006440380238927901,0.00038764174678362906,0.0023263944312930107
0.003925979603081942,0.00422484427690506,-0.005117530934512615,0.0005982691654935479,0.0003682082751765847,0.002313396194949746
0.003747359849512577,0.004080705810338259,-0.004333559423685074,0.0006235437467694283,0.0003637280606199056,0.002458656672388315
0.004378862679004669,0.003943551331758499,-0.0037618246860802174,0.0006118839955888689,0.0003493471012916416,0.002497870707884431
0.004539657849818468,0.0037826288025826216,-0.0039404029957950115,0.0005972484359517694,0.00037278575473465025,0.0024604087229818106
0.004252104088664055,0.0037886202335357666,-0.0046416656114161015,0.0005536610842682421,0.0003626647521741688,0.0025253768544644117
0.0035438728518784046,0.004106621723622084,-0.005196091718971729,0.0005569739150814712,0.00034074619179591537,0.0023610384669154882
0.00218766275793314,0.0042266822420060635,-0.005008777137845755,0.0005513246287591755,0.00037029231316410005,0.0024292217567563057
0.0014664026675745845,0.003570114728063345,-0.0049020275473594666,0.0005400097579695284,0.0003527963417582214,0.002355765551328659
0.0011044371640309691,0.003567915176972747,-0.004186062607914209,0.0005643619224429131,0.0003575688460841775,0.0022547715343534946
0.0011742488713935018,0.0032961887773126364,-0.0042049153707921505,0.0005633927066810429,0.00036119853029958904,0.0025771968066692352
0.0011987698962911963,0.0035621128045022488,-0.004270918667316437,0.0005538460682146251,0.0004495630564633757,0.0028547863475978374
0.0024001612327992916,0.0036948530469089746,-0.004334247671067715,0.0005775979370810091,0.0004425171355251223,0.0027224875520914793
0.002329848241060972,0.0037139495834708214,-0.004544015973806381,0.0006084023043513298,0.00044180016266182065,0.0026630142237991095
0.0018059280700981617,0.0041281250305473804,-0.004482172429561615,0.0005580789293162525,0.00041051945299841464,0.002405559178441763
0.0015394787769764662,0.004238204564899206,-0.0046090250834822655,0.0005848353612236679,0.00038163791759870946,0.0025074020959436893
0.00137921457644552,0.004083368461579084,-0.004204337950795889,0.0006063634646125138,0.00038530732854269445,0.002719622105360031
0.0012914896942675114,0.004037991166114807,-0.0039008937310427427,0.0005703490460291505,0.0003880902659147978,0.00288428645581007
0.0010909853735938668,0.0041131083853542805,-0.0037566949613392353,0.0006428206106647849,0.0003671986924018711,0.0027402497362345457
0.0012409818591549993,0.0037052955012768507,-0.003390646306797862,0.0006544593488797545,0.0003470756928436458,0.0026132799685001373
0.0021922702435404062,0.003551824251189828,-0.003925140481442213,0.0006068462389521301,0.0003289531741756946,0.002524753101170063
0.002709490479901433,0.004212602507323027,-0.0046640620566904545,0.0006136336596682668,0.00031262438278645277,0.002709714462980628
0.0024480894207954407,0.004171787295490503,-0.004488268867135048,0.0005779134808108211,0.00031862009200267494,0.0028836948331445456
0.0024480894207954407,0.004171787295490503,-0.004488268867135048,0.0005779134808108211,0.00031862009200267494,0.0028836948331445456
0.0018427581526339054,0.003943415358662605,-0.004056040663272142,0.00059590331511572,0.00032359801116399467,0.0031071947887539864
0.0017374128801748157,0.003859722288325429,-0.003770587733015418,0.0006009548087604344,0.0003108849050477147,0.002832390833646059
0.0016224565915763378,0.003858935786411166,-0.003762994660064578,0.000625182525254786,0.00029809377156198025,0.0026976384688168764
0.0017536700470373034,0.003911299165338278,-0.00376656511798501,0.0006554675055667758,0.0002862457768060267,0.0027755042538046837
0.0020475308410823345,0.003436223603785038,-0.0037596765905618668,0.0006363475695252419,0.0002752991858869791,0.0030703868251293898
0.0023522593546658754,0.0034959339536726475,-0.0041573429480195045,0.0006577509921044111,0.00026515888748690486,0.003078634152188897
0.0022739581763744354,0.00371247879229486,-0.004532755818217993,0.0008052512421272695,0.00023883154790382832,0.0030285590328276157
0.001969617558643222,0.0038728290237486362,-0.00407697819173336,0.0008126710308715701,0.00022206841094885021,0.0028380751609802246
0.001770468894392252,0.003870257642120123,-0.004203609190881252,0.0007637463859282434,0.00021131159155629575,0.002888765884563327
0.0017141138669103384,0.003793796058744192,-0.004279294051229954,0.0007263899897225201,0.00020181122818030417,0.0029587200842797756
0.0018577901646494865,0.0032965962309390306,-0.004063314292579889,0.0006942552863620222,0.00019314573728479445,0.0033626919612288475
0.0021288124844431877,0.00333999446593225,-0.003857351839542389,0.0006937237922102213,0.00021729725995101035,0.0031463142950087786
0.002443212317302823,0.0034287094604223967,-0.004449937026947737,0.0006003763410262764,0.00020530949404928833,0.002713240683078766
0.0025192955508828163,0.0031523790676146746,-0.004361837171018124,0.0005423710681498051,0.00019780662842094898,0.003015303984284401
0.0023300754837691784,0.003401113674044609,-0.003971336875110865,0.0004847890231758356,0.00019081696518696845,0.0030423502903431654
0.002284994116052985,0.003738116705790162,-0.004240177106112242,0.0005129559431225061,0.00018430328054819256,0.0029976728837937117
0.002617357997223735,0.0037721998523920774,-0.004156002774834633,0.000477764435345307,0.00020020543888676912,0.002511225175112486
0.0028220724780112505,0.0037519654724746943,-0.004386235494166613,0.00047496138722635806,0.00020077559747733176,0.002382449107244611
0.0025590979494154453,0.003339420771226287,-0.004647001624107361,0.00047172210179269314,0.00019501450879033655,0.002632090589031577
0.0026060265954583883,0.0034830733202397823,-0.004473384469747543,0.00044081558007746935,0.0001891871215775609,0.0029613564256578684
0.0026836059987545013,0.0031546347308903933,-0.0042700981721282005,0.00046297634253278375,0.00018367308075539768,0.003157073399052024
0.0028382923919707537,0.003169473260641098,-0.003981242887675762,0.0004415324656292796,0.00017846969421952963,0.0032426968682557344
0.0026866570115089417,0.0032728714868426323,-0.003886620281264186,0.0004454143636394292,0.0001735526748234406,0.002981324214488268
0.0029744210187345743,0.0035862750373780727,-0.00394369987770915,0.0004154042399022728,0.00016889955441001803,0.003009521635249257
0.0030793340411037207,0.0034491331316530704,-0.004269870929419994,0.0004367992514744401,0.00016448934911750257,0.0029805779922753572
0.0029255615081638098,0.003571673296391964,-0.003602069802582264,0.00042014053906314075,0.00018018843547906727,0.00299057480879128
0.0027824952267110348,0.003644695971161127,-0.003512526862323284,0.00042245403164997697,0.00017846118134912103,0.0029058591462671757
0.0027824952267110348,0.003644695971161127,-0.003512526862323284,0.00042245403164997697,0.00017846118134912103,0.0029058591462671757
0.0029604823794215918,0.003795379539951682,-0.00419249152764678,0.00042308567208237946,0.00017431905143894255,0.0030330338049679995
0.0029795896261930466,0.0033968286588788033,-0.004500203300267458,0.00039823123370297253,0.00017020975064951926,0.003284565871581435
0.0027696476317942142,0.0034636070486158133,-0.004333965480327606,0.0004209491016808897,0.00016627965669613332,0.003434579586610198
0.0026589215267449617,0.0031155201140791178,-0.004082466475665569,0.00040367725887335837,0.00016252593195531517,0.0033692840952426195
0.0027889071498066187,0.0033226595260202885,-0.003943101968616247,0.00046216268674470484,0.00015893796808086336,0.003306908532977104
0.00328234164044261,0.0035881849471479654,-0.0038254247047007084,0.00047226095921359956,0.0001555051567265764,0.0035875828471034765
0.003245109459385276,0.0037902265321463346,-0.004232512786984444,0.00046961571206338704,0.00015221744251903147,0.0038403584621846676
0.003141021355986595,0.003761434927582741,-0.004472197033464909,0.0004693911469075829,0.00014906618162058294,0.00394103629514575
0.002995740855112672,0.003626448567956686,-0.00426405668258667,0.00046671720338054,0.00014660667511634529,0.003474433906376362
0.00299268402159214,0.00362580269575119,-0.004346510395407677,0.0004667503235395998,0.00014289205137174577,0.003221798688173294
0.0030974778346717358,0.003615322755649686,-0.004385459702461958,0.0005077309324406087,0.00013441877672448754,0.003415812971070409
0.002956501441076398,0.0035239725839346647,-0.004271182231605053,0.0005659399321302772,0.00013051991118118167,0.0036101306322962046
0.002918238053098321,0.003502595005556941,-0.004101082682609558,0.0005566424806602299,0.0001268406631425023,0.0035329365637153387
0.0030432736966758966,0.0035543818958103657,-0.00445544021204114,0.0005483017885126173,0.00012336327927187085,0.0035300932358950377
0.0033004479482769966,0.0037968147080391645,-0.004417206160724163,0.0005385293043218553,0.000120071395940613,0.0037274626083672047
0.0033459162805229425,0.0038147487211972475,-0.004293039906769991,0.00055977440206334,0.00011695058492477983,0.0034070333931595087
0.003532457398250699,0.0037658687215298414,-0.004471020773053169,0.0005272842827253044,0.00011398816423024982,0.003147222101688385
0.003703273832798004,0.003551426576450467,-0.004603913519531488,0.0005525400629267097,0.00011117190297227353,0.003325768280774355
0.003465731628239155,0.003546700580045581,-0.0043120719492435455,0.0005446972791105509,0.00010849143291125074,0.00325659173540771
0.0036017517559230328,0.003912822809070349,-0.004490647464990616,0.0005607315106317401,0.0001243386068381369,0.0033769765868782997
0.003446230199187994,0.003957489505410194,-0.004535462707281113,0.0005280341138131917,0.0001240189594682306,0.003486099187284708
0.003370659425854683,0.003851827699691057,-0.004692186135798693,0.0005515433731488883,0.0001213963478221558,0.003642410272732377
0.003370659425854683,0.003851827699691057,-0.004692186135798693,0.0005515433731488883,0.0001213963478221558,0.003642410272732377
0.0032673287205398083,0.004160697106271982,-0.004735463298857212,0.0005407489370554686,0.00011618377175182104,0.003762593260034919
0.0034865783527493477,0.003938274923712015,-0.0044364952482283115,0.0005107229226268828,0.0001137364815804176,0.0036384814884513617
0.0034865783527493477,0.003938274923712015,-0.0044364952482283115,0.0005107229226268828,0.0001137364815804176,0.0036384814884513617
0.0037165768444538116,0.0037520439364016056,-0.004288156051188707,0.0005442778929136693,0.00011139048001496121,0.0035656301770359278
0.003658386180177331,0.0037050608079880476,-0.004147176630795002,0.0005822037346661091,0.00011808679846581072,0.0034300831612199545
0.0035721813328564167,0.003710564924404025,-0.0044492012821137905,0.0005960252601653337,0.00012420293933246285,0.003230576403439045
0.0035743345506489277,0.003729062620550394,-0.004544461145997047,0.0005630925297737122,0.0001223426079377532,0.003399370238184929
0.0036413215566426516,0.004105226136744022,-0.004703219048678875,0.0005723738577216864,0.00012004714517388493,0.0038074308540672064
0.0035769231617450714,0.004203832242637873,-0.004449494183063507,0.0005458708619698882,0.00011780476052081212,0.003954015672206879
0.0035765478387475014,0.004008622840046883,-0.0044418154284358025,0.0005707578966394067,0.0001156424914370291,0.0038779904134571552
0.004300248343497515,0.004348990507423878,-0.0045251729898154736,0.0005610528169199824,0.00011355798778822646,0.003757293801754713
0.004167948383837938,0.00361435255035758,-0.004651533905416727,0.0005887348088435829,0.0001233742805197835,0.003658000146970153
0.0039693210273981094,0.003579369280487299,-0.0043012527748942375,0.0005851111491210759,0.0001249966153409332,0.004075988195836544
0.003908395767211914,0.0033359616063535213,-0.004465282429009676,0.0005719734472222626,0.0001231050700880587,0.004160224460065365
0.003913556225597858,0.004254140425473452,-0.004399361554533243,0.000680403842125088,0.00011905099381692708,0.0038195045199245214
0.003844085382297635,0.004161462187767029,-0.004502485506236553,0.0007382961921393871,0.00011711470142472535,0.0037443572655320168
0.00419957609847188,0.004047013819217682,-0.004675860516726971,0.0007456412422470748,0.00011524002911755815,0.003999756183475256
0.004243414383381605,0.003974825143814087,-0.004786204546689987,0.000761820818297565,0.00011351355351507664,0.003872236469760537
0.004472424741834402,0.003556668059900403,-0.004257336258888245,0.0007139231893233955,0.00013083730300422758,0.0035185094457119703
0.004115199204534292,0.0034380932338535786,-0.00424573291093111,0.0008242252515628934,0.00012844961020164192,0.003576823277398944
0.004229492042213678,0.0036448987666517496,-0.004558045882731676,0.0008411448216065764,0.00012497005809564143,0.004192647989839315
0.004500992596149445,0.003801309736445546,-0.0047820634208619595,0.0008493965142406523,0.00012159884499851614,0.004102423321455717
0.004233288578689098,0.0033217142336070538,-0.0047353534027934074,0.0008340519270859659,0.0001183996646432206,0.004222010727971792
0.004346745554357767,0.0033262649085372686,-0.004736492410302162,0.000771392835304141,0.00011536410602275282,0.004055858124047518
0.004640636034309864,0.00349407852627337,-0.0050870394334197044,0.0008351330761797726,0.00011248041846556589,0.004210251849144697
0.004462553653866053,0.003604260738939047,-0.004477204754948616,0.0007849863613955677,0.00012052163947373629,0.004228468518704176
0.004507751204073429,0.0035767178051173687,-0.004063108935952187,0.0007956151966936886,0.00012782073463313282,0.004037708044052124
0.0044721998274326324,0.0036090267822146416,-0.0040283361449837685,0.0008002329850569367,0.00012551316467579454,0.0043271807953715324
0.004060165490955114,0.0033148338552564383,-0.004437500145286322,0.0007385737844742835,0.00012270422303117812,0.004191705025732517
0.004060165490955114,0.0033148338552564383,-0.004437500145286322,0.0007385737844742835,0.00012270422303117812,0.004191705025732517
0.003955971449613571,0.0030656426679342985,-0.004635404795408249,0.0007666010060347617,0.00011998076661257073,0.003955290652811527
0.004436159040778875,0.0033375280909240246,-0.004669169895350933,0.0007862020866014063,0.00011737290333257988,0.004209684673696756
0.004664877895265818,0.003063538344576955,-0.0045531559735536575,0.0007928715785965323,0.0001242913567693904,0.004547465592622757
0.004338063765317202,0.0032263912726193666,-0.004157469607889652,0.0008045649155974388,0.0001305947662331164,0.004220645409077406
0.004143979400396347,0.0033018102403730154,-0.004023342858999968,0.0008525119628757238,0.0001285106991417706,0.004450965207070112
0.004423532634973526,0.0035692716483026743,-0.004421961028128862,0.0008649284718558192,0.00012597881141118705,0.0045167491771280766
0.004233126994222403,0.0036669988185167313,-0.004678355064243078,0.000838038045912981,0.0001235115632880479,0.0044563389383256435
0.004605549853295088,0.0036255724262446165,-0.005150770302861929,0.0007896011811681092,0.00012113675620639697,0.004484717268496752
0.0045989505015313625,0.0032475092448294163,-0.004979446530342102,0.0008005226263776422,0.0001188514506793581,0.004544202703982592
0.004394048359245062,0.003493894124403596,-0.004501630552113056,0.0009130365797318518,0.00011665073543554172,0.004281497094780207
0.00434839678928256,0.0038244370371103287,-0.004084479063749313,0.000917480792850256,0.00011453001206973568,0.004437699913978577
0.004207908175885677,0.0035509641747921705,-0.004154655616730452,0.0008620234439149499,0.00011051198816858232,0.004538565408438444
0.003579345066100359,0.0038323900662362576,-0.0043474230915308,0.000908386311493814,0.00010860680777113885,0.004881290718913078
0.0031811969820410013,0.003956679720431566,-0.004657662007957697,0.0009208652190864086,0.00010676620877347887,0.004775941837579012
0.0032147441525012255,0.0038420963101089,-0.004902699030935764,0.0009094118140637875,0.00010498706978978589,0.004763379227370024
0.003712181933224201,0.0037120922934263945,-0.004515569191426039,0.0009076236747205257,0.00010326612391509116,0.004505975637584925
0.003958047833293676,0.0033095411490648985,-0.004428221378475428,0.0009212974109686911,0.00010160080273635685,0.004416711628437042
0.0037356738466769457,0.0032374339643865824,-0.004627939313650131,0.0009380520787090063,9.99883413896896e-05,0.004237157758325338
0.003455694764852524,0.0033194944262504578,-0.004667096771299839,0.0009336110088042915,9.842619328992441e-05,0.004770888481289148
0.003537906566634774,0.0033811754547059536,-0.004322491120547056,0.0009373106295242906,9.691202285466716e-05,0.0050275009125471115
0.003955014981329441,0.003122678492218256,-0.004560960456728935,0.001115313614718616,9.544380009174347e-05,0.004935531411319971
0.003927088808268309,0.0034527014940977097,-0.004744415171444416,0.001144608249887824,9.401945135323331e-05,0.005043963436037302
0.003795426106080413,0.00338626722805202,-0.005012469831854105,0.001129033276811242,9.263706306228414e-05,0.004936700686812401
0.0037790988571941853,0.0034920296166092157,-0.004981042817234993,0.001283204066567123,9.1294597950764e-05,0.004861019551753998
0.003796480130404234,0.0036511756479740143,-0.004707222804427147,0.001279659802094102,9.632414730731398e-05,0.005027777049690485
0.003796480130404234,0.0036511756479740143,-0.004707222804427147,0.001279659802094102,9.632414730731398e-05,0.005027777049690485
0.004248063545674086,0.003262756858021021,-0.004885934758931398,0.0012388151371851563,0.00010097215272253379,0.00538945198059082
0.004025226924568415,0.0032183912117034197,-0.0047306795604527,0.001200673170387745,9.996199514716864e-05,0.00523143308237195
0.0043602255173027515,0.0032755807042121887,-0.004888745024800301,0.0012413482181727886,9.861840953817591e-05,0.005180567968636751
0.004132852423936129,0.0032034229952841997,-0.00491931801661849,0.0011877736542373896,9.728750592330471e-05,0.00502582686021924
0.004006915260106325,0.003457040758803487,-0.004994003567844629,0.0010975954355672002,9.599065379006788e-05,0.004884401801973581
0.004417769610881805,0.00323447841219604,-0.004883366171270609,0.0011151399230584502,9.47276785154827e-05,0.005279019474983215
0.004275122657418251,0.0035293768160045147,-0.004710937384516001,0.0011018944205716252,9.349767060484737e-05,0.005263459403067827
0.003950579557567835,0.0037644379772245884,-0.0046548619866371155,0.001092546503059566,9.229916031472385e-05,0.005934093147516251
0.004080293700098991,0.0037937299348413944,-0.005083346273750067,0.0012226176913827658,9.113088890444487e-05,0.005543090403079987
0.004114124458283186,0.003381861839443445,-0.004697764758020639,0.0011695828288793564,8.999183046398684e-05,0.004987032618373632
0.004312138073146343,0.003197193145751953,-0.004970661364495754,0.0011249996023252606,8.888096635928378e-05,0.005255709867924452
0.004033737350255251,0.003226754954084754,-0.005361574236303568,0.0010338680585846305,8.779797644820064e-05,0.005287421867251396
0.0044305468909442425,0.003266313811764121,-0.0050328923389315605,0.0010063830995932221,8.673949196236208e-05,0.005827438086271286
0.004269711207598448,0.0036825824063271284,-0.0052734906785190105,0.0010278838453814387,8.469875319860876e-05,0.005080806091427803
0.004326021298766136,0.0035349188838154078,-0.00486101396381855,0.0012491053203120828,8.371669537154958e-05,0.005016163922846317
0.0046962471678853035,0.0034882097970694304,-0.0048347096890211105,0.0012593362480401993,8.275540312752128e-05,0.005063418298959732
0.0046956464648246765,0.00359519780613482,-0.004790456499904394,0.0012229831190779805,8.181244629668072e-05,0.005768744740635157
0.0048926048912107944,0.0037188809365034103,-0.004884539637714624,0.0012019574642181396,8.089246693998575e-05,0.006088015623390675
0.0048810578882694244,0.003387206234037876,-0.005219607148319483,0.0012446653563529253,7.99936824478209e-05,0.005849206820130348
0.00520296161994338,0.0032566478475928307,-0.005037893075495958,0.0012304213596507907,2.0328072423581034e-05,0.005128421820700169
0.005156447179615498,0.003201065119355917,-0.004788976162672043,0.0011958590475842357,1.3272779142425861e-06,0.005077330861240625
0.004887602292001247,0.0034528514370322227,-0.004716275259852409,0.0012629390694200993,8.666174977634e-08,0.005346375517547131
0.004835681989789009,0.003471350995823741,-0.004944028332829475,0.0012705741683021188,5.6583933094600525e-09,0.005386358592659235
0.00488964794203639,0.0034808372147381306,-0.004491512663662434,0.0015518323052674532,3.6945263515164584e-10,0.005794208962470293
0.004999836441129446,0.003662537317723036,-0.00456029549241066,0.0014527157181873918,5.4051932238508016e-05,0.005485603120177984
0.005116191692650318,0.0037610456347465515,-0.005183742381632328,0.0013878329191356897,6.934600241947919e-05,0.00527572026476264
0.0052108196541666985,0.0034668431617319584,-0.0054146163165569305,0.0013618487864732742,6.933059194125235e-05,0.005046407226473093
0.004698792472481728,0.003397327149286866,-0.004909411072731018,0.001398216700181365,6.834632222307846e-05,0.00558234890922904
0.004698792472481728,0.003397327149286866,-0.004909411072731018,0.001398216700181365,6.834632222307846e-05,0.00558234890922904
0.005002626217901707,0.0036298311315476894,-0.00488168653100729,0.0015565840294584632,6.732827023370191e-05,0.005493879318237305
0.004913230426609516,0.003302796743810177,-0.0048344251699745655,0.0015533106634393334,6.633607699768618e-05,0.005500398110598326
0.004754128400236368,0.0033925252500921488,-0.005024669226258993,0.0016480342019349337,6.537236913572997e-05,0.005230868235230446
0.005027545616030693,0.0035792796406894922,-0.005555259063839912,0.0018059593858197331,6.443632446462288e-05,0.0049134185537695885
0.005007330793887377,0.003616390284150839,-0.005272815003991127,0.0017812509322538972,6.352665513986722e-05,0.005322447046637535
0.004808798898011446,0.0035069177392870188,-0.004737331066280603,0.0016359500586986542,6.264236435526982e-05,0.005303388927131891
0.004743631463497877,0.0034320498816668987,-0.004851166158914566,0.001467085094191134,6.178236071718857e-05,0.00513387331739068
0.005654217209666967,0.003480573184788227,-0.005433208774775267,0.0013696260284632444,6.0945611039642245e-05,0.005121493712067604
0.005517774261534214,0.003626316087320447,-0.005168433766812086,0.0012248310958966613,6.013120582792908e-05,0.004509457387030125
0.005316622089594603,0.0037298433016985655,-0.005152949132025242,0.0012246366823092103,5.933833381277509e-05,0.004468424711376429
0.005703129805624485,0.0034975879825651646,-0.005139143206179142,0.0016051039565354586,5.7813678722595796e-05,0.004562658723443747
0.005703129805624485,0.0034975879825651646,-0.005139143206179142,0.0016051039565354586,5.7813678722595796e-05,0.004562658723443747
0.005516502074897289,0.0034171498846262693,-0.005114332307130098,0.001939656212925911,5.636538116959855e-05,0.005214489996433258
0.0058101266622543335,0.003519685473293066,-0.0055182999931275845,0.0018390665063634515,5.566808249568567e-05,0.0050707063637673855
0.006164988037198782,0.0037199887447059155,-0.005589158274233341,0.0016460457118228078,5.4987871408229694e-05,0.004864952526986599
0.0054769632406532764,0.003439356107264757,-0.005062354262918234,0.0016405400820076466,5.4324103984981775e-05,0.004730228800326586
0.005032764282077551,0.003408608725294471,-0.0048513151705265045,0.0015795703511685133,5.3676114475820214e-05,0.004739335738122463
0.005701745860278606,0.003459095722064376,-0.004849603399634361,0.0015018160920590162,5.30433862877544e-05,0.005600704345852137
0.0060618482530117035,0.003521211678162217,-0.005192827433347702,0.0014282373012974858,5.2425461035454646e-05,0.0056250072084367275
0.0058723799884319305,0.0035877269692718983,-0.005413947161287069,0.0015510017983615398,5.182172026252374e-05,0.005288594868034124
0.005327540449798107,0.003644146490842104,-0.005360509268939495,0.0015815050574019551,5.12317601533141e-05,0.00492734182626009
0.005629175808280706,0.003479494946077466,-0.0052068498916924,0.0017383391968905926,5.065509685664438e-05,0.005033435299992561
0.0065049477852880955,0.003525546984747052,-0.004858318716287613,0.0018201095517724752,5.009122105548158e-05,0.005317197181284428
0.006275956053286791,0.003670730162411928,-0.004685678519308567,0.0019416626309975982,2.5111059585469775e-05,0.005734206642955542
0.006234663538634777,0.003955052699893713,-0.005132767837494612,0.001877038972452283,1.6395728152929223e-06,0.0058078281581401825
0.0056747812777757645,0.0037715851794928312,-0.005585469305515289,0.001731367432512343,1.070523794055589e-07,0.005262034945189953
0.005900595337152481,0.003476583631709218,-0.005521271377801895,0.0016235921066254377,6.989755441111356e-09,0.005185888614505529
0.0055487616918981075,0.0035864824894815683,-0.005108168814331293,0.0018057167762890458,4.5638109957835127e-10,0.0050417655147612095
0.0055487616918981075,0.0035864824894815683,-0.005108168814331293,0.0018057167762890458,4.5638109957835127e-10,0.0050417655147612095
0.005859381053596735,0.003837061580270529,-0.005020893644541502,0.0019140332005918026,2.979842414485567e-11,0.005628303624689579
0.005826120264828205,0.0036439099349081516,-0.004904518369585276,0.0024189993273466825,1.9456242172921634e-12,0.005531425587832928
0.00608622282743454,0.003589391941204667,-0.004918827675282955,0.0021770454477518797,1.2703535868640453e-13,0.006425419822335243
0.00651965755969286,0.0037460161838680506,-0.0057334378361701965,0.0019141103839501739,8.294501526319008e-15,0.005508221220225096
0.005510666407644749,0.0038358215242624283,-0.0056930058635771275,0.001872188993729651,5.415716906507183e-16,0.0049131461419165134
0.00603584386408329,0.0034631986636668444,-0.005084232892841101,0.0018299469957128167,3.5360766811670056e-17,0.00518780667334795
0.006560980807989836,0.0034975572489202023,-0.004727816674858332,0.0018468963680788875,2.3088052258572376e-18,0.005947036202996969
0.006228461861610413,0.003780986648052931,-0.004719096701592207,0.0022904477082192898,1.5074849675896084e-19,0.006108214147388935
0.006288132630288601,0.003903076285496354,-0.005727050825953484,0.0021865523885935545,9.842800631146771e-21,0.005951481405645609
0.006057183723896742,0.0034836595878005028,-0.0058947401121258736,0.001989946700632572,4.1961395348547286e-23,0.005308735650032759
0.006549406331032515,0.0034435265697538853,-0.005362167023122311,0.001875113695859909,2.7397793992877073e-24,0.005643208045512438
0.0068241627886891365,0.004230106715112925,-0.004988298751413822,0.0019785489421337843,1.788880153247058e-25,0.006056127604097128
0.006531334016472101,0.004157625138759613,-0.005228045396506786,0.0024158235173672438,1.1680109526155516e-26,0.005767111666500568
0.00620708242058754,0.003947312477976084,-0.005289459601044655,0.002481546951457858,7.626276690037674e-28,0.006168116349726915
0.006624233443289995,0.003458913415670395,-0.005911429412662983,0.002369041321799159,4.9794136303092076e-29,0.005902732722461224
0.006818787660449743,0.0035452526062726974,-0.00558500736951828,0.0022862665355205536,3.251201459572088e-30,0.00609622010961175
0.006760311778634787,0.003657710738480091,-0.005514036864042282,0.0022969867568463087,2.122802208460693e-31,0.006327740848064423
0.006204450502991676,0.0036914206575602293,-0.005189710762351751,0.0021570890676230192,1.3860380256188305e-32,0.005675063468515873
0.006648443639278412,0.004231668543070555,-0.0057945214211940765,0.0022892728447914124,9.049838970103009e-34,0.00579895731061697
0.007078790571540594,0.0041724457405507565,-0.0058325547724962234,0.00217585195787251,5.908897860896702e-35,0.0059534176252782345
0.007185816764831543,0.004011462442576885,-0.005692639388144016,0.0021757788490504026,3.8580884734591284e-36,0.0064051393419504166
0.006998040713369846,0.003911550156772137,-0.005261803511530161,0.0022992021404206753,2.5190559553006077e-37,0.006229034624993801
0.007391811814159155,0.0038853983860462904,-0.005018448922783136,0.0022604067344218493,1.6447634226329252e-38,0.005932026542723179
0.007056396920233965,0.004319566302001476,-0.006172167137265205,0.0024464093148708344,1.07391310410461e-39,0.005954332649707794
0.007251957897096872,0.004148136358708143,-0.0063437228091061115,0.0026239650323987007,7.01181725578852e-41,0.006363729480654001
0.006911960430443287,0.003509191796183586,-0.005804653745144606,0.0028093880973756313,4.5780420829491774e-42,0.006594281177967787
0.006841858848929405,0.003561093006283045,-0.005136515013873577,0.002813419559970498,2.9847657290118604e-43,0.006376687902957201
0.006841858848929405,0.003561093006283045,-0.005136515013873577,0.002813419559970498,2.9847657290118604e-43,0.006376687902957201
0.007107582874596119,0.0037683481350541115,-0.0053202505223453045,0.003080659080296755,1.961817850054744e-44,0.005995072890073061
0.006825996097177267,0.004280508030205965,-0.005822555627673864,0.0028825621120631695,1.401298464324817e-45,0.005924708675593138
0.006863148882985115,0.0042080385610461235,-0.006606645416468382,0.0025041059125214815,0.0,0.00611134571954608
0.007053946144878864,0.0035576268564909697,-0.005898284260183573,0.00247280509211123,0.0,0.006683683022856712
0.007676289416849613,0.003613654989749193,-0.005683704745024443,0.0027655905578285456,0.0,0.006285288371145725
0.0070775169879198074,0.003758116625249386,-0.005470678210258484,0.0034807242918759584,0.0,0.006022642366588116
0.007193495519459248,0.003809771267697215,-0.005646240431815386,0.0033565955236554146,0.0,0.0059781488962471485
0.006874978542327881,0.0038418667390942574,-0.006084483582526445,0.0031759915873408318,0.0,0.006009379867464304
0.008016797713935375,0.00393660319969058,-0.005976776126772165,0.0030111551750451326,0.0,0.006419530138373375
0.007832669652998447,0.0035021451767534018,-0.006338734645396471,0.0032319026067852974,0.0,0.00651842774823308
0.006941088940948248,0.003664043266326189,-0.005679620895534754,0.0036143807228654623,0.0,0.006037632003426552
0.0072372471913695335,0.0037466706708073616,-0.006537206005305052,0.0033936570398509502,0.0,0.006384777370840311
0.008168504573404789,0.0037331688217818737,-0.006573804654181004,0.0032206058967858553,0.0,0.00690942257642746
0.007906832732260227,0.0036548180505633354,-0.005778177175670862,0.0031160907819867134,0.0,0.006635779049247503
0.006847594864666462,0.0037707367446273565,-0.006371312774717808,0.0031718856189399958,0.0,0.006556706968694925
0.009322920814156532,0.003329121507704258,-0.005958180408924818,0.0031518740579485893,0.0,0.006368376314640045
0.007902177982032299,0.003460695268586278,-0.006559364497661591,0.003093637526035309,0.0,0.006975255906581879
0.006828942336142063,0.0036325075197964907,-0.006420217454433441,0.0031786425970494747,0.0,0.006950692273676395
0.007055070251226425,0.0036768221762031317,-0.006548720877617598,0.00304230023175478,0.0,0.00728510320186615
0.008143635466694832,0.003530639223754406,-0.006204826291650534,0.003175942925736308,0.0,0.006990046706050634
0.008220840245485306,0.003002506447955966,-0.006490007042884827,0.0032364060170948505,0.0,0.007275731302797794
0.007869579829275608,0.002620074898004532,-0.006970522925257683,0.0032055722549557686,0.0,0.007261720020323992
0.007475243881344795,0.0024630287662148476,-0.006766935810446739,0.0033791211899369955,0.0,0.006632389035075903
0.008017608895897865,0.0027888487093150616,-0.006179542746394873,0.0032337727025151253,0.0,0.006487763952463865
0.008017608895897865,0.0027888487093150616,-0.006179542746394873,0.0032337727025151253,0.0,0.006487763952463865
0.007771418895572424,0.003046134952455759,-0.00634415727108717,0.0033716782927513123,0.0,0.006958418991416693
0.007337216753512621,0.0034087635576725006,-0.0067878589034080505,0.003602339420467615,0.0,0.007353095803409815
0.0074439444579184055,0.0032274373807013035,-0.00669840956106782,0.0032801409251987934,0.0,0.007025131490081549
0.008705565705895424,0.0029771404806524515,-0.00634382339194417,0.0033041618298739195,0.0,0.0068319314159452915
0.008084486238658428,0.002917124191299081,-0.006432054098695517,0.0033168024383485317,0.0,0.007026433479040861
0.007675094064325094,0.0032918003853410482,-0.006605965085327625,0.0035809676628559828,0.0,0.006850842386484146
0.007731860037893057,0.003253442235291004,-0.007372984662652016,0.003408845979720354,0.0,0.0067084976471960545
0.007975783199071884,0.0034122548531740904,-0.0067695616744458675,0.0035457657650113106,0.0,0.006747737992554903
0.008110765367746353,0.0028238834347575903,-0.006173780187964439,0.003307795850560069,0.0,0.006821488495916128
0.007681349758058786,0.002823303220793605,-0.0060557289980351925,0.003463490167632699,0.0,0.007305763196200132
0.008223512209951878,0.002818162553012371,-0.007193455472588539,0.0036667045205831528,0.0,0.007345699239522219
0.007852853275835514,0.0027562787290662527,-0.006912476848810911,0.0033421132247895002,0.0,0.007415817119181156
0.007862078957259655,0.0027136218268424273,-0.006294485181570053,0.0034444185439497232,0.0,0.007035573944449425
0.007790097966790199,0.0029026856645941734,-0.006508690305054188,0.0035959428641945124,0.0,0.007182495202869177
0.008135628886520863,0.002743988297879696,-0.007476080674678087,0.003399139503017068,0.0,0.007117995992302895
0.008375323377549648,0.0026578502729535103,-0.006518598645925522,0.0034638820216059685,0.0,0.006818352732807398
0.00803450308740139,0.0027566244825720787,-0.0063468655571341515,0.003749001771211624,0.0,0.006828522775322199
0.007901622913777828,0.0028723084833472967,-0.0064280033111572266,0.003558969125151634,0.0,0.007232469040900469
0.008310780860483646,0.002926149871200323,-0.007469154894351959,0.00354924239218235,0.0,0.0073394509963691235
0.00754411518573761,0.0027360045351088047,-0.006875437218695879,0.0036239137407392263,0.0,0.007148980628699064
0.007606031838804483,0.002842035610228777,-0.006417314521968365,0.003699309192597866,0.0,0.007180004846304655
0.00813723262399435,0.002890516072511673,-0.006625976413488388,0.004091955255717039,0.0,0.007442100439220667
0.008209540508687496,0.002948177047073841,-0.00667887507006526,0.003909662365913391,0.0,0.007132178638130426
0.007675906177610159,0.003309540916234255,-0.006718550808727741,0.0035748668015003204,0.0,0.007267877459526062
0.00813690759241581,0.0029742675833404064,-0.006569267716258764,0.003403417067602277,0.0,0.007568667642772198
0.008167190477252007,0.0030974955298006535,-0.006367089692503214,0.003376362146809697,0.0,0.008014872670173645
0.008653441444039345,0.003024923847988248,-0.006505180150270462,0.0035965468268841505,0.0,0.007981118746101856
0.00807194598019123,0.0029449118301272392,-0.0064733936451375484,0.003816275391727686,0.0,0.007444893009960651
0.008230258710682392,0.0028249816969037056,-0.006637189537286758,0.003940385300666094,0.0,0.00805238913744688
0.008230258710682392,0.0028249816969037056,-0.006637189537286758,0.003940385300666094,0.0,0.00805238913744688
0.008229128085076809,0.0029447339475154877,-0.006594344042241573,0.0035395079758018255,0.0,0.008338958956301212
0.008066167123615742,0.003191867144778371,-0.006356284022331238,0.0035140439867973328,0.0,0.007863655686378479
0.008360383100807667,0.0032011799048632383,-0.007051995489746332,0.003586431033909321,0.0,0.007729192730039358
0.00834426935762167,0.003446970134973526,-0.007686510682106018,0.004147012252360582,0.0,0.008040511049330235
0.008226645179092884,0.003243465907871723,-0.006478255148977041,0.00408398499712348,0.0,0.007768143434077501
0.008173343725502491,0.0031518270261585712,-0.006305966060608625,0.004251455422490835,0.0,0.007474494632333517
0.008500256575644016,0.0031426968052983284,-0.006769588682800531,0.004269001539796591,0.0,0.007887951098382473
0.008364228531718254,0.0031709277536720037,-0.007646266836673021,0.004466509912163019,0.0,0.008303431794047356
0.008063781075179577,0.0031479792669415474,-0.0066916788928210735,0.004259818699210882,0.0,0.008347732946276665
0.009169215336441994,0.003311955602839589,-0.006091407034546137,0.003776483703404665,0.0,0.008215047419071198
0.008413264527916908,0.0032115322537720203,-0.006483232602477074,0.003474601311609149,0.0,0.008165275678038597
0.008504293859004974,0.0034519650507718325,-0.006483457516878843,0.004119846969842911,0.0,0.008044490590691566
0.008543439209461212,0.003273604903370142,-0.00658520357683301,0.003942165989428759,6.957812274777098e-06,0.00765279121696949
0.008820666931569576,0.0033541664015501738,-0.006434339098632336,0.00422188825905323,4.5429541728481126e-07,0.008131785318255424
0.008624388836324215,0.0034961127676069736,-0.0063605885952711105,0.004626395180821419,2.9662244216410727e-08,0.008356131613254547
0.008574594743549824,0.0034740015398710966,-0.006714449729770422,0.004578630905598402,1.936732774154848e-09,0.008134717121720314
0.008437126874923706,0.003586152335628867,-0.0067451512441039085,0.004294306505471468,1.2645480496065176e-10,0.008119282312691212
0.008353421464562416,0.00378258153796196,-0.006759957410395145,0.004458311479538679,8.256595060429639e-12,0.008469603024423122
0.00886649638414383,0.003866346785798669,-0.006597474217414856,0.004571451339870691,5.390967078126863e-13,0.008494346402585506
0.008444464765489101,0.00350009324029088,-0.006588506046682596,0.00485449330881238,3.5199158854564566e-14,0.008313019759953022
0.008729487657546997,0.003533679060637951,-0.0068172612227499485,0.005203560460358858,2.298253648752146e-15,0.008239039219915867
0.0086880037561059,0.003719331929460168,-0.006690409034490585,0.004862431902438402,1.500595363724042e-16,0.008528860285878181
0.008686330169439316,0.0038911791052669287,-0.006535998545587063,0.004506250843405724,9.797815389347704e-18,0.008656111545860767
0.008590428158640862,0.0038772071711719036,-0.006555409636348486,0.00443578977137804,6.397273202805216e-19,0.00885635707527399
0.008637538179755211,0.003736393293365836,-0.007256315555423498,0.004558459389954805,4.176962886655593e-20,0.009268664754927158
0.00858046393841505,0.003725332673639059,-0.006755828391760588,0.004701466299593449,2.7272578984915556e-21,0.009639893658459187
0.008560651913285255,0.003754404606297612,-0.006528614554554224,0.004778418689966202,1.7807045565975284e-22,0.008541896939277649
0.008773946203291416,0.003776265773922205,-0.0065126316621899605,0.004745281767100096,1.1626729003517561e-23,0.008801733143627644
0.008649615570902824,0.0037902449257671833,-0.007019193843007088,0.004191810730844736,7.591422962500404e-25,0.00901863444596529
0.00886620208621025,0.0038187934551388025,-0.00692812679335475,0.004302815068513155,4.956656813197379e-26,0.008396387100219727
0.00886620208621025,0.0038187934551388025,-0.00692812679335475,0.004302815068513155,4.956656813197379e-26,0.008396387100219727
0.008800937794148922,0.0034183869138360023,-0.006486502476036549,0.004153571091592312,3.236342693384022e-27,0.008709528483450413
0.008671114221215248,0.0035649186465889215,-0.006665337830781937,0.004363620188087225,2.113100483067537e-28,0.008821378462016582
0.008892441168427467,0.0037138184998184443,-0.0065409280359745026,0.004561574198305607,1.3797035616279273e-29,0.008519149385392666
0.0091483686119318,0.0038101659156382084,-0.007177451625466347,0.005085976794362068,9.008479010351495e-31,0.008373185060918331
0.009088116697967052,0.0033345166593790054,-0.007069609593600035,0.005062399432063103,5.88189278836488e-32,0.008778954856097698
0.008796372450888157,0.0033951844088733196,-0.006695510353893042,0.004447914194315672,3.8404557568615724e-33,0.008685865439474583
0.009734244085848331,0.003537242766469717,-0.006376343313604593,0.00431425403803587,2.507543197421247e-34,0.008712458424270153
0.009049767628312111,0.0035715068224817514,-0.006830004975199699,0.004497797228395939,1.6372465258428105e-35,0.008704603649675846
0.009005569852888584,0.00346016907133162,-0.007260172627866268,0.004300170112401247,1.06900499457618e-36,0.008561600930988789
0.00890214741230011,0.0036245861556380987,-0.0066373636946082115,0.004845920950174332,6.97983794327447e-38,0.008022674359381199
0.008772800676524639,0.0037039790768176317,-0.0068421210162341595,0.004657253157347441,2.9756152500398193e-40,0.008533895947039127
0.009644662961363792,0.0036993734538555145,-0.008087762631475925,0.00445791520178318,-0.00011484682909213006,0.008797251619398594
0.00954682007431984,0.003758622333407402,-0.007098350673913956,0.0045569767244160175,-0.00014315398584585637,0.008950402960181236
0.008839676156640053,0.003836499061435461,-0.006386278662830591,0.004548731260001659,-0.00014076376101002097,0.008935589343309402
0.009392697364091873,0.003475440666079521,-0.00687842071056366,0.0044603850692510605,-0.00013662614219356328,0.008997421711683273
0.009558802470564842,0.0035874713212251663,-0.008375468663871288,0.005480330903083086,-0.00013260828563943505,0.008897610008716583
0.008974955417215824,0.00423611281439662,-0.008220604620873928,0.005449451506137848,-0.00015284339315257967,0.009446684271097183
0.009637085720896721,0.004123595077544451,-0.006991218309849501,0.005060858093202114,-0.00015016048564575613,0.009487287141382694
0.010028502903878689,0.0034150953870266676,-0.007147457450628281,0.005228174850344658,-0.00014619722787756473,0.009266145527362823
0.009412191808223724,0.003501799190416932,-0.008127834647893906,0.0051451376639306545,-0.00015993039414752275,0.009460048750042915
0.00977041944861412,0.003759650280699134,-0.007864762097597122,0.004777998197823763,-0.0001614083448657766,0.009198494255542755
0.009637769311666489,0.003875098656862974,-0.007583325263112783,0.005298039875924587,-0.0001688034535618499,0.009683641605079174
0.009201622568070889,0.003778374521061778,-0.008071156218647957,0.005257977172732353,-0.0001751392992446199,0.009321929886937141
0.009543688967823982,0.004159009084105492,-0.00856961403042078,0.00494150398299098,-0.0002627623325679451,0.00945797748863697
0.009784248657524586,0.004159098025411367,-0.008493616245687008,0.004705090541392565,-0.0003289197920821607,0.009705551899969578
0.009553937241435051,0.0040397681295871735,-0.008046358823776245,0.004670247435569763,-0.00034203214454464614,0.009453619830310345
0.00969018042087555,0.0035388253163546324,-0.007918145507574081,0.004650621674954891,-0.00034814010723493993,0.00961962528526783
0.00977816991508007,0.0034312340430915356,-0.008143416605889797,0.004736012313514948,-0.0003287797444500029,0.009616000577807426
0.009659115225076675,0.00370062910951674,-0.008017819374799728,0.005146512296050787,-0.0003100170870311558,0.009515993297100067
0.009659115225076675,0.00370062910951674,-0.008017819374799728,0.005146512296050787,-0.0003100170870311558,0.009515993297100067
0.009832712821662426,0.004213162697851658,-0.00740743288770318,0.005000492557883263,-0.00032921438105404377,0.009579464793205261
0.009645058773458004,0.003728341544046998,-0.008622776716947556,0.004825233016163111,-0.00030848037567920983,0.009593316353857517
0.009645058773458004,0.003728341544046998,-0.008622776716947556,0.004825233016163111,-0.00030848037567920983,0.009593316353857517
0.010768537409603596,0.003496980993077159,-0.007893146947026253,0.004686154890805483,-0.000294123514322564,0.00974943209439516
0.010185979306697845,0.003689607372507453,-0.00794459693133831,0.004799668211489916,-0.00031840294832363725,0.009695763699710369
0.009323705919086933,0.0037898309528827667,-0.008204485289752483,0.005476371385157108,-0.0003072535328101367,0.009609617292881012
0.00970296561717987,0.003776342375203967,-0.0078021688386797905,0.005345715209841728,-0.0002948290784843266,0.009665184654295444
0.00983070395886898,0.0038058138452470303,-0.008095651865005493,0.0049855648539960384,-0.0003364719159435481,0.009774288162589073
0.009819184429943562,0.0035455538891255856,-0.008650842122733593,0.004689186345785856,-0.00032071408350020647,0.009754667989909649
0.010524754412472248,0.00349070830270648,-0.007347836159169674,0.004928187932819128,-0.00035169784678146243,0.009728461503982544
0.009260042570531368,0.004242043010890484,-0.008253277279436588,0.005335220135748386,-0.0003564947983250022,0.010789351537823677
0.010159006342291832,0.004005829803645611,-0.008884421549737453,0.005136851221323013,-0.0003489733790047467,0.00975462794303894
0.010054806247353554,0.003771741408854723,-0.007910707965493202,0.0052764224819839,-0.0003754992794711143,0.009182305075228214
0.009654585272073746,0.003632477018982172,-0.00781678594648838,0.005263741593807936,-0.00036100324359722435,0.009437493979930878
0.009934373199939728,0.003626494901254773,-0.007937274873256683,0.004961378872394562,-0.0005046349251642823,0.010029568336904049
0.010552198626101017,0.0037005487829446793,-0.008672510273754597,0.00530682597309351,-0.00046461456804536283,0.009947564452886581
0.009908306412398815,0.003765043569728732,-0.008491870947182178,0.005346351768821478,-0.0004624960129149258,0.010516480542719364
0.010520988143980503,0.004233506042510271,-0.007975919172167778,0.005176824051886797,-0.00045994712854735553,0.010328446514904499
0.010615332052111626,0.004154583439230919,-0.008275821805000305,0.005191605072468519,-0.00046044972259551287,0.010309147648513317
0.010270523838698864,0.003925675991922617,-0.00810222141444683,0.005215470213443041,-0.0004584650450851768,0.010233513079583645
0.011799281463027,0.0037376696709543467,-0.007794240955263376,0.005555396433919668,-0.0004292749799787998,0.010279211215674877
0.011950037442147732,0.003696577623486519,-0.008407816290855408,0.0057572852820158005,-0.0004554279148578644,0.010314099490642548
0.012181618250906467,0.0036383389960974455,-0.008643915876746178,0.005573849659413099,-0.0004316079430282116,0.010767464525997639
0.012092281132936478,0.003215290140360594,-0.00809297151863575,0.005452033132314682,-0.00040996988536790013,0.010834894143044949
0.011717185378074646,0.00293645728379488,-0.007928295060992241,0.005473642144352198,-0.00041045385296456516,0.010787444189190865
0.011717185378074646,0.00293645728379488,-0.007928295060992241,0.005473642144352198,-0.00041045385296456516,0.010787444189190865
0.011594975367188454,0.0031047880183905363,-0.008792228996753693,0.006129520945250988,-0.0004183331329841167,0.011003619059920311
0.011594975367188454,0.0031047880183905363,-0.008792228996753693,0.006129520945250988,-0.0004183331329841167,0.011003619059920311
0.01224150974303484,0.003468757262453437,-0.008058472536504269,0.005759577266871929,-0.0004364090855233371,0.011198185384273529
0.012131648138165474,0.003689664416015148,-0.007934430614113808,0.005271489266306162,-0.0004220222181174904,0.011208727955818176
0.012198828160762787,0.0035261688753962517,-0.0083894282579422,0.005292221903800964,-0.00039642484625801444,0.011115523986518383
0.012873807922005653,0.0032341880723834038,-0.00804226566106081,0.005536671262234449,-0.00037300653639249504,0.010481946170330048
0.011939596384763718,0.0030381977558135986,-0.008187353610992432,0.005581710487604141,-0.0003766664594877511,0.010431301780045033
0.012408703565597534,0.0031993347220122814,-0.008177554234862328,0.005622459575533867,-0.00037946293014101684,0.010247202590107918
0.012400800362229347,0.0031763152219355106,-0.008662962354719639,0.005281859543174505,-0.0003618682676460594,0.01081317849457264
0.012795407325029373,0.003510484006255865,-0.008094503544270992,0.0053397188894450665,-0.00034463833435438573,0.010533393360674381
0.012493709102272987,0.003458890598267317,-0.008724295534193516,0.005338952876627445,-0.0003441548615228385,0.010750177316367626
0.01276073232293129,0.003520138096064329,-0.008698918856680393,0.0060636005364358425,-0.0003220785001758486,0.010543967597186565
0.01238502562046051,0.003326338715851307,-0.008307727985084057,0.006127071101218462,-0.00030071038054302335,0.010786939412355423
0.012888441793620586,0.0031031689140945673,-0.008482503704726696,0.0056822216138243675,-0.0002818756620399654,0.010977087542414665
0.012860916554927826,0.002952885814011097,-0.008740355260670185,0.005609326995909214,-0.0002652522816788405,0.010842160321772099
0.012926395982503891,0.0028312993235886097,-0.008449643850326538,0.005913114175200462,-0.0002938254619948566,0.010998713783919811
0.012683365494012833,0.0029380740597844124,-0.00852055475115776,0.0065695238299667835,-0.0002842822577804327,0.010948000475764275
0.012799098156392574,0.0032549493480473757,-0.009305855259299278,0.006686761975288391,-0.0003094556159339845,0.011067545972764492
0.012987918220460415,0.0034165866672992706,-0.008743391372263432,0.006311638746410608,-0.000331771356286481,0.011202342808246613
0.012605773285031319,0.0033224360086023808,-0.008501007221639156,0.005761089734733105,-0.00032700999872758985,0.011212310753762722
0.013055069372057915,0.003440803848206997,-0.008978709578514099,0.006354860030114651,-0.0003970992111135274,0.01129364687949419
0.012624400667846203,0.0036819854285568,-0.008819082751870155,0.006733415182679892,-0.0004417695745360106,0.011166336946189404
0.01306716538965702,0.0038918456993997097,-0.00947086326777935,0.0064621614292263985,-0.0004173142078798264,0.011295465752482414
0.013005133718252182,0.003455202095210552,-0.009184703230857849,0.006225988268852234,-0.00038794768624939024,0.011780324392020702
0.013036375865340233,0.0034917397424578667,-0.009553031995892525,0.006318654865026474,-0.0004180750111117959,0.01141677051782608
0.012925139628350735,0.003225010819733143,-0.008788533508777618,0.006596673280000687,-0.0003954812709707767,0.011705044656991959
0.012925139628350735,0.003225010819733143,-0.008788533508777618,0.006596673280000687,-0.0003954812709707767,0.011705044656991959
0.013277336023747921,0.0028132819570600986,-0.009646707214415073,0.006890033837407827,-0.0004115202755201608,0.011497744359076023
0.013190043158829212,0.0030102883465588093,-0.009708285331726074,0.00712348660454154,-0.0004008744435850531,0.011389250867068768
0.013495298102498055,0.004123722203075886,-0.00917832087725401,0.006582850124686956,-0.00047797919251024723,0.011148136109113693
0.01349044218659401,0.0038674608804285526,-0.009071173146367073,0.006301636807620525,-0.0004618937964551151,0.011461567133665085
0.013104557991027832,0.0026414317544549704,-0.009666627272963524,0.0066738189198076725,-0.0004989513545297086,0.011259370483458042
0.013509204611182213,0.002397342585027218,-0.00919709075242281,0.007000980898737907,-0.00046151914284564555,0.01168803684413433
0.01320130005478859,0.003659313078969717,-0.008792649023234844,0.006629844196140766,-0.0004913526936434209,0.011650869622826576
0.013660606928169727,0.004257475957274437,-0.00986467394977808,0.005973098333925009,-0.0004597932565957308,0.012868593446910381
0.012867235578596592,0.0034239059314131737,-0.009652253240346909,0.006963151507079601,-0.0004287635092623532,0.01208988856524229
0.01323558110743761,0.002935585333034396,-0.009563122875988483,0.00700101163238287,-0.00042933085933327675,0.01188356801867485
0.013119801878929138,0.002787040313705802,-0.009948046877980232,0.006388727575540543,-0.00042937276884913445,0.012081462889909744
0.013719680719077587,0.0030269958078861237,-0.009649792686104774,0.006543995812535286,-0.00040678694494999945,0.011872065253555775
0.013420090079307556,0.003471899777650833,-0.009770996868610382,0.006219569593667984,-0.0003851297951769084,0.01209128275513649
0.013585563749074936,0.0037404883187264204,-0.009616461582481861,0.00674193911254406,-0.00034790471545420587,0.011653468012809753
0.013685942627489567,0.0033188785891979933,-0.009096300229430199,0.006166654638946056,-0.00033342093229293823,0.011988547630608082
0.013918086886405945,0.0031528151594102383,-0.009663808159530163,0.0059526399709284306,-0.0003113770217169076,0.011972899548709393
0.013638227246701717,0.0031016566790640354,-0.009745491668581963,0.006418912671506405,-0.00034162559313699603,0.012540935538709164
0.013850873336195946,0.003148005111142993,-0.00959206372499466,0.007079404313117266,-0.0003277618088759482,0.012620003893971443
0.013673151843249798,0.003504534950479865,-0.01063768845051527,0.007020525634288788,-0.0003574273723643273,0.012729581445455551
0.013762658461928368,0.003396450774744153,-0.009856491349637508,0.0058367555029690266,-0.0003650025464594364,0.012338151223957539
0.013591716066002846,0.003517158329486847,-0.009814036078751087,0.006184232886880636,-0.00036852076300419867,0.012596997432410717
0.014214730821549892,0.003628356382250786,-0.01010431069880724,0.007788282819092274,-0.0005204390618018806,0.012707077898085117
0.013893387280404568,0.003708779811859131,-0.010047808289527893,0.0071885911747813225,-0.0005664671771228313,0.012588349170982838
0.013848850503563881,0.0037766119930893183,-0.009913449175655842,0.006358437240123749,-0.0005564041202887893,0.013178846798837185
0.013460435904562473,0.0035148062743246555,-0.010333568789064884,0.006706568878144026,-0.0005072589265182614,0.01288990955799818
0.014326315373182297,0.0034326347522437572,-0.010679143480956554,0.00704738637432456,-0.0005205140914767981,0.012845916673541069
0.014326315373182297,0.0034326347522437572,-0.010679143480956554,0.00704738637432456,-0.0005205140914767981,0.012845916673541069
0.014923536218702793,0.003231612266972661,-0.010426159016788006,0.006975980009883642,-0.00046168320113793015,0.012847527861595154
0.014323304407298565,0.0035495837219059467,-0.01040124986320734,0.006575629115104675,-0.0004302089218981564,0.013028008863329887
0.014265134930610657,0.0037360491696745157,-0.010071571916341782,0.006598548498004675,-0.0004562132235150784,0.01237540878355503
0.013956223614513874,0.003544757841154933,-0.010311223566532135,0.006976383272558451,-0.00043229988659732044,0.012730969116091728
0.015172427520155907,0.003317450638860464,-0.009903994388878345,0.007184153888374567,-0.0004322795139160007,0.012549475766718388
0.015172427520155907,0.003317450638860464,-0.009903994388878345,0.007184153888374567,-0.0004322795139160007,0.012549475766718388
0.0142451087012887,0.0034056715667247772,-0.010371706448495388,0.006904034875333309,-0.00043719910900108516,0.013087163679301739
0.014684831723570824,0.003271576017141342,-0.010477056726813316,0.007071353495121002,-0.0004370698006823659,0.012958701699972153
0.014205234125256538,0.0035293828696012497,-0.01012092549353838,0.007381092291325331,-0.0004064636887051165,0.013447433710098267
0.014392239041626453,0.0037353970110416412,-0.010504750534892082,0.00701564596965909,-0.0004117173084523529,0.013173205778002739
0.014392239041626453,0.0037353970110416412,-0.010504750534892082,0.00701564596965909,-0.0004117173084523529,0.013173205778002739
0.014827352948486805,0.003331291489303112,-0.010743237100541592,0.007364495191723108,-0.0005338316550478339,0.013453202322125435
0.014827352948486805,0.003331291489303112,-0.010743237100541592,0.007364495191723108,-0.0005338316550478339,0.013453202322125435
0.01463284157216549,0.003675360232591629,-0.009914915077388287,0.007348340470343828,-0.000553823309019208,0.013221324421465397
0.015053732320666313,0.0038311004173010588,-0.010312048718333244,0.007393777836114168,-0.0005817181663587689,0.01374884881079197
0.0146441999822855,0.003847273299470544,-0.010702480562031269,0.007969818077981472,-0.0005935700610280037,0.013553839176893234
0.014958510175347328,0.0037744285073131323,-0.009508045390248299,0.0077935741282999516,-0.0005647576763294637,0.013180997222661972
0.01488360483199358,0.0038162984419614077,-0.010280524380505085,0.007071704138070345,-0.0006786308367736638,0.013188149780035019
0.015217654407024384,0.004038449376821518,-0.010013934224843979,0.007349892985075712,-0.0006116930162534118,0.015035836957395077
0.01523560844361782,0.003555385395884514,-0.00956253707408905,0.007677474990487099,-0.0005398340290412307,0.013337104581296444
0.014896181412041187,0.0035267299972474575,-0.009942123666405678,0.007621506694704294,-0.0005713587161153555,0.012689151801168919
0.014896181412041187,0.0035267299972474575,-0.009942123666405678,0.007621506694704294,-0.0005713587161153555,0.012689151801168919
0.015283293090760708,0.0036112854722887278,-0.009402256458997726,0.0076265535317361355,-0.000521913287229836,0.01320764608681202
0.015311770141124725,0.003669049823656678,-0.010652421973645687,0.007595316041260958,-0.0005499052931554615,0.013761616311967373
0.015494323335587978,0.0036233928985893726,-0.010652294382452965,0.007582276593893766,-0.0005454760394059122,0.013690415769815445
0.015276347286999226,0.003508212510496378,-0.009609547443687916,0.008056076243519783,-0.0005372287705540657,0.013535551726818085
0.015819001942873,0.0033727225381881,-0.009454987943172455,0.007708961609750986,-0.0005018855445086956,0.013491536490619183
0.01583506353199482,0.0033310740254819393,-0.010495242662727833,0.007435674779117107,-0.00047034965245984495,0.013583964668214321
0.01640312932431698,0.0032113695051521063,-0.01016197819262743,0.00784590095281601,-0.0004901917418465018,0.014015457592904568
0.015982648357748985,0.003515971824526787,-0.009999848902225494,0.007623644080013037,-0.0005244355998001993,0.01399457361549139
0.015830323100090027,0.004137049894779921,-0.009808333590626717,0.008285844698548317,-0.0007346266647800803,0.013685598969459534
0.015873664990067482,0.003487947164103389,-0.010693983174860477,0.008498636074364185,-0.0009115667198784649,0.01395975612103939
0.01611757092177868,0.0035388311371207237,-0.010301376692950726,0.00803740881383419,-0.0008204657351598144,0.014065598137676716
0.01612088456749916,0.0037409267388284206,-0.010232268832623959,0.007601916790008545,-0.0008168017375282943,0.01411033608019352
0.016755836084485054,0.003524616826325655,-0.010464036837220192,0.00813973043113947,-0.0007352849352173507,0.014113083481788635
0.016103290021419525,0.0034568419214338064,-0.010497362352907658,0.008034388534724712,-0.0006591406418010592,0.014566845260560513
0.01676662638783455,0.003612347412854433,-0.010008660145103931,0.00816386565566063,-0.0006757707451470196,0.014239907264709473
0.016340864822268486,0.0033218443859368563,-0.010336938314139843,0.007760357111692429,-0.0006224631215445697,0.014286733232438564
0.01637122966349125,0.003327955724671483,-0.010009462013840675,0.008146604523062706,-0.0005580023280344903,0.01364685595035553
0.016621530055999756,0.003387422300875187,-0.00980556383728981,0.00795501284301281,-0.000496964727062732,0.013481050729751587
0.016540350392460823,0.0034149435814470053,-0.01086815632879734,0.007651963271200657,-0.000524515809956938,0.013604262843728065
0.01649736985564232,0.003545162733644247,-0.010317297652363777,0.007896170020103455,-0.000487564509967342,0.014392520301043987
0.016330907121300697,0.0036759027279913425,-0.010036876425147057,0.008144869469106197,-0.0005171041702851653,0.014487155713140965
0.01689821481704712,0.0037656943313777447,-0.010740390047430992,0.007668189704418182,-0.0005415494670160115,0.014823753386735916
0.016632240265607834,0.0037354142405092716,-0.010108829475939274,0.008009882643818855,-0.0005941821145825088,0.01455302257090807
0.01676063798367977,0.003316309303045273,-0.010503021068871021,0.008376996032893658,-0.0005949689657427371,0.014330658130347729
0.01691400818526745,0.0034337597899138927,-0.010410387068986893,0.007967894896864891,-0.0005300191114656627,0.014402084983885288
0.016727499663829803,0.0037143758963793516,-0.010047766380012035,0.007789896801114082,-0.0004743893805425614,0.014837706461548805
0.016943782567977905,0.0034202279057353735,-0.010248977690935135,0.0075505138374865055,-0.00047048067790456116,0.014418759383261204
0.0168820321559906,0.0035784519277513027,-0.010909472592175007,0.0080603938549757,-0.0004671510250773281,0.015547689981758595
0.01734595000743866,0.0036569617222994566,-0.010051903314888477,0.0082821324467659,-0.00043218929204158485,0.015389756299555302
0.01734595000743866,0.0036569617222994566,-0.010051903314888477,0.0082821324467659,-0.00043218929204158485,0.015389756299555302
0.01732674054801464,0.0037797170225530863,-0.010118369944393635,0.007884405553340912,-0.00040028741932474077,0.01463799923658371
0.017002351582050323,0.0033490918576717377,-0.01017630472779274,0.00812953058630228,-0.0003726535360328853,0.014417369849979877
0.01753111183643341,0.003278700402006507,-0.01029462181031704,0.008056499995291233,-0.0003485843481030315,0.014649120159447193
0.017445694655179977,0.0032786440569907427,-0.010209440253674984,0.008006816729903221,-0.00032743613701313734,0.013466941192746162
0.017306258901953697,0.00350524066016078,-0.009680705145001411,0.00814203079789877,-0.00034662478719837964,0.013920987024903297
0.01815272867679596,0.0037087290547788143,-0.009746705181896687,0.009041944518685341,-0.0003397935361135751,0.014769610948860645
0.017266571521759033,0.0033647113014012575,-0.010506514459848404,0.008496885187923908,-0.0003231351438444108,0.014890140853822231
0.017717067152261734,0.003498481586575508,-0.010651734657585621,0.008396992459893227,-0.0003074143605772406,0.015145525336265564
0.01749010756611824,0.003454958088696003,-0.01088682934641838,0.008590555749833584,-0.0002800770162139088,0.015265800058841705
0.01761491782963276,0.0036707064136862755,-0.01169263944029808,0.008924039080739021,-0.0002681528858374804,0.015450420789420605
0.017359333112835884,0.0032066518906503916,-0.011335378512740135,0.008635623380541801,-0.000275180209428072,0.015489332377910614
0.01831158809363842,0.0030943439342081547,-0.01164070051163435,0.008547077886760235,-0.0002811890735756606,0.015579136088490486
0.018494077026844025,0.0030842022970318794,-0.011268174275755882,0.009372180327773094,-0.00024771023890934885,0.015794888138771057
0.017782988026738167,0.003272558795288205,-0.01171085424721241,0.009332103654742241,-0.00023473445617128164,0.015897028148174286
0.018623024225234985,0.0033564346376806498,-0.011512535624206066,0.009194127283990383,-0.00024204135115724057,0.016243793070316315
0.018471557646989822,0.0034142073709517717,-0.011748096905648708,0.009343091398477554,-0.00026640098076313734,0.015465797856450081
0.019028272479772568,0.0036179651506245136,-0.01187997404485941,0.008979986421763897,-0.0002782915544230491,0.01526180561631918
0.01878230832517147,0.0033040351700037718,-0.01135017815977335,0.008984156884253025,-0.000284558511339128,0.015338541008532047
0.019899023696780205,0.0031967496033757925,-0.012008690275251865,0.008941062726080418,-0.0006668068817816675,0.015669431537389755
0.018437394872307777,0.003229673020541668,-0.01175530906766653,0.00968029536306858,-0.0006902669556438923,0.015614442527294159
0.018052125349640846,0.002789716934785247,-0.012479507364332676,0.009026924148201942,-0.0006625147070735693,0.015830261632800102
0.01836424507200718,0.003055383451282978,-0.012445423752069473,0.009377178736031055,-0.0005933598149567842,0.016077017411589622
0.019030975177884102,0.002907407935708761,-0.012059378437697887,0.008953200653195381,-0.0006114427233114839,0.01579274982213974
0.019490333274006844,0.003200358711183071,-0.012598209083080292,0.008934938348829746,-0.0005668018711730838,0.015914645045995712
0.019220413640141487,0.0032961301039904356,-0.011884511448442936,0.009232538752257824,-0.0005847367574460804,0.015787122771143913
0.019220413640141487,0.0032961301039904356,-0.011884511448442936,0.009232538752257824,-0.0005847367574460804,0.015787122771143913
0.01947110891342163,0.0032440267968922853,-0.012468143366277218,0.009607121348381042,-0.0005511021590791643,0.015971535816788673
0.019112983718514442,0.0033192269038408995,-0.012337195686995983,0.009193030185997486,-0.0005232351832091808,0.015670960769057274
0.01926358789205551,0.0031882792245596647,-0.012587644159793854,0.00928463414311409,-0.00047080012154765427,0.015980694442987442
0.01933767832815647,0.0034981933422386646,-0.01261912751942873,0.009587138891220093,-0.000499696412589401,0.016169369220733643
0.019419372081756592,0.003246404230594635,-0.012428900226950645,0.00965235847979784,-0.0005041087279096246,0.016212906688451767
0.019654011353850365,0.0030988543294370174,-0.01281785499304533,0.009709909558296204,-0.0004989939625374973,0.016448721289634705
0.01955471932888031,0.0030881231650710106,-0.012481316924095154,0.009625764563679695,-0.0005261655314825475,0.017026718705892563
0.019520442932844162,0.0030742741655558348,-0.012926842086017132,0.00915401242673397,-0.0006928951479494572,0.016770118847489357
0.019450124353170395,0.003563439007848501,-0.012719354592263699,0.009438159875571728,-0.000737670692615211,0.016182076185941696
0.019703788682818413,0.003340558847412467,-0.013313920237123966,0.010121147148311138,-0.000708507897797972,0.01643403060734272
0.019630908966064453,0.003759968327358365,-0.013715474866330624,0.008927768096327782,-0.0006632896256633103,0.016711264848709106
0.019524147734045982,0.003343988675624132,-0.013203395530581474,0.009471593424677849,-0.0006079397280700505,0.016508853062987328
0.019991151988506317,0.0034270952455699444,-0.012700097635388374,0.009812244214117527,-0.0005608503706753254,0.01608341932296753
0.019852355122566223,0.0033252218272536993,-0.013498440384864807,0.009506912901997566,-0.0005849931039847434,0.0165560320019722
0.019804317504167557,0.003099047811701894,-0.012905588373541832,0.00991064216941595,-0.0005232784897089005,0.01685311831533909
0.020314129069447517,0.0032335431315004826,-0.013343006372451782,0.00964246317744255,-0.00046906163333915174,0.01706908643245697
0.0199488066136837,0.003181990934535861,-0.012863879092037678,0.010268878191709518,-0.00042474985821172595,0.016651544719934464
0.01978878863155842,0.003615890396758914,-0.012931210920214653,0.010348855517804623,-0.0004601446562446654,0.016609331592917442
0.020138287916779518,0.003288113744929433,-0.013139248825609684,0.010148371569812298,-0.0004629259346984327,0.016519702970981598
0.020225347951054573,0.003414084669202566,-0.013615983538329601,0.010227544233202934,-0.00046089448733255267,0.016620086506009102
0.019874680787324905,0.003594848792999983,-0.012923365458846092,0.010649388656020164,-0.00043140409979969263,0.016931086778640747
0.019874680787324905,0.003594848792999983,-0.012923365458846092,0.010649388656020164,-0.00043140409979969263,0.016931086778640747
0.020056601613759995,0.003692034399136901,-0.013716348446905613,0.009283955208957195,-0.00044633285142481327,0.016929736360907555
0.02040153741836548,0.0036106756888329983,-0.01315372996032238,0.009825647808611393,-0.00043276010546833277,0.017293114215135574
0.020494885742664337,0.003363985801115632,-0.01265768799930811,0.010207454673945904,-0.00040903297485783696,0.01722395233809948
0.020203102380037308,0.00309620494954288,-0.013244513422250748,0.009926637634634972,-0.000382620666641742,0.016946926712989807
0.02044922113418579,0.003265952691435814,-0.012780309654772282,0.01048780046403408,-0.0003530366811901331,0.017311040312051773
0.020371023565530777,0.003246947191655636,-0.013707654550671577,0.010268374346196651,-0.00032736448338255286,0.01739226095378399
0.02000451274216175,0.0034867655485868454,-0.013089541345834732,0.009811854921281338,-0.00036190744140185416,0.017610277980566025
0.020080070942640305,0.003655805950984359,-0.012943447567522526,0.010271775536239147,-0.00039203648339025676,0.017467746511101723
0.020701346918940544,0.0037710247561335564,-0.013394332490861416,0.010105415247380733,-0.0004018034669570625,0.017439041286706924
0.020973285660147667,0.003376865992322564,-0.014031697995960712,0.00956555176526308,-0.0004041996144223958,0.01727689430117607
0.02062319777905941,0.0031908974051475525,-0.013145649805665016,0.010059917345643044,-0.0005996873951517045,0.01684183068573475
0.02091127261519432,0.0032433944288641214,-0.012775900773704052,0.010013779625296593,-0.0006371359340846539,0.017224902287125587
0.019741198047995567,0.0034453177358955145,-0.012640773318707943,0.010597017593681812,-0.0006016851402819157,0.017787229269742966
0.020584821701049805,0.0037193698808550835,-0.013206154108047485,0.010261708870530128,-0.0005585909239016473,0.016913646832108498
0.020851433277130127,0.0038196358364075422,-0.01305491290986538,0.009191412478685379,-0.000513680512085557,0.016936061903834343
0.020891288295388222,0.003942599520087242,-0.013482535257935524,0.010902829468250275,-0.0004749631625600159,0.01761915534734726
0.02029944397509098,0.003650050377473235,-0.012758094817399979,0.010931022465229034,-0.00048802795936353505,0.018145566806197166
0.020731031894683838,0.003509099828079343,-0.012930265627801418,0.010953131131827831,-0.00047056152834556997,0.017983950674533844
0.02134859934449196,0.0035907321143895388,-0.012892038561403751,0.010844542644917965,-0.00044262592564336956,0.01858912780880928
0.021241655573248863,0.0036419276148080826,-0.013597519136965275,0.010368712246418,-0.00041685180622152984,0.01882212795317173
0.021060429513454437,0.0036325803957879543,-0.013199230656027794,0.010894409380853176,-0.0004193808708805591,0.018571721389889717
0.02135452628135681,0.003618907416239381,-0.013168123550713062,0.010449458844959736,-0.0004203999706078321,0.017662663012742996
0.020630383864045143,0.003988167271018028,-0.013256946578621864,0.00983387604355812,-0.0003920673916582018,0.016957063227891922
0.020856713876128197,0.004227347671985626,-0.013293134979903698,0.010132720693945885,-0.00036564667243510485,0.017675241455435753
0.021178441122174263,0.0040976060554385185,-0.013606817461550236,0.010441320016980171,-0.00034245499409735203,0.01849926821887493
0.02148405835032463,0.003983385860919952,-0.01307259313762188,0.009781328961253166,-0.00037196665653027594,0.01864585094153881
0.021134473383426666,0.003964610863476992,-0.012964636087417603,0.0101453997194767,-0.00035429728450253606,0.018373988568782806
0.021134473383426666,0.003964610863476992,-0.012964636087417603,0.0101453997194767,-0.00035429728450253606,0.018373988568782806
0.021365586668252945,0.0039179883897304535,-0.013804069720208645,0.010395699180662632,-0.00033562962198629975,0.01817077025771141
0.021446233615279198,0.0038135163486003876,-0.01376884151250124,0.010020448826253414,-0.0003580718475859612,0.018402140587568283
0.021309876814484596,0.003751809010282159,-0.013016928918659687,0.01071497704833746,-0.0003462467866484076,0.018784737214446068
0.021311329677700996,0.004160383716225624,-0.012652172707021236,0.010341838002204895,-0.0003161905915476382,0.01883099414408207
0.021311329677700996,0.004160383716225624,-0.012652172707021236,0.010341838002204895,-0.0003161905915476382,0.01883099414408207
0.021905284374952316,0.004139508120715618,-0.013093320652842522,0.010518582537770271,-0.00030288781272247434,0.018679114058613777
0.021849462762475014,0.0039039102848619223,-0.013458700850605965,0.010192346759140491,-0.00030252253054641187,0.01816648244857788
0.021684089675545692,0.0037342894356697798,-0.013017725199460983,0.010307462885975838,-0.00028571573784574866,0.018394753336906433
0.021738046780228615,0.003522484330460429,-0.013142942450940609,0.010718182660639286,-0.00026879794313572347,0.018865371122956276
0.02197534404695034,0.003585336497053504,-0.012620382010936737,0.010675735771656036,-0.0002910404873546213,0.018770165741443634
0.021584637463092804,0.003917469643056393,-0.013205955736339092,0.010488401167094707,-0.00027347635477781296,0.020866498351097107
0.02158503793179989,0.0038448122795671225,-0.013196132145822048,0.010462349280714989,-0.0002923664578702301,0.018896538764238358
0.021903544664382935,0.0038403209764510393,-0.012753460556268692,0.010443251579999924,-0.00028901666519232094,0.01843407191336155
0.021884659305214882,0.004233340732753277,-0.013534678146243095,0.010464376769959927,-0.00027696596225723624,0.018795287236571312
0.021985089406371117,0.0040447162464261055,-0.013224915601313114,0.010543843731284142,-0.0002981911529786885,0.01918388158082962
0.022095324471592903,0.0044279033318161964,-0.01382337138056755,0.01121605932712555,-0.0002906622248701751,0.019521145150065422
0.02280326373875141,0.004142705351114273,-0.013426867313683033,0.011042297817766666,-0.00033108520437963307,0.019367080181837082
0.023066239431500435,0.004242620896548033,-0.013169179670512676,0.011247348971664906,-0.0003547340165823698,0.019217658787965775
0.022815100848674774,0.004260339308530092,-0.013514302670955658,0.011057492345571518,-0.00039355611079372466,0.01984967291355133
0.02254180610179901,0.00429737800732255,-0.013299836777150631,0.010464340448379517,-0.0004241870774421841,0.01954767294228077
0.022518903017044067,0.004025501664727926,-0.013539299368858337,0.010903079994022846,-0.0004470965941436589,0.01907332055270672
0.022995496168732643,0.0036975143011659384,-0.012959984131157398,0.010759995318949223,-0.0004364497144706547,0.019508248195052147
0.02303347922861576,0.00343143823556602,-0.013636200688779354,0.010744462721049786,-0.0007934278110042214,0.01939251460134983
0.023142017424106598,0.0035658879205584526,-0.013119274750351906,0.01115552056580782,-0.0007663596188649535,0.019215743988752365
0.022860025987029076,0.0037967290263623,-0.01377666275948286,0.011019464582204819,-0.0007725597824901342,0.019484002143144608
0.022921958938241005,0.003942475654184818,-0.013563401997089386,0.011748849414288998,-0.000700011383742094,0.019882937893271446
0.022921958938241005,0.003942475654184818,-0.013563401997089386,0.011748849414288998,-0.000700011383742094,0.019882937893271446
0.02336355298757553,0.004029020667076111,-0.014237009920179844,0.012013982981443405,-0.0007082356605678797,0.020135588943958282
0.023332729935646057,0.004005584865808487,-0.01401215698570013,0.011282906867563725,-0.0006543733761645854,0.01977957971394062
0.023725131526589394,0.003458241932094097,-0.014477737247943878,0.011224414221942425,-0.0006004414171911776,0.019546108320355415
0.023573368787765503,0.0035507583525031805,-0.013963780365884304,0.011182324960827827,-0.0005590625805780292,0.01966291293501854
0.023586107417941093,0.0037681530229747295,-0.015075148083269596,0.011349583975970745,-0.0005035566282458603,0.019917530938982964
0.023891476914286613,0.0037814502138644457,-0.014596660621464252,0.011547586880624294,-0.0005194834666326642,0.020787665620446205
0.023307615891098976,0.003824491985142231,-0.014786786399781704,0.010720795020461082,-0.0004924852401018143,0.02073698304593563
0.02338321879506111,0.0036038802936673164,-0.01413593627512455,0.010998530313372612,-0.0004890037816949189,0.020306581631302834
0.023805424571037292,0.00363181228749454,-0.01508642639964819,0.011336040683090687,-0.0004846371302846819,0.0195293128490448
0.02418106235563755,0.0037022114265710115,-0.014475066214799881,0.011101125739514828,-0.00045202436740510166,0.0202296394854784
0.023258039727807045,0.004196034278720617,-0.014827140606939793,0.011283316649496555,-0.000473952095489949,0.019956329837441444
0.023996343836188316,0.003652940271422267,-0.014341479167342186,0.011077182367444038,-0.0004513463645707816,0.019938722252845764
0.024912720546126366,0.003535411786288023,-0.014952053315937519,0.011928563006222248,-0.0004888189141638577,0.02011982724070549
0.024294931441545486,0.0038184437435120344,-0.013624278828501701,0.012020701542496681,-0.0005681022885255516,0.02069133333861828
0.023909037932753563,0.0037633939646184444,-0.014795167371630669,0.012177795171737671,-0.000590850948356092,0.021357139572501183
0.023478645831346512,0.0037815971300005913,-0.015219234861433506,0.011918221600353718,-0.0008549264748580754,0.02124571055173874
0.024289678782224655,0.0038136960938572884,-0.01419809740036726,0.012314895167946815,-0.0009205539245158434,0.020793244242668152
0.02523295022547245,0.0038661567959934473,-0.014905717223882675,0.012336360290646553,-0.0008871404570527375,0.02078612893819809
0.024850018322467804,0.003940883558243513,-0.014619528315961361,0.012861497700214386,-0.00083001988241449,0.020181547850370407
0.02512839436531067,0.003955512773245573,-0.014965861104428768,0.01269302424043417,-0.0008271026890724897,0.020198248326778412
0.0247176643460989,0.003633121494203806,-0.01467911060899496,0.012336143292486668,-0.0008162535377778113,0.020514125004410744
0.024827681481838226,0.003510926617309451,-0.015015309676527977,0.01245775818824768,-0.0008381088846363127,0.021455520763993263
0.024436943233013153,0.0036100565921515226,-0.01477409340441227,0.012213029898703098,-0.0008471882320009172,0.021623054519295692
0.025074634701013565,0.0041097174398601055,-0.015020596794784069,0.012474737130105495,-0.0007602661498822272,0.021339576691389084
0.02508634142577648,0.004278941545635462,-0.014817414805293083,0.012389292009174824,-0.0007691153441555798,0.02106546424329281
0.025172045454382896,0.0040372502990067005,-0.01518511027097702,0.013123993761837482,-0.0007001675548963249,0.021198349073529243
0.02534228190779686,0.003953713458031416,-0.015342500060796738,0.012831912375986576,-0.0006384043372236192,0.021571079269051552
0.02573590725660324,0.0034994790330529213,-0.015113764442503452,0.012640117667615414,-0.0006004969472996891,0.021904628723859787
0.02573590725660324,0.0034994790330529213,-0.015113764442503452,0.012640117667615414,-0.0006004969472996891,0.021904628723859787
0.025300923734903336,0.004007398616522551,-0.015144520439207554,0.012584117241203785,-0.0005439935484901071,0.021622585132718086
0.025340821593999863,0.004229293204843998,-0.014842788688838482,0.012267780490219593,-0.0004861815250478685,0.021726561710238457
0.02530278079211712,0.004041372332721949,-0.015142745338380337,0.01255025528371334,-0.00048105299356393516,0.02171625941991806
0.025706026703119278,0.003908345475792885,-0.015147987753152847,0.012452985160052776,-0.0004767288046423346,0.021500686183571815
0.025384681299328804,0.004189808387309313,-0.0152126494795084,0.012831352651119232,-0.000503651681356132,0.021614084020256996
0.02586398273706436,0.004229375161230564,-0.014919096603989601,0.012773980386555195,-0.0005073794163763523,0.022465256974101067
0.02607346698641777,0.004068395122885704,-0.015596248209476471,0.01306700985878706,-0.0005025908467359841,0.021123098209500313
0.026027411222457886,0.0039054846856743097,-0.015311697497963905,0.01305873692035675,-0.00047166115837171674,0.021130915731191635
0.02629278227686882,0.0038411288987845182,-0.015502563677728176,0.012765255756676197,-0.0004427708045113832,0.021680694073438644
0.0257708840072155,0.00400742469355464,-0.014804181642830372,0.012764926068484783,-0.0004174237255938351,0.022101599723100662
0.02566889300942421,0.004038651939481497,-0.015706786885857582,0.012400583364069462,-0.00040146266110241413,0.021896174177527428
0.025474749505519867,0.0039769746363162994,-0.015257667750120163,0.012538260780274868,-0.00036983718746341765,0.021696874871850014
0.02625526860356331,0.0040650092996656895,-0.015434191562235355,0.012905607931315899,-0.000380019802832976,0.02216196060180664
0.026972850784659386,0.003980492241680622,-0.01575339026749134,0.013132770545780659,-0.00035597715759649873,0.02247973158955574
0.02654965966939926,0.00402073934674263,-0.015888698399066925,0.012709046714007854,-0.00038580771069973707,0.022037262097001076
0.026002855971455574,0.004055757541209459,-0.015726342797279358,0.012859592214226723,-0.00041206853347830474,0.022101184353232384
0.025836041197180748,0.004006634466350079,-0.016057835891842842,0.012672653421759605,-0.0003958303132094443,0.02206924371421337
0.027358343824744225,0.004055637400597334,-0.015486955642700195,0.012928769923746586,-0.0004919461789540946,0.022418130189180374
0.02709670551121235,0.004079564940184355,-0.015813343226909637,0.012063572183251381,-0.00045978903654031456,0.02280484139919281
0.026639137417078018,0.004007227253168821,-0.015373902395367622,0.012659614905714989,-0.000458560447441414,0.022587290033698082
0.02701796218752861,0.003917877562344074,-0.016066452488303185,0.012079605832695961,-0.0004933884483762085,0.022594962269067764
0.027190687134861946,0.003854047041386366,-0.015600627288222313,0.012603909708559513,-0.0005251230322755873,0.022944703698158264
0.027038952335715294,0.003843901678919792,-0.015917973592877388,0.013373544439673424,-0.0005226437933743,0.02302379161119461
0.02611839957535267,0.003816322423517704,-0.015676451846957207,0.014109880663454533,-0.0007336228154599667,0.022972768172621727
0.025799717754125595,0.0037796751130372286,-0.015903443098068237,0.014270919375121593,-0.0007092260639183223,0.022961992770433426
0.027065621688961983,0.004141686949878931,-0.016324752941727638,0.014118657447397709,-0.0006813837098889053,0.023111052811145782
0.027672406286001205,0.0042342240922153,-0.015930738300085068,0.013916087336838245,-0.0006557405577041209,0.023292232304811478
0.02745465561747551,0.00403852853924036,-0.016490913927555084,0.01378548052161932,-0.0006699547520838678,0.02321925200521946
0.02710283175110817,0.003999748732894659,-0.016029532998800278,0.01359360758215189,-0.0006861523143015802,0.023584634065628052
0.027074573561549187,0.0035230673383921385,-0.016729550436139107,0.01327790878713131,-0.0006530999089591205,0.022304242476820946
0.027074573561549187,0.0035230673383921385,-0.016729550436139107,0.01327790878713131,-0.0006530999089591205,0.022304242476820946
0.027420643717050552,0.004179091192781925,-0.01583845168352127,0.013656065799295902,-0.0006724830600433052,0.022635048255324364
0.027868904173374176,0.004176687449216843,-0.016328800469636917,0.013768005184829235,-0.0006099905585870147,0.023042328655719757
0.02760876528918743,0.0035195518285036087,-0.016896989196538925,0.014173010364174843,-0.0006156390882097185,0.023676689714193344
0.0276076290756464,0.003568176180124283,-0.01674114540219307,0.013547738082706928,-0.0005795725737698376,0.024160658940672874
0.027744118124246597,0.003785468637943268,-0.01692362315952778,0.013801265507936478,-0.0005974640371277928,0.023935697972774506
0.028079312294721603,0.0038427601102739573,-0.01627654954791069,0.013656006194651127,-0.0005952668143436313,0.023816123604774475
0.028358545154333115,0.0037891080137342215,-0.016880517825484276,0.013684581033885479,-0.0006109141977503896,0.022890755906701088
0.028340259566903114,0.0037554167211055756,-0.016819549724459648,0.01392658893018961,-0.0005937312380410731,0.022986523807048798
0.028089115396142006,0.0038323006592690945,-0.017107797786593437,0.013953156769275665,-0.0006209900602698326,0.023496150970458984
0.028002630919218063,0.003461130429059267,-0.017321191728115082,0.013962481170892715,-0.0005989560740999877,0.023438604548573494
0.02812858112156391,0.004096946679055691,-0.017523759976029396,0.013834391720592976,-0.0007108270074240863,0.02387775294482708
0.02875600755214691,0.004172892775386572,-0.01697460748255253,0.014065851457417011,-0.0007164333947002888,0.02459738962352276
0.02860902063548565,0.003972531761974096,-0.017425362020730972,0.013829223811626434,-0.0006575493607670069,0.024733681231737137
0.028718989342451096,0.003813296789303422,-0.0178439449518919,0.013949238695204258,-0.0005877381190657616,0.024009643122553825
0.029053926467895508,0.0038201429415494204,-0.0174406785517931,0.013589034788310528,-0.0006060964078642428,0.02301621623337269
0.028858570381999016,0.0038794190622866154,-0.018181471154093742,0.014200198464095592,-0.0005622798344120383,0.022942816838622093
0.028824470937252045,0.003909822553396225,-0.017936335876584053,0.013707137666642666,-0.000585368718020618,0.023475870490074158
0.029192961752414703,0.003927868790924549,-0.01797003485262394,0.013570204377174377,-0.0005501541309058666,0.024429377168416977
0.029439160600304604,0.004023375455290079,-0.017856521531939507,0.013923145830631256,-0.000509762903675437,0.02481848932802677
0.029339542612433434,0.004072600044310093,-0.01688072644174099,0.013780257664620876,-0.000538118532858789,0.024581141769886017
0.02895163558423519,0.003598610172048211,-0.01758120022714138,0.014201471582055092,-0.0005709074903279543,0.024556992575526237
0.030344601720571518,0.003417437430471182,-0.017766060307621956,0.014420869760215282,-0.0005987643380649388,0.02447555959224701
0.030451864004135132,0.0034888284280896187,-0.017667079344391823,0.014308917336165905,-0.0005654717097058892,0.025027135387063026
0.030451864004135132,0.0034888284280896187,-0.017667079344391823,0.014308917336165905,-0.0005654717097058892,0.025027135387063026
0.030417364090681076,0.003672940656542778,-0.017861483618617058,0.013809106312692165,-0.000733617867808789,0.024301424622535706
0.029399853199720383,0.0038044131360948086,-0.016283897683024406,0.014217671938240528,-0.0007649934268556535,0.024366147816181183
0.02896614745259285,0.004285478498786688,-0.01886172406375408,0.014491776004433632,-0.0007747093914076686,0.024465400725603104
0.029873786494135857,0.004075306002050638,-0.01930733025074005,0.014947907999157906,-0.0007882264326326549,0.024655746296048164
0.03002951852977276,0.004271628800779581,-0.018208347260951996,0.015351732261478901,-0.0007217026432044804,0.024888142943382263
0.029876884073019028,0.004249477759003639,-0.018083471804857254,0.015695160254836082,-0.0006566280499100685,0.024889271706342697
0.03149935230612755,0.0037378892302513123,-0.018382597714662552,0.015611334703862667,-0.0006406251341104507,0.025007575750350952
0.030325185507535934,0.003540800651535392,-0.017738234251737595,0.015078620053827763,-0.0005684045609086752,0.024978484958410263
0.02957126498222351,0.004042790737003088,-0.01789737492799759,0.014579005539417267,-0.000591830990742892,0.024925798177719116
0.029084384441375732,0.004211008083075285,-0.01811928115785122,0.013966131024062634,-0.0005439304513856769,0.024970710277557373
0.029635339975357056,0.003980645444244146,-0.01851232536137104,0.014741220511496067,-0.0005713494610972703,0.02517964132130146
0.030360953882336617,0.004167351871728897,-0.019121909514069557,0.014929710887372494,-0.000564966700039804,0.024938395246863365
0.030485983937978745,0.004287492483854294,-0.018266286700963974,0.01570623740553856,-0.0005549536435864866,0.024781882762908936
0.030481204390525818,0.004001716151833534,-0.0183520819991827,0.015296022407710552,-0.0005172632518224418,0.02553665079176426
0.03038901649415493,0.0036407343577593565,-0.018473370000720024,0.014962528832256794,-0.0004649446636904031,0.026073172688484192
0.03043944202363491,0.0039457459934055805,-0.018613209947943687,0.015738528221845627,-0.0004657029057852924,0.02503098174929619
0.03073243424296379,0.003994178492575884,-0.01920185424387455,0.01515598688274622,-0.00046305631985887885,0.02471117489039898
0.030693762004375458,0.0039223977364599705,-0.018815089017152786,0.016059845685958862,-0.0004903775407001376,0.025288032367825508
0.03063984215259552,0.004336168058216572,-0.019025476649403572,0.015357963740825653,-0.0005115349194966257,0.02633574977517128
0.030758365988731384,0.004470022860914469,-0.01904962956905365,0.015315844677388668,-0.0004922363441437483,0.025603238493204117
0.030716074630618095,0.004250158090144396,-0.01824200712144375,0.015323631465435028,-0.0006564398063346744,0.025292562320828438
0.031033653765916824,0.003984793554991484,-0.019130565226078033,0.015571683645248413,-0.0007023678044788539,0.026071080937981606
0.030373496934771538,0.0038708671927452087,-0.019348880276083946,0.015101926401257515,-0.0006355101359076798,0.026243889704346657
0.03154141455888748,0.004307120572775602,-0.018828827887773514,0.015039042569696903,-0.0005694255814887583,0.025664037093520164
0.03111341968178749,0.004395049996674061,-0.019463276490569115,0.015237346291542053,-0.0005564845050685108,0.02577538974583149
0.030425352975726128,0.004268263932317495,-0.01968458853662014,0.015517070889472961,-0.000545659800991416,0.024807056412100792
0.030842814594507217,0.004356785211712122,-0.01875653862953186,0.01616274192929268,-0.0005572873633354902,0.025279030203819275
0.03069687820971012,0.004588424693793058,-0.01900525763630867,0.015428993850946426,-0.0005326068494468927,0.026455258950591087
0.032125163823366165,0.004192472435534,-0.019256845116615295,0.015830347314476967,-0.0005059593240730464,0.026778150349855423
0.03234162554144859,0.004393946845084429,-0.018950002267956734,0.015556469559669495,-0.00046515834401361644,0.026667213067412376
0.03234162554144859,0.004393946845084429,-0.018950002267956734,0.015556469559669495,-0.00046515834401361644,0.026667213067412376
0.0313844308257103,0.004141673445701599,-0.01967349648475647,0.016155363991856575,-0.0004949342692270875,0.026208823546767235
0.030319029465317726,0.003958818037062883,-0.01980682834982872,0.01592426188290119,-0.0004997590440325439,0.026155849918723106
0.03153788670897484,0.0041179959662258625,-0.020093582570552826,0.016204072162508965,-0.0005294558359310031,0.026256579905748367
0.03205188736319542,0.004249110352247953,-0.019932661205530167,0.016446886584162712,-0.0005280243349261582,0.0263512060046196
0.03202107548713684,0.004426866304129362,-0.019882619380950928,0.016417236998677254,-0.0007152515463531017,0.026676030829548836
0.032577626407146454,0.004207804799079895,-0.019038302823901176,0.01671753264963627,-0.0007496969192288816,0.026684539392590523
0.03200557082891464,0.004013548605144024,-0.019337113946676254,0.016028160229325294,-0.0007190753240138292,0.02676127664744854
0.03181092441082001,0.0039641233161091805,-0.01984173245728016,0.016387684270739555,-0.0006883175810799003,0.026664908975362778
0.031426992267370224,0.003977339249104261,-0.019498426467180252,0.015724996104836464,-0.0006999187753535807,0.02691047266125679
0.03224512189626694,0.004556209780275822,-0.01991984434425831,0.016197185963392258,-0.0006475218688137829,0.027336623519659042
0.03260382264852524,0.004794747103005648,-0.02002795599400997,0.01639655977487564,-0.0006393403746187687,0.026827221736311913
0.03283253312110901,0.003962373826652765,-0.019583197310566902,0.0164986252784729,-0.0006035878323018551,0.02693464420735836
0.03250657767057419,0.004021740984171629,-0.020579839125275612,0.015639139339327812,-0.0006285050767473876,0.0270309429615736
0.03247101977467537,0.004210320301353931,-0.020559215918183327,0.01616252027451992,-0.0006475335103459656,0.027255114167928696
0.031153837218880653,0.0044775111600756645,-0.019905153661966324,0.016247348859906197,-0.0006863684975542128,0.027308298274874687
0.03358999639749527,0.004134702030569315,-0.020506877452135086,0.016837013885378838,-0.0007307971827685833,0.027636440470814705
0.03332754969596863,0.004490169696509838,-0.020605679601430893,0.016477303579449654,-0.0006978781893849373,0.027033371850848198
0.03353884071111679,0.004125657491385937,-0.01982564479112625,0.016521666198968887,-0.0007104678079485893,0.027258316054940224
0.033402375876903534,0.004400753881782293,-0.020473839715123177,0.017099017277359962,-0.0006494399858638644,0.027583027258515358
0.03335215896368027,0.004150895867496729,-0.0209234356880188,0.016890987753868103,-0.0006619153427891433,0.027793431654572487
0.03318881615996361,0.003948005847632885,-0.02066589519381523,0.01696186698973179,-0.0006963969208300114,0.027962306514382362
0.03391553461551666,0.003891939064487815,-0.020612813532352448,0.016913391649723053,-0.0006911990931257606,0.028038861230015755
0.033667903393507004,0.004078684840351343,-0.020813357084989548,0.017064709216356277,-0.0006617382750846446,0.028223250061273575
0.03387809544801712,0.0041617159731686115,-0.020704947412014008,0.017154013738036156,-0.0006775485817342997,0.027977395802736282
0.03407188132405281,0.004397919867187738,-0.020563682541251183,0.0166871789842844,-0.0006873783422634006,0.028166577219963074
0.034214816987514496,0.0041053458116948605,-0.02098126895725727,0.01711885631084442,-0.0007857395685277879,0.02837984822690487
0.034214816987514496,0.0041053458116948605,-0.02098126895725727,0.01711885631084442,-0.0007857395685277879,0.02837984822690487
0.03398154675960541,0.004040053579956293,-0.020897477865219116,0.016728799790143967,-0.0008363579399883747,0.027603864669799805
0.034385208040475845,0.004032218363136053,-0.020502014085650444,0.016971342265605927,-0.0008472822373732924,0.02846435457468033
0.03490111976861954,0.003944311290979385,-0.020258745178580284,0.016920719295740128,-0.0008537914836779237,0.029432708397507668
0.03513357788324356,0.004350567702203989,-0.020959943532943726,0.016715750098228455,-0.0007766811177134514,0.02825314924120903
0.03505249321460724,0.004137181676924229,-0.020925620570778847,0.01726795919239521,-0.0008421344682574272,0.027362408116459846
0.034823227673769,0.004448059014976025,-0.020394932478666306,0.01708129048347473,-0.0007208898314274848,0.02842584066092968
0.03536007180809975,0.0041352491825819016,-0.020838094875216484,0.0174383744597435,-0.0007120918016880751,0.029124896973371506
0.03666463494300842,0.0038336138240993023,-0.021056510508060455,0.017856568098068237,-0.000653257011435926,0.02848542481660843
0.03676970303058624,0.003989700227975845,-0.020657485350966454,0.01768222451210022,-0.0006553445127792656,0.029236746951937675
0.033901069313287735,0.003976054023951292,-0.020610157400369644,0.01751543954014778,-0.0006134033319540322,0.030329400673508644
0.03607151284813881,0.003849781583994627,-0.02107267640531063,0.016943341121077538,-0.0005988923949189484,0.028999175876379013
0.036312736570835114,0.004610342439264059,-0.0209813192486763,0.017477162182331085,-0.0005189556395635009,0.02851296216249466
0.036312736570835114,0.004610342439264059,-0.0209813192486763,0.017477162182331085,-0.0005189556395635009,0.02851296216249466
0.037693291902542114,0.004313431214541197,-0.021228451281785965,0.017970863729715347,-0.0005620005540549755,0.029924307018518448
0.035430312156677246,0.004250070080161095,-0.021220628172159195,0.017479628324508667,-0.0005899861571379006,0.02951670251786709
0.03620217368006706,0.004065260291099548,-0.020726792514324188,0.01768592558801174,-0.0007789561641402543,0.029105989262461662
0.03687022998929024,0.0038879294879734516,-0.020214153453707695,0.017291085794568062,-0.000978247495368123,0.02921520359814167
0.03773878514766693,0.004032070282846689,-0.02078026346862316,0.017056144773960114,-0.0009589267428964376,0.029424021020531654
0.03743277117609978,0.004020622465759516,-0.0208225529640913,0.017506124451756477,-0.0009197060135193169,0.029918307438492775
0.036747731268405914,0.0038753736298531294,-0.02065032348036766,0.017610274255275726,-0.0008633933612145483,0.02968796156346798
0.037407007068395615,0.0037151449359953403,-0.02105928584933281,0.017607951536774635,-0.0008127757464535534,0.029456710442900658
0.03757360577583313,0.004164170939475298,-0.02137587033212185,0.017185799777507782,-0.0007904903613962233,0.02970408834517002
0.037535086274147034,0.00413359934464097,-0.020745571702718735,0.017280057072639465,-0.0007439457694999874,0.029782569035887718
0.037624966353178024,0.003973802085965872,-0.020374048501253128,0.01747901365160942,-0.0007513603777624667,0.02986590750515461
0.037326421588659286,0.003886711085215211,-0.02087743766605854,0.016769079491496086,-0.0007540765218436718,0.029911905527114868
0.03737903758883476,0.00424240855500102,-0.021099194884300232,0.01705593802034855,-0.0007085189572535455,0.029767021536827087
0.03737903758883476,0.00424240855500102,-0.021099194884300232,0.01705593802034855,-0.0007085189572535455,0.029767021536827087
0.03806966915726662,0.004276419524103403,-0.020607227459549904,0.01725906692445278,-0.0007834719144739211,0.030111629515886307
0.03810703009366989,0.003951626364141703,-0.02137964777648449,0.017178773880004883,-0.0008027438307181001,0.03027491457760334
0.0375327467918396,0.003814566880464554,-0.021581746637821198,0.017409339547157288,-0.0008422226528637111,0.029726389795541763
0.0391601100564003,0.003857000032439828,-0.021346764639019966,0.017226191237568855,-0.0009420368587598205,0.02959872968494892
0.039792004972696304,0.003947940655052662,-0.021179473027586937,0.017701292410492897,-0.0010400923201814294,0.030431417748332024
0.03683580085635185,0.003948714584112167,-0.021130774170160294,0.01791056990623474,-0.0010436872253194451,0.030972188338637352
0.03742693364620209,0.003909775987267494,-0.02143901400268078,0.017885684967041016,-0.0010245584417134523,0.030267566442489624
0.03896489366889,0.003927328158169985,-0.020790861919522285,0.018046025186777115,-0.0009838641854003072,0.029057998210191727
0.03842176869511604,0.003867794992402196,-0.021645087748765945,0.017909660935401917,-0.0009491664823144674,0.028967780992388725
0.03932204470038414,0.003813373390585184,-0.0216736551374197,0.017978016287088394,-0.0008709134417586029,0.0307910293340683
0.03787783533334732,0.004222877789288759,-0.02218216471374035,0.016896668821573257,-0.0008499197429046035,0.031148504465818405
0.03846803680062294,0.004131029825657606,-0.021644432097673416,0.018048755824565887,-0.0008133055525831878,0.03130068629980087
0.03897915780544281,0.003509021131321788,-0.02165759913623333,0.018285933881998062,-0.0007902433862909675,0.031001409515738487
0.03906324878334999,0.003619827562943101,-0.022110428661108017,0.018518885597586632,-0.0007437010062858462,0.02982114627957344
0.03923435136675835,0.003921294119209051,-0.022656511515378952,0.01926257647573948,-0.000657141674309969,0.029807304963469505
0.038204409182071686,0.004022121895104647,-0.022133290767669678,0.019151534885168076,-0.0006764669669792056,0.031117230653762817
0.03843451663851738,0.003913272172212601,-0.021867522969841957,0.018808746710419655,-0.0006978699238970876,0.031515300273895264
0.03880469128489494,0.0034311749041080475,-0.022353526204824448,0.019061483442783356,-0.0007953339372761548,0.031100952997803688
0.03879576176404953,0.003530575428158045,-0.02250801958143711,0.019123289734125137,-0.0008213793626055121,0.03107105940580368
0.03875518962740898,0.003742925124242902,-0.02291032299399376,0.018610652536153793,-0.0008319994085468352,0.03144051879644394
0.03962334617972374,0.003830787492915988,-0.022476885467767715,0.018818475306034088,-0.0007918881019577384,0.03182130679488182
0.03893524408340454,0.0038046855479478836,-0.022026391699910164,0.018633771687746048,-0.000908812100533396,0.03166567534208298
0.03925012797117233,0.0037867026403546333,-0.02233165130019188,0.01863342709839344,-0.0008979110862128437,0.031720735132694244
