davideferrari95/blind_handover_controller/data/Test 71 - [2024-02-07 -- 15-50-00]/joint_states_data.csv
shoulder_pan_joint,shoulder_lift_joint,elbow_joint,wrist_1_joint,wrist_2_joint,wrist_3_joint
0.00695969071239233,0.00543447770178318,-0.005628432147204876,0.003951219841837883,0.0,0.0075189052149653435
0.00695969071239233,0.00543447770178318,-0.005628432147204876,0.003951219841837883,0.0,0.0075189052149653435
0.007456578779965639,0.0046205539256334305,-0.005276556126773357,0.004255880136042833,0.0,0.007487674709409475
0.007456578779965639,0.0046205539256334305,-0.005276556126773357,0.004255880136042833,0.0,0.007487674709409475
0.008228209801018238,0.004344899673014879,-0.005751495249569416,0.0037385604809969664,0.0,0.007643878925591707
0.007747719995677471,0.00499674491584301,-0.005834226496517658,0.0034142364747822285,0.0,0.007533574011176825
0.006835317704826593,0.005034473724663258,-0.005694231949746609,0.003227690001949668,0.0,0.0074858227744698524
0.007521829567849636,0.005419939290732145,-0.005147839896380901,0.003771647345274687,0.0,0.007372505962848663
0.007925868965685368,0.005054145120084286,-0.005041099619120359,0.0041827242821455,0.0,0.007697655353695154
0.007256309501826763,0.00475401571020484,-0.0050702025182545185,0.003757044905796647,0.0,0.007255445700138807
0.00728201400488615,0.004496161825954914,-0.005806156899780035,0.003100238274782896,0.0,0.007172965910285711
0.007694520987570286,0.004305927082896233,-0.005424194037914276,0.00305849383585155,0.0,0.00776559067890048
0.007421429734677076,0.00452144630253315,-0.00520584499463439,0.0030120653100311756,0.0,0.00764187378808856
0.007436063140630722,0.004658285994082689,-0.005025400780141354,0.0032760724425315857,0.0,0.007100085727870464
0.007675272412598133,0.004571180325001478,-0.0052564991638064384,0.0032595773227512836,0.0,0.006663714535534382
0.007808250840753317,0.004254229366779327,-0.005486627109348774,0.003044536802917719,0.0,0.006809913087636232
0.007161683402955532,0.00435881782323122,-0.005541752092540264,0.002976349787786603,0.0,0.007250405848026276
0.007561818230897188,0.004088873974978924,-0.0045853410847485065,0.0029855831526219845,0.0,0.007307456806302071
0.007565601263195276,0.004390584770590067,-0.004396424163132906,0.0030124452896416187,0.0,0.007246082182973623
0.007887247018516064,0.004518664442002773,-0.005966413766145706,0.0028003130573779345,0.0,0.0071800993755459785
0.007435441017150879,0.004406391177326441,-0.006343117915093899,0.0027116124983876944,0.0,0.0075645470060408115
0.008262869901955128,0.0043601468205451965,-0.005413861479610205,0.0026036289054900408,0.0,0.007203713525086641
0.007899404503405094,0.0041182199493050575,-0.004790917970240116,0.002839540597051382,0.0,0.007873857393860817
0.007554990239441395,0.004434725735336542,-0.0052134795114398,0.002992610214278102,0.0,0.007249846123158932
0.007635609712451696,0.00422785384580493,-0.005256020929664373,0.0029015361797064543,0.0,0.007351879961788654
0.007871381938457489,0.004457597620785236,-0.005699890665709972,0.0027134206611663103,0.0,0.007365872152149677
0.00783279538154602,0.004704989027231932,-0.005752459168434143,0.002794952131807804,0.0,0.00742547819390893
0.00784058216959238,0.0043364232406020164,-0.005601252429187298,0.002901128027588129,0.0,0.007460441906005144
0.007037145085632801,0.004292789846658707,-0.005153745878487825,0.0031748146284371614,0.0,0.007372528780251741
0.007195598911494017,0.004589484538882971,-0.004972582217305899,0.002990302862599492,0.0,0.00714994128793478
0.008021779358386993,0.004662826657295227,-0.005097595974802971,0.0028515488374978304,0.0,0.007221870124340057
0.008021779358386993,0.004662826657295227,-0.005097595974802971,0.0028515488374978304,0.0,0.007221870124340057
0.007489167153835297,0.004383559804409742,-0.005494678858667612,0.002468123333528638,0.0,0.007307250984013081
0.007291674613952637,0.0044969129376113415,-0.006034153513610363,0.00235434016212821,0.0,0.00731043191626668
0.007050179410725832,0.0043254573829472065,-0.005326859652996063,0.0026304798666387796,0.0,0.007077523972839117
0.0069831437431275845,0.004437568597495556,-0.004815233405679464,0.003191719064489007,0.0,0.006949594710022211
0.007961764000356197,0.004443786107003689,-0.005180682986974716,0.0032008520793169737,0.0,0.007239663507789373
0.006385657005012035,0.004587021190673113,-0.005017165094614029,0.0030857762321829796,0.0,0.007631737273186445
0.0075064767152071,0.004632291849702597,-0.005204445216804743,0.0028571540024131536,0.0,0.007766295224428177
0.007606153842061758,0.004684502724558115,-0.005827811546623707,0.003019986441358924,0.0,0.00706021673977375
0.006902526132762432,0.004686523228883743,-0.005448853597044945,0.003019315656274557,0.0,0.007842686027288437
0.00752536254003644,0.004839583300054073,-0.005046410020440817,0.0027908487245440483,0.0,0.007874282076954842
0.007046934217214584,0.004391117487102747,-0.005106298252940178,0.002504009520635009,0.0,0.00715277437120676
0.007101758848875761,0.00436395313590765,-0.005602685734629631,0.0024146835785359144,0.0,0.006777818314731121
0.007080450654029846,0.004471473395824432,-0.005390869919210672,0.0023275036364793777,0.0,0.0073227956891059875
0.006855156272649765,0.004502385389059782,-0.005079478491097689,0.002468031831085682,0.0,0.007435841951519251
0.007239903323352337,0.004665485583245754,-0.005687444005161524,0.0025713432114571333,0.0,0.007418482564389706
0.007660068105906248,0.004427062813192606,-0.005408845841884613,0.0025075809098780155,0.0,0.007070936728268862
0.007188122253865004,0.004311264026910067,-0.005984930787235498,0.0026641397271305323,0.0,0.007195028942078352
0.006779334507882595,0.004195045214146376,-0.00535903824493289,0.0026956142392009497,0.0,0.007154169492423534
0.007272963412106037,0.004346461500972509,-0.005326566286385059,0.002695545321330428,0.0,0.007242516614496708
0.007116023451089859,0.004505988210439682,-0.005520406179130077,0.0027996378485113382,0.0,0.00703286612406373
0.007116023451089859,0.004505988210439682,-0.005520406179130077,0.0027996378485113382,0.0,0.00703286612406373
0.00726226344704628,0.004603497218340635,-0.005383403040468693,0.002783428877592087,0.0,0.007211616728454828
0.007258967496454716,0.004281200934201479,-0.005730763543397188,0.002542059402912855,0.0,0.007526717148721218
0.007348362822085619,0.004229986574500799,-0.005847330670803785,0.002567026298493147,0.0,0.0076451716013252735
0.007302260026335716,0.004083278588950634,-0.005807777866721153,0.002293485915288329,0.0,0.007029186002910137
0.007292924448847771,0.004433223512023687,-0.005204494576901197,0.0022416424471884966,0.0,0.007299975026398897
0.007255516014993191,0.004804737400263548,-0.005234260577708483,0.0023597227409482002,0.0,0.007438542786985636
0.0077781653963029385,0.004789463244378567,-0.005557148717343807,0.0022608726285398006,0.0,0.00753657054156065
0.00763071421533823,0.004627163056284189,-0.006327607203274965,0.0023769468534737825,0.0,0.007619111333042383
0.007370457984507084,0.00475870817899704,-0.006292602047324181,0.0025739273987710476,0.0,0.0071907793171703815
0.007188003975898027,0.00476091681048274,-0.0056334142573177814,0.0024922124575823545,0.0,0.0067964401096105576
0.007454833015799522,0.0046026152558624744,-0.0059255450032651424,0.002580414991825819,0.0,0.006618151441216469
0.007258401717990637,0.004410067107528448,-0.006351633928716183,0.0023553334176540375,0.0,0.007216150406748056
0.007262563332915306,0.0046675605699419975,-0.006696998607367277,0.0023370995186269283,0.0,0.007792512886226177
0.0075268857181072235,0.005217156372964382,-0.006146343424916267,0.0020872855093330145,0.0,0.0073447697795927525
0.007783912122249603,0.00467150891199708,-0.005761967971920967,0.001939121400937438,0.0,0.0072404248639941216
0.007454532664269209,0.00436929427087307,-0.005537793971598148,0.0018029058119282126,0.0,0.0072715189307928085
0.007232366595417261,0.004112558905035257,-0.006373906508088112,0.0018513837130740285,0.0,0.007041485980153084
0.007593255024403334,0.004372584167867899,-0.006413895171135664,0.0017493488267064095,0.0,0.006942822597920895
0.008288499899208546,0.004548107739537954,-0.005926837213337421,0.0019622112158685923,0.0,0.00720789423212409
0.00787331722676754,0.004576768260449171,-0.006340501829981804,0.0018325586570426822,0.0,0.007918077521026134
0.00769793288782239,0.00466026458889246,-0.006052869372069836,0.002014750614762306,0.0,0.007894766516983509
0.0077134547755122185,0.0050098174251616,-0.006142049096524715,0.0019026336958631873,0.0,0.00756209809333086
0.0077295852825045586,0.00442550191655755,-0.006523543503135443,0.0021400912664830685,0.0,0.007568947039544582
0.007720927242189646,0.0045331185683608055,-0.006614898331463337,0.002053366042673588,0.0,0.007604567334055901
0.0070916274562478065,0.004584052134305239,-0.006196134723722935,0.0021879165433347225,0.0,0.008039217442274094
0.0071272095665335655,0.004639702849090099,-0.006336543243378401,0.002168925479054451,0.0,0.007582171354442835
0.008085189387202263,0.004786660894751549,-0.006572581361979246,0.0020994609221816063,0.0,0.00767277367413044
0.00789697002619505,0.004822331015020609,-0.006097549106925726,0.002060034079477191,0.0,0.007661644835025072
0.007816839031875134,0.0046076904982328415,-0.006146145518869162,0.0020992958452552557,0.0,0.007460562512278557
0.007816839031875134,0.0046076904982328415,-0.006146145518869162,0.0020992958452552557,0.0,0.007460562512278557
0.007814468815922737,0.004311352036893368,-0.006457274314016104,0.0019533210434019566,0.0,0.007325058337301016
0.007057742681354284,0.004367980640381575,-0.006483764853328466,0.0017822954105213284,0.0,0.007413105573505163
0.007217939477413893,0.0045275031588971615,-0.0064675998874008656,0.0016547730192542076,0.0,0.007574962452054024
0.008107928559184074,0.004582309629768133,-0.0064050424844026566,0.0014975817175582051,0.0,0.007477445062249899
0.007653231732547283,0.00444486690685153,-0.005843773949891329,0.0014744226355105639,0.0,0.007165008224546909
0.0073738740757107735,0.004162298981100321,-0.006078897509723902,0.0015371672343462706,0.0,0.006900546606630087
0.007309958338737488,0.004267147276550531,-0.006781382020562887,0.0016208500601351261,0.0,0.007492436096072197
0.008054707199335098,0.004164407961070538,-0.006701087579131126,0.0019208166049793363,0.0,0.0076927319169044495
0.007659465540200472,0.004376357886940241,-0.006211831234395504,0.002389058470726013,0.0,0.006732675712555647
0.007239076308906078,0.004103658255189657,-0.0060644266195595264,0.002365777501836419,0.0,0.006972445175051689
0.007475819904357195,0.004411849193274975,-0.006183610297739506,0.0024823371786624193,0.0,0.007589830085635185
0.00784236565232277,0.004467603750526905,-0.006439270917326212,0.0022353229578584433,0.0,0.007215513847768307
0.00770203210413456,0.004293543286621571,-0.006046037655323744,0.002102912636473775,0.0,0.007141272537410259
0.007306900341063738,0.004010573960840702,-0.005979763809591532,0.0019620219245553017,0.0,0.0074930074624717236
0.00842039193958044,0.0042280033230781555,-0.006552457809448242,0.0020029337611049414,0.0,0.0077169183641672134
0.008000875823199749,0.0044535379856824875,-0.00672907056286931,0.0022932745050638914,0.0,0.007697290740907192
0.008260136470198631,0.0043230908922851086,-0.005847257096320391,0.0021392316557466984,0.0,0.007259523496031761
0.007855730131268501,0.004580431617796421,-0.006449553649872541,0.0021101159509271383,0.0,0.007268799468874931
0.0077988216653466225,0.004603720270097256,-0.006768446881324053,0.0018855510279536247,0.0,0.0071115316823124886
0.007993467152118683,0.004301019944250584,-0.006729047279804945,0.0015088948421180248,0.0,0.007172347977757454
0.00778508884832263,0.004348976071923971,-0.0062559135258197784,0.0015093105612322688,0.0,0.007398377638310194
0.00733499089255929,0.004089382477104664,-0.00592022854834795,0.0015871194191277027,0.0,0.0075509147718548775
0.00840518344193697,0.003974410705268383,-0.0059998417273163795,0.0016606672434136271,0.0,0.008031097240746021
0.00840518344193697,0.003974410705268383,-0.0059998417273163795,0.0016606672434136271,0.0,0.008031097240746021
0.008105095475912094,0.004674219060689211,-0.007069815415889025,0.0018762986874207854,0.0,0.007630911655724049
0.008105095475912094,0.004674219060689211,-0.007069815415889025,0.0018762986874207854,0.0,0.007630911655724049
0.008295547217130661,0.004468244034796953,-0.005842486396431923,0.0020801350474357605,0.0,0.007626868784427643
0.008295547217130661,0.004468244034796953,-0.005842486396431923,0.0020801350474357605,0.0,0.007626868784427643
0.007911250926554203,0.004090506117790937,-0.005779597908258438,0.002303504152223468,0.0,0.007485955022275448
0.008169791661202908,0.003890206338837743,-0.006527221295982599,0.0020837350748479366,0.0,0.007502302061766386
0.008496892638504505,0.004237004090100527,-0.007342908531427383,0.0018797393422573805,0.0,0.007882457226514816
0.008433704264461994,0.00422244518995285,-0.006430376786738634,0.0018460535211488605,0.0,0.008505166508257389
0.008163188584148884,0.004485295154154301,-0.006280208472162485,0.002005542628467083,0.0,0.007635504473000765
0.00873623974621296,0.0045823827385902405,-0.005575078539550304,0.0020499667152762413,0.0,0.007034014910459518
0.008169544860720634,0.004151197150349617,-0.0056352922692894936,0.0019081783248111606,0.0,0.007592179346829653
0.007895831018686295,0.00397079112008214,-0.006011416204273701,0.0016945400275290012,0.0,0.007473191246390343
0.008523602038621902,0.004314478021115065,-0.005608366336673498,0.001479606726206839,0.0,0.007361123338341713
0.008520492352545261,0.0042858486995100975,-0.0058656553737819195,0.001521338359452784,0.0,0.007406983058899641
0.008070103824138641,0.004500989802181721,-0.006266101263463497,0.0014698280720040202,0.0,0.0074467905797064304
0.008187277242541313,0.004293748643249273,-0.006070973351597786,0.001598764443770051,0.0,0.007497370708733797
0.008628367446362972,0.004290660843253136,-0.005725600756704807,0.0017052965704351664,0.0,0.007447931915521622
0.008524352684617043,0.004474778193980455,-0.005164199508726597,0.0018484006868675351,0.0,0.008071006275713444
0.007610387168824673,0.0042150611989200115,-0.006053163204342127,0.0018251588335260749,0.0,0.00787341222167015
0.008061216212809086,0.003984818235039711,-0.006136989686638117,0.0018212482100352645,0.0,0.007134190760552883
0.008383852429687977,0.004291674122214317,-0.0065425061620771885,0.0017012517200782895,0.0,0.007002844009548426
0.008764601312577724,0.004376682452857494,-0.0056947157718241215,0.0016743059968575835,0.0,0.008007540367543697
0.00790033582597971,0.004570199176669121,-0.005611298140138388,0.001645813463255763,0.0,0.008329028263688087
0.008418504148721695,0.004341689869761467,-0.005645398981869221,0.0016958897467702627,0.0,0.007959911599755287
0.008832508698105812,0.004035046324133873,-0.005798253696411848,0.001639293972402811,0.0,0.007709931582212448
0.008832508698105812,0.004035046324133873,-0.005798253696411848,0.001639293972402811,0.0,0.007709931582212448
0.007821232080459595,0.003848837688565254,-0.0060952710919082165,0.0017931225011125207,0.0,0.007153581827878952
0.008646683767437935,0.00428342167288065,-0.0061106812208890915,0.0018084370531141758,0.0,0.0073168217204511166
0.00907936692237854,0.004183640703558922,-0.0056462837383151054,0.0019203966949135065,0.0,0.007557988166809082
0.008049482479691505,0.004396642558276653,-0.00556858628988266,0.00156221236102283,0.0,0.008169641718268394
0.008346241898834705,0.004283970687538385,-0.00620332220569253,0.0015328211011365056,0.0,0.008032568730413914
0.008746993727982044,0.004021133296191692,-0.006149498745799065,0.0014744253130629659,0.0,0.007904397323727608
0.008746993727982044,0.004021133296191692,-0.006149498745799065,0.0014744253130629659,0.0,0.007904397323727608
0.008510089479386806,0.00435410812497139,-0.006222191266715527,0.0015807045856490731,0.0,0.007538964040577412
0.008754316717386246,0.0041992855258286,-0.006378349848091602,0.0016465343069285154,0.0,0.008083214983344078
0.0090702585875988,0.003930546808987856,-0.005677239038050175,0.0018191448180004954,0.0,0.007963128387928009
0.00856451503932476,0.004035860765725374,-0.006506231613457203,0.001841302728280425,0.0,0.008143319748342037
0.008294353261590004,0.004182642325758934,-0.006008124444633722,0.0018914630636572838,0.0,0.0077405464835464954
0.008209827356040478,0.004036280792206526,-0.005789770279079676,0.0018694150494411588,0.0,0.007735601160675287
0.008044075220823288,0.0038292566314339638,-0.0058938502334058285,0.001863047364167869,0.0,0.007496866397559643
0.008440776728093624,0.004320244770497084,-0.006582938600331545,0.0019261665875092149,0.0,0.008024679496884346
0.008883669041097164,0.004130908753722906,-0.005909538362175226,0.0019133428577333689,0.0,0.008407925255596638
0.008519566617906094,0.003914256114512682,-0.005563570652157068,0.00182123645208776,0.0,0.008149966597557068
0.008330566808581352,0.00387137895449996,-0.0053503201343119144,0.001824709470383823,0.0,0.008026386611163616
0.008871286176145077,0.004325158894062042,-0.005884819198399782,0.0018764730775728822,0.0,0.0079672085121274
0.008545177057385445,0.004159486386924982,-0.006553012412041426,0.0018908666679635644,0.0,0.008053922094404697
0.00821990892291069,0.004165295511484146,-0.006318160332739353,0.0017754565924406052,0.0,0.008166485466063023
0.008558004163205624,0.003994411788880825,-0.005930101498961449,0.0017801361391320825,0.0,0.0076714917086064816
0.008650328032672405,0.003820532001554966,-0.005820395890623331,0.0016787704080343246,0.0,0.008095146156847477
0.008534617722034454,0.004280798602849245,-0.0058324337005615234,0.0017437011701986194,0.0,0.008181191980838776
0.008329898118972778,0.004704101476818323,-0.006755546201020479,0.0016754578100517392,0.0,0.007841967977583408
0.008384526707231998,0.004522060044109821,-0.006264479365199804,0.0018865304300561547,0.0,0.007639200426638126
0.008614223450422287,0.004515749868005514,-0.0059014661237597466,0.0017419325886294246,0.0,0.007521037012338638
0.00867762416601181,0.004336731042712927,-0.006128949113190174,0.0017829779535531998,0.0,0.007874557748436928
0.009765862487256527,0.004296078346669674,-0.0056243473663926125,0.0018014073139056563,0.0,0.0077173602767288685
0.008121444843709469,0.004844488110393286,-0.006385394372045994,0.0018982160836458206,0.0,0.007992519997060299
0.0077734352089464664,0.004477039910852909,-0.006051716394722462,0.0018938739085569978,0.0,0.008139397948980331
0.008349227719008923,0.0045674326829612255,-0.005911271087825298,0.0018844462465494871,0.0,0.008368930779397488
0.009159879758954048,0.004553919658064842,-0.006484572310000658,0.0017956449883058667,0.0,0.007937677204608917
0.008987710811197758,0.004587314557284117,-0.006205384619534016,0.0016398974694311619,0.0,0.007656397297978401
0.00876030046492815,0.0047348844818770885,-0.006146964617073536,0.0016618557274341583,0.0,0.007962532341480255
0.00924366619437933,0.004454380366951227,-0.006480044219642878,0.0017189549980685115,0.0,0.008272933773696423
0.009162725880742073,0.004575238097459078,-0.006058966275304556,0.0019911450799554586,0.0,0.008965638466179371
0.009162725880742073,0.004575238097459078,-0.006058966275304556,0.0019911450799554586,0.0,0.008965638466179371
0.008151115849614143,0.004493596497923136,-0.005952087230980396,0.0020773501601070166,0.0,0.008358072489500046
0.008589466102421284,0.004626811016350985,-0.006637305952608585,0.001922638970427215,0.0,0.007934504188597202
0.009142247959971428,0.0047759986482560635,-0.006876681931316853,0.0017696716822683811,0.0,0.0075638992711901665
0.008553687483072281,0.004786859732121229,-0.006236889399588108,0.0017088636523112655,0.0,0.008087159134447575
0.00838411133736372,0.004360186401754618,-0.00608822563663125,0.0016319223213940859,0.0,0.008239850401878357
0.008931966498494148,0.004460114520043135,-0.006228943355381489,0.0017856124322861433,0.0,0.008650608360767365
0.009260070510208607,0.004580706357955933,-0.006836665328592062,0.0020336457528173923,0.0,0.008566277101635933
0.00915664341300726,0.004591614939272404,-0.006364553235471249,0.0019027454545721412,0.0,0.008598205633461475
0.008960339240729809,0.0043700202368199825,-0.006181041710078716,0.0019402551697567105,-2.8461588499339996e-06,0.008233337663114071
0.008465136401355267,0.004064349923282862,-0.006112587172538042,0.0017719363095238805,-1.858338407600968e-07,0.008609817363321781
0.008997426368296146,0.00442300271242857,-0.006791452411562204,0.0019166464917361736,-1.2133622107057818e-08,0.008593494072556496
0.009055296890437603,0.004254475235939026,-0.0068711284548044205,0.001798117533326149,-7.922387745828985e-10,0.008249864913523197
0.008775072172284126,0.004508554935455322,-0.006014017388224602,0.0018581703770905733,-5.1727528510570053e-11,0.008598734624683857
0.008642686530947685,0.00471721263602376,-0.006454352755099535,0.001859967946074903,-3.377437869309108e-12,0.008639423176646233
0.00891868770122528,0.004615324083715677,-0.0067011089995503426,0.0018714105244725943,-2.2052254770518753e-13,0.008215340785682201
0.009227230213582516,0.004472606349736452,-0.006876134779304266,0.001865368103608489,-1.439854705191819e-14,0.008112835697829723
0.008578246459364891,0.00456458143889904,-0.006507783196866512,0.0018829078180715442,-9.401221857949032e-16,0.008512428030371666
0.008707779459655285,0.004973710048943758,-0.00580736855044961,0.001875774352811277,-6.138326007765747e-17,0.00856009591370821
0.00949169509112835,0.0048604691401124,-0.005767762195318937,0.002066371962428093,-4.0078881775761255e-18,0.008318218402564526
0.008732287213206291,0.004781623836606741,-0.006495031528174877,0.0019923553336411715,-2.6168644499696956e-19,0.009441396221518517
0.009094776585698128,0.004810820799320936,-0.0070922235026955605,0.002275887643918395,-1.708625565759241e-20,0.008889615535736084
0.008947905153036118,0.004705430939793587,-0.006822047755122185,0.002110614674165845,-1.1156104747991165e-21,0.00801775697618723
0.008814208209514618,0.0046216705814003944,-0.005999278277158737,0.002223303308710456,-7.284139019330362e-23,0.008497066795825958
0.0087974788621068,0.004631959367543459,-0.006219439208507538,0.002448207465931773,-4.756023070485302e-24,0.009148425422608852
0.009133143350481987,0.004749881569296122,-0.0066412342712283134,0.0022824283223599195,-3.1053433113124936e-25,0.008852043189108372
0.009000945836305618,0.004721670411527157,-0.006386313121765852,0.0025200059171766043,-2.0275672764539768e-26,0.00847938284277916
0.009000945836305618,0.004721670411527157,-0.006386313121765852,0.0025200059171766043,-2.0275672764539768e-26,0.00847938284277916
0.009458621963858604,0.004428827203810215,-0.006476914510130882,0.0022847247309982777,-8.643836600217945e-29,0.008890027180314064
0.009458621963858604,0.004428827203810215,-0.006476914510130882,0.0022847247309982777,-8.643836600217945e-29,0.008890027180314064
0.009328664280474186,0.0043656229972839355,-0.006746974773705006,0.0023429635912179947,-5.643807927450464e-30,0.009096347726881504
0.008499447256326675,0.004477302543818951,-0.006957621313631535,0.0021895854733884335,-3.6850036378503916e-31,0.008575131185352802
0.00880041066557169,0.004380570724606514,-0.006670206319540739,0.002285828348249197,-2.4060441550596877e-32,0.008711650036275387
0.009189088828861713,0.004582541529089212,-0.006152741611003876,0.0022925559896975756,-1.5709749151480532e-33,0.008788421750068665
0.010227590799331665,0.004743353929370642,-0.007233163341879845,0.0022618528455495834,-6.697312339582306e-36,0.009144159033894539
0.009105585515499115,0.00466927932575345,-0.0064735133200883865,0.0021791313774883747,-4.372866428088035e-37,0.009134889580309391
0.008618923835456371,0.004676024429500103,-0.006193174980580807,0.002219553804025054,-2.8551694431357083e-38,0.009005613625049591
0.008893201127648354,0.004341505467891693,-0.0062173581682145596,0.0022439747117459774,-1.8642216159099134e-39,0.009001810103654861
0.009053656831383705,0.004505418241024017,-0.006597761996090412,0.0024385801516473293,-1.2172098850664659e-40,0.0087225791066885
0.008967560715973377,0.004454691428691149,-0.007338384632021189,0.0024425582960247993,-7.948164889650362e-42,0.008607934229075909
0.008873291313648224,0.004984458442777395,-0.0063302768394351006,0.0023662156891077757,-5.184804318001823e-43,0.008769148960709572
0.009251144714653492,0.0046922084875404835,-0.006352398544549942,0.002357900608330965,-3.363116314379561e-44,0.0087695037946105
0.009322194382548332,0.004534231033176184,-0.006564476061612368,0.002426078775897622,-2.802596928649634e-45,0.00843738578259945
0.009372410364449024,0.004453594796359539,-0.0064623672515153885,0.002480627503246069,-0.0,0.008641420863568783
0.009097457863390446,0.004564353730529547,-0.006136524025350809,0.0027180721517652273,-0.0,0.00834285281598568
0.00951604638248682,0.004380779806524515,-0.0060591320507228374,0.0028019670862704515,-0.0,0.008920181542634964
0.00923476368188858,0.00455789128318429,-0.006311913952231407,0.002611900679767132,-0.0,0.009045392274856567
0.009358379989862442,0.004745790269225836,-0.007249709218740463,0.002723919926211238,-0.0,0.008939284831285477
0.009721663780510426,0.004991139285266399,-0.007117514498531818,0.0027858703397214413,-0.0,0.009081702679395676
0.008891736157238483,0.004747982602566481,-0.006649572867900133,0.002711716340854764,-0.0,0.008630075491964817
0.008853482082486153,0.004431094042956829,-0.006568274926394224,0.0026862556114792824,-0.0,0.008729550056159496
0.009157960303127766,0.004470377694815397,-0.005547106731683016,0.0027404003776609898,-0.0,0.008932569064199924
0.008874581195414066,0.004216460511088371,-0.007254478987306356,0.002784623997285962,-0.0,0.008975711651146412
0.008870127610862255,0.0037745207082480192,-0.008093359880149364,0.0025680542457848787,-0.0,0.009043154306709766
0.008870127610862255,0.0037745207082480192,-0.008093359880149364,0.0025680542457848787,-0.0,0.009043154306709766
0.009405098855495453,0.0035751739051193,-0.0070692491717636585,0.0026096010114997625,-0.0,0.009364601224660873
0.010012314654886723,0.004189805593341589,-0.006966221611946821,0.0027776125352829695,-0.0,0.009222776629030704
0.010012314654886723,0.004189805593341589,-0.006966221611946821,0.0027776125352829695,-0.0,0.009222776629030704
0.009164435788989067,0.00394922262057662,-0.0067820013500750065,0.0027639814652502537,-0.0,0.009136456064879894
0.009546423330903053,0.004207297693938017,-0.006710004527121782,0.0029448203276842833,-0.0,0.009629656560719013
0.008911512792110443,0.004258759319782257,-0.006873180158436298,0.0027286133263260126,-0.0,0.009191276505589485
0.00930862221866846,0.0039889514446258545,-0.0072362907230854034,0.002640943741425872,-0.0,0.009514505043625832
0.009199032559990883,0.00430319644510746,-0.007260893937200308,0.002819739282131195,-0.0,0.009208917617797852
0.00949860829859972,0.0043217334896326065,-0.007060341536998749,0.0028857653960585594,-0.0,0.008952517062425613
0.009516805410385132,0.004059819970279932,-0.006935831159353256,0.0027212684508413076,-0.0,0.009277237579226494
0.009397732093930244,0.0038850249256938696,-0.007114223204553127,0.0027017612010240555,-0.0,0.00950579158961773
0.010108444839715958,0.003943457268178463,-0.007571451365947723,0.002358738798648119,-0.0,0.009314562194049358
0.00973668321967125,0.0036058579571545124,-0.0070604667998850346,0.0023705039639025927,-0.0,0.009286830201745033
0.009595805779099464,0.0035693300887942314,-0.006913232151418924,0.0022914453875273466,-0.0,0.009135806001722813
0.009934432804584503,0.004194868728518486,-0.00786430761218071,0.00229652994312346,-0.0,0.009468834847211838
0.009492101147770882,0.004129587206989527,-0.007792619056999683,0.0026881322264671326,-0.0,0.009537726640701294
0.00914768036454916,0.003921158146113157,-0.007029801141470671,0.0027847455348819494,-0.0,0.00961295422166586
0.009223504923284054,0.0033980021253228188,-0.006822905968874693,0.0028815038967877626,-0.0,0.00912927184253931
0.009893989190459251,0.003546904306858778,-0.007726455572992563,0.0031155215110629797,-0.0,0.009444788098335266
0.009322529658675194,0.0032877689227461815,-0.007764383219182491,0.0029364479705691338,-0.0,0.009040008299052715
0.009976710192859173,0.0035538228694349527,-0.0070421588607132435,0.0028405655175447464,-0.0,0.009420996531844139
0.009804613888263702,0.003728657029569149,-0.007131495513021946,0.00277633941732347,-0.0,0.009195213206112385
0.009181685745716095,0.003825482679530978,-0.00797269120812416,0.0030127905774861574,-0.0,0.009563200175762177
0.009332887828350067,0.003800318343564868,-0.007160657551139593,0.002912813564762473,-0.0,0.009631008841097355
0.009614015929400921,0.0037847436033189297,-0.006560260895639658,0.003134446684271097,-0.0,0.009637712500989437
0.009713324718177319,0.0038171277847141027,-0.006837087217718363,0.003149308729916811,-0.0,0.009513315744698048
0.00963818933814764,0.003894433844834566,-0.00757702998816967,0.003231169655919075,-0.0,0.009393657557666302
0.009500219486653805,0.0035054462496191263,-0.007761308457702398,0.0030918836127966642,-0.0,0.01054066140204668
0.009500219486653805,0.0035054462496191263,-0.007761308457702398,0.0030918836127966642,-0.0,0.01054066140204668
0.009231523610651493,0.003412755439057946,-0.007216321304440498,0.003116401145234704,-0.0,0.00974813662469387
0.009747088886797428,0.00351610011421144,-0.007218638435006142,0.0031790006905794144,-0.0,0.00897687952965498
0.009922666475176811,0.0037256586365401745,-0.007697896100580692,0.003356823930516839,-0.0,0.009531572461128235
0.009516789577901363,0.004735907074064016,-0.007803010288625956,0.0033616996370255947,-0.0,0.01036035642027855
0.01022685132920742,0.004058873280882835,-0.007370973937213421,0.002717643743380904,-0.0,0.0099298981949687
0.01022685132920742,0.004058873280882835,-0.007370973937213421,0.002717643743380904,-0.0,0.0099298981949687
0.0095853665843606,0.0034198560751974583,-0.007466630078852177,0.0030892333015799522,-0.0,0.009951192885637283
0.009676769375801086,0.003515105927363038,-0.007207863498479128,0.0035786195658147335,-0.0,0.00970278400927782
0.010007275268435478,0.003681501140818,-0.007202578708529472,0.003700950648635626,-0.0,0.01010717824101448
0.00967953447252512,0.0037725423462688923,-0.008029858581721783,0.003632265841588378,-0.0,0.009347531013190746
0.010054916143417358,0.0037590879946947098,-0.0075293672271072865,0.003274468006566167,-0.0,0.009400010108947754
0.00989268347620964,0.003687012242153287,-0.0073765721172094345,0.003493281314149499,-0.0,0.009903201833367348
0.009812864474952221,0.003664240473881364,-0.007561244536191225,0.003301733871921897,-0.0,0.010357691906392574
0.009752900339663029,0.0036951221991330385,-0.007841328158974648,0.003429282922297716,-0.0,0.010081208311021328
0.00996481440961361,0.0037101830821484327,-0.007679444272071123,0.0031162393279373646,-0.0,0.009862879291176796
0.009892688132822514,0.0036707036197185516,-0.00761965848505497,0.003160656662657857,-0.0,0.010369760915637016
0.0101223886013031,0.003616012865677476,-0.008264279924333096,0.003153701778501272,-0.0,0.010221976786851883
0.010076991282403469,0.004301071632653475,-0.0081693846732378,0.0032480359077453613,-0.0,0.010108121670782566
0.01042451523244381,0.004686616826802492,-0.007724675349891186,0.0035970406606793404,-0.0,0.010008197277784348
0.0105997733771801,0.004310918506234884,-0.0073539079166948795,0.0038272447418421507,-0.0,0.010348692536354065
0.01093281339854002,0.0039586531929671764,-0.00793183222413063,0.0034330799244344234,-0.0,0.009961203671991825
0.010545250959694386,0.004138500429689884,-0.008524144068360329,0.003091800259426236,-0.0,0.00981319323182106
0.01058639120310545,0.0046799941919744015,-0.008509146049618721,0.0030236137099564075,-0.0,0.010157867334783077
0.011213931255042553,0.004692696500569582,-0.007961497642099857,0.003286053892225027,-0.0,0.010463344864547253
0.011213931255042553,0.004692696500569582,-0.007961497642099857,0.003286053892225027,-0.0,0.010463344864547253
0.011919724754989147,0.004415049683302641,-0.00775491027161479,0.0037258691154420376,-0.0,0.010729905217885971
0.011281619779765606,0.004610675852745771,-0.007468049880117178,0.003961243666708469,-0.0,0.011014544405043125
0.012606734409928322,0.004606449045240879,-0.007756659295409918,0.0037384191527962685,-0.0,0.011043794453144073
0.011088449507951736,0.0050876508466899395,-0.007701425347477198,0.003496841061860323,-0.0,0.010347274132072926
0.010727652348577976,0.005027036648243666,-0.008072465658187866,0.0036307780537754297,-0.0,0.010173073969781399
0.011383614502847195,0.004542754963040352,-0.007535739801824093,0.003791955066844821,-0.0,0.01022402849048376
0.01149149239063263,0.004528334364295006,-0.007294204086065292,0.003891424275934696,-0.0,0.010216068476438522
0.011426646262407303,0.004961821250617504,-0.008515927009284496,0.003862129058688879,-0.0,0.010216365568339825
0.010932899080216885,0.004849740769714117,-0.008044996298849583,0.0035094101913273335,-0.0,0.010835038498044014
0.011227094568312168,0.004985123407095671,-0.0075423019006848335,0.0034870575182139874,-0.0,0.010963285341858864
0.011499597690999508,0.004927137400954962,-0.007805572357028723,0.0036963929887861013,-0.0,0.010329375974833965
0.011195173487067223,0.004717593546956778,-0.007857215590775013,0.003873090259730816,-0.0,0.010766973719000816
0.011767118237912655,0.004714317619800568,-0.008071169257164001,0.0038602647837251425,-0.0,0.01076036598533392
0.010961699299514294,0.0041251047514379025,-0.007604840211570263,0.0038077400531619787,-0.0,0.010505050420761108
0.012050601653754711,0.004393844399601221,-0.00821057241410017,0.003793373005464673,-0.0,0.01091098040342331
0.011406018398702145,0.004741768352687359,-0.00781771820038557,0.0039186603389680386,-0.0,0.010593586601316929
0.011293157935142517,0.004346977453678846,-0.00761215528473258,0.004343830514699221,-0.0,0.010469852946698666
0.011668974533677101,0.0039627947844564915,-0.00714811310172081,0.004438478499650955,-0.0,0.010739662684500217
0.011504286900162697,0.003954779356718063,-0.007377624977380037,0.0045006610453128815,-0.0,0.01083645224571228
0.011726085096597672,0.0038634114898741245,-0.007330660708248615,0.004431040491908789,-0.0,0.011068370193243027
0.011876203119754791,0.003720696549862623,-0.007495983503758907,0.00436119781807065,-0.0,0.010513385757803917
0.012312260456383228,0.0036434619687497616,-0.007142168004065752,0.004394202958792448,-5.659897851728601e-06,0.010451621375977993
0.01288941316306591,0.003519781632348895,-0.007692335173487663,0.004606028087437153,-3.6955088944523595e-07,0.01110752485692501
0.012447941116988659,0.0035913377068936825,-0.00714921485632658,0.0047856541350483894,-2.412903121751242e-08,0.0109592005610466
0.012447941116988659,0.0035913377068936825,-0.00714921485632658,0.0047856541350483894,-2.412903121751242e-08,0.0109592005610466
0.01308149378746748,0.0037575066089630127,-0.006584638264030218,0.004682468716055155,-1.5754533233547363e-09,0.011171127669513226
0.012777063064277172,0.00378655968233943,-0.006767565850168467,0.004452046938240528,-1.0286585472307763e-10,0.010898037813603878
0.013043499551713467,0.003725487506017089,-0.007415932137519121,0.004485891200602055,-6.716405209772347e-12,0.010579715482890606
0.013165779411792755,0.0032958323135972023,-0.007599654607474804,0.004140059929341078,-4.385332971323236e-13,0.011005206033587456
0.013127857819199562,0.003047606674954295,-0.006839231122285128,0.004170226398855448,-2.8633091584589e-14,0.011263980530202389
0.01332067046314478,0.0028060495387762785,-0.006783599499613047,0.004332417156547308,-1.8695361810706175e-15,0.011339489370584488
0.013860495761036873,0.0029663555324077606,-0.007062668912112713,0.004415058996528387,-1.2206734739691571e-16,0.011268177069723606
0.013486589305102825,0.0033294286113232374,-0.007617045193910599,0.004203183110803366,-7.970125911506675e-18,0.011044780723750591
0.012987102381885052,0.0036982488818466663,-0.006978084333240986,0.003829753026366234,-5.2039224805418085e-19,0.010964561253786087
0.013239428400993347,0.003537345677614212,-0.007625526748597622,0.003759621875360608,-2.218513952893384e-21,0.011502093635499477
0.013788850978016853,0.0036786850541830063,-0.007626284379512072,0.003870260901749134,-1.4485310066270648e-22,0.011330993846058846
0.013308260589838028,0.003915457520633936,-0.007394224870949984,0.004308352246880531,-9.457871907165457e-24,0.01128273457288742
0.013652312569320202,0.003991961013525724,-0.007010077591985464,0.004511032719165087,-6.175315085711009e-25,0.010744866915047169
0.012923672795295715,0.00399008858948946,-0.00812353752553463,0.004290519282221794,-4.032039417312444e-26,0.010668333619832993
0.012929713353514671,0.004011467099189758,-0.00802637543529272,0.004053561948239803,-2.6326335670756048e-27,0.010633756406605244
0.012995939701795578,0.003997100982815027,-0.007750243414193392,0.0038682660087943077,-1.7189217254266384e-28,0.011285034008324146
0.0128114502876997,0.004422696307301521,-0.007400731090456247,0.004135459195822477,-1.1223331172159543e-29,0.011569914408028126
0.012658116407692432,0.004596275743097067,-0.007447765674442053,0.004269218072295189,-7.328032723421621e-31,0.011215831153094769
0.012377296574413776,0.0047551365569233894,-0.0077339718118309975,0.004090461414307356,-4.7846816593299537e-32,0.01130669191479683
0.012286393903195858,0.00481650372967124,-0.00783125963062048,0.0038721561431884766,-3.124055132856745e-33,0.011576836928725243
0.011225277557969093,0.00476632546633482,-0.007662917487323284,0.003962970804423094,-2.0397846078702882e-34,0.011546822264790535
0.011859845370054245,0.004711954854428768,-0.008261366747319698,0.003985286224633455,-1.3318336645520243e-35,0.011617462150752544
0.01129053346812725,0.005240683909505606,-0.008424176834523678,0.003878267016261816,-8.695922861482566e-37,0.011462576687335968
0.010831412859261036,0.005216712597757578,-0.0077253784984350204,0.0038206297904253006,-5.677816430472595e-38,0.011662505567073822
0.010695241391658783,0.005512918345630169,-0.007958406582474709,0.0039283884689211845,-3.7072079548914485e-39,0.012037397362291813
0.010767953470349312,0.005827640183269978,-0.008731530047953129,0.0043497635051608086,-2.420546915336116e-40,0.011430596001446247
0.011205276474356651,0.005306751001626253,-0.008873539045453072,0.00461348844692111,-2.3516198780271225e-05,0.01141435094177723
0.011890383437275887,0.005199581850320101,-0.008061731234192848,0.004747931845486164,-0.00013607936853077263,0.011140420101583004
0.011890383437275887,0.005199581850320101,-0.008061731234192848,0.004747931845486164,-0.00013607936853077263,0.011140420101583004
0.01192140206694603,0.005253632552921772,-0.008074871264398098,0.005056458059698343,-0.00013925846724305302,0.01128482073545456
0.012667590752243996,0.005617810878902674,-0.009564172476530075,0.004999586381018162,-0.00013554653560277075,0.011951851658523083
0.012710943818092346,0.005709423683583736,-0.008637016639113426,0.004851906094700098,-0.00013161354581825435,0.012033115141093731
0.012834733352065086,0.005673521663993597,-0.008424424566328526,0.004616611637175083,-0.00012787537707481533,0.012014304287731647
0.012796949595212936,0.005076882895082235,-0.009094334207475185,0.005127357318997383,-0.00012434166274033487,0.011726629920303822
0.013219008222222328,0.004667712841182947,-0.007931120693683624,0.005351203493773937,-0.0001435741869499907,0.01195741631090641
0.013814241625368595,0.004738079849630594,-0.007389333099126816,0.006370851304382086,-0.00014128968177828938,0.012131551280617714
0.014201699756085873,0.0047964854165911674,-0.007546418812125921,0.006189486011862755,-0.0001377807348035276,0.012415589764714241
0.014704033732414246,0.004772392101585865,-0.008335529826581478,0.005998263135552406,-0.00013435869186650962,0.012520388700067997
0.014065464027225971,0.003788519650697708,-0.006856830790638924,0.006901131942868233,-0.0001279897551285103,0.012485748156905174
0.013773837126791477,0.0036026346497237682,-0.00719396723434329,0.0066147749312222,-0.0001250263157999143,0.011913115158677101
0.014522433280944824,0.003384019248187542,-0.00741526298224926,0.006292773876339197,-0.00012219698692206293,0.012046906165778637
0.014002672396600246,0.0034193717874586582,-0.007055667228996754,0.006214627996087074,-0.00011949292820645496,0.012618744745850563
0.01435637753456831,0.0036333499010652304,-0.006990478839725256,0.0056733437813818455,-0.00011690591782098636,0.012673328630626202
0.014181585982441902,0.00333208404481411,-0.007075540721416473,0.005359733942896128,-0.0001322278258157894,0.013474688865244389
0.01449424959719181,0.003098902525380254,-0.008080531843006611,0.005348775070160627,-0.00013064664381090552,0.011891950853168964
0.014526968821883202,0.003058716421946883,-0.00812513567507267,0.004744330421090126,-0.0001280666037928313,0.011891799047589302
0.01469580177217722,0.003208120819181204,-0.006812689825892448,0.004629520699381828,-0.00012552000407595187,0.012053891085088253
0.014517867006361485,0.0031220612581819296,-0.009199867025017738,0.004855150356888771,-0.00012306821008678526,0.012491969391703606
0.014484093524515629,0.0030502057634294033,-0.009217718616127968,0.00506548909470439,-0.0001207102250191383,0.012693236581981182
0.01442984864115715,0.0033710706047713757,-0.008664987981319427,0.004828430712223053,-0.00011844084656331688,0.012424727901816368
0.014771083369851112,0.003717451123520732,-0.008991260081529617,0.005321688950061798,-0.00011625527986325324,0.012924189679324627
0.01417717058211565,0.003940672148019075,-0.00923625286668539,0.0053055924363434315,-0.00011414875916671008,0.012517673894762993
0.014042673632502556,0.00355888856574893,-0.008574722334742546,0.005296031013131142,-0.00012400452396832407,0.012857295572757721
0.0136827128008008,0.004056565463542938,-0.008305864408612251,0.005479627754539251,-0.00012562407937366515,0.012621751986443996
0.014275448396801949,0.00416509248316288,-0.008875109255313873,0.0058733150362968445,-0.00012371253978926688,0.012955766171216965
0.014275448396801949,0.00416509248316288,-0.008875109255313873,0.0058733150362968445,-0.00012371253978926688,0.012955766171216965
0.01388523355126381,0.004490198101848364,-0.008399993181228638,0.006027917377650738,-0.00012163863721070811,0.012666568160057068
0.0137795927003026,0.004138148855417967,-0.008817072957754135,0.00641035009175539,-0.00011961878772126511,0.012720140628516674
0.013214871287345886,0.003907729405909777,-0.009961945004761219,0.0065351687371730804,-0.00011778466432588175,0.01271738763898611
0.013526301831007004,0.003867285093292594,-0.009674903936684132,0.005912216380238533,-0.00013890056288801134,0.013124595396220684
0.013487683609127998,0.0038678450509905815,-0.009020373225212097,0.006483177188783884,-0.00013630997273139656,0.013166318647563457
0.014513329602777958,0.004312320612370968,-0.009825513698160648,0.006594507955014706,-0.0001324047043453902,0.013033774681389332
0.014901690185070038,0.0041816094890236855,-0.009541027247905731,0.006058332975953817,-0.00014995026867836714,0.012649918906390667
0.014530790038406849,0.004090900532901287,-0.010714929550886154,0.0054002683609724045,-0.0001459978666389361,0.013093427754938602
0.015401147305965424,0.004389481619000435,-0.010426138527691364,0.0054593379609286785,-0.00014216078852768987,0.013124601915478706
0.015509173274040222,0.004215615801513195,-0.010331148281693459,0.005315422546118498,-0.000138514515128918,0.012527412734925747
0.01591509021818638,0.004391052760183811,-0.011380601674318314,0.005137348081916571,-0.00013505037350114435,0.012222150340676308
0.015468411147594452,0.004303391557186842,-0.010905485600233078,0.004826975520700216,-0.00015082483878359199,0.012697333469986916
0.015618565492331982,0.004471476189792156,-0.01088913157582283,0.004723366349935532,-0.00014986413589213043,0.012966686859726906
0.015978442505002022,0.004393997136503458,-0.011664033867418766,0.004817019682377577,-0.0001465494860894978,0.013169200159609318
0.015826091170310974,0.0042810337617993355,-0.011850467883050442,0.005670933518558741,-0.00014322908828034997,0.013685695827007294
0.015555393882095814,0.003878573887050152,-0.011677970178425312,0.00565878301858902,-0.00014004565309733152,0.013348947279155254
0.015033448114991188,0.003501914907246828,-0.011281561106443405,0.005385162774473429,-0.00013700008275918663,0.013327687978744507
0.015229471027851105,0.0037171202711760998,-0.011360099539160728,0.005514765623956919,-0.0001340843882644549,0.012999435886740685
0.014840184710919857,0.0039528594352304935,-0.01126559916883707,0.005989716853946447,-0.00013128998398315161,0.013946608640253544
0.01446553785353899,0.0038908205460757017,-0.01094779372215271,0.0065045845694839954,-0.00014223919424694031,0.013636150397360325
0.014335892163217068,0.0038347032386809587,-0.0103977732360363,0.006362022832036018,-0.00014373238082043827,0.013661304488778114
0.01516132615506649,0.003824891522526741,-0.01078144833445549,0.006390606518834829,-0.0001411966368323192,0.014162146486341953
0.014984832145273685,0.004251188598573208,-0.01058600191026926,0.00639692647382617,-0.00013849895913153887,0.013841178268194199
0.015187600627541542,0.004056144971400499,-0.010889801196753979,0.006019279360771179,-0.00013588627916760743,0.013421575538814068
0.014745707623660564,0.003909528721123934,-0.010518581606447697,0.006343408487737179,-0.00013336924894247204,0.013394586741924286
0.015449559316039085,0.0038048771675676107,-0.01035471260547638,0.006522940006107092,-0.0001731138036120683,0.01358928345143795
0.015346219763159752,0.0037591438740491867,-0.01083938218653202,0.006085169035941362,-0.00017996117821894586,0.012622488662600517
0.015787513926625252,0.004305640235543251,-0.01059949491173029,0.005673014093190432,-0.0001739058061502874,0.013055197894573212
0.015552020631730556,0.004172845743596554,-0.010628198273479939,0.005614256951957941,-0.00016749104543123394,0.013839546591043472
0.015552020631730556,0.004172845743596554,-0.010628198273479939,0.005614256951957941,-0.00016749104543123394,0.013839546591043472
0.01605580374598503,0.0043519046157598495,-0.011113947257399559,0.006516526453197002,-0.00016148333088494837,0.013988844119012356
0.016028866171836853,0.004128608386963606,-0.010008670389652252,0.006785528268665075,-0.00015588878886774182,0.013961931690573692
0.01597513258457184,0.003671105019748211,-0.01075932290405035,0.006570379249751568,-0.00015066860942170024,0.014319085516035557
0.016207348555326462,0.0036268611438572407,-0.009945735335350037,0.006870162207633257,-0.00016895963926799595,0.014458551071584225
0.016364308074116707,0.003757164115086198,-0.010398808866739273,0.006895784754306078,-0.0001642655988689512,0.014043977484107018
0.015870949253439903,0.004166606813669205,-0.009823254309594631,0.006691514980047941,-0.00015944396727718413,0.014144202694296837
0.016226405277848244,0.004268371034413576,-0.009769557975232601,0.006580396089702845,-0.00015487286145798862,0.013848909176886082
0.016085702925920486,0.0035705827176570892,-0.009857512079179287,0.006408722139894962,-0.00016287321341224015,0.014034462161362171
0.01640021800994873,0.0031502950005233288,-0.009669976308941841,0.0067863487638533115,-0.00017004864639602602,0.01392278540879488
0.01702384650707245,0.0030202821362763643,-0.009298744611442089,0.006717565469443798,-0.0001663149887463078,0.014171678572893143
0.016456156969070435,0.003105939831584692,-0.009597519412636757,0.00667087035253644,-0.00016208535816986114,0.01378745399415493
0.016728505492210388,0.003341847797855735,-0.01004716195166111,0.006165584549307823,-0.00015802275447640568,0.01380033791065216
0.016800900921225548,0.0033552800305187702,-0.010342080146074295,0.006469872780144215,-0.0001541559468023479,0.013782222755253315
0.016939500346779823,0.003129869932308793,-0.010135618038475513,0.006580906920135021,-0.00015047393389977515,0.01414696965366602
0.016672195866703987,0.0033920304849743843,-0.009528090246021748,0.006301862187683582,-0.00014696354628540576,0.013900627382099628
0.016982300207018852,0.0037217363715171814,-0.009614000096917152,0.006073584780097008,-0.0001436135935364291,0.013850702904164791
0.01780753955245018,0.00339890387840569,-0.010643278248608112,0.0062375436536967754,-0.00014041246322449297,0.014084983617067337
0.017421124503016472,0.0034853892866522074,-0.010500369593501091,0.006786721292883158,-0.00013735111861024052,0.014475090429186821
0.017057448625564575,0.0036854741629213095,-0.009559881873428822,0.006837029475718737,-0.00013442061026580632,0.014407063834369183
0.017057448625564575,0.0036854741629213095,-0.009559881873428822,0.006837029475718737,-0.00013442061026580632,0.014407063834369183
0.017018988728523254,0.0038107633590698242,-0.010407627560198307,0.006481639109551907,-0.0001316122943535447,0.014589563012123108
0.017293479293584824,0.003368597012013197,-0.010027462616562843,0.006542075891047716,-0.00014258122246246785,0.014609972015023232
0.017845381051301956,0.0033723139204084873,-0.00952997338026762,0.0068537574261426926,-0.00014407085836865008,0.014426713809370995
0.017286619171500206,0.003529739798977971,-0.01029546745121479,0.0070529174990952015,-0.0001415227452525869,0.014358388260006905
0.0169951394200325,0.0037954323925077915,-0.010330894961953163,0.006932390853762627,-0.00013881262566428632,0.014702222310006618
0.01750952936708927,0.004319861996918917,-0.009426726959645748,0.007106696721166372,-0.00013618823140859604,0.014635805040597916
0.016654055565595627,0.004139496944844723,-0.009689596481621265,0.006541023030877113,-0.0001338092697551474,0.014845862053334713
0.016748040914535522,0.0039943503215909,-0.009467280469834805,0.008030769415199757,-0.00014299478789325804,0.014396240003407001
0.016845185309648514,0.00351768103428185,-0.008977547287940979,0.008308567106723785,-0.00013944177771918476,0.014549409039318562
0.017272215336561203,0.00345437740907073,-0.01022097747772932,0.007458527572453022,-0.0001353059778921306,0.01469865906983614
0.017810462042689323,0.003524438012391329,-0.009595547802746296,0.007270540110766888,-0.00013135967310518026,0.01523534394800663
0.01780826784670353,0.00429507065564394,-0.008953817188739777,0.0074907587841153145,-0.00014016436762176454,0.014055322855710983
0.017011817544698715,0.00431809900328517,-0.010162089951336384,0.006887948140501976,-0.00014488289889413863,0.014673294499516487
0.0180362481623888,0.0039827860891819,-0.009558020159602165,0.006771191488951445,-0.00014114582154434174,0.015504913404583931
0.017949873581528664,0.0039025291334837675,-0.010353581979870796,0.007284559775143862,-0.00015746020653750747,0.015184331685304642
0.01755901798605919,0.004420350305736065,-0.009931993670761585,0.006744749378412962,-0.00015629584959242493,0.015268231742084026
0.017903387546539307,0.004340897314250469,-0.00977278221398592,0.0065273717045784,-0.0001526869455119595,0.014813203364610672
0.017763033509254456,0.004168215207755566,-0.010662983171641827,0.006636501755565405,-0.00016487555694766343,0.015289612114429474
0.017701976001262665,0.004514423198997974,-0.009996991604566574,0.007255783304572105,-0.0001660856360103935,0.015347331762313843
0.01777765527367592,0.0041855922900140285,-0.009639628231525421,0.007847256027162075,-0.000162660755449906,0.015516684390604496
0.017277570441365242,0.004472299478948116,-0.01045877393335104,0.007533871103078127,-0.0002282041823491454,0.015170440077781677
0.018026812002062798,0.0041966927237808704,-0.009942462667822838,0.007484184578061104,-0.00027888931799679995,0.015104154124855995
0.017679037526249886,0.0042753019370138645,-0.009860493242740631,0.007869932800531387,-0.0003059314622078091,0.014905166812241077
0.01759183220565319,0.004277868662029505,-0.010189414955675602,0.00805535726249218,-0.0003014277608599514,0.015141073614358902
0.017776209861040115,0.004047126974910498,-0.010218908078968525,0.00749465636909008,-0.0003275680646765977,0.015345514751970768
0.01779578998684883,0.003950041253119707,-0.009642083197832108,0.007257690653204918,-0.0003167985414620489,0.01551093440502882
0.01779578998684883,0.003950041253119707,-0.009642083197832108,0.007257690653204918,-0.0003167985414620489,0.01551093440502882
0.018536610528826714,0.004127780441194773,-0.009537517093122005,0.008246634155511856,-0.0003230526053812355,0.015598672442138195
0.018546685576438904,0.003916987217962742,-0.009350153617560863,0.007872017100453377,-0.00032791952253319323,0.015328473411500454
0.017953185364603996,0.0036626742221415043,-0.010197698138654232,0.0073904176242649555,-0.0004241116112098098,0.01560992281883955
0.018649235367774963,0.00362742249853909,-0.010134766809642315,0.007837445475161076,-0.00048156740376725793,0.015441120602190495
0.018171098083257675,0.0037350028287619352,-0.009800096973776817,0.007997413165867329,-0.0005170964868739247,0.015630701556801796
0.01853124424815178,0.0037603359669446945,-0.009704511612653732,0.00831514410674572,-0.0005205271299928427,0.01558928657323122
0.019150754436850548,0.003771372139453888,-0.010334482416510582,0.007928980514407158,-0.0005139598506502807,0.01586580090224743
0.018755808472633362,0.004300342407077551,-0.009966137818992138,0.007615235634148121,-0.0005274458671920002,0.015333926305174828
0.01882968842983246,0.004101437050849199,-0.009846026077866554,0.008032669313251972,-0.000506076030433178,0.015337913297116756
0.019243676215410233,0.003974354360252619,-0.010013535618782043,0.007702714763581753,-0.0006126700900495052,0.015430612489581108
0.01912262663245201,0.00404714047908783,-0.01085900329053402,0.007942927069962025,-0.0005943236756138504,0.01579757034778595
0.01934722438454628,0.004151962231844664,-0.011315369047224522,0.008056219667196274,-0.0006038544815964997,0.015851451084017754
0.018903443589806557,0.003988136071711779,-0.01111436728388071,0.00823079515248537,-0.000569620169699192,0.0160199124366045
0.018980704247951508,0.004265989176928997,-0.011248400434851646,0.008005204610526562,-0.0005930591141805053,0.016387084499001503
0.019023533910512924,0.004641150590032339,-0.010975333862006664,0.008275451138615608,-0.0006628632545471191,0.01571408286690712
0.018944282084703445,0.004408827517181635,-0.010653659701347351,0.008546114899218082,-0.0007048621191643178,0.01558272447437048
0.01877860724925995,0.004049753304570913,-0.010829361155629158,0.008720120415091515,-0.0007283594459295273,0.01627832092344761
0.019116640090942383,0.003831710899248719,-0.010865000076591969,0.008447770029306412,-0.0007463432266376913,0.016756616532802582
0.019206615164875984,0.00410901103168726,-0.01163566019386053,0.00820708554238081,-0.0009326408035121858,0.016528118401765823
0.01928851008415222,0.004142900928854942,-0.011121321469545364,0.007725007366389036,-0.0010336064733564854,0.017042387276887894
0.019469497725367546,0.004331882111728191,-0.010598503984510899,0.007469110190868378,-0.0010205135913565755,0.016834912821650505
0.019030150026082993,0.004612017888575792,-0.01197501178830862,0.007625062949955463,-0.0009482281166128814,0.01695963181555271
0.01875966787338257,0.004718117881566286,-0.011387886479496956,0.007637288421392441,-0.000946163956541568,0.016580473631620407
0.019051259383559227,0.00432219635695219,-0.011391237378120422,0.007761944551020861,-0.0008953942451626062,0.015958763659000397
0.019051259383559227,0.00432219635695219,-0.011391237378120422,0.007761944551020861,-0.0008953942451626062,0.015958763659000397
0.01883055828511715,0.004203283693641424,-0.011937764473259449,0.0074878958985209465,-0.0008275433792732656,0.015780309215188026
0.019041739404201508,0.004256722517311573,-0.011549831368029118,0.00759261567145586,-0.0008325309026986361,0.016300560906529427
0.01882905140519142,0.004406124819070101,-0.01238979771733284,0.0074563357047736645,-0.0007418905152007937,0.01705195941030979
0.01840698905289173,0.00456417677924037,-0.0123967370018363,0.007505570538341999,-0.0007456086459569633,0.017412221059203148
0.018941204994916916,0.004675885196775198,-0.012026593089103699,0.007942014373838902,-0.0006860689609311521,0.017299849539995193
0.01941690593957901,0.004596689250320196,-0.012212740257382393,0.009044148027896881,-0.0006161456112749875,0.0165833979845047
0.01916530355811119,0.004658423829823732,-0.012432914227247238,0.00904742069542408,-0.0005431988975033164,0.017227428033947945
0.019005943089723587,0.004205404780805111,-0.012115650810301304,0.008666811510920525,-0.000574521895032376,0.017119422554969788
0.019180642440915108,0.004401970189064741,-0.011720304377377033,0.008719328790903091,-0.0005245261127129197,0.017459170892834663
0.018742047250270844,0.004086044151335955,-0.012472032569348812,0.008734120987355709,-0.0005123119335621595,0.01707281731069088
0.01901431195437908,0.004530245903879404,-0.012450858019292355,0.008256091736257076,-0.00047406379599124193,0.01701507158577442
0.01904110796749592,0.004282429348677397,-0.012970195151865482,0.00874567124992609,-0.00044087227433919907,0.016534440219402313
0.017855914309620857,0.004301073029637337,-0.011937144212424755,0.008441677317023277,-0.0004667677276302129,0.016689473763108253
0.01970694772899151,0.004609116818755865,-0.012536335736513138,0.008210609667003155,-0.0004416941083036363,0.017153747379779816
0.01956680230796337,0.004292201716452837,-0.012530959211289883,0.008244683034718037,-0.00041637421236373484,0.01716618798673153
0.019751496613025665,0.004483313299715519,-0.013086065649986267,0.00843263603746891,-0.00039361693779937923,0.017859656363725662
0.019692854955792427,0.004694862756878138,-0.012285850942134857,0.008370471186935902,-0.0003732067998498678,0.018355125561356544
0.019517650827765465,0.004574705380946398,-0.012551648542284966,0.0084359897300601,-0.00035575262154452503,0.017501739785075188
0.01965363137423992,0.004412311594933271,-0.01255581434816122,0.00914817675948143,-0.00030694669112563133,0.016896529123187065
0.019917145371437073,0.00440443167462945,-0.012126562185585499,0.009362158365547657,-0.0002858548250515014,0.016792582347989082
0.01958480477333069,0.004076689016073942,-0.012657486833631992,0.009089548140764236,-0.00026865064864978194,0.017724450677633286
0.01958480477333069,0.004076689016073942,-0.012657486833631992,0.009089548140764236,-0.00026865064864978194,0.017724450677633286
0.019841043278574944,0.00429814076051116,-0.012520591728389263,0.009245474822819233,-0.0002535227977205068,0.01809394545853138
0.02018013782799244,0.004248443059623241,-0.012699012644588947,0.009980210103094578,-0.00023999762197490782,0.017903326079249382
0.01975359581410885,0.004428571090102196,-0.012446370907127857,0.009102750569581985,-0.00022784178145229816,0.017606884241104126
0.019598091021180153,0.004363229498267174,-0.012615358456969261,0.009695857763290405,-0.00021684309467673302,0.01716586947441101
0.020103581249713898,0.00403462303802371,-0.012697223573923111,0.00909456517547369,-0.00020687135111074895,0.017767155542969704
0.02021373063325882,0.004078787285834551,-0.012421183288097382,0.00885680504143238,-0.00023463032266590744,0.017787747085094452
0.019963372498750687,0.003883655648678541,-0.013125731609761715,0.00882659200578928,-0.000227165364776738,0.017544584348797798
0.01997981406748295,0.003659300273284316,-0.012290839105844498,0.008891060017049313,-0.0002181407908210531,0.017962520942091942
0.020053869113326073,0.003460156498476863,-0.012988482601940632,0.008939309045672417,-0.00020969116303604096,0.017888979986310005
0.020011883229017258,0.0035615218803286552,-0.012297543697059155,0.009105969220399857,-0.0002018557715928182,0.01758415251970291
0.020069925114512444,0.0039620413444936275,-0.012682991102337837,0.009291524067521095,-0.00019456850714050233,0.017779961228370667
0.020304201170802116,0.003682765644043684,-0.012793776579201221,0.009143886156380177,-0.0001814969873521477,0.01794237270951271
0.02022394724190235,0.0034744213335216045,-0.012781300581991673,0.009455448016524315,-0.00018994594574905932,0.017910344526171684
0.020385434851050377,0.00357928522862494,-0.012236347422003746,0.009312784299254417,-0.00019742504809983075,0.017978854477405548
0.020491911098361015,0.004012702032923698,-0.013052744790911674,0.009022029116749763,-0.0001922874216688797,0.017952149733901024
0.020067062228918076,0.003973281476646662,-0.01255836896598339,0.009512299671769142,-0.00018664826347958297,0.017860902473330498
0.02099059894680977,0.0038377661257982254,-0.012851923704147339,0.010133231990039349,-0.0001812809205148369,0.018060242757201195
0.02129407972097397,0.0042419154196977615,-0.012447161599993706,0.009332815185189247,-0.0001762104220688343,0.018765954300761223
0.021216722205281258,0.003973573911935091,-0.013170046731829643,0.009627415798604488,-0.00017140879936050624,0.01865469105541706
0.021016506478190422,0.0043946499936282635,-0.012850010767579079,0.00962888728827238,-0.00016687437891960144,0.018739715218544006
0.021241769194602966,0.004183197394013405,-0.012605216354131699,0.009793335571885109,-0.00016256849630735815,0.018106237053871155
0.02127176709473133,0.00445229047909379,-0.013134430162608624,0.010291586630046368,-0.000179600203409791,0.017403030768036842
0.021078411489725113,0.004192237742245197,-0.01330988947302103,0.010065152309834957,-0.0001765748456818983,0.019318491220474243
0.021342683583498,0.003929855767637491,-0.012518859468400478,0.009682944044470787,-0.00017243582988157868,0.01817512698471546
0.021342683583498,0.003929855767637491,-0.012518859468400478,0.009682944044470787,-0.00017243582988157868,0.01817512698471546
0.022053826600313187,0.004155644681304693,-0.0130684869363904,0.010190286673605442,-0.0001621578703634441,0.018380189314484596
0.022162310779094696,0.004587692674249411,-0.01410023681819439,0.010058809071779251,-0.00015116340364329517,0.018646113574504852
0.02170891873538494,0.0046904138289391994,-0.013005273416638374,0.010218129493296146,-0.00014589908823836595,0.0183726716786623
0.02192072384059429,0.004423927515745163,-0.0135582210496068,0.010653812438249588,-0.0001412940036971122,0.018888121470808983
0.021580900996923447,0.004557072650641203,-0.013201005756855011,0.010025635361671448,-0.0001607595186214894,0.019166994839906693
0.0219209473580122,0.0042283846996724606,-0.013977672904729843,0.009806440211832523,-0.0001592946791788563,0.01945999264717102
0.02189261093735695,0.004332925193011761,-0.013569636270403862,0.010096719488501549,-0.0001740607403917238,0.01891617476940155
0.02216508612036705,0.0045053306967020035,-0.014048725366592407,0.010415864177048206,-0.0001752974058035761,0.019072601571679115
0.02174418792128563,0.004463349934667349,-0.013678011484444141,0.010044267401099205,-0.0001709381176624447,0.018736103549599648
0.02210181951522827,0.004301651380956173,-0.013660665601491928,0.010695263743400574,-0.00018862952128984034,0.01870271936058998
0.02250657044351101,0.004399408586323261,-0.01411484181880951,0.009979937225580215,-0.0004773455730173737,0.019059861078858376
0.02231178618967533,0.004417973104864359,-0.013769992627203465,0.01058496069163084,-0.0005159966531209648,0.019843440502882004
0.022743629291653633,0.0044456771574914455,-0.01361720822751522,0.009604605846107006,-0.0005456352373585105,0.020115811377763748
0.02213783748447895,0.004109377507120371,-0.014428499154746532,0.009713646024465561,-0.0008616616250947118,0.019854824990034103
0.021845633164048195,0.004385737702250481,-0.014324851334095001,0.010382814332842827,-0.0009608627296984196,0.019648199900984764
0.022641969844698906,0.004116508644074202,-0.013953088782727718,0.009987232275307178,-0.000957544194534421,0.01941990666091442
0.023354699835181236,0.004406376276165247,-0.013252181932330132,0.010711434297263622,-0.0009599510813131928,0.01975235529243946
0.023009056225419044,0.004476814065128565,-0.013922888785600662,0.011064003221690655,-0.0009969157399609685,0.020221445709466934
0.023180395364761353,0.004208513535559177,-0.013900293968617916,0.0099759791046381,-0.0010599716333672404,0.019937559962272644
0.023411845788359642,0.004347462672740221,-0.014149914495646954,0.010366505943238735,-0.001040652277879417,0.019849544391036034
0.023337427526712418,0.004211194813251495,-0.013460504822432995,0.01023400854319334,-0.0010590411256998777,0.020043930038809776
0.023511452600359917,0.003962495364248753,-0.014033675193786621,0.010429960675537586,-0.0010759119177237153,0.020060863345861435
0.02393624745309353,0.003792939707636833,-0.013316397555172443,0.01101449690759182,-0.0010490051936358213,0.019725438207387924
0.02406482584774494,0.0033535906113684177,-0.013878505676984787,0.010189750231802464,-0.0009939440060406923,0.019942954182624817
0.023941684514284134,0.0041198572143912315,-0.013457628898322582,0.00974992010742426,-0.0009282337268814445,0.020565718412399292
0.023959634825587273,0.004132394213229418,-0.014208035543560982,0.010358337312936783,-0.0009546835208311677,0.019608991220593452
0.023959634825587273,0.004132394213229418,-0.014208035543560982,0.010358337312936783,-0.0009546835208311677,0.019608991220593452
0.024050921201705933,0.0038760588504374027,-0.013374936766922474,0.010035470128059387,-0.000878330203704536,0.01922689750790596
0.024218233302235603,0.003694431856274605,-0.013884447515010834,0.00987432710826397,-0.0008513206266798079,0.01976744458079338
0.024456007406115532,0.004059961531311274,-0.013715120032429695,0.010548596270382404,-0.0007747748168185353,0.020271362736821175
0.024295764043927193,0.004198173061013222,-0.014128255657851696,0.010493331588804722,-0.0007388799567706883,0.02000783011317253
0.02441256307065487,0.0035800866317003965,-0.013520196080207825,0.01096850074827671,-0.0007087367121130228,0.0200181994587183
0.024452997371554375,0.00358372344635427,-0.014105020090937614,0.011326408945024014,-0.000648822053335607,0.020343614742159843
0.02420945279300213,0.0037511270493268967,-0.013975528068840504,0.010966161265969276,-0.0005763476365245879,0.02043209969997406
0.024305518716573715,0.004368145018815994,-0.01411739457398653,0.011144453659653664,-0.0005114178638905287,0.02063603885471821
0.0243923831731081,0.0037551664281636477,-0.014249695464968681,0.01095329225063324,-0.0005262952181510627,0.02051241137087345
0.02462770976126194,0.0035138623788952827,-0.014726430177688599,0.010386113077402115,-0.0004983292892575264,0.02053876593708992
0.024895479902625084,0.003641610499471426,-0.014376145787537098,0.010308820754289627,-0.00045742964721284807,0.020565679296851158
0.02483627200126648,0.0037994971498847008,-0.0145424148067832,0.00989099033176899,-0.0004540208319667727,0.020912399515509605
0.024339739233255386,0.003441298846155405,-0.014838806353509426,0.010056589730083942,-0.00042538336128927767,0.021020639687776566
0.024525396525859833,0.0034389356151223183,-0.014843586832284927,0.01015426404774189,-0.00044780655298382044,0.020755475386977196
0.02501114457845688,0.004200980998575687,-0.014835882000625134,0.010792243294417858,-0.00042791536543518305,0.020623227581381798
0.025615191087126732,0.004058504942804575,-0.014552050270140171,0.011447479948401451,-0.00040431736852042377,0.020756976678967476
0.025059515610337257,0.004281310830265284,-0.015217207372188568,0.01127193495631218,-0.0003852505760733038,0.020883413031697273
0.024764521047472954,0.004236722830682993,-0.015128479339182377,0.011701695621013641,-0.0003525290230754763,0.02088416926562786
0.022346096113324165,0.003961477428674698,-0.01552263181656599,0.01151243969798088,-0.00032674495014362037,0.02136528305709362
0.025348642840981483,0.003834954695776105,-0.014574246481060982,0.010611843317747116,-0.00030460237758234143,0.021400220692157745
0.025774290785193443,0.004185480065643787,-0.015570154413580894,0.011205596849322319,-0.0002852803445421159,0.021302228793501854
0.02493591047823429,0.00435625109821558,-0.01554952748119831,0.011663512326776981,-0.0003181912179570645,0.02155414968729019
0.025586038827896118,0.004598867613822222,-0.015661997720599174,0.011819036677479744,-0.0003035560075659305,0.021661050617694855
0.025912640616297722,0.004989869426935911,-0.015607720240950584,0.011722207069396973,-0.0002875954960472882,0.02244672179222107
0.02613987773656845,0.004494539462029934,-0.016283636912703514,0.011556534096598625,-0.00027306124684400856,0.021036366000771523
0.025737443938851357,0.004506286233663559,-0.015599366277456284,0.011701083742082119,-0.0002599156287033111,0.021226590499281883
0.024829672649502754,0.004134024027734995,-0.015459366142749786,0.011260241270065308,-0.00028647619183175266,0.021222973242402077
0.024649258702993393,0.00392655935138464,-0.015725288540124893,0.011586789041757584,-0.00027641639462672174,0.021622804924845695
0.025596223771572113,0.004188337828963995,-0.015655092895030975,0.011480945162475109,-0.0002649525704327971,0.02186177484691143
0.025596223771572113,0.004188337828963995,-0.015655092895030975,0.011480945162475109,-0.0002649525704327971,0.02186177484691143
0.026261698454618454,0.004625468049198389,-0.01592087559401989,0.011786706745624542,-0.0002542673028074205,0.02217080257833004
0.026172194629907608,0.004732741042971611,-0.015684356912970543,0.0116686737164855,-0.0002444027632009238,0.022312704473733902
0.026127269491553307,0.004745303653180599,-0.015538082458078861,0.011326773092150688,-0.0002666053478606045,0.02129390835762024
0.0259751807898283,0.0041521815583109856,-0.01593961752951145,0.012014098465442657,-0.00025905450456775725,0.020609203726053238
0.025997530668973923,0.003871225519105792,-0.016307741403579712,0.012113514356315136,-0.0002501853450667113,0.021385053172707558
0.026417043060064316,0.0038435969036072493,-0.015532136894762516,0.011937915347516537,-0.00024179095635190606,0.02192104421555996
0.025800440460443497,0.004109458066523075,-0.015450729988515377,0.012198726646602154,-0.000234490871662274,0.022262874990701675
0.02581767365336418,0.004202719312161207,-0.01610962487757206,0.011806365102529526,-0.0002250693505629897,0.021858328953385353
0.025918887928128242,0.00500915152952075,-0.015406172722578049,0.012013641186058521,-0.0002047385642072186,0.022667573764920235
0.02619328908622265,0.004385718610137701,-0.015280742198228836,0.012279071845114231,-0.00023231863451655954,0.022856146097183228
0.026598354801535606,0.003993683028966188,-0.01630372740328312,0.012161299586296082,-0.00022501622152049094,0.022166280075907707
0.026440273970365524,0.0039186300709843636,-0.015245191752910614,0.011593122035264969,-0.00021616295271087438,0.021572835743427277
0.0265189278870821,0.003929808270186186,-0.0156842228025198,0.012433762662112713,-0.0002401405799901113,0.021770892664790154
0.02690424770116806,0.0040257214568555355,-0.014723853208124638,0.012314128689467907,-0.00023335107835009694,0.0217515267431736
0.026937518268823624,0.00414910726249218,-0.015695754438638687,0.013007557019591331,-0.00022514801821671426,0.022282153367996216
0.026961499825119972,0.004492525476962328,-0.015820790082216263,0.012765227816998959,-0.00024634189321659505,0.02260766364634037
0.027123263105750084,0.004138845484703779,-0.015708407387137413,0.01335295382887125,-0.0002400184457655996,0.022561514750123024
0.02683211863040924,0.0038026541005820036,-0.015073070302605629,0.013212935999035835,-0.0003018725838046521,0.022557750344276428
0.027080941945314407,0.004219455178827047,-0.015599051490426064,0.012945661321282387,-0.00034431793028488755,0.02255130559206009
0.027226202189922333,0.003596383845433593,-0.016254406422376633,0.012892043218016624,-0.00037980382330715656,0.02255469746887684
0.02737809345126152,0.0035710514057427645,-0.015689056366682053,0.012460828758776188,-0.00036223206552676857,0.022738896310329437
0.027203796431422234,0.00404413091018796,-0.016016323119401932,0.012681304477155209,-0.0003889152139890939,0.02241756021976471
0.027273353189229965,0.0043316250666975975,-0.015275338664650917,0.012346131727099419,-0.00037262984551489353,0.022635655477643013
0.027028007432818413,0.004567330237478018,-0.01598365418612957,0.012944933027029037,-0.00039907058817334473,0.022674230858683586
0.027086758986115456,0.004214881453663111,-0.0157930850982666,0.012375231832265854,-0.0005582637386396527,0.022555213421583176
0.026757948100566864,0.003971527796238661,-0.016150008887052536,0.012627304531633854,-0.0006017414852976799,0.02273942530155182
0.026757948100566864,0.003971527796238661,-0.016150008887052536,0.012627304531633854,-0.0006017414852976799,0.02273942530155182
0.02762548066675663,0.003525274572893977,-0.01582161709666252,0.012719872407615185,-0.0005873036570847034,0.022896327078342438
0.027960678562521935,0.003872216446325183,-0.016367901116609573,0.013000997714698315,-0.0006090840324759483,0.022898390889167786
0.027598142623901367,0.0041966610588133335,-0.01654323749244213,0.013115153647959232,-0.0006242088857106864,0.023044146597385406
0.027980858460068703,0.004057095851749182,-0.01606009528040886,0.013005209155380726,-0.00059185252757743,0.023027826100587845
0.026964975520968437,0.004311407450586557,-0.01648576743900776,0.013547326438128948,-0.0007404996431432664,0.023095499724149704
0.026923103258013725,0.004543049726635218,-0.015573907643556595,0.012910190969705582,-0.0007787725771777332,0.023170221596956253
0.027857737615704536,0.004137229174375534,-0.016012389212846756,0.013913806527853012,-0.000743224925827235,0.023136397823691368
0.02771223895251751,0.003939843270927668,-0.01579160802066326,0.01334999967366457,-0.0007500880165025592,0.0228226687759161
0.027262534946203232,0.0039162663742899895,-0.016658039763569832,0.013422349467873573,-0.0008729186374694109,0.02255646511912346
0.02815997786819935,0.004441047552973032,-0.01579338312149048,0.012759503908455372,-0.0009003406739793718,0.023169612511992455
0.02806084230542183,0.004150344990193844,-0.0158709567040205,0.013563590124249458,-0.0008044984424486756,0.02385886199772358
0.027860127389431,0.004299882333725691,-0.016184108331799507,0.013039419427514076,-0.0008132351795211434,0.023046961054205894
0.02697586454451084,0.004319827537983656,-0.016952145844697952,0.013013817369937897,-0.0007794694392941892,0.022393114864826202
0.027579324319958687,0.004021282773464918,-0.015930505469441414,0.01305265724658966,-0.000768615456763655,0.022547001019120216
0.02806338481605053,0.003803819417953491,-0.01650797203183174,0.013650277629494667,-0.0007264777668751776,0.023364771157503128
0.02778141386806965,0.004278408829122782,-0.016283977776765823,0.013526039198040962,-0.0007431407575495541,0.0240821223706007
0.027601998299360275,0.004100048914551735,-0.016303418204188347,0.013855504803359509,-0.0007406738586723804,0.02384283021092415
0.0280325748026371,0.004008360207080841,-0.0164876077324152,0.013221905566751957,-0.0007760295993648469,0.023766908794641495
0.027887634932994843,0.004037952516227961,-0.016382694244384766,0.013459351845085621,-0.0008618574938736856,0.02411348931491375
0.02793951705098152,0.004466866608709097,-0.01706065610051155,0.01321818120777607,-0.0008716421434655786,0.02404274418950081
0.027739770710468292,0.004094320815056562,-0.016515139490365982,0.013972756452858448,-0.0008754280279390514,0.023503124713897705
0.028046410530805588,0.004286091774702072,-0.016577955335378647,0.013825023546814919,-0.000792889331933111,0.02308722771704197
0.0278135035187006,0.004153550136834383,-0.01654450222849846,0.014423029497265816,-0.0008271776023320854,0.023206360638141632
0.02801620401442051,0.003628246486186981,-0.016893140971660614,0.014189432375133038,-0.0007348778308369219,0.0226502176374197
0.027993112802505493,0.003588050603866577,-0.017359068617224693,0.014303057454526424,-0.0006338849780149758,0.02343762293457985
0.028464555740356445,0.004109932575374842,-0.016974402591586113,0.014174487441778183,-0.00065089319832623,0.024217789992690086
0.028464555740356445,0.004109932575374842,-0.016974402591586113,0.014174487441778183,-0.00065089319832623,0.024217789992690086
0.02827315218746662,0.004172849003225565,-0.01703391782939434,0.014532004483044147,-0.0005922880955040455,0.024158798158168793
0.028377730399370193,0.004185913596302271,-0.016987163573503494,0.013835725374519825,-0.0005995499086566269,0.024247055873274803
0.029298413544893265,0.003889168845489621,-0.01722322404384613,0.013689200393855572,-0.0005657790461555123,0.024098485708236694
0.028928117826581,0.003539864905178547,-0.017203889787197113,0.013183796778321266,-0.0005203273613005877,0.024384761229157448
0.02836182713508606,0.0036069198977202177,-0.01664757914841175,0.013385926373302937,-0.0005444908165372908,0.02449982240796089
0.028635123744606972,0.003396283835172653,-0.0169824231415987,0.013710243627429008,-0.0005100651760585606,0.024365734308958054
0.0281712394207716,0.003611004678532481,-0.017101770266890526,0.01349676214158535,-0.00047655668458901346,0.024472827091813087
0.02924138493835926,0.00378203927539289,-0.01722334325313568,0.0136146554723382,-0.0004087158013135195,0.024564681574702263
0.029108179733157158,0.0038059530779719353,-0.018218087032437325,0.013343043625354767,-0.0003649727441370487,0.02470906637609005
0.029147112742066383,0.004273335449397564,-0.017367908731102943,0.013874084688723087,-0.00033692806027829647,0.02464505285024643
0.027315914630889893,0.004144714213907719,-0.017311643809080124,0.013662378303706646,-0.00036753277527168393,0.02423444204032421
0.029669471085071564,0.003471069736406207,-0.01713503524661064,0.013975830748677254,-0.00033003740827552974,0.024770746007561684
0.029669471085071564,0.003471069736406207,-0.01713503524661064,0.013975830748677254,-0.00033003740827552974,0.024770746007561684
0.029362183064222336,0.003410882782191038,-0.017312688753008842,0.013622080907225609,-0.0003426633484195918,0.02501336671411991
0.03013838455080986,0.0035591505002230406,-0.018068522214889526,0.014163852669298649,-0.0003596537571866065,0.02485823817551136
0.030049800872802734,0.00425707595422864,-0.017867853865027428,0.013980844058096409,-0.00035335635766386986,0.025020122528076172
0.0294624175876379,0.0041954549960792065,-0.017775457352399826,0.014443597756326199,-0.00042572227539494634,0.025048892945051193
0.029343407601118088,0.00393633870407939,-0.017917528748512268,0.014268249273300171,-0.00046874338295310736,0.02519817091524601
0.030071120709180832,0.004286461044102907,-0.017439980059862137,0.01474042423069477,-0.0004988628206774592,0.02519570291042328
0.030609989538788795,0.004131805617362261,-0.0181330144405365,0.015084040351212025,-0.0005199129227548838,0.024913504719734192
0.030164146795868874,0.003963597118854523,-0.018070656806230545,0.015209753066301346,-0.0005032082553952932,0.02475830167531967
0.030445046722888947,0.004107424058020115,-0.017453325912356377,0.01514399889856577,-0.000749668397475034,0.02519487589597702
0.03044065646827221,0.004065335262566805,-0.017986241728067398,0.015318556688725948,-0.0007837184821255505,0.02550565078854561
0.030385589227080345,0.00383932632394135,-0.01771211437880993,0.015283097513020039,-0.0007915094029158354,0.02580505795776844
0.030580822378396988,0.003795827040448785,-0.018053250387310982,0.015117050148546696,-0.0007645590812899172,0.025659576058387756
0.03063712641596794,0.004257009830325842,-0.01815185882151127,0.015077110379934311,-0.0007316450937651098,0.025907525792717934
0.03164032846689224,0.004549901466816664,-0.017342649400234222,0.015039284713566303,-0.0006667638081125915,0.026036713272333145
0.030970929190516472,0.004140304867178202,-0.018211958929896355,0.01520546805113554,-0.0006401240243576467,0.025994205847382545
0.031209679320454597,0.0038666361942887306,-0.018079252913594246,0.015314897522330284,-0.0006494434783235192,0.025962894782423973
0.031199099496006966,0.004250660538673401,-0.018108339980244637,0.015715742483735085,-0.0006025510374456644,0.02619091048836708
0.031199099496006966,0.004250660538673401,-0.018108339980244637,0.015715742483735085,-0.0006025510374456644,0.02619091048836708
0.031079845502972603,0.0041797771118581295,-0.018390057608485222,0.014902700670063496,-0.0006214448367245495,0.025668097659945488
0.031202495098114014,0.0041714021936059,-0.0179628636687994,0.014908640645444393,-0.000615038035903126,0.02637912519276142
0.03205046057701111,0.004028467461466789,-0.018213946372270584,0.01486142072826624,-0.0006004050956107676,0.02722993679344654
0.03165557608008385,0.0038706969935446978,-0.01846316084265709,0.01546036172658205,-0.0006605718517675996,0.026770129799842834
0.03192434087395668,0.004328588023781776,-0.01759675145149231,0.015035505406558514,-0.0007015246665105224,0.024969464167952538
0.032024774700403214,0.004162656143307686,-0.01806091144680977,0.0151111651211977,-0.0007252327050082386,0.02513520047068596
0.03196489065885544,0.004403759725391865,-0.018473384901881218,0.014506679028272629,-0.0007434754515998065,0.026659328490495682
0.03236928954720497,0.004319484811276197,-0.018030187115073204,0.014962085522711277,-0.0010119319194927812,0.026540156453847885
0.031946517527103424,0.003989041317254305,-0.018334686756134033,0.014553702436387539,-0.0010272359941154718,0.026252496987581253
0.0322100855410099,0.004099844489246607,-0.018583817407488823,0.015221625566482544,-0.0009356272639706731,0.027900606393814087
0.03280424326658249,0.004127223510295153,-0.01897873356938362,0.015495453961193562,-0.0009195729508064687,0.02683357149362564
0.032778799533843994,0.003893396584317088,-0.018614232540130615,0.01522170938551426,-0.0007947094854898751,0.02599746361374855
0.03259259834885597,0.003731243312358856,-0.018818633630871773,0.015473155304789543,-0.0007414454594254494,0.026319842785596848
0.0327877402305603,0.0038419910706579685,-0.01895219460129738,0.015021099708974361,-0.0007015510927885771,0.027237899601459503
0.03410160914063454,0.00434990506619215,-0.018369490280747414,0.015060422010719776,-0.000699888332746923,0.02727426588535309
0.033924683928489685,0.004139324184507132,-0.01883714273571968,0.015493285842239857,-0.000650939648039639,0.027259094640612602
0.0315048024058342,0.00396348349750042,-0.01947956718504429,0.015331381931900978,-0.0005913079367019236,0.027060093358159065
0.033351704478263855,0.004423920530825853,-0.018825141713023186,0.016101105138659477,-0.0006123270723037422,0.02708626352250576
0.03399806097149849,0.0046533942222595215,-0.01881716027855873,0.01547269057482481,-0.000547846604604274,0.0270413625985384
0.03353859856724739,0.004278617911040783,-0.019308101385831833,0.016137931495904922,-0.0005563096492551267,0.027000127360224724
0.03425313159823418,0.004043892491608858,-0.01956441067159176,0.015930626541376114,-0.0005660159513354301,0.027253087610006332
0.03442978113889694,0.003969126846641302,-0.019678231328725815,0.015622381120920181,-0.0005555913667194545,0.027351653203368187
0.03362622484564781,0.004127347841858864,-0.01980326510965824,0.015479905530810356,-0.0005761331995017827,0.027638226747512817
0.03305003046989441,0.004147319123148918,-0.019610019400715828,0.016050375998020172,-0.0007487941184081137,0.027867071330547333
0.03305003046989441,0.004147319123148918,-0.019610019400715828,0.016050375998020172,-0.0007487941184081137,0.027867071330547333
0.034904107451438904,0.0044357990846037865,-0.01954914815723896,0.01579923927783966,-0.0008231771644204855,0.027768436819314957
0.034289903938770294,0.00462877145037055,-0.019352799281477928,0.015661848708987236,-0.0007905712118372321,0.02805386669933796
0.033805351704359055,0.004653622396290302,-0.020037997514009476,0.015394515357911587,-0.0007493650773540139,0.028072645887732506
0.03404385596513748,0.004471796099096537,-0.020111268386244774,0.015036999247968197,-0.0006727082654833794,0.02750704623758793
0.03425539284944534,0.0043801553547382355,-0.020381847396492958,0.015360502526164055,-0.0006714498740620911,0.027825480327010155
0.034604333341121674,0.004384330473840237,-0.020026154816150665,0.015510627999901772,-0.0006320502143353224,0.02793951705098152
0.034325916320085526,0.004063763655722141,-0.0196197722107172,0.016109177842736244,-0.0005821852828375995,0.027888095006346703
0.03410252556204796,0.004341140389442444,-0.019779397174715996,0.015614946372807026,-0.0005334331071935594,0.02728520706295967
0.03403966873884201,0.0048079220578074455,-0.02007688209414482,0.015512915328145027,-0.0004748394130729139,0.027431035414338112
0.03437858819961548,0.004353589843958616,-0.01989857479929924,0.015226343646645546,-0.0004921400686725974,0.028180839493870735
0.03466114029288292,0.004316484555602074,-0.020927049219608307,0.016317421570420265,-0.00046875039697624743,0.028795724734663963
0.03425894305109978,0.0042870547622442245,-0.018071936443448067,0.01518656499683857,-0.0004992038011550903,0.0274832621216774
0.032751962542533875,0.00438524316996336,-0.020428964868187904,0.01504010520875454,-0.0004947726265527308,0.027657851576805115
0.03527909889817238,0.004639580845832825,-0.02153218537569046,0.015572437085211277,-0.0005805520340800285,0.028690330684185028
0.03647807985544205,0.004468439146876335,-0.021078364923596382,0.01625029183924198,-0.0006516595021821558,0.028482098132371902
0.03586864098906517,0.00433766096830368,-0.020385611802339554,0.016318554058670998,-0.0006809101905673742,0.028901804238557816
0.03367197886109352,0.004796112421900034,-0.02127893455326557,0.017480771988630295,-0.0006852071965113282,0.029031286016106606
0.03412669897079468,0.00474212970584631,-0.020644837990403175,0.017555000260472298,-0.0006442481535486877,0.028584089130163193
0.0358802005648613,0.004286726005375385,-0.02047918178141117,0.01755478046834469,-0.0007527890847995877,0.027867935597896576
0.035735443234443665,0.004439708776772022,-0.020825251936912537,0.017230531200766563,-0.0007587583968415856,0.02752780169248581
0.03646066412329674,0.004351221490651369,-0.021580448374152184,0.0165846049785614,-0.000719183764886111,0.028231587260961533
0.036026012152433395,0.0043345969170331955,-0.021568581461906433,0.017007021233439445,-0.0007294240640476346,0.028768539428710938
0.03533065319061279,0.0049060555174946785,-0.021093208342790604,0.01666925475001335,-0.0006649523857049644,0.028985291719436646
0.03508108854293823,0.005017661955207586,-0.02113780565559864,0.017163123935461044,-0.0006819530972279608,0.028486257418990135
0.03605865314602852,0.004545210395008326,-0.021236632019281387,0.017257625237107277,-0.0006277052452787757,0.02844286896288395
0.03620057553052902,0.0042047929018735886,-0.021433312445878983,0.017273882403969765,-0.0005937506211921573,0.028826430439949036
0.03665296733379364,0.004494487773627043,-0.021008653566241264,0.0176546610891819,-0.0005324363592080772,0.02910131961107254
0.03665296733379364,0.004494487773627043,-0.021008653566241264,0.0176546610891819,-0.0005324363592080772,0.02910131961107254
0.03569420427083969,0.004807847552001476,-0.021293552592396736,0.017647424712777138,-0.0005138281849212945,0.029427774250507355
0.03569420427083969,0.004807847552001476,-0.021293552592396736,0.017647424712777138,-0.0005138281849212945,0.029427774250507355
0.03620852530002594,0.00515243923291564,-0.021548712626099586,0.017603356391191483,-0.0005393826286308467,0.0293770432472229
0.03684019669890404,0.005011276341974735,-0.021705906838178635,0.01710984669625759,-0.000558528583496809,0.029838576912879944
0.036676228046417236,0.00479150889441371,-0.02147558331489563,0.01734083890914917,-0.000537470739800483,0.02987462840974331
0.03646687790751457,0.004344454035162926,-0.02132800593972206,0.017068754881620407,-0.0006016428815200925,0.03107239492237568
0.03765498846769333,0.0049416739493608475,-0.02121933363378048,0.01755579002201557,-0.0006310621974989772,0.029473431408405304
0.035936955362558365,0.004866043105721474,-0.020900750532746315,0.017725469544529915,-0.0005766922840848565,0.02961263619363308
0.03744875267148018,0.004943999461829662,-0.02100755274295807,0.017292596399784088,-0.0005966108292341232,0.029469197615981102
0.0374082513153553,0.004388654604554176,-0.021422050893306732,0.017651591449975967,-0.0005925896111875772,0.029542313888669014
0.037385061383247375,0.004216003697365522,-0.02137480117380619,0.01740233413875103,-0.0005802380619570613,0.029969513416290283
0.03739100694656372,0.003990900237113237,-0.021118100732564926,0.01763797365128994,-0.0006318200030364096,0.02990458719432354
0.037887100130319595,0.003917713649570942,-0.02151600643992424,0.01784556172788143,-0.0006228534621186554,0.029571613296866417
0.03772862255573273,0.004580221138894558,-0.02129349857568741,0.01786578819155693,-0.0006232784944586456,0.029767852276563644
0.037894390523433685,0.0046109044924378395,-0.021186387166380882,0.017341619357466698,-0.0006373977521434426,0.029778046533465385
0.038260992616415024,0.004440567456185818,-0.02157844975590706,0.017740432173013687,-0.000603318854700774,0.02988697588443756
0.038229797035455704,0.004367645829916,-0.021945739164948463,0.018313217908143997,-0.000664840976241976,0.029630698263645172
0.03785661607980728,0.0042166635394096375,-0.021713266149163246,0.018221167847514153,-0.0007055469905026257,0.029447810724377632
0.037948720157146454,0.004313399083912373,-0.021740805357694626,0.018860846757888794,-0.0007289063651114702,0.029498402029275894
0.03870758041739464,0.0045416527427732944,-0.021596457809209824,0.01876906305551529,-0.0007404971402138472,0.02964862436056137
0.03982657194137573,0.0046640075743198395,-0.02191808447241783,0.018034379929304123,-0.0009098467417061329,0.030866755172610283
0.03884635120630264,0.0047157518565654755,-0.022483495995402336,0.01825818605720997,-0.001010322943329811,0.03081951104104519
0.0376601368188858,0.004720458760857582,-0.023066505789756775,0.017783327028155327,-0.0009368329192511737,0.029516559094190598
0.03931443765759468,0.004758936818689108,-0.022617019712924957,0.01809895783662796,-0.0009280923986807466,0.029214883223176003
0.03912398964166641,0.0042470237240195274,-0.022829188033938408,0.018778499215841293,-0.0008285252843052149,0.03036600537598133
0.0401461087167263,0.004434001166373491,-0.022514035925269127,0.01815728098154068,-0.0007997524808160961,0.030789515003561974
0.03936395421624184,0.004440204706043005,-0.022379087284207344,0.017628246918320656,-0.0006896693375892937,0.03098406456410885
0.03875132277607918,0.004805652424693108,-0.022755729034543037,0.01755708083510399,-0.0006555889267474413,0.03244665265083313
0.03875132277607918,0.004805652424693108,-0.022755729034543037,0.01755708083510399,-0.0006555889267474413,0.03244665265083313
0.03814307227730751,0.004937955178320408,-0.023113342002034187,0.01776088960468769,-0.000629683374427259,0.03177393972873688
0.03925398737192154,0.0047845374792814255,-0.023251991719007492,0.018778271973133087,-0.0005668261437676847,0.030246617272496223
0.03783893212676048,0.004499255213886499,-0.02315637655556202,0.018553458154201508,-0.0005924544529989362,0.03135775029659271
0.039633091539144516,0.00425703963264823,-0.02260594815015793,0.018157334998250008,-0.0005839607329107821,0.03206752613186836
0.03996390104293823,0.004871060140430927,-0.022449711337685585,0.018326347693800926,-0.0005721438792534173,0.03159219026565552
0.03925103321671486,0.005109958350658417,-0.022883599624037743,0.017229881137609482,-0.0005243198829703033,0.031124059110879898
0.03975619003176689,0.004874290898442268,-0.023168668150901794,0.017724188044667244,-0.0004645169829018414,0.031156441196799278
0.039314910769462585,0.0047420780174434185,-0.02338857389986515,0.0181888360530138,-0.0004987249849364161,0.031117895618081093
0.03958256542682648,0.004728726111352444,-0.023419665172696114,0.01835494488477707,-0.000527476251590997,0.03138745576143265
0.03994191065430641,0.004798359237611294,-0.02296394854784012,0.019336991012096405,-0.0005473409546539187,0.03134084492921829
0.04021153226494789,0.004541597794741392,-0.02302711270749569,0.01987234130501747,-0.0005242242477834225,0.03148641064763069
0.04085247218608856,0.0045226807706058025,-0.023707479238510132,0.019879387691617012,-0.0007132445462048054,0.03164256736636162
0.04116734862327576,0.004718753509223461,-0.023140713572502136,0.02001943625509739,-0.0007085662800818682,0.03166196867823601
0.03842556104063988,0.004762226715683937,-0.02291025221347809,0.019683081656694412,-0.0007276358082890511,0.031643230468034744
0.03989173844456673,0.004535484127700329,-0.023555375635623932,0.019856762140989304,-0.0007043002988211811,0.031726378947496414
0.04009910672903061,0.004796189721673727,-0.023458331823349,0.02019798569381237,-0.0008684965432621539,0.03203665465116501
0.040242649614810944,0.004828563891351223,-0.02343585155904293,0.020067507401108742,-0.0008170982473529875,0.03199787437915802
0.04110051691532135,0.004391477908939123,-0.023549329489469528,0.01986801065504551,-0.0008242009207606316,0.032100874930620193
0.04005415737628937,0.003938770387321711,-0.023379379883408546,0.019891181960701942,-0.0008256217115558684,0.03199008107185364
0.039102520793676376,0.0037776136305183172,-0.023321479558944702,0.019503038376569748,-0.0008753019501455128,0.03145543485879898
0.04082823917269707,0.0037798637058585882,-0.023263350129127502,0.019240327179431915,-0.0008466221624985337,0.03172381967306137
0.040583737194538116,0.004271812736988068,-0.02377958409488201,0.019325632601976395,-0.0007894931477494538,0.033299725502729416
0.04040523245930672,0.0041662417352199554,-0.023465821519494057,0.01909860037267208,-0.0007913915324024856,0.03330737352371216
0.04049154743552208,0.004208498168736696,-0.022831803187727928,0.019189804792404175,-0.000715074478648603,0.03223465383052826
0.04110335186123848,0.004060512874275446,-0.022918134927749634,0.01968705840408802,-0.000721885182429105,0.031244976446032524
0.04077424108982086,0.003955482970923185,-0.02351435273885727,0.01958879828453064,-0.0006698135402984917,0.03224671259522438
0.040917910635471344,0.0047719418071210384,-0.023732593283057213,0.019257936626672745,-0.0006725041312165558,0.03219541162252426
0.040874868631362915,0.00446439441293478,-0.023744162172079086,0.019416198134422302,-0.0006981285405345261,0.03290857374668121
0.04098008945584297,0.003993768710643053,-0.023448098450899124,0.019513830542564392,-0.0007439556648023427,0.03412443399429321
0.041627004742622375,0.004300073720514774,-0.023079819977283478,0.01923234574496746,-0.001014539273455739,0.03294476494193077
0.041627004742622375,0.004300073720514774,-0.023079819977283478,0.01923234574496746,-0.001014539273455739,0.03294476494193077
0.041262827813625336,0.0042189969681203365,-0.02409045584499836,0.019467951729893684,-0.0010887263342738152,0.032223280519247055
0.041804131120443344,0.004203829448670149,-0.024089548736810684,0.019576508551836014,-0.001062714378349483,0.03162838891148567
0.04152596741914749,0.0042024459689855576,-0.02422761730849743,0.019207429140806198,-0.001030121580697596,0.033245716243982315
0.04163457825779915,0.0044893305748701096,-0.02477431111037731,0.020120900124311447,-0.0009679564391262829,0.03376215696334839
0.04273132607340813,0.00447262916713953,-0.023860596120357513,0.020464889705181122,-0.0009223956149071455,0.033408328890800476
0.04238946735858917,0.004251485224813223,-0.021838441491127014,0.02023933455348015,-0.0008492908091284335,0.03351582959294319
0.041966475546360016,0.004038581624627113,-0.024318568408489227,0.020309288054704666,-0.0007963333046063781,0.0331345796585083
0.04194958508014679,0.003944071009755135,-0.024166598916053772,0.02028680592775345,-0.0007531269802711904,0.032811906188726425
0.04249696061015129,0.004148735664784908,-0.02477136440575123,0.020309219136834145,-0.0007015409064479172,0.03316786140203476
0.04238826781511307,0.004228046163916588,-0.024301353842020035,0.02039778046309948,-0.000624190375674516,0.033454637974500656
0.0419916957616806,0.004141159355640411,-0.02390318363904953,0.02041889913380146,-0.0006508391234092414,0.03396284952759743
0.042141351848840714,0.004318312741816044,-0.024078434333205223,0.02027709409594536,-0.0006708605797030032,0.03374627232551575
0.0438293032348156,0.0042053586803376675,-0.024692358449101448,0.020595276728272438,-0.0006928886286914349,0.03398546949028969
0.04264893755316734,0.004448753781616688,-0.024609776213765144,0.020733796060085297,-0.0009543710621073842,0.03378305956721306
0.041114456951618195,0.004370929207652807,-0.025002233684062958,0.02054530382156372,-0.0010163222905248404,0.0341205932199955
0.04232502356171608,0.00453175837174058,-0.025221189484000206,0.02063891664147377,-0.0010213234927505255,0.03430928662419319
0.04306930676102638,0.004547505639493465,-0.025283899158239365,0.021102622151374817,-0.0011398616479709744,0.034003276377916336
0.04473663493990898,0.004818296525627375,-0.02449905313551426,0.021712440997362137,-0.0011200789595022798,0.03441682085394859
0.04289247840642929,0.004296152386814356,-0.023740531876683235,0.02093697525560856,-0.0009664102108217776,0.034224241971969604
0.04158981144428253,0.003987403586506844,-0.024242129176855087,0.020572813227772713,-0.0009483344038017094,0.03340725973248482
0.043305736035108566,0.0039815399795770645,-0.02455984428524971,0.020064501091837883,-0.0009412809740751982,0.03382830694317818
0.04390247166156769,0.004505702294409275,-0.025520866736769676,0.019488628953695297,-0.0008389466092921793,0.034453198313713074
0.04374264180660248,0.00463358499109745,-0.025557635352015495,0.02015298418700695,-0.0007805369677953422,0.0347430557012558
0.043564729392528534,0.004640203434973955,-0.024902695789933205,0.02144300378859043,-0.0007338173454627395,0.03594445437192917
0.04321864992380142,0.004723420366644859,-0.024370253086090088,0.021916143596172333,-0.0007495599566027522,0.035496342927217484
0.04363918676972389,0.004267673473805189,-0.02467123605310917,0.02120269648730755,-0.000765402102842927,0.03431450575590134
0.04334649816155434,0.004354014061391354,-0.025208894163370132,0.02117961458861828,-0.0008428859291598201,0.03457912430167198
0.04334649816155434,0.004354014061391354,-0.025208894163370132,0.02117961458861828,-0.0008428859291598201,0.03457912430167198
0.04369337111711502,0.0043473439291119576,-0.025205668061971664,0.022494250908493996,-0.0008670957759022713,0.03527127578854561
0.04301512613892555,0.004583170637488365,-0.025306198745965958,0.02213757298886776,-0.0008725684019736946,0.03489769250154495
0.04449918121099472,0.0045049614273011684,-0.02551746927201748,0.021344944834709167,-0.0008759070769883692,0.03618485853075981
0.04415654018521309,0.004898840095847845,-0.025282595306634903,0.021562309935688972,-0.0008996824617497623,0.03614996001124382
0.04245417192578316,0.0047817230224609375,-0.025229614228010178,0.02161385677754879,-0.0009203865774907172,0.03456636518239975
0.04330984503030777,0.004694203846156597,-0.02483484148979187,0.021506959572434425,-0.0009186850511468947,0.03403401002287865
0.04479667544364929,0.004756332375109196,-0.02503190189599991,0.022463835775852203,-0.0009021341684274375,0.03617284446954727
0.043826885521411896,0.004807973746210337,-0.02503483183681965,0.022400597110390663,-0.0009397559915669262,0.03588256239891052
0.041505612432956696,0.004919527564197779,-0.02546175941824913,0.022029682993888855,-0.0009545366046950221,0.03546551987528801
0.043920956552028656,0.00481793750077486,-0.025743836537003517,0.021788759157061577,-0.0009569493122398853,0.034927498549222946
0.04434077441692352,0.004884089343249798,-0.025295618921518326,0.021359622478485107,-0.0010763501049950719,0.03553485870361328
0.043849050998687744,0.004753313958644867,-0.025452446192502975,0.02134137600660324,-0.0010500670177862048,0.03589990362524986
0.04369916394352913,0.004859679378569126,-0.02614590898156166,0.021682044491171837,-0.0009588994435034692,0.03527219220995903
0.043796420097351074,0.0046432362869381905,-0.0256117545068264,0.022193437442183495,-0.0008856573258526623,0.03515764698386192
0.04423385486006737,0.004893017467111349,-0.025654198601841927,0.02213439531624317,-0.0008830130682326853,0.03590432181954384
0.04392777010798454,0.005316741764545441,-0.02526739053428173,0.021915894001722336,-0.0007822815096005797,0.0363583005964756
0.043871987611055374,0.004976149648427963,-0.025415197014808655,0.02167659066617489,-0.0008561942959204316,0.03579660505056381
0.04409265145659447,0.0049628810957074165,-0.026355918496847153,0.021344535052776337,-0.0008657451253384352,0.036422885954380035
0.04481523483991623,0.004821830429136753,-0.02651018276810646,0.02135128155350685,-0.0009874147363007069,0.03604001924395561
0.04456198960542679,0.004943209700286388,-0.026495950296521187,0.02174541726708412,-0.0010859562316909432,0.036414675414562225
0.04499242827296257,0.004757965449243784,-0.027050841599702835,0.02192351594567299,-0.0010217383969575167,0.03604278340935707
0.04492060840129852,0.0054314713925123215,-0.02715044654905796,0.02168780006468296,-0.001001449883915484,0.036113061010837555
0.04501675069332123,0.005114595405757427,-0.026919202879071236,0.02174786850810051,-0.0009322513360530138,0.035867054015398026
