davideferrari95/blind_handover_controller/data/Test 221 - [2024-02-08 -- 12-14-52]/joint_states_data.csv
shoulder_pan_joint,shoulder_lift_joint,elbow_joint,wrist_1_joint,wrist_2_joint,wrist_3_joint
0.006589633412659168,0.012906978838145733,-0.01133071631193161,-0.004748933482915163,-0.0,0.00662167789414525
0.006353102624416351,0.012422730214893818,-0.011510560289025307,-0.00439311470836401,-0.0,0.005986763630062342
0.006353102624416351,0.012422730214893818,-0.011510560289025307,-0.00439311470836401,-0.0,0.005986763630062342
0.006644257344305515,0.012287482619285583,-0.011266383342444897,-0.003639177419245243,-0.0,0.005650431849062443
0.0067632487043738365,0.01283624954521656,-0.010379231534898281,-0.0035685584880411625,-0.0,0.005751973949372768
0.007196937687695026,0.012655871920287609,-0.01196846179664135,-0.004204121418297291,-0.0,0.005864291917532682
0.006591276731342077,0.012697243131697178,-0.01140328124165535,-0.0041204155422747135,-0.0,0.0049435291439294815
0.006276262458413839,0.012186730280518532,-0.011535771191120148,-0.003958483226597309,-0.0,0.0055393618531525135
0.006276262458413839,0.012186730280518532,-0.011535771191120148,-0.003958483226597309,-0.0,0.0055393618531525135
0.006898218300193548,0.012435808777809143,-0.01084773801267147,-0.004262843169271946,-0.0,0.006018481682986021
0.006416753865778446,0.012342207133769989,-0.011406603269279003,-0.004147433675825596,-0.0,0.005749331321567297
0.006080448627471924,0.012447872199118137,-0.010685641318559647,-0.003955992870032787,-0.0,0.005281520541757345
0.006347556598484516,0.012086118571460247,-0.01058601588010788,-0.0034685186110436916,-0.0,0.005401963833719492
0.006328405346721411,0.012437183409929276,-0.01102091372013092,-0.003512913128361106,-0.0,0.005522354040294886
0.006374680902808905,0.01232550386339426,-0.010625838302075863,-0.0033452333882451057,-0.0,0.006138513796031475
0.006308162119239569,0.012705493718385696,-0.011042233556509018,-0.0034522102214396,-0.0,0.005867812782526016
0.005964374169707298,0.012361181899905205,-0.010792229324579239,-0.003298109397292137,-0.0,0.005824544001370668
0.00634160777553916,0.012352868914604187,-0.01063116081058979,-0.003175054444000125,-0.0,0.00583865400403738
0.0069923559203743935,0.012263990007340908,-0.011446370743215084,-0.0031204354017972946,-0.0,0.005806123837828636
0.006947300396859646,0.01218718197196722,-0.01138050016015768,-0.0032657592091709375,-0.0,0.00606933981180191
0.006270654499530792,0.012386943213641644,-0.011248921044170856,-0.003333431901410222,-0.0,0.005646423436701298
0.006304544396698475,0.012257668189704418,-0.01122435461729765,-0.0035769366659224033,-0.0,0.005709698889404535
0.006801123730838299,0.012647803872823715,-0.010322333313524723,-0.0033074659295380116,-0.0,0.005814611446112394
0.006629757583141327,0.01222723163664341,-0.010473053902387619,-0.003083613933995366,-0.0,0.0060859564691782
0.0064073652029037476,0.012221362441778183,-0.010383068583905697,-0.003083133837208152,-0.0,0.005908196326345205
0.0065672858618199825,0.012472467496991158,-0.010220644064247608,-0.003456033766269684,-0.0,0.006055834703147411
0.0058983988128602505,0.012177269905805588,-0.010675830766558647,-0.0037595871835947037,-0.0,0.005642296280711889
0.006179788149893284,0.01229835581034422,-0.010803336277604103,-0.003752280492335558,-0.0,0.005766040179878473
0.006685868836939335,0.012027882039546967,-0.010426648892462254,-0.0035231062211096287,-0.0,0.005968956742435694
0.006256002467125654,0.01207806821912527,-0.010800865478813648,-0.003543332451954484,-0.0,0.005921905394643545
0.005942452698945999,0.013328754343092442,-0.010412473231554031,-0.003716414561495185,-0.0,0.0062244608998298645
0.006105111446231604,0.012072320096194744,-0.010755724273622036,-0.00392623245716095,-0.0,0.005705481860786676
0.00650876946747303,0.01190666202455759,-0.01095196045935154,-0.003978337161242962,-0.0,0.006003659684211016
0.0064584361389279366,0.012147268280386925,-0.01094567310065031,-0.004043939523398876,-0.0,0.006190059706568718
0.0064584361389279366,0.012147268280386925,-0.01094567310065031,-0.004043939523398876,-0.0,0.006190059706568718
0.005762971937656403,0.012213489040732384,-0.010408256202936172,-0.003999824170023203,-0.0,0.006299959030002356
0.0058818901889026165,0.012180589139461517,-0.010562984272837639,-0.003989846911281347,-0.0,0.005810873117297888
0.006614540703594685,0.01216434221714735,-0.011180156841874123,-0.003976594191044569,-0.0,0.005884033162146807
0.006562975235283375,0.012209376320242882,-0.01077499333769083,-0.003580766962841153,-0.0,0.00559653015807271
0.006151055451482534,0.012834920547902584,-0.010508382692933083,-0.0035359044559299946,-0.0,0.005883290432393551
0.006186866667121649,0.012360116466879845,-0.010850905440747738,-0.0036597317084670067,-0.0,0.0056192767806351185
0.006281162612140179,0.012718018144369125,-0.010204380378127098,-0.003366952994838357,-0.0,0.005689928308129311
0.006242088042199612,0.012404951266944408,-0.010170521214604378,-0.0035089896991848946,-0.0,0.005595971830189228
0.0062034884467720985,0.012264495715498924,-0.010148335248231888,-0.0032502254471182823,-0.0,0.005544927902519703
0.006606072653084993,0.01273453701287508,-0.010132272727787495,-0.003276367671787739,-0.0,0.00535097811371088
0.00585980573669076,0.01251318771392107,-0.010214773006737232,-0.0034738006070256233,-0.0,0.005788127426058054
0.00607830286026001,0.012786272913217545,-0.010187668725848198,-0.003408074378967285,-0.0,0.0057971584610641
0.006858433596789837,0.012621937319636345,-0.010681964457035065,-0.003531019203364849,-0.0,0.005815302487462759
0.0063046240247786045,0.012744377367198467,-0.010282199829816818,-0.0033226332161575556,-0.0,0.005940662696957588
0.005971656646579504,0.012139158323407173,-0.0102171516045928,-0.0031512666027992964,-0.0,0.005839063320308924
0.0059295520186424255,0.012362330220639706,-0.009790533222258091,-0.00341396383009851,-0.0,0.006090789567679167
0.0064068264327943325,0.012411242350935936,-0.010520678013563156,-0.0037120680790394545,-0.0,0.005563369486480951
0.006120583042502403,0.01196372415870428,-0.010055574588477612,-0.004233546555042267,-0.0,0.005290608387440443
0.006540132686495781,0.012865101918578148,-0.009891802445054054,-0.0036351357121020555,-0.0,0.005139194894582033
0.005903393961489201,0.012332076206803322,-0.010341517627239227,-0.0035614436492323875,-0.0,0.005701978225260973
0.0059542846865952015,0.0119198989123106,-0.01020658016204834,-0.00320828496478498,-0.0,0.005604238715022802
0.006265928968787193,0.011698859743773937,-0.009639425203204155,-0.0033220602199435234,-0.0,0.005757125094532967
0.00609126640483737,0.011492758989334106,-0.010717330500483513,-0.003336076159030199,-0.0,0.005247815046459436
0.006216313689947128,0.01241521630436182,-0.010303311981260777,-0.003489217022433877,-0.0,0.005240054335445166
0.006144106388092041,0.012296288274228573,-0.00976884737610817,-0.0033612139523029327,-0.0,0.005459425505250692
0.006256397347897291,0.01171730924397707,-0.009926216676831245,-0.0040361699648201466,-0.0,0.006045601796358824
0.005928282160311937,0.011816655285656452,-0.009883859194815159,-0.0041544209234416485,-0.0,0.0054614911787211895
0.005928282160311937,0.011816655285656452,-0.009883859194815159,-0.0041544209234416485,-0.0,0.0054614911787211895
0.005826758686453104,0.012002379633486271,-0.010517030954360962,-0.0039438181556761265,-0.0,0.005414624232798815
0.0059913950972259045,0.011858217418193817,-0.010332496836781502,-0.00391232967376709,-0.0,0.00530426437035203
0.005845160689204931,0.012311210855841637,-0.010444237850606441,-0.003942885436117649,-0.0,0.005730055272579193
0.006340071093291044,0.012035304680466652,-0.010571196675300598,-0.003634636988863349,-0.0,0.0055238669738173485
0.006127921864390373,0.012250477448105812,-0.009827672503888607,-0.0035502035170793533,-0.0,0.005785997491329908
0.005935607478022575,0.012413695454597473,-0.010097354650497437,-0.0032719215378165245,-0.0,0.005295364186167717
0.006095848977565765,0.01180229801684618,-0.010866155847907066,-0.0034827201161533594,-0.0,0.005209797527641058
0.0058542294427752495,0.011858588084578514,-0.010510987602174282,-0.003837109310552478,-0.0,0.005557388532906771
0.006422310136258602,0.011513185687363148,-0.011084848083555698,-0.003544227220118046,-0.0,0.0055588423274457455
0.0066008432768285275,0.011927521787583828,-0.01026607770472765,-0.003522999584674835,-0.0,0.00551442289724946
0.006141497287899256,0.011641648598015308,-0.009897405281662941,-0.003645930904895067,-0.0,0.005478384904563427
0.0061361235566437244,0.011773326434195042,-0.010952716693282127,-0.003803899744525552,-0.0,0.0052742850966751575
0.006616296712309122,0.011785989627242088,-0.010687792673707008,-0.0038241322617977858,-0.0,0.00492453807964921
0.006319595035165548,0.011625400744378567,-0.011077994480729103,-0.003747710259631276,-0.0,0.0047261579893529415
0.006464070174843073,0.012133789248764515,-0.010519605129957199,-0.003678402630612254,-0.0,0.004884466994553804
0.0063957637175917625,0.011879939585924149,-0.010009550489485264,-0.0034225834533572197,-0.0,0.004935193341225386
0.006183059886097908,0.0117221400141716,-0.010460788384079933,-0.0033569508232176304,-0.0,0.004871299955993891
0.006379617843776941,0.011928360909223557,-0.010717842727899551,-0.003498983336612582,-0.0,0.0050233155488967896
0.006561857182532549,0.01168078277260065,-0.010002798400819302,-0.0037189775612205267,-0.0,0.0049417875707149506
0.00652362871915102,0.012172937393188477,-0.011228887364268303,-0.003704062895849347,-0.0,0.004613345023244619
0.005846669897437096,0.01166619174182415,-0.010580107569694519,-0.00361458258703351,-0.0,0.004552409052848816
0.006382786203175783,0.011796548031270504,-0.010019593872129917,-0.0035772977862507105,-0.0,0.005028483923524618
0.006826871074736118,0.011893126182258129,-0.010682577267289162,-0.003515013260766864,-0.0,0.005170815158635378
0.0064110602252185345,0.0111276526004076,-0.010499468073248863,-0.003554036607965827,-0.0,0.005143321584910154
0.006161197554320097,0.011870310641825199,-0.009809230454266071,-0.0035599481780081987,-0.0,0.004860876128077507
0.006642712280154228,0.011553725227713585,-0.010861963033676147,-0.0035385596565902233,-0.0,0.0046285055577754974
0.007002382539212704,0.011644872836768627,-0.011129290796816349,-0.0038808872923254967,-0.0,0.004540838301181793
0.006554515101015568,0.011667964048683643,-0.01010954286903143,-0.0039879335090518,-0.0,0.0047616814263165
0.006199306342750788,0.012059269472956657,-0.010275769978761673,-0.004317697137594223,-0.0,0.00484164385125041
0.005984832067042589,0.011971150524914265,-0.01018571574240923,-0.0037350193597376347,-0.0,0.0048409029841423035
0.005984832067042589,0.011971150524914265,-0.01018571574240923,-0.0037350193597376347,-0.0,0.0048409029841423035
0.006331952288746834,0.012073226273059845,-0.010736580938100815,-0.003561923513188958,-0.0,0.004779038485139608
0.006487642414867878,0.011534681543707848,-0.010334393940865993,-0.0041241333819925785,-0.0,0.0049066790379583836
0.006542947608977556,0.011258980259299278,-0.010555770248174667,-0.0041179899126291275,-0.0,0.005330260843038559
0.006461405660957098,0.01186163816601038,-0.011000731959939003,-0.0039051331114023924,-0.0,0.0052658128552138805
0.006535403896123171,0.011868895031511784,-0.0094596641138196,-0.004144466016441584,-0.0,0.004665853455662727
0.006601568311452866,0.012072218582034111,-0.010177494026720524,-0.004620623774826527,-0.0,0.004999297671020031
0.0068208882585167885,0.011614734306931496,-0.010291206650435925,-0.004568132571876049,-0.0,0.005046214908361435
0.00676461448892951,0.011566350236535072,-0.00974527932703495,-0.003601304953917861,-0.0,0.004843263421207666
0.006238054484128952,0.012304411269724369,-0.009962612763047218,-0.0029098999220877886,-0.0,0.004653040785342455
0.006514142267405987,0.011672301217913628,-0.010036652907729149,-0.002965135034173727,-0.0,0.004887857474386692
0.006942526437342167,0.012187739834189415,-0.010072080418467522,-0.0035631521604955196,-0.0,0.005155923310667276
0.0064812321215868,0.012110686860978603,-0.010076461359858513,-0.003890375141054392,-0.0,0.004711405839771032
0.006399181205779314,0.012029241770505905,-0.009752440266311169,-0.00413881428539753,-0.0,0.00463100103661418
0.006605762057006359,0.012117333710193634,-0.009500906802713871,-0.004044991917908192,-0.0,0.004493681713938713
0.006838145665824413,0.011668942868709564,-0.010010376572608948,-0.003916651476174593,-0.0,0.004583327565342188
0.006644917652010918,0.012100047431886196,-0.010308848693966866,-0.003754734294489026,-0.0,0.004640975035727024
0.0071775359101593494,0.011715801432728767,-0.0094355633482337,-0.0036122179590165615,-0.0,0.004632857628166676
0.00704473489895463,0.011920157819986343,-0.010290250182151794,-0.004093989264219999,-0.0,0.004669798072427511
0.00663126353174448,0.012601925991475582,-0.009852966293692589,-0.004185314755886793,-0.0,0.0046975803561508656
0.006895208265632391,0.01159816887229681,-0.009658080525696278,-0.003988955169916153,-0.0,0.004822696093469858
0.006482522003352642,0.012117297388613224,-0.010344383306801319,-0.0041702077724039555,-0.0,0.004386982414871454
0.006274267099797726,0.011720748618245125,-0.00974126998335123,-0.004573306068778038,-0.0,0.004382435232400894
0.006411753129214048,0.01243284996598959,-0.009304379113018513,-0.004491071216762066,-0.0,0.004572122823446989
0.006510107312351465,0.011707734316587448,-0.010150312446057796,-0.00405249185860157,-0.0,0.004651374649256468
0.006471788976341486,0.011474113911390305,-0.009491346776485443,-0.0037430492229759693,-0.0,0.0047689019702374935
0.006350620184093714,0.012259929440915585,-0.009289751760661602,-0.0038526267744600773,-0.0,0.004653559532016516
0.006517153698951006,0.01195142325013876,-0.00975796952843666,-0.003991878125816584,-0.0,0.004745786543935537
0.006584777496755123,0.011809136718511581,-0.009678669273853302,-0.004342371132224798,-0.0,0.00447074044495821
0.006584777496755123,0.011809136718511581,-0.009678669273853302,-0.004342371132224798,-0.0,0.00447074044495821
0.006413567345589399,0.011763334274291992,-0.010559660382568836,-0.004253989551216364,-0.0,0.004567698575556278
0.006438142620027065,0.011921838857233524,-0.009549455717206001,-0.003937155473977327,-0.0,0.004172543995082378
0.006231745705008507,0.011590667068958282,-0.009222826920449734,-0.0037389046046882868,-0.0,0.004225819371640682
0.006743107922375202,0.012104878202080727,-0.010812425054609776,-0.00417710468173027,-0.0,0.0046228370629251
0.007072574459016323,0.01242763176560402,-0.009944244287908077,-0.004167628008872271,-0.0,0.004635894205421209
0.0069152070209383965,0.012037649750709534,-0.009114772081375122,-0.003985907882452011,-0.0,0.004805732052773237
0.006407230626791716,0.011946067214012146,-0.009684577584266663,-0.0043905945494771,-0.0,0.004790243227034807
0.006659289821982384,0.01165509968996048,-0.009656114503741264,-0.0045609017834067345,-0.0,0.00429694214835763
0.006859762128442526,0.012058407999575138,-0.0096156420186162,-0.004658474121242762,-0.0,0.004228667821735144
0.006880218628793955,0.011720964685082436,-0.009870689362287521,-0.004588330630213022,-0.0,0.00406801700592041
0.006700506433844566,0.011927454732358456,-0.009385730139911175,-0.004349397961050272,-0.0,0.004239941481500864
0.006485195830464363,0.012247989885509014,-0.009310003370046616,-0.004109781701117754,-0.0,0.004276935011148453
0.006766570266336203,0.01182349119335413,-0.009470219723880291,-0.004222337622195482,-0.0,0.0040946719236671925
0.00679465988650918,0.01247632596641779,-0.009840285405516624,-0.004336634185165167,-0.0,0.0035284750629216433
0.007051357999444008,0.012120997533202171,-0.009040630422532558,-0.004599087405949831,-0.0,0.0035465373657643795
0.0065496196039021015,0.012426165863871574,-0.009674527682363987,-0.004908043425530195,-0.0,0.004164641257375479
0.00725520821288228,0.012070623226463795,-0.00963518861681223,-0.0045534162782132626,-0.0,0.004118632525205612
0.006654346827417612,0.012132100760936737,-0.009299259632825851,-0.0036122361198067665,-0.0,0.0043895188719034195
0.006771602667868137,0.011859036982059479,-0.009872229769825935,-0.0034881059546023607,-0.0,0.004242961760610342
0.006366862915456295,0.011638177558779716,-0.009521301835775375,-0.0037272952031344175,-0.0,0.003997731953859329
0.006617259234189987,0.012482409365475178,-0.009064755402505398,-0.004809793084859848,-0.0,0.003860588651150465
0.007268252316862345,0.011980864219367504,-0.00935332477092743,-0.005046351347118616,-0.0,0.0036310572177171707
0.006501589901745319,0.011883457191288471,-0.009448899887502193,-0.004991618916392326,-0.0,0.00333923171274364
0.006489125080406666,0.012680958025157452,-0.008964107371866703,-0.004853527061641216,-0.0,0.00406407006084919
0.006489125080406666,0.012680958025157452,-0.008964107371866703,-0.004853527061641216,-0.0,0.00406407006084919
0.0069262245669960976,0.01133036706596613,-0.009080379270017147,-0.004733475856482983,-0.0,0.004631106276065111
0.007280413527041674,0.011274606920778751,-0.009740829467773438,-0.004314154852181673,-0.0,0.004288229625672102
0.006656726822257042,0.0119817228987813,-0.009493288584053516,-0.004915378987789154,-0.0,0.003603748744353652
0.006513156462460756,0.012268949300050735,-0.009635189548134804,-0.005100553389638662,-3.6706114769913256e-06,0.0035816996823996305
0.00678346399217844,0.011862535029649734,-0.009219693019986153,-0.005305345170199871,-2.3966470052982913e-07,0.0037483142223209143
0.007017888594418764,0.012432442046701908,-0.008882002905011177,-0.005057929083704948,-1.564839280376873e-08,0.003887730184942484
0.007000280078500509,0.011793095618486404,-0.009670856408774853,-0.0047893221490085125,-1.02172825755531e-09,0.003937064204365015
0.00728409830480814,0.01215377263724804,-0.009787460789084435,-0.004640087019652128,-6.671155294846187e-11,0.003985357005149126
0.007067385129630566,0.011676515452563763,-0.008834310807287693,-0.005090090911835432,-4.355787432130942e-12,0.0035038874484598637
0.007477886509150267,0.01158425584435463,-0.00994961429387331,-0.005501284264028072,-2.84401788144123e-13,0.003447042778134346
0.006943274289369583,0.012028208002448082,-0.009233747608959675,-0.005484006367623806,-1.856940335276825e-14,0.0037012011744081974
0.006763830780982971,0.011580477468669415,-0.009487972594797611,-0.00505905831232667,-1.21244931344691e-15,0.00427782628685236
0.006817422341555357,0.012302412651479244,-0.009919296018779278,-0.004802901763468981,0.0002453963679727167,0.004066944122314453
0.007148841395974159,0.011731310747563839,-0.00939702708274126,-0.005060859024524689,0.0004358555015642196,0.0037997353356331587
0.007119966205209494,0.011552425101399422,-0.009065004996955395,-0.005150261335074902,0.00048651397810317576,0.0033393013291060925
0.006196786183863878,0.011967186816036701,-0.010648425668478012,-0.00501795019954443,0.0004516969493124634,0.0033081306610256433
0.007350572384893894,0.011817322112619877,-0.009564047679305077,-0.005321496166288853,0.000481772527564317,0.0034906426444649696
0.00732788722962141,0.012221284210681915,-0.008958888240158558,-0.005641250405460596,0.0004989020526409149,0.00343362707644701
0.007194432895630598,0.011469810269773006,-0.009821918793022633,-0.005590504966676235,0.00048062315909191966,0.003560703946277499
0.007115498650819063,0.012020300142467022,-0.010083065368235111,-0.005250627640634775,0.0006114406860433519,0.0037036084104329348
0.007373653817921877,0.011037914082407951,-0.009449330158531666,-0.00576641783118248,0.0006422618171200156,0.003796684555709362
0.00719155790284276,0.01107796374708414,-0.009552117437124252,-0.006349222268909216,0.0005977154360152781,0.0033691860735416412
0.007228493224829435,0.012163820676505566,-0.009912589564919472,-0.00617245864123106,0.0006170469569042325,0.00306914234533906
0.007347142789512873,0.011739443056285381,-0.009597956202924252,-0.005891528446227312,0.0006420639110729098,0.003252376802265644
0.007446850650012493,0.011776900850236416,-0.010321690700948238,-0.005768073257058859,0.0007362636970356107,0.0030517459381371737
0.007817475125193596,0.011961476877331734,-0.009875169023871422,-0.006079284939914942,0.0007917069597169757,0.0032830662094056606
0.006936252117156982,0.011604970321059227,-0.009923333302140236,-0.005788860842585564,0.0008079840335994959,0.0033355047926306725
0.007258252706378698,0.011720933951437473,-0.010470004752278328,-0.00550327030941844,0.0010831427061930299,0.003029030514881015
0.007449107710272074,0.011616303585469723,-0.009600487537682056,-0.005776608362793922,0.00108537042979151,0.0028296702075749636
0.008088918402791023,0.012146477587521076,-0.010053057223558426,-0.005749635398387909,0.0010940257925540209,0.0029579359106719494
0.0079155582934618,0.01162220723927021,-0.00981807615607977,-0.005994302686303854,0.0012087186332792044,0.002936214441433549
0.0079155582934618,0.01162220723927021,-0.00981807615607977,-0.005994302686303854,0.0012087186332792044,0.002936214441433549
0.007779224310070276,0.011823424138128757,-0.009635014459490776,-0.006140404846519232,0.0012643293011933565,0.0028592634480446577
0.007951748557388783,0.01156425941735506,-0.010414418764412403,-0.005939370486885309,0.001268676482141018,0.0027228263206779957
0.00778066273778677,0.011557021178305149,-0.009870164096355438,-0.006201635580509901,0.0013645164435729384,0.0029075874481350183
0.007757138926535845,0.01171049289405346,-0.009376185946166515,-0.006352886091917753,0.0013661732664331794,0.003090725978836417
0.006817528512328863,0.011460252106189728,-0.010244950652122498,-0.006146571598947048,0.0014914351049810648,0.002860723529011011
0.007320962380617857,0.011776779778301716,-0.009932867251336575,-0.005908064544200897,0.001692652702331543,0.0026667029596865177
0.00747024966403842,0.011438362300395966,-0.00941701140254736,-0.005776369944214821,0.0017718838062137365,0.0025445837527513504
0.00804650504142046,0.011397574096918106,-0.009522849693894386,-0.005877412389963865,0.0019027740927413106,0.0025222355034202337
0.007145428564399481,0.01167583093047142,-0.009702510200440884,-0.006455641705542803,0.0017143064178526402,0.0025644751731306314
0.008034956641495228,0.011578678153455257,-0.009445502422749996,-0.0065999445505440235,0.0015887978952378035,0.00285876146517694
0.007869375869631767,0.012034982442855835,-0.009718399494886398,-0.006179573480039835,0.0014333069557324052,0.0028603195678442717
0.007531207986176014,0.011430228129029274,-0.009709533303976059,-0.005716430023312569,0.001327807898633182,0.002775041153654456
0.007549050264060497,0.01217680424451828,-0.008777224458754063,-0.005842913407832384,0.0011863384861499071,0.002562898211181164
0.007580552250146866,0.011354271322488785,-0.00973611418157816,-0.0063318535685539246,0.0009811207419261336,0.0025039936881512403
0.008045928552746773,0.011287160217761993,-0.009088224731385708,-0.006658914033323526,0.0008758397889323533,0.0025808168575167656
0.007819457910954952,0.011790638789534569,-0.00946794729679823,-0.006682887673377991,0.0008735019364394248,0.0025212126784026623
0.007875502109527588,0.011386176571249962,-0.00974350143224001,-0.006379092112183571,0.000876680773217231,0.002342310966923833
0.007979157380759716,0.011608084663748741,-0.009143448434770107,-0.006187933962792158,0.0008401272352784872,0.0022522774524986744
0.007745696697384119,0.0118483304977417,-0.009141582064330578,-0.006177372299134731,0.00088982138549909,0.002193195978179574
0.007555987685918808,0.011347329244017601,-0.009518240578472614,-0.006205452606081963,0.00092881586169824,0.0021501402370631695
0.007494228892028332,0.011515079066157341,-0.009183739311993122,-0.006330077536404133,0.0008975060191005468,0.002317256759852171
0.008060823194682598,0.011416793800890446,-0.009041393175721169,-0.006667427718639374,0.0008451828616671264,0.0025979287456721067
0.007895426824688911,0.011690814979374409,-0.009052173234522343,-0.006880609318614006,0.0008792734006419778,0.002379606943577528
0.0082559147849679,0.01176642905920744,-0.008899222128093243,-0.006569107994437218,0.0008881393587216735,0.001791332266293466
0.0082559147849679,0.01176642905920744,-0.008899222128093243,-0.006569107994437218,0.0008881393587216735,0.001791332266293466
0.008332557044923306,0.011434630490839481,-0.009488752111792564,-0.006873349193483591,0.0008678582962602377,0.0017477727960795164
0.00791261624544859,0.01130871381610632,-0.008915114216506481,-0.007093902677297592,0.000896509038284421,0.0017152439104393125
0.00791261624544859,0.01130871381610632,-0.008915114216506481,-0.007093902677297592,0.000896509038284421,0.0017152439104393125
0.007727926131337881,0.011703941971063614,-0.008817680180072784,-0.007168951444327831,0.0009162058704532683,0.0018063770839944482
0.008174210786819458,0.011215939186513424,-0.00938832201063633,-0.007164066191762686,0.0009153546416200697,0.0024239078629761934
0.008270262740552425,0.012077268213033676,-0.00897316262125969,-0.006973454263061285,0.0009891183581203222,0.0024091266095638275
0.007535937242209911,0.011479679495096207,-0.008867154829204082,-0.007436702959239483,0.001112438621930778,0.0020044813863933086
0.008296323008835316,0.011719685047864914,-0.0095138568431139,-0.007545056752860546,0.001117092208005488,0.0016167990397661924
0.008484507910907269,0.011409353464841843,-0.009203774854540825,-0.007023109123110771,0.0010894844308495522,0.0014233182882890105
0.007858636789023876,0.011141287162899971,-0.008785168640315533,-0.0068094548769295216,0.0011665037600323558,0.0012205896200612187
0.007911480031907558,0.011700311675667763,-0.009151855483651161,-0.007335950620472431,0.0011742970673367381,0.0008955910452641547
0.008278505876660347,0.011496452614665031,-0.008946647867560387,-0.007516931742429733,0.001134145655669272,0.0008353747543878853
0.008345123380422592,0.01133244950324297,-0.009067489765584469,-0.007371541112661362,0.0011019923258572817,0.0009069392108358443
0.007606793195009232,0.011450549587607384,-0.009091676212847233,-0.007911380380392075,0.0011303552892059088,0.001463533379137516
0.008070801384747028,0.01180421281605959,-0.009433000348508358,-0.007906009443104267,0.0010980217484757304,0.0016582602402195334
0.008262863382697105,0.011620745994150639,-0.00866009946912527,-0.008329479023814201,0.0011029817396774888,0.0023132022470235825
0.008215829730033875,0.011660478077828884,-0.008697937242686749,-0.007937493734061718,0.0010792267275974154,0.002025837078690529
0.008370968513190746,0.011235754936933517,-0.00934631284326315,-0.008008750155568123,0.0010899107437580824,0.0015429721679538488
0.008655278943479061,0.01152083184570074,-0.008814907632768154,-0.007981790229678154,0.0010204366408288479,0.0011572749353945255
0.008205583319067955,0.011474094353616238,-0.008298016153275967,-0.007950467988848686,0.0010000638430938125,0.0010882583446800709
0.008363267406821251,0.012130199931561947,-0.009021931327879429,-0.008030619472265244,0.0009396281093358994,0.0010441738413646817
0.007943633943796158,0.011488036252558231,-0.008986072614789009,-0.008132829330861568,0.0010088450508192182,0.0010053422302007675
0.008732388727366924,0.011697323992848396,-0.00858221109956503,-0.008560426533222198,0.0010156562784686685,0.0008640520973131061
0.008223490789532661,0.012405241839587688,-0.009776300750672817,-0.008342309854924679,0.0010149694280698895,0.0008138373959809542
0.007973295636475086,0.011651490814983845,-0.009157450869679451,-0.00844730157405138,0.0012968977680429816,0.0009169084369204938
0.008212030865252018,0.012125045992434025,-0.008920557796955109,-0.008351697586476803,0.0012611458078026772,0.0013551699230447412
0.00877476204186678,0.011621939949691296,-0.008738862350583076,-0.008453506976366043,0.0012023135786876082,0.001457519712857902
0.008490046486258507,0.011509399861097336,-0.009137353859841824,-0.007854219526052475,0.0011493477504700422,0.0013756598345935345
0.00816337764263153,0.011713676154613495,-0.008922599256038666,-0.008547701872885227,0.001109023462049663,0.0012648546835407615
0.008573097176849842,0.0116482088342309,-0.009607093408703804,-0.008029342629015446,0.0010525486432015896,0.0009846326429396868
0.00817677192389965,0.011454962193965912,-0.008790752850472927,-0.007837153971195221,0.0011198249412700534,0.0008347115362994373
0.00817677192389965,0.011454962193965912,-0.008790752850472927,-0.007837153971195221,0.0011198249412700534,0.0008347115362994373
0.008244349621236324,0.011159389279782772,-0.008310656994581223,-0.008388036862015724,0.0011083754943683743,0.0008102657156996429
0.008761141449213028,0.011757384054362774,-0.008962338790297508,-0.008612594567239285,0.0011012624017894268,0.000741351512260735
0.008525261655449867,0.011816001497209072,-0.009075108915567398,-0.008274124003946781,0.0013277711113914847,0.0007464062655344605
0.00840830523520708,0.011496861465275288,-0.008838142268359661,-0.008486504666507244,0.0012823521392419934,0.0006863514427095652
0.008759280666708946,0.011237223632633686,-0.008782761171460152,-0.00934346579015255,0.001239545177668333,0.000544849201105535
0.008515211753547192,0.011258402839303017,-0.009476752951741219,-0.008272441104054451,0.0013043414801359177,0.00046512114931829274
0.008152669295668602,0.011649379506707191,-0.009076247923076153,-0.007741485722362995,0.0013551495503634214,0.000498036271892488
0.008481723256409168,0.01131929736584425,-0.008641195483505726,-0.007907661609351635,0.0014468933222815394,0.0004605173598974943
0.008540020324289799,0.011551996693015099,-0.008725930005311966,-0.008858892135322094,0.00149769545532763,0.0004245998861733824
0.008530179038643837,0.011175134219229221,-0.008479022420942783,-0.008605523966252804,0.0013261496787890792,0.0003668833232950419
0.008530179038643837,0.011175134219229221,-0.008479022420942783,-0.008605523966252804,0.0013261496787890792,0.0003668833232950419
0.008435951545834541,0.011600658297538757,-0.008716114796698093,-0.009038643911480904,0.0014098221436142921,0.00034353058435954154
0.00864997785538435,0.011250614188611507,-0.00885053165256977,-0.00888827908784151,0.0013523597735911608,0.00032297277357429266
0.008740978315472603,0.011759661138057709,-0.008400239050388336,-0.008630122989416122,0.0015002102591097355,0.0003047382924705744
0.008712111972272396,0.011719968169927597,-0.008522283285856247,-0.00887882150709629,0.0014087373856455088,0.0002884542045649141
0.008718046359717846,0.011090862564742565,-0.009016376920044422,-0.00916061270982027,0.0013162269024178386,0.0002738223993219435
0.00888876710087061,0.011782686226069927,-0.008539197035133839,-0.009245723485946655,0.0012838559923693538,0.0002606036141514778
0.00878444779664278,0.011520982719957829,-0.008359161205589771,-0.009503265842795372,0.0012609462719410658,0.0002791979641187936
0.008867685683071613,0.011646495200693607,-0.009136422537267208,-0.00931850541383028,0.0012225578539073467,0.00027656045858748257
0.009176425635814667,0.012184002436697483,-0.00896630808711052,-0.009190529584884644,0.0013111730804666877,0.0002655323187354952
0.008603706024587154,0.011489160358905792,-0.008018728345632553,-0.009376050904393196,0.0012479097349569201,0.000254830316407606
0.008999108336865902,0.011972752399742603,-0.008250772021710873,-0.00966409407556057,0.0012274765176698565,0.00024492412921972573
0.008410113863646984,0.01173112727701664,-0.00846880953758955,-0.009236388839781284,0.0010766659397631884,0.00022725213784724474
0.009286991320550442,0.011547848582267761,-0.008429091423749924,-0.00926888082176447,0.0010463024955242872,0.0001225000451086089
0.009286991320550442,0.011547848582267761,-0.008429091423749924,-0.00926888082176447,0.0010463024955242872,0.0001225000451086089
0.008642295375466347,0.01125177089124918,-0.00864370632916689,-0.009631444700062275,0.0010583869880065322,8.654245903017e-05
0.008579319342970848,0.011667870916426182,-0.00865971390157938,-0.009163985960185528,0.0010781510500237346,8.069123578025028e-05
0.008840414695441723,0.01136156264692545,-0.008562404662370682,-0.009616411291062832,0.0011660236632451415,7.710501813562587e-05
0.009332352317869663,0.011747986078262329,-0.009096450172364712,-0.009256584569811821,0.001167355221696198,7.392922270810232e-05
0.009189344011247158,0.011709022335708141,-0.008622460998594761,-0.009464377537369728,0.0012121431063860655,7.101144001353532e-05
0.008998609147965908,0.01136328186839819,-0.008361153304576874,-0.00967736542224884,0.0013429640093818307,6.831590872025117e-05
0.009561697021126747,0.012100914493203163,-0.00904505793005228,-0.009367600083351135,0.0012748675653710961,6.581763591384515e-05
0.010134609416127205,0.011700550094246864,-0.00892641395330429,-0.010127551853656769,0.0012465649051591754,6.349547038553283e-05
0.008809026330709457,0.012174803763628006,-0.008330924436450005,-0.010167881846427917,0.0013045559171587229,6.133184069767594e-05
0.010022137314081192,0.011347810737788677,-0.0080709308385849,-0.009743059985339642,0.001280232914723456,5.931064151809551e-05
0.009283643215894699,0.011028018780052662,-0.008712437003850937,-0.009437059052288532,0.0012384281726554036,3.0645525839645416e-05
0.009594901464879513,0.01159912534058094,-0.009236606769263744,-0.010153105482459068,0.0012932835379615426,2.794812280626502e-05
0.010140899568796158,0.011532469652593136,-0.008655176497995853,-0.010212624445557594,0.0012709017610177398,2.6995568987331353e-05
0.010334605351090431,0.011907602660357952,-0.008126423694193363,-0.009899893775582314,0.0013766742777079344,2.6202180379186757e-05
0.009482464753091335,0.01171709131449461,-0.008573347702622414,-0.010443965904414654,0.0013490109704434872,1.2962221262569074e-05
0.010366342961788177,0.011368575505912304,-0.008861496113240719,-0.009995108470320702,0.0012934162514284253,8.463405265501933e-07
0.010143321007490158,0.011890945956110954,-0.00900079682469368,-0.009970069862902164,0.0014276041183620691,5.5259992137735026e-08
0.009774263948202133,0.01121207233518362,-0.009349711239337921,-0.010210695676505566,0.0013656042283400893,3.608082499440002e-09
0.010068037547171116,0.011468887329101562,-0.008055910468101501,-0.010329142212867737,0.0013190371682867408,2.355819983534957e-10
0.010465487837791443,0.011083033867180347,-0.008102546446025372,-0.010076778009533882,0.0014234869740903378,1.538182255178544e-11
0.00950707495212555,0.010828416794538498,-0.009086527861654758,-0.010399808175861835,0.0014289480168372393,1.0043230353265487e-12
0.009981156326830387,0.01192640420049429,-0.009230634197592735,-0.01028838288038969,0.0013678174000233412,-0.0006087063229642808
0.010153347626328468,0.011236040852963924,-0.008558299392461777,-0.010601176880300045,0.001436653663404286,-0.0010335949482396245
0.009697987698018551,0.011248447000980377,-0.00868669617921114,-0.010258333757519722,0.0013989511644467711,-0.0010463877115398645
0.009830275550484657,0.011539537459611893,-0.008853837847709656,-0.009565362706780434,0.0015183116775006056,-0.0009075390407815576
0.00976519100368023,0.010990921407938004,-0.00878799706697464,-0.009877347387373447,0.0014878625515848398,-0.0007936969050206244
0.010838317684829235,0.01142506767064333,-0.008534944616258144,-0.010694194585084915,0.0015325103886425495,-0.0007980464142747223
0.009809177368879318,0.010846637189388275,-0.00884950440376997,-0.010352566838264465,0.0014697392471134663,-0.0007507526897825301
0.009809177368879318,0.010846637189388275,-0.00884950440376997,-0.010352566838264465,0.0014697392471134663,-0.0007507526897825301
0.010346301831305027,0.011313434690237045,-0.008809042163193226,-0.01044184248894453,0.001342789619229734,-0.0008583701564930379
0.010425564832985401,0.010974754579365253,-0.009090347215533257,-0.010526737198233604,0.0013677412644028664,-0.0015018696431070566
0.01064233761280775,0.011154958978295326,-0.008978881873190403,-0.011028816923499107,0.0013647751184180379,-0.0015860844869166613
0.010165801271796227,0.011164325289428234,-0.00842937733978033,-0.01097664050757885,0.0015592543641105294,-0.0016367004718631506
0.010303109884262085,0.010914193466305733,-0.008858510293066502,-0.011120316572487354,0.0015856379177421331,-0.0015013829106464982
0.010349727235734463,0.012134509161114693,-0.009926822036504745,-0.011185779236257076,0.0017307931557297707,-0.0013710041530430317
0.010300702415406704,0.011349991895258427,-0.008393384516239166,-0.010849581100046635,0.0016827004728838801,-0.0013020015321671963
0.010524671524763107,0.011214900761842728,-0.008321862667798996,-0.01093932893127203,0.0016623946139588952,-0.0012951050885021687
0.010804014280438423,0.01126687228679657,-0.00946801993995905,-0.010886884294450283,0.0016793051036074758,-0.0019939986523240805
0.011411787010729313,0.010774518363177776,-0.009014006704092026,-0.011050448752939701,0.0016101925866678357,-0.0025079306215047836
0.010580858215689659,0.011364569887518883,-0.009396973997354507,-0.011367437429726124,0.001643186784349382,-0.0031678976956754923
0.010026703588664532,0.011603712104260921,-0.009327603504061699,-0.01102322619408369,0.0016899933107197285,-0.0029117546509951353
0.010751725174486637,0.011345741339027882,-0.00939626432955265,-0.011078491806983948,0.0017278008162975311,-0.0024644762743264437
0.010479692369699478,0.012118225917220116,-0.008259654976427555,-0.011115338653326035,0.0017758399480953813,-0.0021007764153182507
0.010383756831288338,0.011558606289327145,-0.008570525795221329,-0.011165354400873184,0.0018712327582761645,-0.002054317155852914
0.010905768722295761,0.011598040349781513,-0.009218931198120117,-0.012249695137143135,0.0019542770460247993,-0.002350161550566554
0.010705610737204552,0.011425690725445747,-0.00864238478243351,-0.011748215183615685,0.0018920451402664185,-0.003020556876435876
0.010303504765033722,0.010471883229911327,-0.008159485645592213,-0.01169955637305975,0.0017660903977230191,-0.0034872181713581085
0.010699213482439518,0.011942294426262379,-0.009072653017938137,-0.012529374100267887,0.0016843978082761168,-0.003443404333665967
0.010906724259257317,0.011453940533101559,-0.008340748958289623,-0.012307202443480492,0.0017359451157972217,-0.003092360682785511
0.011128254234790802,0.011266032233834267,-0.008421012200415134,-0.01264218520373106,0.0017692821566015482,-0.002819124376401305
0.011298944242298603,0.011344789527356625,-0.009272566996514797,-0.012272276915609837,0.0018767350120469928,-0.002883117413148284
0.010244878008961678,0.011324658989906311,-0.009207449853420258,-0.01313802506774664,0.001878613606095314,-0.003164678579196334
0.010270264931023121,0.011872715316712856,-0.008605783805251122,-0.012045508250594139,0.0019476453308016062,-0.0035249623470008373
0.010618370026350021,0.011355125345289707,-0.007927930913865566,-0.011913617141544819,0.0018921991577371955,-0.0036649161484092474
0.010642997920513153,0.011583984829485416,-0.008910729549825191,-0.012867738492786884,0.0020987021271139383,-0.0032624073792248964
0.010123703628778458,0.010987353511154652,-0.008667510002851486,-0.012853053398430347,0.0020642695017158985,-0.002983364975079894
0.010683802887797356,0.011152711696922779,-0.00892888568341732,-0.012157546356320381,0.0020185650791972876,-0.0029702321626245975
0.010660265572369099,0.010878880508244038,-0.008444900624454021,-0.013007322326302528,0.0019828169606626034,-0.0030729221180081367
0.010660265572369099,0.010878880508244038,-0.008444900624454021,-0.013007322326302528,0.0019828169606626034,-0.0030729221180081367
0.010117604397237301,0.01082385890185833,-0.008551797829568386,-0.01252446323633194,0.00180201162584126,-0.0032324756029993296
0.010726220905780792,0.011371017433702946,-0.008427385240793228,-0.01285318098962307,0.0017878221115097404,-0.0033072500955313444
0.010779442265629768,0.010826054029166698,-0.009299173951148987,-0.013505185022950172,0.0017737209564074874,-0.003167471382766962
0.010283173993229866,0.010577162727713585,-0.008494924753904343,-0.013604613952338696,0.0018319620285183191,-0.003825143212452531
0.010938110761344433,0.010981661267578602,-0.008150636218488216,-0.01247473992407322,0.0018103461479768157,-0.004628913942724466
0.011056775227189064,0.010805659927427769,-0.009078344330191612,-0.012322301045060158,0.0018595566507428885,-0.005135300103574991
0.010541421361267567,0.011001016944646835,-0.009691355749964714,-0.013414704240858555,0.0017343953950330615,-0.005305376369506121
0.010586755350232124,0.010914545506238937,-0.00804527010768652,-0.013185716234147549,0.001768319634720683,-0.004606484901160002
0.010395899415016174,0.0109168142080307,-0.0082792853936553,-0.014029653742909431,0.0016491177957504988,-0.00455015292391181
0.010626712813973427,0.011387857608497143,-0.008784606121480465,-0.013924642466008663,0.0017082988051697612,-0.004725328646600246
0.010867385193705559,0.010964367538690567,-0.008311822079122066,-0.014352560974657536,0.0017865371191874146,-0.004885396920144558
0.010634209029376507,0.011630306951701641,-0.008263034746050835,-0.013486392796039581,0.0021148743107914925,-0.004962529055774212
0.010944362729787827,0.012001270428299904,-0.009210840798914433,-0.013885960914194584,0.0019934698939323425,-0.004866339731961489
0.010762606747448444,0.011373543180525303,-0.008368377573788166,-0.01348359975963831,0.0021282921079546213,-0.0051216608844697475
0.010854876600205898,0.011491775512695312,-0.008436397649347782,-0.013706311583518982,0.0019380869343876839,-0.005108875688165426
0.011045005172491074,0.011286886408925056,-0.009117132984101772,-0.01407366432249546,0.0019125484395772219,-0.005063398275524378
0.010859362781047821,0.011494663543999195,-0.008619677275419235,-0.014706325717270374,0.0017809971468523145,-0.005089051090180874
0.010984113439917564,0.011637028306722641,-0.008761347271502018,-0.014564783312380314,0.0017208341741934419,-0.005431216675788164
0.011295181699097157,0.010577377863228321,-0.008564850315451622,-0.014586514793336391,0.0017358309123665094,-0.005550272297114134
0.01066750381141901,0.01127543579787016,-0.009191565215587616,-0.014363890513777733,0.0019752427469938993,-0.0054540266282856464
0.011045677587389946,0.011281057260930538,-0.009174471721053123,-0.01434493437409401,0.0019358370918780565,-0.005569318309426308
0.011147034354507923,0.0119284363463521,-0.008775124326348305,-0.014933690428733826,0.0024718523491173983,-0.00584478909149766
0.011355102993547916,0.011432440020143986,-0.008470128290355206,-0.014545444399118423,0.002453683642670512,-0.0059651839546859264
0.011355102993547916,0.011432440020143986,-0.008470128290355206,-0.014545444399118423,0.002453683642670512,-0.0059651839546859264
0.010691346600651741,0.011473845690488815,-0.007598958443850279,-0.01488479319959879,0.002403252525255084,-0.005440910346806049
0.010674330405890942,0.011207684874534607,-0.008074099197983742,-0.01436549611389637,0.0023554146755486727,-0.00505865691229701
0.011247044429183006,0.011050515808165073,-0.00842401385307312,-0.014700529165565968,0.0022842411417514086,-0.0057319519110023975
0.011360770091414452,0.011361374519765377,-0.007960357703268528,-0.014496758580207825,0.0024057261180132627,-0.005239570513367653
0.011956664733588696,0.01117671374231577,-0.007482109125703573,-0.014902795664966106,0.002596630249172449,-0.005974898114800453
0.011310528963804245,0.010947859846055508,-0.008892836049199104,-0.014412514865398407,0.0024972986429929733,-0.005997520871460438
0.01159704476594925,0.011226813308894634,-0.008271564729511738,-0.014975273981690407,0.0022393502295017242,-0.005693977233022451
0.011349487118422985,0.011006167158484459,-0.007777930703014135,-0.014788898639380932,0.0021056553814560175,-0.0054419152438640594
0.01086465921252966,0.011683211661875248,-0.007677643559873104,-0.0152305131778121,0.0019569210708141327,-0.005657592788338661
0.011547019705176353,0.011148909106850624,-0.008042698726058006,-0.014905036427080631,0.001917943824082613,-0.005656096152961254
0.011462941765785217,0.010854116640985012,-0.007950174622237682,-0.015332821756601334,0.0020915018394589424,-0.005945176817476749
0.011315523646771908,0.011619001626968384,-0.008168895728886127,-0.01517916563898325,0.0021684993989765644,-0.006170487497001886
0.011340874247252941,0.011135064996778965,-0.008005408570170403,-0.015641624107956886,0.002382481936365366,-0.006128301844000816
0.01033922377973795,0.011410173960030079,-0.008046826347708702,-0.015164698474109173,0.002396118827164173,-0.005804520566016436
0.012149247340857983,0.011201716959476471,-0.007416698150336742,-0.01536568533629179,0.0023589711636304855,-0.00589066743850708
0.012321313843131065,0.01117018423974514,-0.007339547388255596,-0.015328522771596909,0.0025401581078767776,-0.006265677977353334
0.01204497180879116,0.011756178922951221,-0.007815836928784847,-0.015800638124346733,0.002584035973995924,-0.006145131308585405
0.011613361537456512,0.0111316479742527,-0.008721457794308662,-0.015980876982212067,0.002456537215039134,-0.006069759838283062
0.0112924138084054,0.011340327560901642,-0.007873134687542915,-0.015807146206498146,0.0020716662984341383,-0.00629497691988945
0.011673114262521267,0.011608446948230267,-0.007385512348264456,-0.015619544312357903,0.0019676024094223976,-0.006678018253296614
0.011528084985911846,0.011194786056876183,-0.008114434778690338,-0.01556637417525053,0.0019973241724073887,-0.006702376529574394
0.011464111506938934,0.011761660687625408,-0.007688913028687239,-0.016358468681573868,0.0020420814398676157,-0.006401476450264454
0.012347492389380932,0.011347169056534767,-0.007652238477021456,-0.01610013283789158,0.002506091259419918,-0.006527170538902283
0.011543434113264084,0.011247148737311363,-0.007465081755071878,-0.01604018360376358,0.0025418547447770834,-0.006685649044811726
0.011559133417904377,0.011455426923930645,-0.007919810712337494,-0.015532934106886387,0.0023683824110776186,-0.006784640718251467
0.01202443428337574,0.011872552335262299,-0.007776856422424316,-0.015707040205597878,0.0020988367032259703,-0.00656184833496809
0.01176698599010706,0.011285804212093353,-0.007085817866027355,-0.015905149281024933,0.0019422619370743632,-0.00674338499084115
0.01176698599010706,0.011285804212093353,-0.007085817866027355,-0.015905149281024933,0.0019422619370743632,-0.00674338499084115
0.012099532410502434,0.011862155981361866,-0.008169731125235558,-0.01624150760471821,0.002162318676710129,-0.006974345538765192
0.012099532410502434,0.011862155981361866,-0.008169731125235558,-0.01624150760471821,0.002162318676710129,-0.006974345538765192
0.011478157714009285,0.012198617681860924,-0.008178693242371082,-0.016656041145324707,0.002291057026013732,-0.007325406186282635
0.011646422557532787,0.011958588846027851,-0.007769436109811068,-0.016179673373699188,0.002255240920931101,-0.006897041108459234
0.012173362076282501,0.01157708652317524,-0.007694365922361612,-0.016230816021561623,0.0022661122493445873,-0.0072908117435872555
0.011469553224742413,0.011495179496705532,-0.007945593446493149,-0.01614951901137829,0.002160280244424939,-0.00752083258703351
0.012072224169969559,0.011698917485773563,-0.007717772852629423,-0.016137810423970222,0.002214256674051285,-0.007609707769006491
0.011594591662287712,0.011694449931383133,-0.00791389774531126,-0.016338063403964043,0.002163462108001113,-0.007980826310813427
0.012069235555827618,0.011743507348001003,-0.007750630844384432,-0.01592247560620308,0.002306668320670724,-0.00734529085457325
0.012648219242691994,0.011536299251019955,-0.007220454514026642,-0.016197435557842255,0.0025714903604239225,-0.007194632198661566
0.012202637270092964,0.011700638569891453,-0.0072358399629592896,-0.01619085855782032,0.0025414174888283014,-0.007885714992880821
0.01321524940431118,0.012299882248044014,-0.008115309290587902,-0.017056308686733246,0.0027266275137662888,-0.007974906824529171
0.012979448772966862,0.011406893841922283,-0.008271058090031147,-0.0166754312813282,0.0026828781701624393,-0.008204254321753979
0.013376589864492416,0.01181782130151987,-0.007733691018074751,-0.01634611189365387,0.0026677646674215794,-0.007821562699973583
0.01280385535210371,0.011697277426719666,-0.007047001272439957,-0.017689818516373634,0.002592019736766815,-0.008007403463125229
0.013089055195450783,0.011962777003645897,-0.007287409622222185,-0.016429131850600243,0.002915633376687765,-0.008794364519417286
0.01321459375321865,0.011835767887532711,-0.007860817946493626,-0.016937371343374252,0.0029120356775820255,-0.008775278925895691
0.013886726461350918,0.011627605184912682,-0.0074957385659217834,-0.01663103699684143,0.0028859125450253487,-0.00858126487582922
0.013627836480736732,0.012146493420004845,-0.007302244193851948,-0.01736290380358696,0.0027206267695873976,-0.008725752122700214
0.013464013114571571,0.011161492206156254,-0.007921215146780014,-0.017449352890253067,0.002743826014921069,-0.008547622710466385
0.013401729986071587,0.011797493323683739,-0.007602553348988295,-0.01678193360567093,0.0028117895126342773,-0.008772501721978188
0.013926489278674126,0.011756048537790775,-0.007361339870840311,-0.017425980418920517,0.002578204032033682,-0.009043017402291298
0.013725737109780312,0.011450543068349361,-0.007390128448605537,-0.01706993207335472,0.002474383683875203,-0.00974870752543211
0.013518039137125015,0.011902116239070892,-0.008338783867657185,-0.017924783751368523,0.0028430128004401922,-0.009596781805157661
0.01373301912099123,0.011852630414068699,-0.008305766619741917,-0.01789393275976181,0.00301048974506557,-0.00953548401594162
0.013992052525281906,0.012192252092063427,-0.007560109253972769,-0.017714569345116615,0.0030929632484912872,-0.009829957969486713
0.013638985343277454,0.011325767263770103,-0.00821426510810852,-0.017839130014181137,0.0027582193724811077,-0.009473280981183052
0.014046581462025642,0.011936581693589687,-0.008224768564105034,-0.01848044991493225,0.0023913017939776182,-0.009713090024888515
0.013714613392949104,0.011676840484142303,-0.008356931619346142,-0.018092693760991096,0.002415079390630126,-0.009308516047894955
0.013714613392949104,0.011676840484142303,-0.008356931619346142,-0.018092693760991096,0.002415079390630126,-0.009308516047894955
0.01407613605260849,0.01228518970310688,-0.00870531890541315,-0.017346497625112534,0.002612057374790311,-0.009707155637443066
0.013432051986455917,0.011898078955709934,-0.008059628307819366,-0.017634062096476555,0.0028409911319613457,-0.00967676192522049
0.013807672075927258,0.011968170292675495,-0.007762480527162552,-0.017078565433621407,0.0027150039095431566,-0.009199321269989014
0.013482050970196724,0.012230533175170422,-0.007683594711124897,-0.017631428316235542,0.002613336080685258,-0.008912351913750172
0.013884183019399643,0.011709529906511307,-0.008814436383545399,-0.018369024619460106,0.002528572455048561,-0.00943273026496172
0.013759811408817768,0.01176726445555687,-0.00852852500975132,-0.01841684803366661,0.0024059114512056112,-0.009781116619706154
0.013764048926532269,0.011282174848020077,-0.007839253172278404,-0.01865408942103386,0.0025852422695606947,-0.00975650455802679
0.013554032891988754,0.011565177701413631,-0.008439186960458755,-0.01864052750170231,0.003022316610440612,-0.00991316232830286
0.014033075422048569,0.01217535138130188,-0.008306681178510189,-0.01812521182000637,0.003132370999082923,-0.010198571719229221
0.013826634734869003,0.011532779783010483,-0.008045334368944168,-0.018394188955426216,0.0031172221060842276,-0.010047673247754574
0.01387268677353859,0.011886953376233578,-0.007816527038812637,-0.01876812055706978,0.0030484353192150593,-0.01011289656162262
0.014038849622011185,0.011707044206559658,-0.0075548263266682625,-0.01858494058251381,0.0030889587942510843,-0.009862073697149754
0.014141378924250603,0.011267263442277908,-0.008184554986655712,-0.01854497194290161,0.002846482442691922,-0.010503212921321392
0.01390598900616169,0.01183097343891859,-0.008341208100318909,-0.0184593815356493,0.0027230989653617144,-0.010223207995295525
0.013899815268814564,0.011291725561022758,-0.007812080904841423,-0.018551362678408623,0.002706429222598672,-0.009867464192211628
0.013841502368450165,0.011674320325255394,-0.008246034383773804,-0.018697813153266907,0.002691695000976324,-0.009891962632536888
0.014002779498696327,0.01144674513489008,-0.008257717825472355,-0.01857464388012886,0.0028104018419981003,-0.010642972774803638
0.014315261505544186,0.011953535489737988,-0.00818262156099081,-0.018693402409553528,0.002759956754744053,-0.010287333279848099
0.014268836006522179,0.011887059547007084,-0.007918421179056168,-0.019042368978261948,0.0029137921519577503,-0.010365156456828117
0.014350119978189468,0.011196916922926903,-0.008577605709433556,-0.018719304352998734,0.003153831698000431,-0.009954473935067654
0.013862648978829384,0.012075150385499,-0.008118385449051857,-0.018775543197989464,0.003316632006317377,-0.009957261383533478
0.014198553748428822,0.011927654966711998,-0.008020060136914253,-0.019162969663739204,0.0031740788836032152,-0.010108564980328083
0.01455597672611475,0.011353079229593277,-0.008778316900134087,-0.01888093538582325,0.003180949715897441,-0.010244634002447128
0.01455597672611475,0.011353079229593277,-0.008778316900134087,-0.01888093538582325,0.003180949715897441,-0.010244634002447128
0.014760172925889492,0.012116908095777035,-0.00805237703025341,-0.01952841877937317,0.0030320363584905863,-0.010250830091536045
0.014760172925889492,0.012116908095777035,-0.00805237703025341,-0.01952841877937317,0.0030320363584905863,-0.010250830091536045
0.014424359425902367,0.012054580263793468,-0.008945615962147713,-0.019660312682390213,0.0028994306921958923,-0.01021875161677599
0.014338528737425804,0.012062921188771725,-0.008564545772969723,-0.020063338801264763,0.0027273143641650677,-0.01053930539637804
0.014351830817759037,0.012160052545368671,-0.007737409323453903,-0.020017782226204872,0.002768244594335556,-0.010655945166945457
0.013051914982497692,0.011655219830572605,-0.008005733601748943,-0.01994050107896328,0.002725080354139209,-0.009029627777636051
0.014708018861711025,0.012149343267083168,-0.00824784953147173,-0.020500117912888527,0.0028645044658333063,-0.010372386313974857
0.014996569603681564,0.012089625000953674,-0.008875206112861633,-0.020282162353396416,0.003330180188640952,-0.010209114290773869
0.014449096284806728,0.012406216003000736,-0.0080048106610775,-0.0203341543674469,0.0031064061913639307,-0.009469150565564632
0.014906234107911587,0.011775602586567402,-0.008225290104746819,-0.02089906856417656,0.0028676041401922703,-0.009248847141861916
0.01493733562529087,0.011721311137080193,-0.008175425231456757,-0.021072737872600555,0.0026005760300904512,-0.00966440699994564
0.01454896293580532,0.01189777534455061,-0.007658566348254681,-0.020509501919150352,0.0025293317157775164,-0.009730366989970207
0.01443879771977663,0.011466779746115208,-0.008089300245046616,-0.020879870280623436,0.00269126333296299,-0.009997477754950523
0.014566712081432343,0.012364673428237438,-0.008516679517924786,-0.02125084213912487,0.002860188251361251,-0.009303398430347443
0.014545014128088951,0.012000815942883492,-0.00800734106451273,-0.02162521705031395,0.0029615277890115976,-0.00946421455591917
0.014414454810321331,0.01261393167078495,-0.007469657808542252,-0.02119714394211769,0.00291638751514256,-0.00963341910392046
0.01470755785703659,0.012134716846048832,-0.00790206715464592,-0.02021368220448494,0.0030973567627370358,-0.00977461040019989
0.014929617755115032,0.012030554004013538,-0.008286935277283192,-0.020077738910913467,0.003308487357571721,-0.00976354070007801
0.014815926551818848,0.012603133916854858,-0.007551040966063738,-0.019805846735835075,0.0032848126720637083,-0.00980841089040041
0.014943637885153294,0.01217124704271555,-0.0072700208984315395,-0.02020915597677231,0.003305161837488413,-0.009739633649587631
0.014832067303359509,0.012491936795413494,-0.008153757080435753,-0.020951643586158752,0.0028304026927798986,-0.009931043721735477
0.014592979103326797,0.01209478173404932,-0.00786606501787901,-0.021236537024378777,0.0027120611630380154,-0.010319055989384651
0.014854668639600277,0.01239313930273056,-0.007633792236447334,-0.020261982455849648,0.0026269524823874235,-0.010004260577261448
0.014854668639600277,0.01239313930273056,-0.007633792236447334,-0.020261982455849648,0.0026269524823874235,-0.010004260577261448
0.015153889544308186,0.011945161037147045,-0.007714727893471718,-0.020933065563440323,0.0027821159455925226,-0.010149960406124592
0.014772052876651287,0.012345257215201855,-0.00743333762511611,-0.021112505346536636,0.0030802281107753515,-0.009999492205679417
0.014873101375997066,0.011801468208432198,-0.00767092639580369,-0.02089124172925949,0.0032680751755833626,-0.010592672042548656
0.014775522984564304,0.01257680356502533,-0.00774712860584259,-0.02093631960451603,0.003156943479552865,-0.010848578065633774
0.015430308878421783,0.012194288894534111,-0.008247246034443378,-0.020520569756627083,0.0035405270755290985,-0.010207903571426868
0.01482237596064806,0.012380896136164665,-0.008180868811905384,-0.020590931177139282,0.0038618058897554874,-0.010114558041095734
0.015053845010697842,0.01264849305152893,-0.0072191618382930756,-0.021209310740232468,0.003503259504213929,-0.01040713582187891
0.014683572575449944,0.012328911572694778,-0.0079976636916399,-0.021515101194381714,0.003102320246398449,-0.009818341583013535
0.015111831948161125,0.012559640221297741,-0.008195832371711731,-0.02174091339111328,0.0029422971419990063,-0.010609690099954605
0.01493056584149599,0.012226258404552937,-0.007952981628477573,-0.021702459082007408,0.0029666004702448845,-0.010410095565021038
0.015613466501235962,0.012804164551198483,-0.00769385602325201,-0.021669473499059677,0.0032166133169084787,-0.00986401829868555
0.015353970229625702,0.012371509335935116,-0.0077049341052770615,-0.022045640274882317,0.0032905947882682085,-0.010415230877697468
0.015302150510251522,0.013208622112870216,-0.007623224053531885,-0.022133590653538704,0.003159355605021119,-0.010477295145392418
0.015157921239733696,0.012487986125051975,-0.008054794743657112,-0.022236337885260582,0.0031711249612271786,-0.010371355339884758
0.015104766003787518,0.012333771213889122,-0.007927285507321358,-0.022224847227334976,0.0032239381689578295,-0.010685505345463753
0.014869499951601028,0.012794232927262783,-0.008477489463984966,-0.022806426510214806,0.003391384147107601,-0.010970606468617916
0.015104775317013264,0.012363588437438011,-0.008025849238038063,-0.02260807529091835,0.003313252003863454,-0.010163111612200737
0.015316406264901161,0.012660706415772438,-0.007616352755576372,-0.02229820378124714,0.0035857546608895063,-0.009907950647175312
0.015321651473641396,0.012708982452750206,-0.007679011672735214,-0.022003622725605965,0.0033952551893889904,-0.01018177904188633
0.01516205258667469,0.012733456678688526,-0.00804988108575344,-0.02223077230155468,0.0035834931768476963,-0.010731939226388931
0.015218156389892101,0.012608259916305542,-0.008393291383981705,-0.022697273641824722,0.003687191056087613,-0.011199403554201126
0.015227648429572582,0.012518448755145073,-0.007698230445384979,-0.02271537482738495,0.0033394894562661648,-0.010408402420580387
0.014830008149147034,0.01260922197252512,-0.00715532386675477,-0.02249472215771675,0.003366420278325677,-0.009872201830148697
0.015554212965071201,0.011918740347027779,-0.00822888407856226,-0.021923135966062546,0.0034498332533985376,-0.010140400379896164
0.015016640536487103,0.01271164882928133,-0.007817805744707584,-0.022125348448753357,0.003443109570071101,-0.010484111495316029
0.014919707551598549,0.013086549937725067,-0.007702361326664686,-0.023126039654016495,0.0033152038231492043,-0.011051694862544537
0.014919707551598549,0.013086549937725067,-0.007702361326664686,-0.023126039654016495,0.0033152038231492043,-0.011051694862544537
0.015575511381030083,0.012611244805157185,-0.007916465401649475,-0.023022940382361412,0.003157089464366436,-0.01103624701499939
0.015172899700701237,0.012856564484536648,-0.007434302009642124,-0.022929459810256958,0.0033763947430998087,-0.010917473584413528
0.015146149322390556,0.012871869839727879,-0.007044128142297268,-0.022961916401982307,0.0031632380560040474,-0.0108253238722682
0.015139997936785221,0.012420905753970146,-0.0077925133518874645,-0.023377368226647377,0.003340703435242176,-0.010873268358409405
0.015640929341316223,0.012340870685875416,-0.008426337502896786,-0.02343607135117054,0.0035190298222005367,-0.01079748384654522
0.015294622629880905,0.01215424295514822,-0.007734861224889755,-0.023171089589595795,0.003450535936281085,-0.01088356040418148
0.015354692004621029,0.012556101195514202,-0.00719177071005106,-0.022566715255379677,0.0037576721515506506,-0.011085315607488155
0.014365669339895248,0.012617722153663635,-0.008099048398435116,-0.02291921153664589,0.003925238735973835,-0.01121323648840189
0.01601613685488701,0.013035823591053486,-0.008229502476751804,-0.023495066910982132,0.003570335451513529,-0.01088624820113182
0.016347726806998253,0.01284966804087162,-0.007526216097176075,-0.023037895560264587,0.0035873819142580032,-0.011318637989461422
0.015590239316225052,0.013294287025928497,-0.007272828370332718,-0.022919446229934692,0.003709285520017147,-0.011868422850966454
0.015943776816129684,0.0132307643070817,-0.007509311661124229,-0.023188695311546326,0.003838970558717847,-0.012383737601339817
0.015997547656297684,0.012225698679685593,-0.00796251930296421,-0.0240224190056324,0.0038020354695618153,-0.012572805397212505
0.016486911103129387,0.013058369979262352,-0.007533497177064419,-0.024291621521115303,0.0038119966629892588,-0.012354590930044651
0.016081245616078377,0.012289176695048809,-0.007281904108822346,-0.023589909076690674,0.0038693109527230263,-0.01194468792527914
0.01624263823032379,0.013194558210670948,-0.00800334196537733,-0.02266559936106205,0.003488735994324088,-0.011964816600084305
0.015972964465618134,0.012419087812304497,-0.008235345594584942,-0.02287781611084938,0.003170798299834132,-0.0123372171074152
0.015966875478625298,0.012556057423353195,-0.007937202230095863,-0.024107692763209343,0.003347545862197876,-0.012929991818964481
0.016587665304541588,0.012424576096236706,-0.007830003276467323,-0.02439289726316929,0.00364320888184011,-0.013020463287830353
0.016837919130921364,0.012498666532337666,-0.007781276013702154,-0.024345412850379944,0.004078633151948452,-0.013142791576683521
0.017071165144443512,0.012858324684202671,-0.00738054234534502,-0.024397626519203186,0.004225919023156166,-0.012755892239511013
0.016539355739951134,0.012581071816384792,-0.0073871128261089325,-0.02514440193772316,0.004064465407282114,-0.012841850519180298
0.01744891330599785,0.01301170140504837,-0.007620614487677813,-0.024364013224840164,0.003919817041605711,-0.012636592611670494
0.01669352874159813,0.012181183323264122,-0.007634909823536873,-0.0236183013767004,0.0039357710629701614,-0.01315721683204174
0.016129963099956512,0.012538261711597443,-0.00806035939604044,-0.023755261674523354,0.003470038063824177,-0.012786715291440487
0.017256490886211395,0.012450466863811016,-0.007160778157413006,-0.02431291714310646,0.003538043238222599,-0.012738093733787537
0.016948910430073738,0.012637481093406677,-0.0073937769047915936,-0.025386473163962364,0.003693917067721486,-0.012975079007446766
0.017246950417757034,0.013181120157241821,-0.007663529831916094,-0.025425231084227562,0.0037290677428245544,-0.0130606172606349
0.017246950417757034,0.013181120157241821,-0.007663529831916094,-0.025425231084227562,0.0037290677428245544,-0.0130606172606349
0.016762861981987953,0.013054350391030312,-0.007365575060248375,-0.025225453078746796,0.004243905656039715,-0.013374635949730873
0.017611125484108925,0.01190860290080309,-0.0076011852361261845,-0.02516571804881096,0.004105926491320133,-0.013456975109875202
0.017561860382556915,0.012849030084908009,-0.007168624550104141,-0.025591500103473663,0.003553143236786127,-0.013444405049085617
0.01780460588634014,0.012341253459453583,-0.006910480558872223,-0.025603724643588066,0.003544315230101347,-0.012725874781608582
0.01807442121207714,0.012291939929127693,-0.007201036438345909,-0.02587868459522724,0.0036905587185174227,-0.013339166529476643
0.01772516593337059,0.012769962660968304,-0.00726464344188571,-0.026400012895464897,0.004374854266643524,-0.014023130759596825
0.01840204745531082,0.012266763485968113,-0.00742993364110589,-0.02656508982181549,0.004189705941826105,-0.013750753365457058
0.017719073221087456,0.012665197253227234,-0.00679240794852376,-0.026152748614549637,0.004411553498357534,-0.013721534982323647
0.017722101882100105,0.012430275790393353,-0.0067617325112223625,-0.02594854310154915,0.004144946113228798,-0.013563498854637146
0.018006764352321625,0.012798533774912357,-0.007247502449899912,-0.026036877185106277,0.003983318340033293,-0.013807728886604309
0.018254807218909264,0.012100969441235065,-0.00787762738764286,-0.026382965967059135,0.0038375670555979013,-0.01386459730565548
0.018521040678024292,0.012138071469962597,-0.007164560258388519,-0.02649693936109543,0.0037321390118449926,-0.014104423113167286
0.01829790696501732,0.012201710604131222,-0.006744604092091322,-0.026219986379146576,0.004034454934298992,-0.013962391763925552
0.017819799482822418,0.012242530472576618,-0.006760834250599146,-0.026127036660909653,0.004148367792367935,-0.014148106798529625
0.01834186539053917,0.012704129330813885,-0.007175924722105265,-0.026290856301784515,0.004283364862203598,-0.014074962586164474
0.01825021393597126,0.012413029558956623,-0.007399038411676884,-0.02667972818017006,0.004192315507680178,-0.014111686497926712
0.0181319210678339,0.012718996964395046,-0.006912666838616133,-0.02673775516450405,0.004357221070677042,-0.013724381104111671
0.018901830539107323,0.012209586799144745,-0.006794759072363377,-0.027121014893054962,0.004370452370494604,-0.01385593879967928
0.018543237820267677,0.012898145243525505,-0.006990403868257999,-0.027445858344435692,0.004472826607525349,-0.014131620526313782
0.018629474565386772,0.012256328016519547,-0.007798403967171907,-0.02822957932949066,0.004217239562422037,-0.014298846945166588
0.018751809373497963,0.011902155354619026,-0.007308953441679478,-0.026653185486793518,0.00396332424134016,-0.014192931354045868
0.01838597282767296,0.012430594302713871,-0.006925584748387337,-0.02683262713253498,0.003787744091823697,-0.014379853382706642
0.019605368375778198,0.01199454814195633,-0.007241443265229464,-0.02832462452352047,0.004101694095879793,-0.0146951200440526
0.01881222426891327,0.0125105120241642,-0.007368856109678745,-0.02817695029079914,0.004407673608511686,-0.014151629991829395
0.01881222426891327,0.0125105120241642,-0.007368856109678745,-0.02817695029079914,0.004407673608511686,-0.014151629991829395
0.019683273509144783,0.012662988156080246,-0.007525422610342503,-0.027687450870871544,0.0036847686860710382,-0.014430266804993153
0.019683273509144783,0.012662988156080246,-0.007525422610342503,-0.027687450870871544,0.0036847686860710382,-0.014430266804993153
0.018993675708770752,0.012696439400315285,-0.007814454846084118,-0.02866952307522297,0.00386972539126873,-0.014360286295413971
0.019126269966363907,0.012554499320685863,-0.007149414159357548,-0.028342071920633316,0.004199110437184572,-0.014211666770279408
0.019634531810879707,0.012127261608839035,-0.007086820900440216,-0.028615251183509827,0.004523911513388157,-0.014559181407094002
0.019252771511673927,0.012263143435120583,-0.007146003656089306,-0.029387813061475754,0.004337876103818417,-0.014817346818745136
0.019280724227428436,0.012260829098522663,-0.007752269972115755,-0.029412146657705307,0.004360394086688757,-0.015122709795832634
0.02019714191555977,0.012677505612373352,-0.007198919076472521,-0.02825995720922947,0.004478787072002888,-0.014955257065594196
0.019913075491786003,0.012506232596933842,-0.007005964871495962,-0.027881817892193794,0.0042143892496824265,-0.01499847136437893
0.019300179556012154,0.01267961785197258,-0.0073690288700163364,-0.028841935098171234,0.003966249525547028,-0.014486652798950672
0.019843213260173798,0.012437761761248112,-0.008176947943866253,-0.029020069167017937,0.0038210880011320114,-0.014764338731765747
0.01993582583963871,0.012291738763451576,-0.007765472400933504,-0.02928863652050495,0.003845031838864088,-0.014873523265123367
0.019608471542596817,0.012633147649466991,-0.00759692769497633,-0.029194215312600136,0.004189773462712765,-0.01503253448754549
0.01987972855567932,0.012223116122186184,-0.00750713050365448,-0.0295147392898798,0.004736680071800947,-0.014966169372200966
0.019954105839133263,0.012080167420208454,-0.007459317333996296,-0.029172448441386223,0.004677210468798876,-0.015436890535056591
0.019657602533698082,0.011749899946153164,-0.007445009425282478,-0.02884547971189022,0.004272363614290953,-0.015156109817326069
0.020268095657229424,0.011765849776566029,-0.008166071027517319,-0.029005782678723335,0.003848262596875429,-0.01510106772184372
0.020024370402097702,0.0123208686709404,-0.008016649633646011,-0.029005367308855057,0.003827214241027832,-0.014850277453660965
0.020198749378323555,0.011870736256241798,-0.008223881013691425,-0.028803938999772072,0.004366722889244556,-0.015138150192797184
0.02024446800351143,0.012390188872814178,-0.007953567430377007,-0.029128756374120712,0.005061924457550049,-0.015098378993570805
0.020306242629885674,0.012019142508506775,-0.007629856001585722,-0.02851228043437004,0.004854749422520399,-0.01497038546949625
0.020552705973386765,0.012108657509088516,-0.007748496253043413,-0.028733976185321808,0.004469620529562235,-0.014496657066047192
0.020568523555994034,0.012315823696553707,-0.007917452603578568,-0.028829069808125496,0.004028069321066141,-0.014823363162577152
0.020597320050001144,0.011928178369998932,-0.007844554260373116,-0.02873917855322361,0.00427626259624958,-0.014433877542614937
0.020597320050001144,0.011928178369998932,-0.007844554260373116,-0.02873917855322361,0.00427626259624958,-0.014433877542614937
0.020614799112081528,0.012385002337396145,-0.007649021688848734,-0.02890811488032341,0.004461180418729782,-0.01491092424839735
0.02046208642423153,0.011885919608175755,-0.008626734837889671,-0.02900555171072483,0.004608623683452606,-0.015351464971899986
0.021243995055556297,0.012094500474631786,-0.007394947577267885,-0.02876838855445385,0.0044659036211669445,-0.015407818369567394
0.02132837288081646,0.011546984314918518,-0.007602481171488762,-0.02885446511209011,0.004712761379778385,-0.015005859546363354
0.020741920918226242,0.012065697461366653,-0.00836153794080019,-0.029422277584671974,0.005097656510770321,-0.015148661099374294
0.020635880529880524,0.011539105325937271,-0.007685917429625988,-0.02914428897202015,0.00463558966293931,-0.015437102876603603
0.02012566290795803,0.012167898006737232,-0.00720807071775198,-0.02900967188179493,0.004243661183863878,-0.015017452649772167
0.020153971388936043,0.011687486432492733,-0.007460635621100664,-0.02908794954419136,0.004173660650849342,-0.01462163869291544
0.021392617374658585,0.011824235320091248,-0.007953296415507793,-0.029390208423137665,0.004425982944667339,-0.015141607262194157
0.021479586139321327,0.012039229273796082,-0.00757176335901022,-0.029731707647442818,0.004743181634694338,-0.015093437395989895
0.021104194223880768,0.011343116872012615,-0.007522942498326302,-0.030658910050988197,0.005361777730286121,-0.016079852357506752
0.02071058563888073,0.012558646500110626,-0.007677339017391205,-0.031032444909214973,0.00486789969727397,-0.01639404334127903
0.02135607600212097,0.011427551507949829,-0.008067871443927288,-0.030727721750736237,0.004179046954959631,-0.015865346416831017
0.021916616708040237,0.01159687526524067,-0.007228706032037735,-0.02957877144217491,0.004135100170969963,-0.015568101778626442
0.02209167182445526,0.011734478175640106,-0.007259855046868324,-0.029994091019034386,0.0041270870715379715,-0.015711862593889236
0.021107658743858337,0.011599978432059288,-0.008213087916374207,-0.03146904706954956,0.0044081080704927444,-0.01609131321310997
0.021206500008702278,0.012703065760433674,-0.0077863107435405254,-0.031043605878949165,0.004774062428623438,-0.01645216904580593
0.020802747458219528,0.012338987551629543,-0.0069141387939453125,-0.0316968709230423,0.004814385436475277,-0.016637172549962997
0.020753933116793633,0.012439494952559471,-0.007525289431214333,-0.03240302950143814,0.0048139956779778,-0.015844961628317833
0.02142491191625595,0.012191656976938248,-0.007864497601985931,-0.031675782054662704,0.00468983082100749,-0.015975182875990868
0.021880220621824265,0.012114055454730988,-0.00746107567101717,-0.030823303386569023,0.004578004591166973,-0.015845973044633865
0.02142777293920517,0.012327555567026138,-0.007449331693351269,-0.032275620847940445,0.0044559333473443985,-0.015831656754016876
0.021568693220615387,0.012123504653573036,-0.007815448567271233,-0.03283721208572388,0.004574681166559458,-0.016084523871541023
0.021568693220615387,0.012123504653573036,-0.007815448567271233,-0.03283721208572388,0.004574681166559458,-0.016084523871541023
0.021947819739580154,0.012013660743832588,-0.0072023905813694,-0.03275777027010918,0.004919923841953278,-0.016885580494999886
0.021721264347434044,0.012177309952676296,-0.006780872121453285,-0.03224052116274834,0.004894579295068979,-0.016435308381915092
0.021459002047777176,0.012139164842665195,-0.006788609083741903,-0.032106973230838776,0.00487020518630743,-0.016534171998500824
0.02144307643175125,0.011938140727579594,-0.007652872707694769,-0.03212053328752518,0.004926954861730337,-0.016456972807645798
0.021788818761706352,0.012339954264461994,-0.007958421483635902,-0.0326312854886055,0.004939545877277851,-0.016860220581293106
0.021957483142614365,0.012005801312625408,-0.007182340603321791,-0.03231678903102875,0.00486249104142189,-0.016486210748553276
0.02156120538711548,0.01246925164014101,-0.006580526474863291,-0.03190486878156662,0.004903601016849279,-0.016320455819368362
0.02147519215941429,0.012462773360311985,-0.007103343959897757,-0.032276615500450134,0.004889434669166803,-0.016818173229694366
0.021823352202773094,0.012303040362894535,-0.007730061654001474,-0.03253055736422539,0.004771263804286718,-0.017000311985611916
0.021963443607091904,0.012339787557721138,-0.00691652949899435,-0.03245798498392105,0.004710928071290255,-0.017202118411660194
0.022159243002533913,0.011832484044134617,-0.006632344331592321,-0.03269161656498909,0.004708713386207819,-0.017331624403595924
0.02128693461418152,0.012461635284125805,-0.007206218782812357,-0.032760124653577805,0.004709846340119839,-0.017204079777002335
0.021412935107946396,0.012793082743883133,-0.007877795025706291,-0.0331292524933815,0.004506571684032679,-0.017129123210906982
0.022313609719276428,0.012828684411942959,-0.007063649594783783,-0.03354585915803909,0.004712636582553387,-0.01712573878467083
0.022167393937706947,0.012916117906570435,-0.00653834780678153,-0.033176030963659286,0.004680114798247814,-0.017281435430049896
0.02190392278134823,0.012628227472305298,-0.00734038557857275,-0.03403348848223686,0.004825100302696228,-0.0168925654143095
0.02072238363325596,0.012911221943795681,-0.007616554386913776,-0.03505810350179672,0.004764460492879152,-0.017230769619345665
0.022188551723957062,0.012335017323493958,-0.0074067250825464725,-0.03480842709541321,0.004742048680782318,-0.01756635122001171
0.022725386545062065,0.013127812184393406,-0.006658708676695824,-0.03374633193016052,0.004711525049060583,-0.017349569126963615
0.022849159315228462,0.012227863073348999,-0.006657459773123264,-0.03390165790915489,0.004750671796500683,-0.017702767625451088
0.022523697465658188,0.01338841300457716,-0.007559944875538349,-0.03473092243075371,0.004739064257591963,-0.017667949199676514
0.022355547174811363,0.012686023488640785,-0.007023435551673174,-0.03469950705766678,0.005095348693430424,-0.017670365050435066
0.021963337436318398,0.013138956390321255,-0.006886388175189495,-0.03595193848013878,0.004915065597742796,-0.018164431676268578
0.022266512736678123,0.012806113809347153,-0.0069876424968242645,-0.03570186346769333,0.0046122451312839985,-0.0180596262216568
0.022372830659151077,0.01302507147192955,-0.007475571241229773,-0.03432588279247284,0.004669534508138895,-0.01753225363790989
0.02295941673219204,0.012998630292713642,-0.00748080899938941,-0.03397496044635773,0.005309935659170151,-0.017777256667613983
0.02268991805613041,0.012296839617192745,-0.007386600598692894,-0.034845221787691116,0.005545746069401503,-0.01811843179166317
0.022462395951151848,0.012494566850364208,-0.007610764820128679,-0.034676674753427505,0.004844328388571739,-0.01816086284816265
0.022462395951151848,0.012494566850364208,-0.007610764820128679,-0.034676674753427505,0.004844328388571739,-0.01816086284816265
0.022971291095018387,0.012954572215676308,-0.0076897325925529,-0.03476400300860405,0.004563366994261742,-0.01823534443974495
0.022860854864120483,0.012591521255671978,-0.006952832452952862,-0.034540459513664246,0.004451211541891098,-0.01840434968471527
0.02304178662598133,0.013127637095749378,-0.006700878031551838,-0.034295689314603806,0.004824427887797356,-0.018224621191620827
0.022223589941859245,0.012803851626813412,-0.007009903900325298,-0.03455260768532753,0.004831204190850258,-0.01821567863225937
0.022469840943813324,0.012893433682620525,-0.007643727585673332,-0.03482220321893692,0.005191681906580925,-0.018555255606770515
0.022552140057086945,0.013108287937939167,-0.0070520308800041676,-0.03450984135270119,0.005603979807347059,-0.018976233899593353
0.022882327437400818,0.012755054049193859,-0.006801429204642773,-0.03471981734037399,0.005544867366552353,-0.01911764405667782
0.022879963740706444,0.013749824836850166,-0.007049242500215769,-0.03490264713764191,0.005089993122965097,-0.01961437053978443
0.022845536470413208,0.012982552871108055,-0.007780148182064295,-0.03513094410300255,0.0048825968988239765,-0.01955120451748371
0.022652531042695045,0.013259269297122955,-0.007209980394691229,-0.03513495624065399,0.004835696890950203,-0.01875203847885132
0.022914059460163116,0.012717128731310368,-0.007049841340631247,-0.035682544112205505,0.004952618852257729,-0.018100224435329437
0.023009801283478737,0.013139767572283745,-0.0070118410512804985,-0.03585390746593475,0.004987718537449837,-0.018636498600244522
0.022828640416264534,0.013296535238623619,-0.007507281843572855,-0.03639338165521622,0.004739901050925255,-0.019586877897381783
0.022943956777453423,0.013349047861993313,-0.007408868987113237,-0.03716564178466797,0.00500581506639719,-0.01942538470029831
0.023053722456097603,0.013361373916268349,-0.007534703239798546,-0.03750193491578102,0.005175306461751461,-0.018950508907437325
0.02288706786930561,0.013239442370831966,-0.0067275953479111195,-0.03740359842777252,0.005070237442851067,-0.01955227553844452
0.022964229807257652,0.013565738685429096,-0.007258222904056311,-0.03773399814963341,0.0051444838754832745,-0.01971540041267872
0.023321276530623436,0.013147816993296146,-0.007312519941478968,-0.03810451552271843,0.005125686060637236,-0.01984330452978611
0.023612985387444496,0.013702918775379658,-0.007218862418085337,-0.037951961159706116,0.004995114170014858,-0.01954461634159088
0.023373547941446304,0.013240734115242958,-0.006860574707388878,-0.03945472091436386,0.005246912129223347,-0.019032102078199387
0.023561233654618263,0.013894681818783283,-0.007318296004086733,-0.03955639526247978,0.005201130639761686,-0.019164741039276123
0.023720890283584595,0.013333728536963463,-0.007084336131811142,-0.037737052887678146,0.005308052059262991,-0.019393861293792725
0.02305004373192787,0.013895795680582523,-0.006748720537871122,-0.037190649658441544,0.005593649111688137,-0.019831208512187004
0.024143939837813377,0.013270532712340355,-0.006575069390237331,-0.0384540893137455,0.005178023129701614,-0.019871244207024574
0.023477422073483467,0.013898535631597042,-0.007238673511892557,-0.03791803494095802,0.005153942387551069,-0.020069461315870285
0.02344806306064129,0.01400779653340578,-0.006757936906069517,-0.03912996128201485,0.005051667336374521,-0.019747110083699226
0.023548558354377747,0.0137302465736866,-0.006574579514563084,-0.03765587881207466,0.0053237914107739925,-0.019973410293459892
0.023548558354377747,0.0137302465736866,-0.006574579514563084,-0.03765587881207466,0.0053237914107739925,-0.019973410293459892
0.023809315636754036,0.01382226962596178,-0.007189485710114241,-0.038044385612010956,0.005440744571387768,-0.019912488758563995
0.023847591131925583,0.013720972463488579,-0.007780134212225676,-0.03944932296872139,0.005882017780095339,-0.019721731543540955
0.023671703413128853,0.013831865973770618,-0.007048063911497593,-0.039202120155096054,0.005716760642826557,-0.01972941681742668
0.02356325089931488,0.013857077807188034,-0.006858065724372864,-0.03920188546180725,0.005452287849038839,-0.02021532692015171
0.02391226775944233,0.014457282610237598,-0.0070381988771259785,-0.03932102024555206,0.005287752486765385,-0.019863780587911606
0.02394949086010456,0.013660268858075142,-0.007578299846500158,-0.03916661813855171,0.005506864748895168,-0.01996597833931446
0.02355542965233326,0.014387041330337524,-0.007138971704989672,-0.03968840464949608,0.005361993797123432,-0.0200073029845953
0.023925267159938812,0.014254915527999401,-0.006745300255715847,-0.03932015597820282,0.005055374000221491,-0.020016856491565704
0.02411133050918579,0.013668617233633995,-0.007222867105156183,-0.03888944908976555,0.005180349573493004,-0.020185012370347977
0.023799698799848557,0.013872794806957245,-0.007669982500374317,-0.039473310112953186,0.005190687719732523,-0.019979681819677353
0.024137238040566444,0.013447786681354046,-0.006939106620848179,-0.03914719820022583,0.005785423796623945,-0.02049168571829796
0.024249771609902382,0.013823107816278934,-0.006770269013941288,-0.03911896422505379,0.005558482371270657,-0.02051762491464615
0.023739522323012352,0.013957042247056961,-0.006857995875179768,-0.03782147541642189,0.0057937041856348515,-0.020386530086398125
0.024026552215218544,0.014486308209598064,-0.007391194812953472,-0.038774557411670685,0.005844423081725836,-0.02021021395921707
0.02442982606589794,0.013705041259527206,-0.007131315302103758,-0.041628431528806686,0.005696545820683241,-0.020322581753134727
0.024460727348923683,0.014488548040390015,-0.00709485961124301,-0.03998265042901039,0.005821940954774618,-0.02110075205564499
0.02468777261674404,0.01395528856664896,-0.0070319222286343575,-0.03791379556059837,0.005910435691475868,-0.020044362172484398
0.02485770545899868,0.014112692326307297,-0.007405089680105448,-0.03794112429022789,0.005631899926811457,-0.020741835236549377
0.02432035282254219,0.013753894716501236,-0.007086586207151413,-0.03903883695602417,0.0056593455374240875,-0.02121184580028057
0.02447657100856304,0.014327981509268284,-0.007413805928081274,-0.038518380373716354,0.0057619111612439156,-0.021230347454547882
0.02523232251405716,0.01366745587438345,-0.007061959709972143,-0.04025069251656532,0.005919185467064381,-0.02161065675318241
0.025258859619498253,0.014119532890617847,-0.007356678135693073,-0.03915098309516907,0.005992602091282606,-0.02158946357667446
0.02444363199174404,0.013740221969783306,-0.007258773315697908,-0.03762121871113777,0.005690570920705795,-0.021531591191887856
0.02535218559205532,0.014180311933159828,-0.007239683996886015,-0.039187535643577576,0.0059651462361216545,-0.02154948003590107
0.025163305923342705,0.013856756500899792,-0.007035265676677227,-0.03966418653726578,0.005845512263476849,-0.021392766386270523
0.025163305923342705,0.013856756500899792,-0.007035265676677227,-0.03966418653726578,0.005845512263476849,-0.021392766386270523
0.02543255314230919,0.013659743592143059,-0.007372606545686722,-0.03982378542423248,0.005596584640443325,-0.021163171157240868
0.02527465857565403,0.014475425705313683,-0.007067270576953888,-0.040046777576208115,0.005934637505561113,-0.021353980526328087
0.025051552802324295,0.014081408269703388,-0.006587198469787836,-0.04092058911919594,0.005589714739471674,-0.02172531932592392
0.025497376918792725,0.014027259312570095,-0.006704175844788551,-0.0405777283012867,0.005667088087648153,-0.021481839939951897
0.026012081652879715,0.013355342671275139,-0.00722420634701848,-0.040880270302295685,0.0061190142296254635,-0.021575188264250755
0.025600863620638847,0.014119005762040615,-0.00725838216021657,-0.04100458696484566,0.006056887097656727,-0.021525118499994278
0.025452163070440292,0.013988527469336987,-0.006788591388612986,-0.04085291922092438,0.006114701274782419,-0.021478520706295967
0.026369571685791016,0.01412932388484478,-0.007194113451987505,-0.040917981415987015,0.005624139681458473,-0.021736472845077515
0.026165170595049858,0.013691863976418972,-0.007458494510501623,-0.04064755514264107,0.005800261162221432,-0.0226901825517416
0.02628052793443203,0.013853463344275951,-0.007302337326109409,-0.041063092648983,0.005849833600223064,-0.0222811009734869
0.026155561208724976,0.013935877941548824,-0.007487311027944088,-0.04147098958492279,0.0059150527231395245,-0.02150711603462696
0.026700705289840698,0.014010049402713776,-0.006735890172421932,-0.041220102459192276,0.0060950033366680145,-0.021501971408724785
0.026687556877732277,0.01405565720051527,-0.007318219169974327,-0.04115491360425949,0.006046933587640524,-0.021433547139167786
0.026042185723781586,0.013907945714890957,-0.007327331230044365,-0.04114192724227905,0.006081897299736738,-0.02157462388277054
0.026384660974144936,0.014140310697257519,-0.0071304612793028355,-0.041286032646894455,0.006077978294342756,-0.02212098054587841
0.02678285725414753,0.013764794915914536,-0.006702871527522802,-0.041617751121520996,0.006420759949833155,-0.022394180297851562
0.026890549808740616,0.013984988443553448,-0.007413506507873535,-0.04213188961148262,0.0063304053619503975,-0.022010108456015587
0.026657480746507645,0.013555582612752914,-0.007311675231903791,-0.041669998317956924,0.005939052905887365,-0.022586563602089882
0.027020182460546494,0.014021294191479683,-0.007122708950191736,-0.04459325969219208,0.005902948789298534,-0.023004882037639618
0.026871521025896072,0.013563132844865322,-0.006929544731974602,-0.044322822242975235,0.0063824960961937904,-0.022795874625444412
0.027188962325453758,0.014045540243387222,-0.007522764150053263,-0.04249914735555649,0.006086534354835749,-0.022131357342004776
0.028242385014891624,0.01385461911559105,-0.0077097308821976185,-0.04273810237646103,0.006445996928960085,-0.021962614730000496
0.02811192348599434,0.014429409056901932,-0.0072247800417244434,-0.04358024522662163,0.0065074944868683815,-0.022232981398701668
0.027176951989531517,0.01406236831098795,-0.007203064393252134,-0.04492273926734924,0.005802965257316828,-0.022742141038179398
0.027534084394574165,0.01425657607614994,-0.007675705943256617,-0.045506551861763,0.005731913726776838,-0.023480553179979324
0.02845223806798458,0.014562755823135376,-0.007092206738889217,-0.04425853490829468,0.006744484882801771,-0.023472214117646217
0.02845223806798458,0.014562755823135376,-0.007092206738889217,-0.04425853490829468,0.006744484882801771,-0.023472214117646217
0.0290603619068861,0.014356693252921104,-0.007551602087914944,-0.04490235447883606,0.0061959014274179935,-0.02352720871567726
0.0290603619068861,0.014356693252921104,-0.007551602087914944,-0.04490235447883606,0.0061959014274179935,-0.02352720871567726
0.028981294482946396,0.014044446870684624,-0.007248008623719215,-0.043515611439943314,0.006244353950023651,-0.023974735289812088
0.028981294482946396,0.014044446870684624,-0.007248008623719215,-0.043515611439943314,0.006244353950023651,-0.023974735289812088
0.027654998004436493,0.013841665349900723,-0.0070569138042628765,-0.04248665273189545,0.00640746857970953,-0.024247722700238228
0.027973609045147896,0.01451223436743021,-0.007769918534904718,-0.04370912164449692,0.006455712951719761,-0.02461329475045204
0.02916264720261097,0.01407220121473074,-0.007586028426885605,-0.04430468752980232,0.006613605190068483,-0.024417579174041748
0.028608128428459167,0.014633690938353539,-0.007758579682558775,-0.04384586587548256,0.006502029951661825,-0.023971229791641235
0.028298042714595795,0.013883477076888084,-0.007600190583616495,-0.043789543211460114,0.006992442067712545,-0.02427862584590912
0.02835310995578766,0.014418311417102814,-0.008256860077381134,-0.04322133585810661,0.006829401012510061,-0.02455320954322815
0.02851317636668682,0.013964551500976086,-0.007833936251699924,-0.04445358365774155,0.006533325184136629,-0.023858442902565002
0.02831883542239666,0.014331945218145847,-0.0076468572951853275,-0.044549763202667236,0.006573931314051151,-0.0239193644374609
0.028805194422602654,0.01386291440576315,-0.007514331489801407,-0.04282033443450928,0.0062889824621379375,-0.024341220036149025
0.028455600142478943,0.014363791793584824,-0.008094537071883678,-0.04342807084321976,0.0067041190341115,-0.024532681331038475
0.028799833729863167,0.014134288765490055,-0.00783258955925703,-0.04486286640167236,0.00678035756573081,-0.024820392951369286
0.028530623763799667,0.014849718660116196,-0.007598890457302332,-0.046403657644987106,0.006839492358267307,-0.024885891005396843
0.028447657823562622,0.014310275204479694,-0.007555017247796059,-0.04557748883962631,0.0063461679965257645,-0.024723447859287262
0.028763100504875183,0.014669655822217464,-0.007440702058374882,-0.0445936918258667,0.006156616844236851,-0.024617090821266174
0.0289771668612957,0.013947580941021442,-0.00725526362657547,-0.04625382646918297,0.006622829008847475,-0.024618318304419518
0.028983797878026962,0.014621983282268047,-0.00728991674259305,-0.046705231070518494,0.006579542998224497,-0.02547222562134266
0.028971483930945396,0.0139631861820817,-0.007757166866213083,-0.04620726779103279,0.006391371600329876,-0.02597368136048317
0.028928153216838837,0.014742696657776833,-0.0075378394685685635,-0.045717984437942505,0.006371646653860807,-0.025736713781952858
0.029220174998044968,0.014231638982892036,-0.00724457623437047,-0.04590608552098274,0.006740741431713104,-0.024523630738258362
0.02874990925192833,0.014725817367434502,-0.007421813439577818,-0.04610740393400192,0.006700855679810047,-0.024248633533716202
0.027701493352651596,0.01414424553513527,-0.008253059349954128,-0.0461946576833725,0.006560939364135265,-0.025156883522868156
0.029324475675821304,0.014942404814064503,-0.008389429189264774,-0.046291328966617584,0.006259090732783079,-0.025959357619285583
0.029127376154065132,0.014979557134211063,-0.007604865822941065,-0.047200191766023636,0.006809435784816742,-0.025564491748809814
0.02906072698533535,0.014395300298929214,-0.007610855624079704,-0.04733404889702797,0.007060472387820482,-0.026798134669661522
0.029293103143572807,0.014887705445289612,-0.00727174524217844,-0.04811793938279152,0.006672066170722246,-0.02626853808760643
0.029293103143572807,0.014887705445289612,-0.00727174524217844,-0.04811793938279152,0.006672066170722246,-0.02626853808760643
0.029307285323739052,0.014468582347035408,-0.007340376731008291,-0.04822159931063652,0.006628767587244511,-0.025183405727148056
0.029017895460128784,0.014841056428849697,-0.0071067786775529385,-0.048383522778749466,0.006982792634516954,-0.02522490732371807
0.02904508076608181,0.014318489469587803,-0.0075639295391738415,-0.048500146716833115,0.007070967461913824,-0.02582588791847229
0.029420431703329086,0.014925560913980007,-0.007377550937235355,-0.04959280043840408,0.006757520139217377,-0.02670065313577652
0.029237570241093636,0.014363537542521954,-0.007397874724119902,-0.04875912144780159,0.0064447857439517975,-0.025883235037326813
0.028936056420207024,0.01512073539197445,-0.007647008169442415,-0.04867132753133774,0.006590785458683968,-0.02587546408176422
0.02905845455825329,0.0144900968298316,-0.007957621477544308,-0.04802597314119339,0.006820972543209791,-0.026183491572737694
0.028514746576547623,0.015011551789939404,-0.007811590097844601,-0.04855499789118767,0.0068695684894919395,-0.026111992076039314
0.02861989103257656,0.01457550935447216,-0.006850471720099449,-0.048980824649333954,0.006768716033548117,-0.026201443746685982
0.029812024906277657,0.014985544607043266,-0.006884167902171612,-0.047319818288087845,0.006580869201570749,-0.026055708527565002
0.029823198914527893,0.014306522905826569,-0.007094621658325195,-0.04742615669965744,0.006874002516269684,-0.02634216472506523
0.028474824503064156,0.014863792806863785,-0.007650549057871103,-0.048088300973176956,0.00756109831854701,-0.026655904948711395
0.028180411085486412,0.014712739735841751,-0.006815297994762659,-0.04954458773136139,0.006977645680308342,-0.02683749794960022
0.02890542522072792,0.015093815512955189,-0.00699074100703001,-0.04770825058221817,0.006779178977012634,-0.026991723105311394
0.02963060885667801,0.014959881082177162,-0.0070448266342282295,-0.04594319313764572,0.006748693995177746,-0.026941528543829918
0.029502689838409424,0.0148183424025774,-0.007622936740517616,-0.047470688819885254,0.007129391189664602,-0.0270430538803339
0.029936624690890312,0.015452118590474129,-0.007060662843286991,-0.047876499593257904,0.007403173018246889,-0.026996759697794914
0.03007223829627037,0.015147853642702103,-0.0067502218298614025,-0.04804718866944313,0.007203967310488224,-0.027388494461774826
0.029986634850502014,0.014765038155019283,-0.006458713207393885,-0.047670841217041016,0.007002518977969885,-0.027403704822063446
0.028948914259672165,0.014944007620215416,-0.007154044695198536,-0.048516932874917984,0.006684337742626667,-0.02740483172237873
0.028995396569371223,0.015027915127575397,-0.006729573477059603,-0.048338353633880615,0.006834347732365131,-0.027423519641160965
0.030202271416783333,0.014627527445554733,-0.0066431667655706406,-0.04817090556025505,0.007263763342052698,-0.02724415622651577
0.03039582446217537,0.015124022029340267,-0.006665733642876148,-0.04779204726219177,0.007084912620484829,-0.02735246531665325
0.029851535335183144,0.014815335161983967,-0.007572321221232414,-0.048475153744220734,0.007341047283262014,-0.027120547369122505
0.02997387945652008,0.015423906035721302,-0.007703905459493399,-0.05007016658782959,0.006798012647777796,-0.02730291523039341
0.029822127893567085,0.014998920261859894,-0.00637570396065712,-0.04832308366894722,0.00691878842189908,-0.027680600062012672
0.02990136481821537,0.014487314969301224,-0.00696652103215456,-0.048667896538972855,0.007416400592774153,-0.027609296143054962
0.02990136481821537,0.014487314969301224,-0.00696652103215456,-0.048667896538972855,0.007416400592774153,-0.027609296143054962
0.03008618950843811,0.015194415114820004,-0.007406521122902632,-0.05079932138323784,0.00701198261231184,-0.027371104806661606
0.03003872185945511,0.014863301999866962,-0.00703485868871212,-0.04975537210702896,0.007156159728765488,-0.02755127288401127
0.030279213562607765,0.015347565524280071,-0.006722265388816595,-0.0485459603369236,0.007004729472100735,-0.027736790478229523
0.03050348162651062,0.014711049385368824,-0.007335132919251919,-0.04987761378288269,0.00743926502764225,-0.02793974243104458
0.03047572821378708,0.014939633198082447,-0.007754778489470482,-0.05054096132516861,0.007500800769776106,-0.027785873040556908
0.03086663968861103,0.014560005627572536,-0.007714447565376759,-0.0510496087372303,0.007629605010151863,-0.027605589479207993
0.031767964363098145,0.015427152626216412,-0.007023262325674295,-0.05056511610746384,0.007019844837486744,-0.028884118422865868
0.03147158771753311,0.014457061886787415,-0.006745064631104469,-0.05065726116299629,0.007013518828898668,-0.028273917734622955
0.030945822596549988,0.014924529008567333,-0.007339602801948786,-0.05124982073903084,0.00719860102981329,-0.02832973748445511
0.030769046396017075,0.014581194147467613,-0.007182404398918152,-0.05126284435391426,0.006849474273622036,-0.02791520394384861
0.03166775777935982,0.015030336566269398,-0.0069350204430520535,-0.05124286562204361,0.00717431353405118,-0.027931736782193184
0.03157322481274605,0.014687665738165379,-0.006758566480129957,-0.05149422958493233,0.007558388169854879,-0.028676755726337433
0.03119063563644886,0.014810355380177498,-0.007211736403405666,-0.05123940855264664,0.0075287604704499245,-0.029084565117955208
0.031903766095638275,0.01402275264263153,-0.007801656145602465,-0.051098305732011795,0.007314145099371672,-0.028991498053073883
0.0318346805870533,0.014742936007678509,-0.007305813487619162,-0.05227881669998169,0.007225724868476391,-0.029927587136626244
0.03095753863453865,0.015037508681416512,-0.006906154099851847,-0.05181321129202843,0.007022982928901911,-0.030464310199022293
0.030964642763137817,0.014990010298788548,-0.007559603545814753,-0.05113598331809044,0.007248143199831247,-0.029485343024134636
0.032847367227077484,0.014747739769518375,-0.007853019051253796,-0.051490236073732376,0.007709902245551348,-0.028299396857619286
0.032944392412900925,0.014846562407910824,-0.007119530346244574,-0.052155911922454834,0.007827120833098888,-0.028835630044341087
0.0326387844979763,0.014634964056313038,-0.007363221608102322,-0.05203607305884361,0.008068454451858997,-0.030030542984604836
0.0324256494641304,0.014897480607032776,-0.0077265347354114056,-0.05178438499569893,0.007790648844093084,-0.030365176498889923
0.03234120085835457,0.014750402420759201,-0.007638873532414436,-0.05115089938044548,0.00802040658891201,-0.030200272798538208
0.03217126429080963,0.014853083528578281,-0.006939771119505167,-0.052797913551330566,0.00779704051092267,-0.030056554824113846
0.03260407969355583,0.014375950209796429,-0.0068228947930037975,-0.05080003663897514,0.00813360046595335,-0.03026183322072029
0.03260407969355583,0.014375950209796429,-0.0068228947930037975,-0.05080003663897514,0.00813360046595335,-0.03026183322072029
0.03317888826131821,0.014569724909961224,-0.007017637137323618,-0.05357173830270767,0.007720814552158117,-0.030784420669078827
0.03317888826131821,0.014569724909961224,-0.007017637137323618,-0.05357173830270767,0.007720814552158117,-0.030784420669078827
0.03312885761260986,0.014663449488580227,-0.007340712007135153,-0.05045255273580551,0.0077226655557751656,-0.03158775717020035
0.03357166796922684,0.01486660074442625,-0.00732427416369319,-0.052647270262241364,0.007396561559289694,-0.030944615602493286
0.033110443502664566,0.014596148394048214,-0.007204195484519005,-0.053514234721660614,0.007908179424703121,-0.030391862615942955
0.03324749693274498,0.014986160211265087,-0.007043520919978619,-0.05302520468831062,0.007880538702011108,-0.03072095662355423
0.03413763269782066,0.014641832560300827,-0.0072041586972773075,-0.05278269946575165,0.008083865977823734,-0.031078418716788292
0.03413763269782066,0.014641832560300827,-0.0072041586972773075,-0.05278269946575165,0.008083865977823734,-0.031078418716788292
0.033783040940761566,0.014759091660380363,-0.007272066082805395,-0.05255212262272835,0.0078021869994699955,-0.030882008373737335
0.033605463802814484,0.014350909739732742,-0.006848997436463833,-0.052063800394535065,0.007650712970644236,-0.0312860943377018
0.03372291848063469,0.014572200365364552,-0.007125492207705975,-0.05319315940141678,0.008070865646004677,-0.03183748573064804
0.03347418084740639,0.014785060659050941,-0.007618365343660116,-0.05419041961431503,0.00795289408415556,-0.03154280036687851
0.033754702657461166,0.015124097466468811,-0.007794530130922794,-0.05237581208348274,0.007656180765479803,-0.030379479750990868
0.033998046070337296,0.01474014576524496,-0.0076092882081866264,-0.05273718759417534,0.008083324879407883,-0.030210334807634354
0.033685047179460526,0.015018800273537636,-0.0070763868279755116,-0.054271288216114044,0.00781400315463543,-0.03133130073547363
0.03410535305738449,0.014949686825275421,-0.007189759984612465,-0.056175775825977325,0.00811538752168417,-0.031534478068351746
0.0341983325779438,0.015785664319992065,-0.008116350509226322,-0.05299319699406624,0.007828397676348686,-0.031735580414533615
0.03388826921582222,0.015347042120993137,-0.007215112913399935,-0.05414227396249771,0.008039792068302631,-0.03278722986578941
0.03440844267606735,0.015723178163170815,-0.0066177379339933395,-0.054826825857162476,0.008235206827521324,-0.03192184492945671
0.03440246358513832,0.014999918639659882,-0.006703308783471584,-0.05672314018011093,0.007986433804035187,-0.031063977628946304
0.03413598984479904,0.015460514463484287,-0.007384717930108309,-0.05557745695114136,0.008097628131508827,-0.03078337013721466
0.0335550457239151,0.015389839187264442,-0.007246741559356451,-0.055018652230501175,0.00823167897760868,-0.03186213970184326
0.03509530425071716,0.015096638351678848,-0.006855650804936886,-0.05532553791999817,0.007916168309748173,-0.03348280489444733
0.03535490855574608,0.015096704475581646,-0.006850533187389374,-0.05538015440106392,0.00804075412452221,-0.03221816197037697
