davideferrari95/blind_handover_controller/data/Disturbances/Test 5 - [2024-02-19 -- 15-12-40]/joint_states_data.csv
shoulder_pan_joint,shoulder_lift_joint,elbow_joint,wrist_1_joint,wrist_2_joint,wrist_3_joint
-0.0005239391466602683,-0.00013516579929273576,0.0007259727572090924,0.00016521174984518439,0.0,-0.00025832749088294804
-0.00043721726979129016,-0.0001287213817704469,0.0011080008698627353,0.00016036300803534687,0.0,-0.0002656576980371028
-0.00037616820191033185,-0.00012286337732803077,0.0009362151613458991,0.00015574105782434344,0.0,-0.0002718348696362227
-0.00037616820191033185,-0.00012286337732803077,0.0009362151613458991,0.00015574105782434344,0.0,-0.0002718348696362227
-0.0003854749957099557,-0.00011261377949267626,0.000792805221863091,0.00014724746870342642,0.0,-0.00036370049929246306
-0.0003854749957099557,-0.00011261377949267626,0.000792805221863091,0.00014724746870342642,0.0,-0.00036370049929246306
-0.0003605851670727134,-0.00014363566879183054,0.0006917714490555227,0.0001550705637782812,0.0,-0.0003438723215367645
-0.0003876198607031256,-0.00013858330203220248,0.0007109208963811398,0.0001621101691853255,0.0,-0.0003669697907753289
-0.00037103271461091936,-0.00013345219485927373,0.0007301334990188479,0.00015874583914410323,0.0,-0.0003573521098587662
-0.00035047243000008166,-0.0001286818296648562,0.0005997937405481935,0.00015489028010051697,0.0,-0.0003773091302718967
-0.00037748413160443306,-0.00012424068700056523,0.0006996597512625158,0.00015117626753635705,0.0,-0.0003681981470435858
-0.0003604085650295019,-0.00012009593046968803,0.000660489487927407,0.00014763356011826545,0.0,-0.0003486604546196759
-0.0004048119590152055,-0.00011621867452049628,0.0006823978037573397,0.000144253033795394,0.0,-0.0003743730776477605
-0.00040006928611546755,-0.00011258411541348323,0.0009129511890932918,0.00015092812827788293,0.0,-0.0003585922531783581
-0.00036778388312086463,-0.00010916985047515482,0.0009422033908776939,0.000156972513650544,0.0,-0.0003417546395212412
-0.00040514906868338585,-0.00010595678759273142,0.00092544179642573,0.00015422016440425068,0.0,-0.000327649264363572
-0.0003792862989939749,-0.00010292736260453239,0.00092201994266361,0.00015102505858521909,0.0,-0.0003753044584300369
-0.0003544222272466868,-0.00010006637603510171,0.000926096981856972,0.00014792477304581553,0.0,-0.00035093945916742086
-0.0003688540600705892,-9.736012725625187e-05,0.0009160696645267308,0.00014494702918455005,0.0,-0.0003258329234085977
-0.0003652489394880831,-9.479624714003876e-05,0.0008252939442172647,0.00014208648644853383,0.0,-0.00030383942066691816
-0.00034545708331279457,-9.236411278834566e-05,0.0007163588888943195,0.0001393366401316598,0.0,-0.0002846120623871684
-0.00032750051468610764,-9.005361789604649e-05,0.0006324085406959057,0.00015755108324810863,0.0,-0.0003139697655569762
-0.00031131476862356067,-8.78559731063433e-05,0.0005660696770064533,0.00015519205771852285,0.0,-0.0003026949125342071
-0.000296654412522912,-8.576300751883537e-05,0.0005940754781477153,0.00015021240687929094,0.0,-0.00028701452538371086
-0.0002711194392759353,-8.186249760910869e-05,0.0005808301502838731,0.00015463726595044136,0.0,-0.00025945319794118404
-0.00025993253802880645,-8.004234405234456e-05,0.0004924111999571323,0.00016292286454699934,0.0,-0.00024755572667345405
-0.00025993253802880645,-8.004234405234456e-05,0.0004924111999571323,0.00016292286454699934,0.0,-0.00024755572667345405
-0.0002496322267688811,-7.830149115761742e-05,0.00044351359247229993,0.00015897254343144596,0.0,-0.00023670143855269998
-0.0002401175443083048,-7.663460564799607e-05,0.00045633205445483327,0.00015447965415660292,0.0,-0.00022675924992654473
-0.00023130126646719873,-7.503724918933585e-05,0.0004441702621988952,0.00015018672274891287,0.0,-0.00021761932293884456
-0.00022310945496428758,-7.350518717430532e-05,0.0004107206186745316,0.000158080889377743,0.0,-0.00020918781228829175
-0.000215478430618532,-7.20343814464286e-05,0.0004376624128781259,0.0001651753846090287,0.0,-0.00020138495892751962
-0.00020835184841416776,-7.062131044222042e-05,0.00045452837366610765,0.00016167081776075065,0.0,-0.00019414328562561423
-0.00020168178889434785,-8.45529866637662e-05,0.0004455941671039909,0.00015767257718835026,0.0,-0.00018740486120805144
-0.00019542529480531812,-8.491682820022106e-05,0.00041986536234617233,0.00015382564743049443,0.0,-0.00018111823010258377
-0.00018954573897644877,-8.336985774803907e-05,0.0003967291850131005,0.00015015926328487694,0.0,-0.0001752399984980002
-0.00018400949193164706,-8.185373735614121e-05,0.0003760079853236675,0.0001569614396430552,0.0,-0.00016973124002106488
-0.00017878723156172782,-8.039146632654592e-05,0.00036978613934479654,0.0001631061895750463,0.0,-0.00016455854347441345
-0.00017385357932653278,-7.898055628174916e-05,0.0003436403349041939,0.00016011275874916464,0.0,-0.00018451602954883128
-0.00016918474284466356,-7.76182278059423e-05,0.0003822144935838878,0.00015667024126742035,0.0,-0.00018083823670167476
-0.00016476008750032634,-7.630218897247687e-05,0.00035773677518591285,0.00020843018137384206,0.0,-0.00017589468916412443
-0.00016056095773819834,-7.502996595576406e-05,0.0003355171356815845,0.00021638502948917449,0.0,-0.00017112346540670842
-6.349499017233029e-05,-7.379950693575665e-05,0.0003677844360936433,0.00020757738093379885,0.0,-0.00016659850371070206
-5.774035889771767e-05,-7.260876009240746e-05,0.00034815489198081195,0.00019849566160701215,0.0,-0.00016230599430855364
-5.58973551960662e-05,-7.145579729694873e-05,0.00032992896740324795,0.0002230627869721502,0.0,-0.00015822920249775052
-5.421312016551383e-05,-7.033893052721396e-05,0.00031350995413959026,0.00021855597151443362,0.0,-0.00015435241220984608
-5.113291626912542e-05,-6.820668204454705e-05,0.00032528958399780095,0.0002339244820177555,0.0,-0.00014714205462951213
-4.972048191120848e-05,-6.718834629282355e-05,0.0003117442538496107,0.00022752746008336544,0.0,-0.00014378377818502486
-4.972048191120848e-05,-6.718834629282355e-05,0.0003117442538496107,0.00022752746008336544,0.0,-0.00014378377818502486
-4.83840485685505e-05,-6.619992200285196e-05,0.00029881257796660066,0.00021972533431835473,0.0,-0.00014057527005206794
-4.7117475332925096e-05,-5.271218469715677e-05,0.0002869040472432971,0.0002406108396826312,0.0,-0.00013750676589552313
-4.591557080857456e-05,-5.1539362175390124e-05,0.00027590981335379183,0.0002346145483897999,0.0,-0.0001345695782219991
-4.477345646591857e-05,-2.660784957697615e-05,0.00026572690694592893,0.00034574419260025024,0.0,-0.00013175517960917205
-2.9323131457204e-05,-2.590059557405766e-05,0.00025626824935898185,0.0003370576014276594,0.0,-0.0001290561049245298
-2.142615630873479e-05,-3.6804260162170976e-05,0.0002474602952133864,0.000373126968042925,0.0,-5.6766399211483076e-05
-2.0833536837017164e-05,-3.773778007598594e-05,0.0002128547348547727,0.0003526420914568007,0.0,-4.576701394398697e-05
-2.0360910639283247e-05,-3.7236772186588496e-05,0.0002026479342021048,0.0003581139899324626,0.0,-4.4023010559612885e-05
-1.991045064642094e-05,-3.673046740004793e-05,0.0001962890091817826,0.0003622829681262374,0.0,-4.29321444244124e-05
-6.665919045190094e-06,-3.623753218562342e-05,0.00019035711011383682,0.0003680793452076614,0.0,-4.1929364670068026e-05
-8.943180063170075e-08,-3.575762457330711e-05,0.0001847741805249825,0.0003713640326168388,0.0,-4.097467171959579e-05
-1.1998418925074361e-09,-3.529026434989646e-05,0.00017950921028386801,0.00035489830770529807,0.0,-4.006265589850955e-05
-1.609740986341368e-11,-3.483494583633728e-05,0.00017453607870265841,0.0004531337763182819,0.0,-3.9190381357911974e-05
-2.1596731293507115e-13,-3.439126521698199e-05,0.00016983089153654873,0.00046019727597013116,0.0,-3.835527240880765e-05
-2.8974769428918336e-15,7.023623766144738e-05,0.00016537295596208423,0.00045838928781449795,0.0,-3.755500802071765e-05
-3.8873352886929536e-17,6.893990939715877e-05,0.00016114283062051982,0.0004858515167143196,0.0,-2.3142256395658478e-05
-5.215356184558823e-19,2.220829810539726e-05,0.0001571238972246647,0.0004589247691910714,0.0,-1.833536043704953e-05
-6.997065871623509e-21,2.9795265277243743e-07,0.0001533005415694788,0.00048516521928831935,0.0,-1.7691641915007494e-05
-9.387456131727076e-23,3.997414843581737e-09,0.00014965879381634295,0.0006024091271683574,0.0,-1.733240242174361e-05
-1.2594471021530358e-24,5.363041608030805e-11,0.00014618621207773685,0.0006594500155188143,0.0,-2.2280087250692304e-06
-1.689708935955506e-26,7.195204718493664e-13,0.00014287100930232555,0.0006882207235321403,0.0,-1.454730522709724e-07
-2.26696037817096e-28,9.65328636931594e-15,0.00013970278087072074,0.0006870655342936516,0.0,-9.498350550529722e-09
-3.0414163430350743e-30,1.295111655816151e-16,0.00013667214079760015,0.0006708572036586702,0.0,-6.201744118250474e-10
-4.0804485773504877e-32,1.737557603550567e-18,7.919732888694853e-05,0.0009571018745191395,0.0,-4.049295621033622e-11
-5.474442495672477e-34,2.331155232418114e-20,4.968056236975826e-05,0.0009645141544751823,0.0,-2.6439007233536316e-12
-5.474442495672477e-34,2.331155232418114e-20,4.968056236975826e-05,0.0009645141544751823,0.0,-2.6439007233536316e-12
0.0005439842352643609,4.195997303233517e-24,4.673794683185406e-05,0.0008767737890593708,0.0,-1.1271364938126357e-14
0.0005649554077535868,5.629466110350273e-26,2.5449606255278923e-05,0.0010305282194167376,0.0,-7.359395469637745e-16
0.0004910245188511908,1.0132839544992109e-29,2.1680643840227276e-05,0.0010022041387856007,0.0,-3.137425753061567e-18
0.0004910245188511908,1.0132839544992109e-29,2.1680643840227276e-05,0.0010022041387856007,0.0,-3.137425753061567e-18
0.0004500880604609847,1.3594496952217338e-31,4.149082087678835e-05,0.000906740315258503,0.0,0.000625251152087003
0.00041544908890500665,1.823875361558768e-33,4.135596827836707e-05,0.0008962262072600424,0.0,0.0007806388894096017
0.00044737712596543133,2.4469613869044837e-35,2.0496303477557376e-05,0.0008936970843933523,0.0,0.0008042572881095111
0.0004775203997269273,3.282910922852203e-37,1.977846295631025e-05,0.0008772999863140285,0.0,0.000816105050034821
0.0005081796552985907,4.404445025293226e-39,1.934964893735014e-05,0.0008506443118676543,0.0,0.0010442249476909637
0.0005554171511903405,5.909135494211321e-41,2.596002275367937e-07,0.0008771037682890892,0.0,0.0011467112926766276
0.0005853869370184839,7.931349308078465e-43,3.4828686601429126e-09,0.0009388895705342293,0.0,0.0014189963694661856
0.0005385552067309618,1.1210387714598537e-44,4.672712217157482e-11,0.0009462417801842093,0.0,0.0017216019332408905
0.0005640779272653162,0.0,6.26903964937725e-13,0.0009462657617405057,0.0,0.0016207961598411202
0.0007016380550339818,0.0,8.410717834814087e-15,0.0011911627370864153,0.0,0.0016449966933578253
0.0007711253711022437,0.0,1.128404983884664e-16,0.0011954588117077947,0.0,0.0016505972016602755
0.0008158836280927062,0.0,1.5138993396496508e-18,0.0011701073963195086,0.0,0.0019132135203108191
0.0014641406014561653,0.0,2.724965380348562e-22,0.0012472218368202448,0.0,0.002574303885921836
0.0014641406014561653,0.0,2.724965380348562e-22,0.0012472218368202448,0.0,0.002574303885921836
0.0013970131985843182,0.0,3.655888696116752e-24,0.0012137873563915491,0.0,0.0027095102705061436
0.0013162101386114955,0.0,4.904841902122376e-26,0.001416318234987557,0.0,0.002563991118222475
0.001341252587735653,0.0,6.580471693146128e-28,0.0014407879207283258,0.0,0.002464792924001813
0.0012735372874885798,0.0,8.828542610607849e-30,0.0014223813777789474,0.0,0.00267294910736382
0.0012104603229090571,0.0,1.1844617270269704e-31,0.0013991361483931541,0.0,0.002891428302973509
0.0011654533445835114,0.0,1.5891065481675023e-33,0.0013006185181438923,0.0,0.002947865752503276
0.00112508877646178,0.0,2.860335357950411e-37,0.0012809892650693655,0.0,0.0026044787373393774
0.00112508877646178,0.0,2.860335357950411e-37,0.0012809892650693655,0.0,0.0026044787373393774
0.002139659831300378,0.0,5.14851068777581e-41,0.001376871601678431,0.0,0.0035667961928993464
0.002139659831300378,0.0,5.14851068777581e-41,0.001376871601678431,0.0,0.0035667961928993464
0.0029109797906130552,0.0,6.908401429121348e-43,0.0014912491897121072,0.0,0.004584339447319508
0.002898396458476782,0.0,-0.00037756754318252206,0.0014134618686512113,0.0,0.004573597107082605
0.0023849850986152887,0.0,-0.00042546860640868545,0.001554205548018217,0.0,0.00436289282515645
0.0021830520126968622,0.0,-0.0004402646445669234,0.0015462583396583796,0.0,0.003930459730327129
0.00261777825653553,0.0,-0.0004312107339501381,0.0016790584195405245,0.0,0.003735021688044071
0.0032695734407752752,0.0,-0.0004038470797240734,0.0017491618636995554,0.0,0.0038460958749055862
0.003644543932750821,0.0,-0.0004314983088988811,0.0019075099844485521,0.0,0.004367384128272533
0.003687765682116151,0.0,-0.0004090592556167394,0.0019335602410137653,0.0,0.0045992243103682995
0.0032665946055203676,0.0,-0.0005077356472611427,0.0017156858230009675,0.0,0.004540677182376385
0.003296695416793227,0.0,-0.0006001743022352457,0.0016627854201942682,0.0,0.004262912552803755
0.003596867900341749,0.0,-0.0006105838692747056,0.0015670884167775512,0.0,0.004445479717105627
0.0036486852914094925,0.0,-0.0005828675348311663,0.0016047570388764143,0.0,0.004572327248752117
0.004274521954357624,0.0,-0.0006089934031479061,0.0017189393984153867,0.0,0.00506509467959404
0.004711300600320101,0.0,-0.0007612222689203918,0.0024019796401262283,0.0,0.005299638025462627
0.004895567893981934,0.0,-0.0008618209976702929,0.002798347268253565,0.0,0.005344163626432419
0.004417771007865667,0.0,-0.0008683098712936044,0.002572491066530347,0.0,0.004942405503243208
0.004486985504627228,0.0,-0.0008811209117993712,0.002389682689681649,0.0,0.004596991930156946
0.005128688178956509,0.0,-0.0012206638930365443,0.0020878450013697147,0.0,0.005029155407100916
0.005138311069458723,0.0,-0.001300925388932228,0.001992113422602415,0.0,0.005770351737737656
0.0057537672109901905,0.0,-0.0016302155563607812,0.002136355498805642,0.0,0.0058962879702448845
0.0057537672109901905,0.0,-0.0016302155563607812,0.002136355498805642,0.0,0.0058962879702448845
0.005834020674228668,0.0,-0.0012494728434830904,0.0024093156680464745,0.0,0.00594701012596488
0.005930796265602112,0.0,-0.0011268049711361527,0.0024836536031216383,0.0,0.005823899060487747
0.006432785652577877,0.0,-0.001241173013113439,0.002280829008668661,0.0,0.006243009585887194
0.00712304562330246,0.0,-0.0016699964180588722,0.0020117133390158415,0.0,0.005963173229247332
0.006520085968077183,0.0,-0.001807220047339797,0.0018070990918204188,0.0,0.005777871236205101
0.006520085968077183,0.0,-0.001807220047339797,0.0018070990918204188,0.0,0.005777871236205101
0.006633374840021133,0.0,-0.0021058814600110054,0.001796168857254088,0.0,0.006031456403434277
0.006720320787280798,0.0,-0.0019737936090677977,0.0021293391473591328,0.0,0.005906062666326761
0.007248238660395145,7.220607221825048e-05,-0.00162586010992527,0.002309992676600814,0.0,0.006204701494425535
0.007683563511818647,7.258325786096975e-05,-0.001595145557075739,0.002792609855532646,0.0,0.006060285959392786
0.00695144385099411,7.14514753781259e-05,-0.0018032081425189972,0.0026165973395109177,0.0,0.005946172866970301
0.007325370330363512,7.033495785435662e-05,-0.002122704405337572,0.002372423419728875,0.0,0.005941671784967184
0.007778795436024666,6.925256457179785e-05,-0.002726309932768345,0.002050162060186267,0.0,0.006357531528919935
0.008089116774499416,6.820300040999427e-05,-0.002496359869837761,0.002063400112092495,0.0,0.006696260999888182
0.007504648994654417,6.718477379763499e-05,-0.0025375750847160816,0.0025303123984485865,0.0,0.006498449482023716
0.007598919328302145,6.619646592298523e-05,-0.002252342412248254,0.003123796544969082,0.0,0.006731068715453148
0.008775193244218826,7.382718467852101e-05,-0.0022655895445495844,0.003333078231662512,0.0,0.006850021425634623
0.008462552912533283,7.710570935159922e-05,-0.002695234026759863,0.0031065072398632765,0.0,0.006879876833409071
0.008206143975257874,7.607758016092703e-05,-0.0032819267362356186,0.002823390532284975,0.0,0.006946776062250137
0.009860459715127945,7.502144580939785e-05,-0.003511951304972172,0.002821064554154873,0.0,0.007271666545420885
0.008867551572620869,7.399350579362363e-05,-0.0031675295904278755,0.002886182628571987,6.765894795535132e-06,0.007262327708303928
0.008623870089650154,7.299333083210513e-05,-0.0027895523235201836,0.0028663980774581432,4.4176459823574987e-07,0.007101811468601227
0.00936293974518776,7.201984408311546e-05,-0.0027836973313242197,0.003032808657735586,2.8844073796108205e-08,0.00686880387365818
0.009509195573627949,8.183800673577935e-05,-0.003321741707623005,0.003120231442153454,1.229668034063991e-10,0.0077636148780584335
0.00975995697081089,8.079064718913287e-05,-0.0033604491036385298,0.003267305437475443,8.028852756247762e-12,0.008253146894276142
0.010120350867509842,7.976774213602766e-05,-0.0036517069675028324,0.003179991850629449,5.242267123867217e-13,0.00786363985389471
0.010888593271374702,8.987046021502465e-05,-0.003944529686123133,0.003514764830470085,3.42282558091038e-14,0.007489509880542755
0.01155363954603672,8.890963363228366e-05,-0.004117575008422136,0.003829961409792304,2.234860432430213e-15,0.007970450446009636
0.01155363954603672,8.890963363228366e-05,-0.004117575008422136,0.003829961409792304,2.234860432430213e-15,0.007970450446009636
0.010553841479122639,8.782710938248783e-05,-0.004049195908010006,0.003429224481806159,1.4592041723141745e-16,0.00810184609144926
0.010581597685813904,8.67687413119711e-05,-0.003950922284275293,0.003170028096064925,9.527560593975604e-18,0.007679853122681379
0.01054359506815672,0.000153712258907035,-0.004353114403784275,0.003172457218170166,6.22081644959599e-19,0.007697383873164654
0.010886014439165592,0.00017491119797341526,-0.0043735504150390625,0.00380524480715394,2.652031314776113e-21,0.008074742741882801
0.012231694534420967,0.0001683726441115141,-0.005004822742193937,0.003722019027918577,1.7315867949771025e-22,0.008278765715658665
0.011419123969972134,0.00016229978064075112,-0.004513758234679699,0.0035061051603406668,1.13060239133872e-23,0.007848881185054779
0.011419123969972134,0.00016229978064075112,-0.004513758234679699,0.0035061051603406668,1.13060239133872e-23,0.007848881185054779
0.011661234311759472,0.00018151168478652835,-0.0046584769152104855,0.0034638186916708946,4.8199345842221423e-26,0.008063494227826595
0.01137328241020441,0.00017574179219081998,-0.005069300532341003,0.0037793079391121864,3.147072951566757e-27,0.008350800722837448
0.01137328241020441,0.00017574179219081998,-0.005069300532341003,0.0037793079391121864,3.147072951566757e-27,0.008350800722837448
0.012163986451923847,0.00017020436644088477,-0.005287941079586744,0.003572991583496332,2.0548136577481158e-28,0.009249585680663586
0.012078095227479935,0.0001866697275545448,-0.004840509034693241,0.004096921533346176,8.759992670124393e-31,0.008526411838829517
0.012078095227479935,0.0001866697275545448,-0.004840509034693241,0.004096921533346176,8.759992670124393e-31,0.008526411838829517
0.011987668462097645,0.0001814150164136663,-0.005060520023107529,0.004508614540100098,5.719648707075686e-32,0.008512933738529682
0.01146421954035759,0.0001763388718245551,-0.005607296712696552,0.004414786584675312,3.734522042675391e-33,0.008728022687137127
0.01146421954035759,0.0001763388718245551,-0.005607296712696552,0.004414786584675312,3.734522042675391e-33,0.008728022687137127
0.011756280437111855,0.00016699056141078472,-0.006153629161417484,0.0040626549161970615,1.5920852726634163e-35,0.008783405646681786
0.011599062941968441,0.00018559831369202584,-0.005547680892050266,0.004015273414552212,1.039517818513412e-36,0.008252027444541454
0.012029956094920635,0.00018123420886695385,-0.005285559222102165,0.003959812223911285,6.787307942067026e-38,0.00857589952647686
0.011971243657171726,0.0001767882495187223,-0.005192192271351814,0.004194105975329876,4.431627412904199e-39,0.00909011997282505
0.011971243657171726,0.0001767882495187223,-0.005192192271351814,0.004194105975329876,4.431627412904199e-39,0.00909011997282505
0.01275856327265501,0.00021999522869009525,-0.00635500019416213,0.004041905980557203,1.233142648605839e-42,0.008989179506897926
0.01275856327265501,0.00021999522869009525,-0.00635500019416213,0.004041905980557203,1.233142648605839e-42,0.008989179506897926
0.012518101371824741,0.00021195999579504132,-0.006373540032655001,0.00444550858810544,7.987401246651457e-44,0.009048517793416977
0.010152173228561878,0.0002324634260730818,-0.007221708074212074,0.004669121000915766,0.0,0.009892445057630539
0.01070394366979599,0.0002595169353298843,-0.0076707499101758,0.004507241304963827,0.0,0.010471953079104424
0.011208963580429554,0.00026272833929397166,-0.006559179164469242,0.00501267472282052,0.0,0.00934079010039568
0.010359405539929867,0.0002642807667143643,-0.007121224422007799,0.005152171012014151,0.0,0.008891711942851543
0.011862257495522499,0.00025506856036372483,-0.007733020465821028,0.004975561518222094,0.0,0.009187182411551476
0.011862257495522499,0.00025506856036372483,-0.007733020465821028,0.004975561518222094,0.0,0.009187182411551476
0.011389093473553658,0.0002463430864736438,-0.007897750474512577,0.004442303907126188,0.0,0.009378813207149506
0.010401329956948757,0.00040643979446031153,-0.007369067519903183,0.004918708000332117,0.0,0.009328228421509266
0.011037198826670647,0.0003792804782278836,-0.00729878107085824,0.005356057081371546,0.0,0.00992688536643982
0.010674387216567993,0.0004169245366938412,-0.007797958329319954,0.0054349699057638645,0.0,0.010417555458843708
0.01173577643930912,0.00038951850729063153,-0.0080745629966259,0.005637855734676123,0.0,0.010034150443971157
0.011564466170966625,0.00036334077594801784,-0.008116409182548523,0.005379526875913143,0.0,0.010009201243519783
0.010587012395262718,0.00034043073537759483,-0.008865312673151493,0.005237156990915537,-7.744320464553311e-05,0.010496918112039566
0.010974211618304253,0.00037140914355404675,-0.009374446235597134,0.005521579645574093,-0.0002902878331951797,0.0104509387165308
0.011618849821388721,0.0003526628715917468,-0.008435440249741077,0.006227672100067139,-0.0003283359401393682,0.010793782770633698
0.011470010504126549,0.00036246038507670164,-0.009449013508856297,0.0059115225449204445,-0.00034301826963201165,0.010655296966433525
0.011470010504126549,0.00036246038507670164,-0.009449013508856297,0.0059115225449204445,-0.00034301826963201165,0.010655296966433525
0.01086355559527874,0.00041521675302647054,-0.008963828906416893,0.005740918219089508,-0.0003365034353919327,0.010893166996538639
0.011665978468954563,0.0004330161027610302,-0.008806137368083,0.006111881695687771,-0.0003201717045158148,0.011159838177263737
0.011324446648359299,0.0004232852370478213,-0.009338042698800564,0.006381209474056959,-0.0003259834193158895,0.010602057911455631
0.012205235660076141,0.0004198838141746819,-0.009463456459343433,0.006056326907128096,-0.0003174449084326625,0.010412993840873241
0.011662478558719158,0.0003999698965344578,-0.00967450998723507,0.005918358452618122,-0.0003741596301551908,0.010838414542376995
0.013070865534245968,0.0004291475343052298,-0.009958917275071144,0.00656923558562994,-0.00040741442353464663,0.010931435041129589
0.01198425143957138,0.0005678380257450044,-0.008689544163644314,0.006596049293875694,-0.0003776129160542041,0.010685142129659653
0.011897271499037743,0.0006112434202805161,-0.009659186005592346,0.006103221792727709,-0.0003486229688860476,0.010720434598624706
0.012449049390852451,0.0006381864659488201,-0.009988494217395782,0.005712367128580809,-0.00038371275877580047,0.010946578346192837
0.012449049390852451,0.0006381864659488201,-0.009988494217395782,0.005712367128580809,-0.00038371275877580047,0.010946578346192837
0.012309395708143711,0.000662369595374912,-0.009451412595808506,0.005727361887693405,-0.0003619101189542562,0.010716941207647324
0.013026204891502857,0.000821970053948462,-0.010322975926101208,0.006389732472598553,-0.00038830883568152785,0.011095554567873478
0.012421298772096634,0.0009194366284646094,-0.01108370441943407,0.006860299967229366,-0.000372066511772573,0.011135856620967388
0.012702819891273975,0.0008872426697053015,-0.010072014294564724,0.006931595969945192,-0.0003984997747465968,0.011073536239564419
0.01236876193434,0.0008885854622349143,-0.0100497892126441,0.006903688423335552,-0.0003812950453720987,0.010771019384264946
0.013215324841439724,0.0009670924628153443,-0.010580985806882381,0.007700168062001467,-0.00044187685125507414,0.01094659324735403
0.012814984656870365,0.0010082768276333809,-0.009709314443171024,0.006923113949596882,-0.00040820700814947486,0.01166362501680851
0.01343162078410387,0.001100677764043212,-0.010851728729903698,0.006236992310732603,-0.000374614231986925,0.011213665828108788
0.013965526595711708,0.0012595487060025334,-0.010421400889754295,0.006734161172062159,-0.000396608782466501,0.011148533783853054
0.013397637754678726,0.0012935532722622156,-0.009953971020877361,0.00688906479626894,-0.00038415525341406465,0.011165487580001354
0.013867111876606941,0.0012974314158782363,-0.008839390240609646,0.006562130991369486,-0.00033719418570399284,0.011961898766458035
0.014441761188209057,0.0014030387392267585,-0.008252792060375214,0.006946537643671036,-0.0003631192375905812,0.012102559208869934
0.015059699304401875,0.0013545078691095114,-0.008696669712662697,0.006858681794255972,-0.00034923822386190295,0.012850938364863396
0.015059699304401875,0.0013545078691095114,-0.008696669712662697,0.006858681794255972,-0.00034923822386190295,0.012850938364863396
0.014387981966137886,0.0016728535993024707,-0.009830955415964127,0.007106200326234102,-0.0003312780463602394,0.012005665339529514
0.014300067909061909,0.0016651077894493937,-0.008860237896442413,0.00700758770108223,-0.0003147480310872197,0.011956344358623028
0.01493862271308899,0.0018234015442430973,-0.008970187045633793,0.007668718695640564,-0.00032683665631338954,0.012404531240463257
0.015609582886099815,0.001955474028363824,-0.009140035137534142,0.008379104547202587,-0.0003128044481854886,0.013363904319703579
0.014636686071753502,0.001996686216443777,-0.008982718922197819,0.00838974118232727,-0.0003025834448635578,0.013019000180065632
0.014636686071753502,0.001996686216443777,-0.008982718922197819,0.00838974118232727,-0.0003025834448635578,0.013019000180065632
0.014729936607182026,0.0023156297393143177,-0.009214906953275204,0.007958120666444302,-0.0003263684920966625,0.012982663698494434
0.015373163856565952,0.0024717922788113356,-0.00906123872846365,0.008638984523713589,-0.00035177270183339715,0.013511216267943382
0.01511135883629322,0.0027432958595454693,-0.009329956024885178,0.008560472168028355,-0.0003792415664065629,0.01330388430505991
0.015487444587051868,0.002963587874546647,-0.009337435476481915,0.0081270020455122,-0.0006657374324277043,0.01346393022686243
0.015431095845997334,0.002799789421260357,-0.008970926515758038,0.00784151628613472,-0.0007292170776054263,0.013279421254992485
0.015304071828722954,0.0030090739019215107,-0.009123909287154675,0.008122307248413563,-0.0006976030417717993,0.01332450658082962
0.015304071828722954,0.0030090739019215107,-0.009123909287154675,0.008122307248413563,-0.0006976030417717993,0.01332450658082962
0.016090793535113335,0.0030011185444891453,-0.009276477620005608,0.007944643497467041,-0.0006213290034793317,0.013834159821271896
0.015760548412799835,0.002955413656309247,-0.009280027821660042,0.00770604657009244,-0.000625219545327127,0.013921445235610008
0.01592029444873333,0.0031369728967547417,-0.00996238924562931,0.008125299587845802,-0.0005387777928262949,0.013782241381704807
0.016977790743112564,0.0033300265204161406,-0.010155786760151386,0.008262147195637226,-0.0004963770043104887,0.014262556098401546
0.016977790743112564,0.0033300265204161406,-0.010155786760151386,0.008262147195637226,-0.0004963770043104887,0.014262556098401546
0.016977790743112564,0.0033300265204161406,-0.010155786760151386,0.008262147195637226,-0.0004963770043104887,0.014262556098401546
0.01682763732969761,0.002912526950240135,-0.010091807693243027,0.008459593169391155,-0.0004897172912023962,0.014563304372131824
0.016556674614548683,0.0026387551333755255,-0.00943958479911089,0.008441358804702759,-0.00044050702126696706,0.014212209731340408
0.016361864283680916,0.002674135146662593,-0.01082377415150404,0.007995575666427612,-0.00039827069849707186,0.014408936724066734
0.016936134546995163,0.002736765192821622,-0.009959091432392597,0.007866818457841873,-0.00041931180749088526,0.01442364789545536
0.017223818227648735,0.0027035449165850878,-0.009771337732672691,0.009304748848080635,-0.00040450459346175194,0.015071948990225792
0.016910487785935402,0.0027008953038603067,-0.010254399850964546,0.008448533713817596,-0.0003773138450924307,0.014834760688245296
0.017459029331803322,0.002416040049865842,-0.010853281244635582,0.008080520667135715,-0.00035272235982120037,0.015316158533096313
0.017150696367025375,0.0023647465277463198,-0.010106607340276241,0.00891356635838747,-0.00037879805313423276,0.014745648950338364
0.017626596614718437,0.0027558067813515663,-0.010747698135674,0.008091725409030914,-0.0003440301225055009,0.015201214700937271
0.017422227188944817,0.0024913789238780737,-0.010279216803610325,0.008273220621049404,-0.00032623717561364174,0.015297451987862587
0.017908290028572083,0.0025203335098922253,-0.010951953008770943,0.008413588628172874,-0.00034853772376663983,0.015637429431080818
0.017674889415502548,0.002400868572294712,-0.010774727910757065,0.008291496895253658,-0.00033745612017810345,0.015750354155898094
0.018547814339399338,0.0023317160084843636,-0.01185615360736847,0.007855446077883244,-0.00032267303322441876,0.015558921732008457
0.018547814339399338,0.0023317160084843636,-0.01185615360736847,0.007855446077883244,-0.00032267303322441876,0.015558921732008457
0.0182755459100008,0.0026525643188506365,-0.011771309189498425,0.008732794784009457,-0.0003346530720591545,0.01531179714947939
0.018125683069229126,0.0028992381412535906,-0.011313035152852535,0.009169367142021656,-0.0003156485327053815,0.01582290604710579
0.017368413507938385,0.002865997375920415,-0.011617072857916355,0.008612233214080334,-0.0003386682947166264,0.015748189762234688
0.0177026204764843,0.0026143821887671947,-0.011530800722539425,0.010015509091317654,-0.00033144737244583666,0.016522999852895737
0.017901843413710594,0.002619984792545438,-0.011284882202744484,0.009234835393726826,-0.000313109572743997,0.01519093755632639
0.017995912581682205,0.0027781017124652863,-0.011261140927672386,0.008357193320989609,-0.00034192411112599075,0.015380557626485825
0.01857033185660839,0.0031367286574095488,-0.011180424131453037,0.008853673934936523,-0.0003271627356298268,0.015610864385962486
0.01885555312037468,0.0028534075245261192,-0.012024560943245888,0.009794649668037891,-0.0003496867429930717,0.016546418890357018
0.01851465180516243,0.003049882361665368,-0.01132767740637064,0.009210042655467987,-0.00033852821798063815,0.016618134453892708
0.01878724992275238,0.0027708227280527353,-0.011709959246218204,0.009224574081599712,-0.00044639810221269727,0.016996165737509727
0.019859451800584793,0.003059729468077421,-0.011870045214891434,0.009737924672663212,-0.00048513562069274485,0.016908962279558182
0.01944546215236187,0.002822066890075803,-0.010758600197732449,0.009527559392154217,-0.00046383184962905943,0.016781000420451164
0.018789203837513924,0.003054871456697583,-0.011290083639323711,0.009319238364696503,-0.0004899451159872115,0.017195217311382294
0.019276831299066544,0.0030252549331635237,-0.010946453548967838,0.010316605679690838,-0.0004945170949213207,0.017171168699860573
0.018868625164031982,0.002939053578302264,-0.010975169949233532,0.010154865682125092,-0.0004907121183350682,0.017077911645174026
0.019254932180047035,0.0026944454293698072,-0.012088898569345474,0.00938707496970892,-0.0006170019623823464,0.01805352419614792
0.019468914717435837,0.0029476750642061234,-0.011351748369634151,0.009825289249420166,-0.0005896168295294046,0.01822597347199917
0.020214583724737167,0.0031854351982474327,-0.011618959717452526,0.0103535745292902,-0.0006143891951069236,0.018695998936891556
0.019809799268841743,0.003339580027386546,-0.011173706501722336,0.009755104780197144,-0.0005627090577036142,0.018116798251867294
0.020083818584680557,0.002876114333048463,-0.011280782520771027,0.009782793931663036,-0.000538375461474061,0.017919441685080528
0.020083818584680557,0.002876114333048463,-0.011280782520771027,0.009782793931663036,-0.000538375461474061,0.017919441685080528
0.02036506123840809,0.0031171883456408978,-0.010925224050879478,0.01050150953233242,-0.0005349236889742315,0.01853148080408573
0.020405590534210205,0.0033319967333227396,-0.012039333581924438,0.010446703061461449,-0.0005166149348951876,0.0196419395506382
0.020424002781510353,0.003348404774442315,-0.011360816657543182,0.008904589340090752,-0.00048491591587662697,0.019189223647117615
0.020424002781510353,0.003348404774442315,-0.011360816657543182,0.008904589340090752,-0.00048491591587662697,0.019189223647117615
0.020936381071805954,0.0034377509728074074,-0.011396294459700584,0.010787914507091045,-0.0005486853187903762,0.019361229613423347
0.020936381071805954,0.0034377509728074074,-0.011396294459700584,0.010787914507091045,-0.0005486853187903762,0.019361229613423347
0.02102307230234146,0.003205279354006052,-0.011695131659507751,0.010331232100725174,-0.0005492045893333852,0.019658690318465233
0.021284261718392372,0.0031953351572155952,-0.012085840106010437,0.010526899248361588,-0.0005409468431025743,0.01978144235908985
0.020912330597639084,0.0032242662273347378,-0.01158481277525425,0.01050192303955555,-0.0006621681968681514,0.019656628370285034
0.021652840077877045,0.00351856485940516,-0.012334425933659077,0.010270560160279274,-0.0006841288995929062,0.02023298479616642
0.021843045949935913,0.0037702652625739574,-0.011322489008307457,0.010169262066483498,-0.0006572254351340234,0.02043171040713787
0.021757110953330994,0.003499232931062579,-0.012110891751945019,0.010313472710549831,-0.0005891306791454554,0.019430533051490784
0.021559519693255424,0.003511084709316492,-0.012098390609025955,0.010403871536254883,-0.0006075142882764339,0.019826536998152733
0.022272037342190742,0.00373603543266654,-0.01181708462536335,0.010477767325937748,-0.0005634883418679237,0.02049972489476204
0.0224204882979393,0.0038503219839185476,-0.012071987614035606,0.010529900901019573,-0.0005178078426979482,0.02046753652393818
0.022236285731196404,0.0037209680303931236,-0.011980630457401276,0.011136184446513653,-0.00047848999383859336,0.020401213318109512
0.02218736708164215,0.0028450987301766872,-0.012998558580875397,0.010448772460222244,-0.0005037566879764199,0.02033017948269844
0.02247493341565132,0.0019639672245830297,-0.011231777258217335,0.010218813084065914,-0.00047440058551728725,0.020419234409928322
0.022236691787838936,0.0015049163484945893,-0.012422875501215458,0.010615269653499126,-0.00044529803562909365,0.02027064934372902
0.02266048453748226,0.0013638063101097941,-0.012584464624524117,0.010589759796857834,-0.0004202198178973049,0.020749028772115707
0.02304142341017723,0.001258443808183074,-0.012638313695788383,0.01114276610314846,-0.0003654482134152204,0.021445434540510178
0.022778110578656197,0.0013150323648005724,-0.012344783172011375,0.011023313738405704,-0.0003367236058693379,0.02163875289261341
0.022800719365477562,0.0028617617208510637,-0.01220641378313303,0.010223807767033577,-0.0003714202903211117,0.02127806469798088
0.023007294163107872,0.0026682016905397177,-0.012770048342645168,0.010490880347788334,-0.00038286400376819074,0.02001652866601944
0.02361174114048481,0.0020371077116578817,-0.013673504814505577,0.009686533361673355,-0.00040073011768981814,0.020708244293928146
0.02361174114048481,0.0020371077116578817,-0.013673504814505577,0.009686533361673355,-0.00040073011768981814,0.020708244293928146
0.02348203957080841,0.0018866658210754395,-0.012933116406202316,0.009896857663989067,-0.00039102352457121015,0.021326247602701187
0.02399793639779091,0.0014815080212429166,-0.013523926958441734,0.010396357625722885,-0.0005445218412205577,0.021484602242708206
0.023451944813132286,0.00167078897356987,-0.012636121362447739,0.010163241066038609,-0.0005838446668349206,0.020863018929958344
0.02380489744246006,0.0020369484554976225,-0.013184649869799614,0.01081889122724533,-0.0005490202456712723,0.021207349374890327
0.025190910324454308,0.002094522351399064,-0.01346690021455288,0.010348298586905003,-0.0005770863499492407,0.02208038419485092
0.024827055633068085,0.0023764066863805056,-0.013264522887766361,0.010138367302715778,-0.0005892408080399036,0.022566916421055794
0.024251334369182587,0.002053049160167575,-0.01385256927460432,0.010521018877625465,-0.0005609491490758955,0.02213103137910366
0.023924507200717926,0.001827638945542276,-0.012979427352547646,0.010376407764852047,-0.0006414772942662239,0.022045975551009178
0.025079278275370598,0.0017576598329469562,-0.0138578275218606,0.011433053761720657,-0.0006556121516041458,0.02073538675904274
0.025688234716653824,0.0017810363788157701,-0.01420764159411192,0.01216834131628275,-0.0006323755369521677,0.02157680317759514
0.025407841429114342,0.0017994627123698592,-0.014616111293435097,0.011985210701823235,-0.0006147733074612916,0.0221625417470932
0.02538621611893177,0.0020261695608496666,-0.013527944684028625,0.011868621222674847,-0.0005976492539048195,0.02322104386985302
0.02534778229892254,0.0020661517046391964,-0.014320580288767815,0.011524890549480915,-0.0006057130522094667,0.023263150826096535
0.025791361927986145,0.002370813162997365,-0.01394403725862503,0.012145932763814926,-0.000577093509491533,0.022393476217985153
0.026454096660017967,0.002145009580999613,-0.01448593009263277,0.011883224360644817,-0.0006007904885336757,0.02193780057132244
0.0259229838848114,0.0024015505332499743,-0.014381694607436657,0.011493196710944176,-0.0005357988411560655,0.022443756461143494
0.026252973824739456,0.0024076548870652914,-0.013740756548941135,0.011879488825798035,-0.0005190862575545907,0.022699503228068352
0.026252973824739456,0.0024076548870652914,-0.013740756548941135,0.011879488825798035,-0.0005190862575545907,0.022699503228068352
0.02688181959092617,0.0026608735788613558,-0.01459911186248064,0.012172795832157135,-0.0005419249064289033,0.022451065480709076
0.02753891609609127,0.0024267768021672964,-0.014173334464430809,0.0120271360501647,-0.0005075140506960452,0.02259482443332672
0.026708504185080528,0.002325988607481122,-0.01438884437084198,0.011983774602413177,-0.0005027796141803265,0.022476205602288246
0.02729952149093151,0.0024860436096787453,-0.014330606907606125,0.012467820197343826,-0.0004978218930773437,0.023009678348898888
0.02688225731253624,0.002617222722619772,-0.014970412477850914,0.012024014256894588,-0.0004855218867305666,0.02326648123562336
0.026866910979151726,0.0025325780734419823,-0.014927035197615623,0.01272550504654646,-0.0004932496231049299,0.023394225165247917
0.02763504721224308,0.0026891492307186127,-0.014840096235275269,0.012975997291505337,-0.0004934616736136377,0.023501036688685417
0.02742587961256504,0.0025654765777289867,-0.014925691299140453,0.013043452985584736,-0.0004889706033281982,0.023235080763697624
0.02742587961256504,0.0025654765777289867,-0.014925691299140453,0.013043452985584736,-0.0004889706033281982,0.023235080763697624
0.0270822923630476,0.0027581918984651566,-0.014467230066657066,0.012738709338009357,-0.0005163410678505898,0.023187736049294472
0.027778178453445435,0.002952278358861804,-0.015603436157107353,0.012887994758784771,-0.0004855948791373521,0.024618465453386307
0.027583476155996323,0.002679581055417657,-0.0150541877374053,0.01326930895447731,-0.0006395414820872247,0.022953087463974953
0.027583476155996323,0.002679581055417657,-0.0150541877374053,0.01326930895447731,-0.0006395414820872247,0.022953087463974953
0.028088239952921867,0.0027445589657872915,-0.01557798683643341,0.012791475281119347,-0.0005954319494776428,0.023716546595096588
0.027696628123521805,0.0028434419073164463,-0.01557955052703619,0.01294103916734457,-0.000580952619202435,0.02377241849899292
0.027820875868201256,0.002961155027151108,-0.015472137369215488,0.012818065471947193,-0.0005676159053109586,0.02385697513818741
0.028551505878567696,0.0027918918058276176,-0.015456595458090305,0.013248927891254425,-0.0005924373981542885,0.02445804886519909
0.02831060066819191,0.002980183344334364,-0.015827471390366554,0.013456339947879314,-0.0005566313047893345,0.023715687915682793
0.028683148324489594,0.0029609419871121645,-0.015579712577164173,0.013636358082294464,-0.000592523836530745,0.023455308750271797
0.028648365288972855,0.0029366768430918455,-0.015845760703086853,0.013811474665999413,-0.0006209093844518065,0.023332223296165466
0.029071373865008354,0.00282593653537333,-0.0158720500767231,0.014099562540650368,-0.0006138815660960972,0.02386295236647129
0.029152797535061836,0.0031805457547307014,-0.01641795039176941,0.014175698161125183,-0.0005974708474241197,0.024724606424570084
0.028576353564858437,0.0033098955173045397,-0.015877926722168922,0.014771301299333572,-0.0006209197454154491,0.024628128856420517
0.029629021883010864,0.0031409957446157932,-0.016282344236969948,0.014732757583260536,-0.0007226421148516238,0.02458706870675087
0.029754921793937683,0.002904964843764901,-0.01620498113334179,0.014952179975807667,-0.0006442265002988279,0.024477005004882812
0.029365019872784615,0.0031545725651085377,-0.015512924641370773,0.014785652980208397,-0.0006693819887004793,0.02454201504588127
0.028789015486836433,0.002960773417726159,-0.016808925196528435,0.01470822375267744,-0.0006016315310262144,0.025077003985643387
0.029022933915257454,0.003294961294159293,-0.01618727669119835,0.013919476419687271,-0.0006253700121305883,0.02495059370994568
0.02994210086762905,0.003363954834640026,-0.016937872394919395,0.013791193254292011,-0.0005738435429520905,0.025117946788668633
0.02887175977230072,0.003433285281062126,-0.01613752357661724,0.014113805256783962,-0.0005960440030321479,0.02488131634891033
0.02945936843752861,0.003672117367386818,-0.016490250825881958,0.014422444626688957,-0.0005564754246734083,0.02535095252096653
0.030073456466197968,0.003761843778192997,-0.016527961939573288,0.014297492802143097,-0.0005399388028308749,0.024429498240351677
0.029896259307861328,0.003707597265020013,-0.017491817474365234,0.014054402709007263,-0.000510179263073951,0.02543700858950615
0.029896259307861328,0.003707597265020013,-0.017491817474365234,0.014054402709007263,-0.000510179263073951,0.02543700858950615
0.03100435994565487,0.0038137289229780436,-0.017469245940446854,0.014334646053612232,-0.0005005390848964453,0.027407320216298103
0.03100435994565487,0.0038137289229780436,-0.017469245940446854,0.014334646053612232,-0.0005005390848964453,0.027407320216298103
0.03156303986907005,0.004028811119496822,-0.01779942400753498,0.014726395718753338,-0.0005264750216156244,0.026625577360391617
0.03130194544792175,0.0040594167076051235,-0.017119692638516426,0.01548298355191946,-0.000568727555219084,0.02508423663675785
0.030191009864211082,0.004437250550836325,-0.017407556995749474,0.015091853216290474,-0.0006250215810723603,0.025595689192414284
0.03027353808283806,0.004074938129633665,-0.01696793921291828,0.014811485074460506,-0.0006572653073817492,0.02678554691374302
0.03128622844815254,0.0038342245388776064,-0.017775408923625946,0.014772631227970123,-0.0006821381393820047,0.02677121013402939
0.031116873025894165,0.004332587122917175,-0.018171656876802444,0.014417437836527824,-0.0006622218643315136,0.026293372735381126
0.03142831474542618,0.004138644319027662,-0.018065299838781357,0.015002056024968624,-0.0008029617019928992,0.027260756120085716
0.03108701854944229,0.004394361283630133,-0.018054477870464325,0.014918639324605465,-0.0008460374665446579,0.027450736612081528
0.031532153487205505,0.0041884686797857285,-0.018306853249669075,0.015509411692619324,-0.000763071933761239,0.02698090486228466
0.031398020684719086,0.00406989362090826,-0.01839248649775982,0.015309908427298069,-0.000723964418284595,0.025762289762496948
0.03131035715341568,0.004288350697606802,-0.01880824938416481,0.01626611314713955,-0.0006920681335031986,0.025939449667930603
0.0321732796728611,0.004082293715327978,-0.0193696990609169,0.016049588099122047,-0.0006263121613301337,0.027582107111811638
0.032744795083999634,0.004245586693286896,-0.019554082304239273,0.016415849328041077,-0.000645357882604003,0.02947702445089817
0.032210469245910645,0.004147087689489126,-0.01938416063785553,0.016329679638147354,-0.0006005684845149517,0.027031736448407173
0.03252217173576355,0.003963553346693516,-0.01880130171775818,0.01650187373161316,-0.0005366961704567075,0.02654939331114292
0.032189637422561646,0.0038121638353914022,-0.01850040629506111,0.016438404098153114,-0.0005688422243110836,0.02756653167307377
0.03246074542403221,0.004311336670070887,-0.01949043944478035,0.01636439561843872,-0.0005945033044554293,0.028280416503548622
0.03251471742987633,0.004187603946775198,-0.019623633474111557,0.016457974910736084,-0.0006107613444328308,0.028142234310507774
0.03313615173101425,0.004456378053873777,-0.019667763262987137,0.016004854813218117,-0.0005850719753652811,0.028013192117214203
0.03341293707489967,0.003990654367953539,-0.019612319767475128,0.015988092869520187,-0.0007525855326093733,0.028536176308989525
0.03400398790836334,0.004153461195528507,-0.019661802798509598,0.016862113028764725,-0.0007673567160964012,0.02866494469344616
0.03380873426795006,0.004527432378381491,-0.019464068114757538,0.016663163900375366,-0.0007749785436317325,0.028810760006308556
0.03380873426795006,0.004527432378381491,-0.019464068114757538,0.016663163900375366,-0.0007749785436317325,0.028810760006308556
0.033867813646793365,0.004273116122931242,-0.019584650173783302,0.015903832390904427,-0.0007956031477078795,0.028817370533943176
0.03400954231619835,0.004588472191244364,-0.020385723561048508,0.0160638689994812,-0.0007677260437048972,0.02888721227645874
0.03453555703163147,0.004152926616370678,-0.020774303004145622,0.01654970832169056,-0.000784029602073133,0.029604339972138405
0.03453555703163147,0.004152926616370678,-0.020774303004145622,0.01654970832169056,-0.000784029602073133,0.029604339972138405
0.0344763919711113,0.004173558671027422,-0.02005661651492119,0.016058767214417458,-0.0007770830416120589,0.030133284628391266
0.03502557426691055,0.004102768376469612,-0.020437663421034813,0.016678044572472572,-0.0007220398401841521,0.029076354578137398
0.0357593335211277,0.004347711335867643,-0.021568600088357925,0.01702141761779785,-0.0007141585228964686,0.029078157618641853
0.0349392369389534,0.0046017165295779705,-0.021156983450055122,0.016696982085704803,-0.0007451917044818401,0.029113056138157845
0.033868301659822464,0.004779552575200796,-0.020320827141404152,0.01710651069879532,-0.0007502236985601485,0.02960320934653282
0.036269351840019226,0.004470306448638439,-0.021402113139629364,0.01709209755063057,-0.0006934095872566104,0.030011722818017006
0.03644751384854317,0.004022256936877966,-0.0215009655803442,0.017520932480692863,-0.000703069323208183,0.03159360960125923
0.036096468567848206,0.003765534143894911,-0.021789172664284706,0.01758212223649025,-0.0007715319516137242,0.03185210004448891
0.03678498789668083,0.0038193317595869303,-0.021557986736297607,0.01759576052427292,-0.0008169920183718204,0.03133440762758255
0.03715899959206581,0.004123983904719353,-0.022133396938443184,0.018115373328328133,-0.0008298952598124743,0.03031800501048565
0.036841459572315216,0.004094788804650307,-0.02243185043334961,0.018456129357218742,-0.0008244527271017432,0.030495712533593178
0.03702250123023987,0.004814057145267725,-0.021833201870322227,0.019070638343691826,-0.0007618929957970977,0.031877707690000534
0.037861477583646774,0.004452166613191366,-0.02211623638868332,0.019908949732780457,-0.0007920739590190351,0.03260858356952667
0.03785990551114082,0.004498567897826433,-0.022326422855257988,0.019086644053459167,-0.0008088247268460691,0.03236861154437065
0.03761656954884529,0.004203334450721741,-0.0220162533223629,0.0188275296241045,-0.0008213366381824017,0.032050225883722305
0.03815527632832527,0.0041690850630402565,-0.02253899537026882,0.018998607993125916,-0.0008039413951337337,0.03282221779227257
0.03794154152274132,0.004225294105708599,-0.02211311087012291,0.01914164610207081,-0.0007705195457674563,0.03242276608943939
0.038591258227825165,0.004497340880334377,-0.022347325459122658,0.01931656338274479,-0.0008196609560400248,0.032656699419021606
0.039251718670129776,0.004737954121083021,-0.023075543344020844,0.019901910796761513,-0.0008337891777046025,0.03297404572367668
0.039277732372283936,0.004584585782140493,-0.023281939327716827,0.01968850940465927,-0.0008344253292307258,0.03366803750395775
0.0387994758784771,0.004353316500782967,-0.022715747356414795,0.019130907952785492,-0.0008416782366111875,0.03236342594027519
0.0387994758784771,0.004353316500782967,-0.022715747356414795,0.019130907952785492,-0.0008416782366111875,0.03236342594027519
0.04093462973833084,0.004693487659096718,-0.02320822700858116,0.020192008465528488,-0.0009000698919408023,0.03359046205878258
0.03912210464477539,0.004767870996147394,-0.023602653294801712,0.019843269139528275,-0.0009731054306030273,0.03346901014447212
0.03909716755151749,0.004792813211679459,-0.023506691679358482,0.019701067358255386,-0.0009138439781963825,0.03371061757206917
0.04081451892852783,0.004643846303224564,-0.023318326100707054,0.0203554630279541,-0.0009950188687071204,0.03373564034700394
0.0415186770260334,0.0042394306510686874,-0.023287059739232063,0.019965628162026405,-0.0010762971360236406,0.034573327749967575
0.04195138067007065,0.004358442034572363,-0.023599086329340935,0.01956632360816002,-0.0009879342978820205,0.03455881029367447
0.04070305451750755,0.004624578636139631,-0.023484311997890472,0.01972782053053379,-0.0009633348672650754,0.03458039462566376
0.03872458636760712,0.004687572829425335,-0.024014391005039215,0.02005445398390293,-0.0009176409221254289,0.03442472964525223
0.04160100221633911,0.004378950223326683,-0.024949248880147934,0.020925771445035934,-0.0008995125535875559,0.03478962928056717
0.04201095551252365,0.004301241599023342,-0.024555355310440063,0.02101050689816475,-0.0008016068022698164,0.034737616777420044
0.04127505421638489,0.0044805253855884075,-0.023973463103175163,0.021035142242908478,-0.0008077287930063903,0.03486403077840805
0.041491396725177765,0.004597751423716545,-0.02387791872024536,0.020934876054525375,-0.0007974347681738436,0.03517360985279083
0.04174760356545448,0.004883106332272291,-0.024166541174054146,0.021055692806839943,-0.0007884238148108125,0.035119157284498215
0.04240751639008522,0.0047529214061796665,-0.02541496977210045,0.021432168781757355,-0.0008179291617125273,0.03560743108391762
0.04188460111618042,0.004890055395662785,-0.0250741895288229,0.021344292908906937,-0.0008301139459945261,0.034465961158275604
0.04283014312386513,0.0048426357097923756,-0.02500149793922901,0.02113102376461029,-0.0008386992267332971,0.03504491224884987
0.04222027212381363,0.004805962089449167,-0.0250200517475605,0.02103867568075657,-0.0008997986442409456,0.036705199629068375
0.0429450087249279,0.004617141094058752,-0.025669017806649208,0.02085166610777378,-0.0009791346965357661,0.03752247244119644
0.0425960049033165,0.004912639036774635,-0.025035208091139793,0.020782912150025368,-0.0009908467764034867,0.03554651886224747
0.0437401719391346,0.004948148969560862,-0.025151515379548073,0.021086933091282845,-0.000979796750470996,0.035690076649188995
0.04349595308303833,0.004857003688812256,-0.025026364251971245,0.021047072485089302,-0.0008815930923447013,0.03677026927471161
0.04387398064136505,0.00505142891779542,-0.025036325678229332,0.020464222878217697,-0.0008758074254728854,0.036698538810014725
0.044151995331048965,0.00494306581094861,-0.026104265823960304,0.02088361419737339,-0.0008789306157268584,0.03823741152882576
0.04472973197698593,0.004679913632571697,-0.026357192546129227,0.021220939233899117,-0.0008817078778520226,0.03800562769174576
0.043084606528282166,0.004507383331656456,-0.02583218738436699,0.021419916301965714,-0.0008762912475503981,0.036206718534231186
0.04618748649954796,0.0047927601262927055,-0.02629295364022255,0.021812960505485535,-0.0008801367948763072,0.03792858123779297
0.0460832417011261,0.00508577935397625,-0.026249021291732788,0.02181505225598812,-0.0008828678401187062,0.038241587579250336
0.0460832417011261,0.00508577935397625,-0.026249021291732788,0.02181505225598812,-0.0008828678401187062,0.038241587579250336
0.04361196607351303,0.005385318771004677,-0.025991763919591904,0.0223701111972332,-0.0008851093589328229,0.0378807969391346
0.045382071286439896,0.005143988411873579,-0.026368504390120506,0.022666770964860916,-0.0008181983721442521,0.038435932248830795
0.045151177793741226,0.005303983576595783,-0.02596166729927063,0.02204112894833088,-0.0009255670593120158,0.0373733825981617
0.04738420993089676,0.004945415537804365,-0.026737675070762634,0.022516002878546715,-0.0008595343679189682,0.03792019933462143
0.0468502901494503,0.004767548758536577,-0.02721172757446766,0.02330627478659153,-0.0008523372816853225,0.03907330334186554
0.04495808109641075,0.0056099365465343,-0.026430578902363777,0.02322731539607048,-0.0008158136624842882,0.038923460990190506
0.04648448899388313,0.005417649634182453,-0.02709321677684784,0.02320578508079052,-0.0007779371226206422,0.038876812905073166
0.04660537838935852,0.0050023701041936874,-0.027227990329265594,0.023187993094325066,-0.0007598862866871059,0.03885059431195259
0.04721790552139282,0.005034150555729866,-0.027554823085665703,0.02333768829703331,-0.000768602651078254,0.03945799544453621
0.04707234352827072,0.0050264461897313595,-0.027720047160983086,0.023665232583880424,-0.0006863431772217155,0.039389923214912415
0.04692210629582405,0.005299464333802462,-0.027498727664351463,0.023796092718839645,-0.0007038666517473757,0.040724944323301315
0.04724229499697685,0.005686339922249317,-0.02813768945634365,0.02399311400949955,-0.0007255143136717379,0.0410325787961483
0.0475800447165966,0.00533007737249136,-0.02779686078429222,0.024331748485565186,-0.0007643666467629373,0.03943859413266182
0.04754259064793587,0.005683913826942444,-0.02775132842361927,0.024026695638895035,-0.0007848421228118241,0.03901483118534088
0.04799734428524971,0.005227411165833473,-0.02949107065796852,0.023997697979211807,-0.0007995940395630896,0.03982016071677208
0.04860342666506767,0.004903247579932213,-0.02895066700875759,0.023635786026716232,-0.0008040379616431892,0.04007985442876816
0.04776686057448387,0.0051124850288033485,-0.028026124462485313,0.023321477696299553,-0.0008708960958756506,0.04073537513613701
0.04805056005716324,0.0052906121127307415,-0.02815801277756691,0.023825380951166153,-0.0008860265370458364,0.04024853557348251
0.050530433654785156,0.005269698798656464,-0.02948969416320324,0.02475571632385254,-0.000888875569216907,0.03967995196580887
0.04807001352310181,0.0049148183315992355,-0.02978753112256527,0.02392832562327385,-0.0008615994593128562,0.039799436926841736
0.04805345460772514,0.0050866310484707355,-0.028840165585279465,0.023646485060453415,-0.0008150408393703401,0.04119305685162544
0.049300529062747955,0.005335514899343252,-0.030522460117936134,0.023571180179715157,-0.000813879887573421,0.04155556485056877
0.05095794051885605,0.00540816318243742,-0.030143002048134804,0.024541905149817467,-0.0008569725905545056,0.041465725749731064
0.04859568178653717,0.005102858878672123,-0.029381779953837395,0.02441004477441311,-0.0008660058956593275,0.04182920232415199
0.05021294578909874,0.0052621555514633656,-0.02910425141453743,0.023374348878860474,-0.0010915016755461693,0.042178478091955185
0.05021294578909874,0.0052621555514633656,-0.02910425141453743,0.023374348878860474,-0.0010915016755461693,0.042178478091955185
0.05057394504547119,0.00545201450586319,-0.030558709055185318,0.023581769317388535,-0.0011345383245497942,0.04186205193400383
0.05127320438623428,0.005281253717839718,-0.03103300929069519,0.0248799417167902,-0.0011029845336452127,0.04292824864387512
0.0513579361140728,0.005392109975218773,-0.03075721487402916,0.025130009278655052,-0.0009716252097859979,0.043114613741636276
0.05134302005171776,0.005406128708273172,-0.030657848343253136,0.025829071179032326,-0.0009187445393763483,0.043724771589040756
0.05177098512649536,0.005075238645076752,-0.030488066375255585,0.024443915113806725,-0.0009183349320665002,0.04357112571597099
0.05143801122903824,0.0052328272722661495,-0.030209975317120552,0.023562906309962273,-0.0009156328160315752,0.04330398887395859
0.05196960270404816,0.005205659195780754,-0.030632957816123962,0.025082949548959732,-0.0009056685375981033,0.04294970631599426
0.052383121103048325,0.0052627939730882645,-0.030197380110621452,0.025359204038977623,-0.0008771719294600189,0.043041687458753586
0.05278116092085838,0.005537006072700024,-0.030415356159210205,0.025764018297195435,-0.00090185267617926,0.04393817484378815
0.05269302800297737,0.006026132497936487,-0.030352232977747917,0.025780489668250084,-0.0009030751534737647,0.04390755295753479
0.05348822474479675,0.005365073215216398,-0.03130096197128296,0.025968074798583984,-0.0009028342319652438,0.04436088725924492
0.05312664061784744,0.005417210049927235,-0.03037942200899124,0.026034453883767128,-0.000999063951894641,0.044934310019016266
0.053630005568265915,0.005489874165505171,-0.030648009851574898,0.025904329493641853,-0.0010210279142484069,0.04372091218829155
0.054409414529800415,0.005604150239378214,-0.031211046501994133,0.025745589286088943,-0.0010039398912340403,0.04440734535455704
0.05349063500761986,0.005770663730800152,-0.030590005218982697,0.025957124307751656,-0.0009981091134250164,0.04526342824101448
0.05696980282664299,0.005890443921089172,-0.031861674040555954,0.026169009506702423,-0.0010037211468443274,0.043216198682785034
0.05302555859088898,0.005484775640070438,-0.03179560601711273,0.026121312752366066,-0.0009854445233941078,0.04475783929228783
0.0551200807094574,0.0059584821574389935,-0.031183643266558647,0.02594507299363613,-0.0009719260269775987,0.044652968645095825
0.05602273717522621,0.005546910222619772,-0.031699202954769135,0.026270275935530663,-0.0009620652999728918,0.04792902618646622
0.05748234689235687,0.0059602875262498856,-0.031079009175300598,0.026666153222322464,-0.0009172176942229271,0.04588240385055542
0.05523347482085228,0.005449508782476187,-0.031563472002744675,0.027268074452877045,-0.0008911764016374946,0.044739726930856705
0.056378599256277084,0.0054030041210353374,-0.03194650635123253,0.027658265084028244,-0.0008911443292163312,0.046590328216552734
0.05655177682638168,0.0055758715607225895,-0.03151671960949898,0.027678659185767174,-0.0009222616208717227,0.04695325717329979
0.056372109800577164,0.00618760148063302,-0.03150293976068497,0.027779944241046906,-0.0009547829977236688,0.046565018594264984
0.05701512470841408,0.005946625955402851,-0.03172449395060539,0.027713151648640633,-0.0010246798628941178,0.0466124601662159
0.057570215314626694,0.0059975325129926205,-0.03409601375460625,0.028187356889247894,-0.001007899991236627,0.046938713639974594
0.057570215314626694,0.0059975325129926205,-0.03409601375460625,0.028187356889247894,-0.001007899991236627,0.046938713639974594
0.058220427483320236,0.006149914115667343,-0.032124631106853485,0.028609666973352432,-0.000998015864752233,0.04772653058171272
0.05751543119549751,0.006522106472402811,-0.03242477402091026,0.02795405127108097,-0.0009823457803577185,0.04807515814900398
0.05751543119549751,0.006522106472402811,-0.03242477402091026,0.02795405127108097,-0.0009823457803577185,0.04807515814900398
0.0604802630841732,0.006107661873102188,-0.03302167356014252,0.027718685567378998,-0.0009873266099020839,0.04750720411539078
0.05869874358177185,0.006169619504362345,-0.032984863966703415,0.028121717274188995,-0.0011173691600561142,0.04709554463624954
0.05789290368556976,0.0057066213339567184,-0.03367236629128456,0.02815018966794014,-0.0011420210357755423,0.04818570613861084
0.059441905468702316,0.006083889398723841,-0.03463876247406006,0.02777765318751335,-0.001126604387536645,0.04947478696703911
0.06099943444132805,0.006462000776082277,-0.033271756023168564,0.028357816860079765,-0.0013490322744473815,0.04699818417429924
0.05949319526553154,0.006034261547029018,-0.033252835273742676,0.029050100594758987,-0.0012890107464045286,0.0476929172873497
0.059093549847602844,0.006159914657473564,-0.03290567919611931,0.02826470136642456,-0.0012205016100779176,0.048810090869665146
0.06089643016457558,0.00670097628608346,-0.03437352925539017,0.027405114844441414,-0.0011134004453197122,0.05028020218014717
0.06027351692318916,0.006321133580058813,-0.034287843853235245,0.027139071375131607,-0.0010591945610940456,0.0483613945543766
0.06049274653196335,0.0065589952282607555,-0.03427441418170929,0.02877841331064701,-0.0010702311992645264,0.04743151739239693
0.060390982776880264,0.006382949184626341,-0.033422429114580154,0.029423728585243225,-0.0010649502510204911,0.0491640642285347
0.06050817668437958,0.005965222138911486,-0.03389362990856171,0.029247207567095757,-0.0010958047350868583,0.049293164163827896
0.06075331196188927,0.0062457723543047905,-0.0348300077021122,0.02941730245947838,-0.001100977067835629,0.049631766974925995
0.06187877058982849,0.0065984101966023445,-0.03486914932727814,0.02948976308107376,-0.0010690955678001046,0.0496537946164608
0.06199820339679718,0.007191926706582308,-0.03465708717703819,0.029789330437779427,-0.0010442188940942287,0.04969112575054169
0.06206329166889191,0.006377073936164379,-0.034219615161418915,0.029822465032339096,-0.0009309016750194132,0.050218772143125534
0.06285212934017181,0.0062584951519966125,-0.03485538437962532,0.030215319246053696,-0.0008981138817034662,0.051618292927742004
0.06324280053377151,0.006518375128507614,-0.03468867763876915,0.03035244531929493,-0.0009314577328041196,0.05036235228180885
0.06313295662403107,0.006574282422661781,-0.035443875938653946,0.030161177739501,-0.0013051454443484545,0.05083950608968735
0.06374514847993851,0.00646412605419755,-0.03470681980252266,0.030513858422636986,-0.001391337369568646,0.05062802881002426
0.0649414137005806,0.007465375121682882,-0.03534182533621788,0.030815761536359787,-0.0016267963219434023,0.05147682875394821
0.0649414137005806,0.007465375121682882,-0.03534182533621788,0.030815761536359787,-0.0016267963219434023,0.05147682875394821
0.0649414137005806,0.007465375121682882,-0.03534182533621788,0.030815761536359787,-0.0016267963219434023,0.05147682875394821
0.0649414137005806,0.007465375121682882,-0.03534182533621788,0.030815761536359787,-0.0016267963219434023,0.05147682875394821
0.06257354468107224,0.0063107372261583805,-0.035819731652736664,0.030345741659402847,-0.0014209195505827665,0.05133644863963127
0.06505460292100906,0.006806161720305681,-0.035323869436979294,0.030883904546499252,-0.0013348765205591917,0.05313825607299805
0.06544429808855057,0.007233812473714352,-0.03613872453570366,0.031116722151637077,-0.0010465760715305805,0.05104506015777588
0.06544429808855057,0.007233812473714352,-0.03613872453570366,0.031116722151637077,-0.0010465760715305805,0.05104506015777588
0.06595678627490997,0.007000102195888758,-0.03611661121249199,0.03136708587408066,-0.0010009590769186616,0.052196625620126724
0.0655096247792244,0.006639106664806604,-0.03705540671944618,0.03166932985186577,-0.0009533334523439407,0.053777143359184265
0.06620114296674728,0.006845817901194096,-0.03747192397713661,0.0315113440155983,-0.0009043715544976294,0.051608216017484665
0.0653768852353096,0.006949943490326405,-0.03559349849820137,0.03142029792070389,-0.0009684415417723358,0.052427150309085846
0.06614510715007782,0.007044938392937183,-0.03772025555372238,0.03142837435007095,-0.0011825254186987877,0.05283358693122864
0.06614510715007782,0.007044938392937183,-0.03772025555372238,0.03142837435007095,-0.0011825254186987877,0.05283358693122864
0.06614510715007782,0.007044938392937183,-0.03772025555372238,0.03142837435007095,-0.0011825254186987877,0.05283358693122864
0.06614510715007782,0.007044938392937183,-0.03772025555372238,0.03142837435007095,-0.0011825254186987877,0.05283358693122864
0.06727592647075653,0.007332633249461651,-0.03755795955657959,0.030546018853783607,-0.0011671410175040364,0.05321132019162178
0.06789789348840714,0.007277294993400574,-0.037557683885097504,0.03275613859295845,-0.0009074761183001101,0.05547440052032471
0.06789789348840714,0.007277294993400574,-0.037557683885097504,0.03275613859295845,-0.0009074761183001101,0.05547440052032471
0.06777294725179672,0.006661690305918455,-0.037096552550792694,0.03161681815981865,-0.0009367589955218136,0.052981264889240265
0.06776222586631775,0.006403618026524782,-0.0364697203040123,0.031060893088579178,-0.0009614379960112274,0.05252585932612419
0.06776222586631775,0.006403618026524782,-0.0364697203040123,0.031060893088579178,-0.0009614379960112274,0.05252585932612419
0.0685904398560524,0.007103262934833765,-0.0369989313185215,0.03231242671608925,-0.0010102983796969056,0.05412795767188072
0.06912703067064285,0.007717988453805447,-0.03787791356444359,0.03302941098809242,-0.0009962624171748757,0.055763207376003265
0.06866282224655151,0.006777986418455839,-0.036974966526031494,0.03313348814845085,-0.000999589217826724,0.05326998606324196
0.0690411701798439,0.006537117529660463,-0.03737693279981613,0.03345030918717384,-0.001029202132485807,0.05481725558638573
0.06849480420351028,0.006859589368104935,-0.03795447573065758,0.03334875404834747,-0.0010344854090362787,0.0561206117272377
0.07107748836278915,0.007098299451172352,-0.03705192357301712,0.03336651623249054,-0.001094601582735777,0.05569744110107422
0.06866975128650665,0.0074306088499724865,-0.038125574588775635,0.03374994173645973,-0.001242035417817533,0.05519581213593483
0.06768107414245605,0.0068621463142335415,-0.038333021104335785,0.03328355774283409,-0.0013383643236011267,0.05504768714308739
0.0712987408041954,0.0071259369142353535,-0.03787815943360329,0.03343021869659424,-0.0013095211470499635,0.05557791888713837
0.06942279636859894,0.0077039641328155994,-0.036752596497535706,0.0335945226252079,-0.0012378317769616842,0.05602940917015076
0.069435253739357,0.007163624744862318,-0.03856600821018219,0.033158719539642334,-0.0011475555365905166,0.05626315996050835
0.069435253739357,0.007163624744862318,-0.03856600821018219,0.033158719539642334,-0.0011475555365905166,0.05626315996050835
0.0701160877943039,0.007062065880745649,-0.03855316340923309,0.03324275091290474,-0.0009997276356443763,0.056654807180166245
0.070464588701725,0.007046455051749945,-0.03901122510433197,0.03363918513059616,-0.0009727845899760723,0.05708156153559685
0.06994935125112534,0.007783940527588129,-0.03740962967276573,0.03372535854578018,-0.0008696739678271115,0.05655161291360855
0.0707031711935997,0.007400898262858391,-0.03718946874141693,0.03413880616426468,-0.0007331889355555177,0.05753893405199051
0.06860755383968353,0.007228710688650608,-0.03872069716453552,0.03310328349471092,-0.000846604467369616,0.057810161262750626
0.0707407295703888,0.007925582118332386,-0.03853568434715271,0.03476434573531151,-0.0010778738651424646,0.05684072524309158
0.07185166329145432,0.00756580987945199,-0.038414373993873596,0.03400105983018875,-0.0012702082749456167,0.05728112533688545
0.07185166329145432,0.00756580987945199,-0.038414373993873596,0.03400105983018875,-0.0012702082749456167,0.05728112533688545
0.07097052782773972,0.007347188424319029,-0.038346584886312485,0.03425868600606918,-0.0015324536943808198,0.05808024853467941
0.07158756256103516,0.007767460774630308,-0.03914151340723038,0.03410504758358002,-0.0016040601767599583,0.0579533725976944
0.07087532430887222,0.008060760796070099,-0.03858613222837448,0.033938392996788025,-0.0016575915506109595,0.058652084320783615
0.07087532430887222,0.008060760796070099,-0.03858613222837448,0.033938392996788025,-0.0016575915506109595,0.058652084320783615
0.07138697057962418,0.007755533326417208,-0.038373298943042755,0.03536754846572876,-0.0014131051721051335,0.05872448533773422
0.07159869372844696,0.007607608567923307,-0.03920070454478264,0.03485937789082527,-0.001301083480939269,0.05897999927401543
0.07186811417341232,0.008134528994560242,-0.03906968981027603,0.03406006842851639,-0.0012307583820074797,0.05876430496573448
0.07283223420381546,0.007778156083077192,-0.038549717515707016,0.03432520478963852,-0.0010189366294071078,0.05875513702630997
0.07252558320760727,0.007103092037141323,-0.038919128477573395,0.03463418409228325,-0.000948950822930783,0.05907198414206505
0.0723540186882019,0.008041158318519592,-0.03893500566482544,0.03461002930998802,-0.0009381623822264373,0.058921217918395996
0.07365941256284714,0.00797333288937807,-0.039254412055015564,0.0347374863922596,-0.0009486464550718665,0.06006964296102524
0.07343746721744537,0.007560666184872389,-0.03888372331857681,0.03483208268880844,-0.0009742305264808238,0.05997883155941963
0.0738975778222084,0.00784317497164011,-0.03932026028633118,0.03488611802458763,-0.000985745107755065,0.059200938791036606
0.07304927706718445,0.008271587081253529,-0.040722914040088654,0.034411706030368805,-0.001051018014550209,0.0603037104010582
0.07368968427181244,0.008583223447203636,-0.03894636780023575,0.0339069738984108,-0.001344150397926569,0.06047911196947098
0.07394084334373474,0.008012031204998493,-0.03804415464401245,0.03402840346097946,-0.0013837956357747316,0.05851054564118385
0.07294677197933197,0.007719031069427729,-0.040752723813056946,0.034691594541072845,-0.0015556954313069582,0.05971629172563553
0.07441137731075287,0.008364547044038773,-0.040014635771512985,0.03481408208608627,-0.0017733785789459944,0.062496427446603775
0.07484007626771927,0.007954541593790054,-0.04165107011795044,0.03441235423088074,-0.0018460744759067893,0.06052087992429733
0.07375627011060715,0.007889585569500923,-0.04002949595451355,0.03499642759561539,-0.0017279247986152768,0.06059347465634346
0.0755765438079834,0.007975601591169834,-0.03943932056427002,0.035309839993715286,-0.0015484998002648354,0.06110302358865738
0.07566945999860764,0.008619865402579308,-0.040221527218818665,0.03594638407230377,-0.001425501424819231,0.0632239356637001
0.07492582499980927,0.007969208061695099,-0.04079297184944153,0.03493126481771469,-0.0012101761531084776,0.06240514665842056
0.07721947878599167,0.008262163028120995,-0.040665436536073685,0.03518323972821236,-0.0011602488812059164,0.061994317919015884
0.07357335090637207,0.00881351251155138,-0.04064798727631569,0.03571019321680069,-0.0012628274271264672,0.062100835144519806
0.07357335090637207,0.00881351251155138,-0.04064798727631569,0.03571019321680069,-0.0012628274271264672,0.062100835144519806
0.07772840559482574,0.008174678310751915,-0.04114557430148125,0.03616192564368248,-0.0012218202464282513,0.06290272623300552
0.07772840559482574,0.008174678310751915,-0.04114557430148125,0.03616192564368248,-0.0012218202464282513,0.06290272623300552
0.07567935436964035,0.008531184867024422,-0.04169490188360214,0.036037005484104156,-0.0012234607711434364,0.06286977231502533
0.07649924606084824,0.008240122348070145,-0.04125970974564552,0.03752853721380234,-0.0010833581909537315,0.06202605366706848
0.07632066309452057,0.008275638334453106,-0.0415496788918972,0.03802191838622093,-0.0009690112783573568,0.06291438639163971
0.07701224833726883,0.008500016294419765,-0.04242319241166115,0.036453939974308014,-0.0009527274523861706,0.0661732405424118
0.07718746364116669,0.007854584604501724,-0.04271577671170235,0.037390172481536865,-0.0009334904607385397,0.063448965549469
0.07718746364116669,0.007854584604501724,-0.04271577671170235,0.037390172481536865,-0.0009334904607385397,0.063448965549469
0.07662597298622131,0.0079963942989707,-0.0418289452791214,0.03677946329116821,-0.0010116496123373508,0.06602741777896881
0.07766972482204437,0.008918213658034801,-0.04244642332196236,0.038401324301958084,-0.0012193232541903853,0.06426649540662766
0.07738307863473892,0.008187049999833107,-0.04238663613796234,0.03820759803056717,-0.001469340524636209,0.06446785479784012
0.07816647738218307,0.008201384916901588,-0.04255848005414009,0.03601272404193878,-0.001458619488403201,0.0660456195473671
0.07802017778158188,0.007940558716654778,-0.04257674887776375,0.03639330342411995,-0.0016112629091367126,0.06413013488054276
0.07892220467329025,0.008947260677814484,-0.04426439851522446,0.0382428802549839,-0.0015045218169689178,0.06637413054704666
0.07880090922117233,0.00814142357558012,-0.042215682566165924,0.03719829395413399,-0.0014015468768775463,0.06637565791606903
0.07824567705392838,0.008004622533917427,-0.04394325986504555,0.03715064376592636,-0.0012174012372270226,0.06701608002185822
0.08193280547857285,0.009011833928525448,-0.04332885146141052,0.03791055083274841,-0.001241255784407258,0.06699483096599579
0.07843109965324402,0.008616055361926556,-0.043826326727867126,0.03774763643741608,-0.001226635999046266,0.06594685465097427
0.07811097055673599,0.008144126273691654,-0.044043730944395065,0.03728494793176651,-0.0012026114854961634,0.06602653861045837
0.08280234783887863,0.008182776160538197,-0.04449337348341942,0.03779114782810211,-0.0012679940555244684,0.06687604635953903
0.08011467009782791,0.008941508829593658,-0.0433574914932251,0.03805603086948395,-0.0012507941573858261,0.06786829978227615
0.0798216164112091,0.008541502058506012,-0.045257192105054855,0.03754101321101189,-0.0014680451713502407,0.06711647659540176
0.0798216164112091,0.008541502058506012,-0.045257192105054855,0.03754101321101189,-0.0014680451713502407,0.06711647659540176
0.08038164675235748,0.008464256301522255,-0.044843077659606934,0.03763732314109802,-0.0015137583250179887,0.06729661673307419
0.08252766728401184,0.008652170188724995,-0.04445198178291321,0.037996403872966766,-0.001681833527982235,0.06640684604644775
0.07965894043445587,0.008533039130270481,-0.04499122500419617,0.03798576071858406,-0.0015514874830842018,0.06771194934844971
0.08099216222763062,0.008910652250051498,-0.045222245156764984,0.03839687258005142,-0.0014867485733702779,0.06846512854099274
0.08325615525245667,0.009211036376655102,-0.044782355427742004,0.038363680243492126,-0.0013887342065572739,0.06754990667104721
0.08067278563976288,0.008562928065657616,-0.04523128643631935,0.03857048973441124,-0.001328450278379023,0.06845912337303162
0.08218156546354294,0.008399790152907372,-0.04516064375638962,0.03898405656218529,-0.0012777226511389017,0.06989528983831406
0.08161908388137817,0.009480427019298077,-0.045012205839157104,0.04023488610982895,-0.0012030346551910043,0.06919026374816895
0.08279919624328613,0.008723593316972256,-0.045047108083963394,0.03995746746659279,-0.0012099542655050755,0.06941193342208862
0.08237234503030777,0.008934054523706436,-0.04500794783234596,0.037948526442050934,-0.0012407527538016438,0.06893415004014969
0.08286917954683304,0.009059116244316101,-0.045213643461465836,0.038401760160923004,-0.001233479124493897,0.0696118026971817
0.0829353928565979,0.00871648732572794,-0.04496007785201073,0.0383584126830101,-0.0012009062338620424,0.0696575790643692
0.08357511460781097,0.008889247663319111,-0.04757438972592354,0.03959273174405098,-0.0014120270498096943,0.06953772157430649
0.0832524448633194,0.008963252417743206,-0.044624220579862595,0.03994860127568245,-0.001517506199888885,0.07268382608890533
0.08406855165958405,0.00936001818627119,-0.0458088144659996,0.03835271671414375,-0.001526222680695355,0.07027648389339447
0.08344903588294983,0.008645789697766304,-0.04544307291507721,0.03788769617676735,-0.0015479614958167076,0.06899715960025787
0.08272679895162582,0.00902180839329958,-0.04659251123666763,0.039046112447977066,-0.001470001763664186,0.07206913083791733
0.0832994356751442,0.009112875908613205,-0.046728309243917465,0.03934207931160927,-0.0014246293576434255,0.0698784589767456
0.08395540714263916,0.009327610023319721,-0.045169565826654434,0.03933316841721535,-0.0013819826999679208,0.07046954333782196
0.08600329607725143,0.008790546096861362,-0.04675489291548729,0.039324961602687836,-0.00133952172473073,0.07199949026107788
0.0830097645521164,0.009226758033037186,-0.04658082500100136,0.03987248241901398,-0.0015084822662174702,0.0725039541721344
0.08577248454093933,0.00889408215880394,-0.04640864208340645,0.03975755721330643,-0.0014158162521198392,0.07230304181575775
0.08384303003549576,0.008930975571274757,-0.046458736062049866,0.03911278769373894,-0.0013402777258306742,0.07202599942684174
0.08434895426034927,0.009450353682041168,-0.046389151364564896,0.0396207757294178,-0.001282096840441227,0.07175666838884354
0.08494316786527634,0.009102332405745983,-0.04740488529205322,0.039942409843206406,-0.0012526644859462976,0.07302013039588928
0.08463338017463684,0.00884727668017149,-0.047315213829278946,0.0402156300842762,-0.0011950666084885597,0.07217826694250107
0.08373302221298218,0.009700500406324863,-0.04682627320289612,0.03933938220143318,-0.001254746108315885,0.07197695225477219
0.08621173352003098,0.009058109484612942,-0.047483839094638824,0.040249504148960114,-0.0014598334673792124,0.072744220495224
0.08575867861509323,0.008739370852708817,-0.046519774943590164,0.040262799710035324,-0.0017043640837073326,0.07531274855136871
0.08575867861509323,0.008739370852708817,-0.046519774943590164,0.040262799710035324,-0.0017043640837073326,0.07531274855136871
0.08548299223184586,0.00929076038300991,-0.047427065670490265,0.04029965028166771,-0.0017833923920989037,0.07299984991550446
0.08596864342689514,0.00882984884083271,-0.04677696153521538,0.04032786190509796,-0.0016474431613460183,0.0737038254737854
0.08689887821674347,0.008775433525443077,-0.046922698616981506,0.040289297699928284,-0.0014730257680639625,0.07336422801017761
0.08622653782367706,0.009298104792833328,-0.047589413821697235,0.040114838629961014,-0.0013603470288217068,0.07469329982995987
0.08607808500528336,0.008928353898227215,-0.04668354615569115,0.04173284396529198,-0.0011417737696319818,0.07428035885095596
0.0867561474442482,0.008885188028216362,-0.047489747405052185,0.04134833440184593,-0.0010261605493724346,0.07493643462657928
0.08667847514152527,0.00918471347540617,-0.04983091354370117,0.0396612249314785,-0.0010006573284044862,0.07527010142803192
0.08731038868427277,0.009044090285897255,-0.048078518360853195,0.04010270535945892,-0.001002769684419036,0.07561545819044113
0.08720283955335617,0.009038867428898811,-0.048035092651844025,0.04047871008515358,-0.0012135280994698405,0.07542005926370621
0.08810997754335403,0.009585236199200153,-0.048995956778526306,0.041829273104667664,-0.0013446699595078826,0.07415895164012909
0.08794748783111572,0.009420047514140606,-0.05110451206564903,0.04247714579105377,-0.0018350343452766538,0.07662250846624374
0.08760182559490204,0.008910457603633404,-0.049307215958833694,0.03976831212639809,-0.0018847717437893152,0.07593712955713272
0.08849973976612091,0.010308402590453625,-0.048440121114254,0.04078415781259537,-0.0018176994053646922,0.07730529457330704
0.08832285553216934,0.009272584691643715,-0.04968494921922684,0.041781794279813766,-0.0018078325083479285,0.07459777593612671
0.08739924430847168,0.00961975660175085,-0.0500037781894207,0.04167458415031433,-0.001644361182115972,0.0768856629729271
0.09035390615463257,0.009355553425848484,-0.050037309527397156,0.04162382334470749,-0.0016403582412749529,0.07680583000183105
0.08831510692834854,0.009459429420530796,-0.05031128227710724,0.04172013700008392,-0.00153848878107965,0.07528112083673477
0.0887351855635643,0.009273277595639229,-0.05051501467823982,0.04207541048526764,-0.0013442920753732324,0.07697965204715729
0.08940503001213074,0.009634898044168949,-0.051488641649484634,0.04265788197517395,-0.001357300323434174,0.07798967510461807
0.08850081264972687,0.01000997144728899,-0.050816524773836136,0.042737893760204315,-0.0013326368061825633,0.07751050591468811
0.09189330041408539,0.009382487274706364,-0.05122636258602142,0.04269392043352127,-0.0014999972190707922,0.07798947393894196
0.08879105746746063,0.009268512949347496,-0.05065091699361801,0.04259675741195679,-0.0014784927479922771,0.07802775502204895
0.09093225747346878,0.009104376658797264,-0.05082815885543823,0.04264722019433975,-0.0012405250454321504,0.08037440478801727
0.09093225747346878,0.009104376658797264,-0.05082815885543823,0.04264722019433975,-0.0012405250454321504,0.08037440478801727
0.09110359847545624,0.00940426904708147,-0.05190669000148773,0.04269849509000778,-0.0012712270254269242,0.08052803575992584
0.0904674306511879,0.009522884152829647,-0.050854042172431946,0.04232899472117424,-0.0013519342755898833,0.08063256740570068
0.09116414189338684,0.009159565903246403,-0.05184518173336983,0.043861694633960724,-0.0013542358065024018,0.07911524176597595
0.09116414189338684,0.009159565903246403,-0.05184518173336983,0.043861694633960724,-0.0013542358065024018,0.07911524176597595
0.09137710928916931,0.009845048189163208,-0.05283442512154579,0.04467219114303589,-0.0014735289150848985,0.07980888336896896
0.09184134006500244,0.010363375768065453,-0.05295845493674278,0.042575735598802567,-0.0016720721032470465,0.08056735247373581
0.09117038547992706,0.009280739352107048,-0.05168437957763672,0.042908716946840286,-0.0017695075366646051,0.08023326843976974
0.09223616868257523,0.01014203205704689,-0.053613949567079544,0.04351092502474785,-0.001678328262642026,0.07970926910638809
0.09199845045804977,0.010199027135968208,-0.05317554995417595,0.04492028057575226,-0.0016706758178770542,0.08054442703723907
0.09225212782621384,0.009836642071604729,-0.053744446486234665,0.0455089695751667,-0.0014156799297779799,0.08124388009309769
0.09172376245260239,0.010649820789694786,-0.05341428890824318,0.043951403349637985,-0.001454981043934822,0.08136264979839325
0.0948842465877533,0.010029217228293419,-0.05399525538086891,0.043766994029283524,-0.0015932725509628654,0.0811019167304039
0.09153250604867935,0.0099656255915761,-0.05335746333003044,0.04490182548761368,-0.00189708243124187,0.08101213723421097
0.09423533827066422,0.010673250071704388,-0.05419403314590454,0.04573068395256996,-0.0019118960481137037,0.0809326097369194
0.09478449821472168,0.009984399192035198,-0.053882796317338943,0.04527745395898819,-0.0019025439396500587,0.08281733840703964
0.09443257004022598,0.010636881925165653,-0.054629381746053696,0.0452662818133831,-0.0016788196517154574,0.0814811959862709
0.09482409060001373,0.01043178141117096,-0.053887661546468735,0.04553479328751564,-0.0013745937030762434,0.08085250854492188
0.09560998529195786,0.010254574008286,-0.054069094359874725,0.04624365642666817,-0.0013527432456612587,0.08474782109260559
0.09427537024021149,0.01049343403428793,-0.05362063646316528,0.04596009477972984,-0.0013149867299944162,0.08181387186050415
0.09664131700992584,0.010431282222270966,-0.055015839636325836,0.04590156301856041,-0.001246864558197558,0.08264129608869553
0.09426777809858322,0.010843982920050621,-0.054238006472587585,0.045808859169483185,-0.0013469454133883119,0.08287110924720764
0.09939771890640259,0.010733618400990963,-0.05471967160701752,0.0458894781768322,-0.0013099841307848692,0.08323469012975693
0.09673774987459183,0.010721949860453606,-0.05524245649576187,0.04606946185231209,-0.0018967523938044906,0.08317726105451584
0.09790533035993576,0.011243865825235844,-0.054145779460668564,0.04587872326374054,-0.002088504144921899,0.08550615608692169
0.09790533035993576,0.011243865825235844,-0.054145779460668564,0.04587872326374054,-0.002088504144921899,0.08550615608692169
0.09806842356920242,0.01064149010926485,-0.05439753457903862,0.045993976294994354,-0.0018750156741589308,0.08198308199644089
0.09899163246154785,0.010476063936948776,-0.057348545640707016,0.04589510336518288,-0.0017075606156140566,0.08554447442293167
0.09927017986774445,0.011288373731076717,-0.056235890835523605,0.04585738852620125,-0.0015434834640473127,0.08638587594032288
0.09876859188079834,0.010224108584225178,-0.05408453196287155,0.04735294356942177,-0.0014574197120964527,0.08412511646747589
0.09825260192155838,0.01061201374977827,-0.055568329989910126,0.04766598343849182,-0.0014663871843367815,0.08354374766349792
0.10005351155996323,0.010407078079879284,-0.0562923401594162,0.04588347300887108,-0.001460146508179605,0.08501462638378143
0.09914357960224152,0.010050314478576183,-0.05586894229054451,0.04796212911605835,-0.001887876889668405,0.08458002656698227
0.10104239732027054,0.010809170082211494,-0.05498883128166199,0.04634818434715271,-0.0018531469395384192,0.08491697162389755
0.09990417212247849,0.010725373402237892,-0.05624619871377945,0.04810310900211334,-0.0018311921739950776,0.08485540747642517
0.10125266015529633,0.01139511913061142,-0.056135620921850204,0.0470740832388401,-0.0017314943252131343,0.08519987761974335
0.100434809923172,0.011475483886897564,-0.056147120893001556,0.04607508331537247,-0.0014850214356556535,0.08570407330989838
0.10110151022672653,0.011134241707623005,-0.05606183037161827,0.047655634582042694,-0.001448411145247519,0.08376036584377289
0.10179085284471512,0.011602384969592094,-0.055714692920446396,0.04809700697660446,-0.001415861421264708,0.08543431758880615
0.10153571516275406,0.01105989795178175,-0.05813875421881676,0.04795180261135101,-0.001592274522408843,0.08499033749103546
0.10165359824895859,0.010716374963521957,-0.055490266531705856,0.04759598895907402,-0.0016466480446979403,0.08743308484554291
0.10400056093931198,0.010995338670909405,-0.056070610880851746,0.04752480238676071,-0.0017272128025069833,0.08521715551614761
0.10167470574378967,0.010809249244630337,-0.05833667516708374,0.04804307222366333,-0.0016078564804047346,0.08513843268156052
0.10568121820688248,0.010941610671579838,-0.060267843306064606,0.04842348396778107,-0.0014168338384479284,0.08761322498321533
0.10313355177640915,0.011645633727312088,-0.05553045496344566,0.04871433228254318,-0.001245965133421123,0.08552149683237076
0.10470398515462875,0.011181007139384747,-0.05739336088299751,0.049041133373975754,-0.0011557762045413256,0.08668984472751617
0.10397445410490036,0.011442577466368675,-0.05857298523187637,0.04885300621390343,-0.0012362197740003467,0.08653068542480469
0.10463444888591766,0.010762748308479786,-0.05879752337932587,0.047904398292303085,-0.001564761041663587,0.08712311834096909
0.10459942370653152,0.010868151672184467,-0.05834610015153885,0.04860025271773338,-0.0016573782777413726,0.08627429604530334
0.1061227098107338,0.01171713788062334,-0.059344980865716934,0.050210557878017426,-0.0019236808875575662,0.08905518054962158
0.10546199232339859,0.011031481437385082,-0.058814723044633865,0.04894668236374855,-0.001928690355271101,0.08646798878908157
0.10695260763168335,0.010878009721636772,-0.05995670333504677,0.048828352242708206,-0.0018613869324326515,0.08861060440540314
0.10810476541519165,0.010788514278829098,-0.06016646325588226,0.05137285962700844,-0.0021047804038971663,0.08815259486436844
0.10810476541519165,0.010788514278829098,-0.06016646325588226,0.05137285962700844,-0.0021047804038971663,0.08815259486436844
0.11008947342634201,0.0096568139269948,-0.06096947565674782,0.048477690666913986,-0.0018555351998656988,0.09003344923257828
0.11008947342634201,0.0096568139269948,-0.06096947565674782,0.048477690666913986,-0.0018555351998656988,0.09003344923257828
0.10678146779537201,0.011442545801401138,-0.06005941703915596,0.05045923963189125,-0.0017885689157992601,0.08921248465776443
0.1101207286119461,0.011374635621905327,-0.06076870858669281,0.050714973360300064,-0.0015901837032288313,0.08948724716901779
0.10791192948818207,0.010316192172467709,-0.06109810248017311,0.050233129411935806,-0.001584160840138793,0.08868589252233505
0.10905291140079498,0.010373794473707676,-0.060999106615781784,0.050167642533779144,-0.0014961829874664545,0.08985236287117004
0.10900429636240005,0.010531914420425892,-0.06387697905302048,0.05008156597614288,-0.0015199334593489766,0.09045099467039108
0.1099672019481659,0.010029355064034462,-0.061144109815359116,0.05017131567001343,-0.0015799860702827573,0.08964410424232483
0.10729280859231949,0.010971181094646454,-0.06042204797267914,0.05070938542485237,-0.0017502319533377886,0.08981313556432724
0.11160852760076523,0.010663341730833054,-0.06422904878854752,0.051084354519844055,-0.0016703605651855469,0.09033172577619553
0.10990983247756958,0.010605832561850548,-0.06257087737321854,0.050932299345731735,-0.0017209135694429278,0.09260357171297073
0.11096242070198059,0.011078007519245148,-0.06164805591106415,0.05205658823251724,-0.0018344150157645345,0.09038756787776947
0.11086222529411316,0.010697581805288792,-0.06305757164955139,0.051363859325647354,-0.0016714889789000154,0.09194028377532959
0.11134026944637299,0.011003909632563591,-0.06358706951141357,0.051003120839595795,-0.0016151793533936143,0.09136269986629486
0.11121946573257446,0.011018676683306694,-0.06352441757917404,0.05206640809774399,-0.0016530166612938046,0.09215503931045532
0.11151740700006485,0.0106666823849082,-0.062181103974580765,0.052288949489593506,-0.0017995568923652172,0.09193547815084457
0.11205197125673294,0.01117340661585331,-0.06334993988275528,0.052565447986125946,-0.001863612444140017,0.09239938855171204
0.11099931597709656,0.01084807701408863,-0.06244785338640213,0.052029501646757126,-0.002122547011822462,0.09186773002147675
0.1129390150308609,0.010843759402632713,-0.06293264031410217,0.05430940166115761,-0.0019522022921591997,0.09265507757663727
0.11272284388542175,0.012057545594871044,-0.06589672714471817,0.052643388509750366,-0.0020358676556497812,0.09153379499912262
0.11323755234479904,0.010595780797302723,-0.06255923211574554,0.052711617201566696,-0.0018401334527879953,0.09461342543363571
0.11310096830129623,0.011396455578505993,-0.06543377786874771,0.05541382357478142,-0.0017344626830890775,0.09345906972885132
0.11261613667011261,0.01110861636698246,-0.06333500146865845,0.05320258066058159,-0.001777283032424748,0.09360563009977341
0.11469428986310959,0.01180059090256691,-0.06484237313270569,0.052639566361904144,-0.001812195754610002,0.09362921118736267
0.11469428986310959,0.01180059090256691,-0.06484237313270569,0.052639566361904144,-0.001812195754610002,0.09362921118736267
0.1142738088965416,0.011822797358036041,-0.06483197957277298,0.05447167158126831,-0.0019781410228461027,0.09359133243560791
0.1142738088965416,0.011822797358036041,-0.06483197957277298,0.05447167158126831,-0.0019781410228461027,0.09359133243560791
0.11602909862995148,0.012060354463756084,-0.06556539237499237,0.05327463522553444,-0.001756804995238781,0.09419569373130798
0.11543876677751541,0.01143072172999382,-0.06594580411911011,0.05378260090947151,-0.0017191258957609534,0.09513740986585617
0.11585313081741333,0.01149067748337984,-0.06554189324378967,0.05456661060452461,-0.0016533385496586561,0.09439443051815033
0.11751744896173477,0.011169776320457458,-0.06560496985912323,0.055659472942352295,-0.0016596503555774689,0.09519582986831665
0.11652020364999771,0.01113517489284277,-0.06592737883329391,0.05584591254591942,-0.0016610826132819057,0.09508679062128067
0.11755052208900452,0.011625825427472591,-0.06608414649963379,0.05555387958884239,-0.0016463329084217548,0.09518519788980484
0.11716382205486298,0.011647514998912811,-0.06585022062063217,0.055092744529247284,-0.0015417889226227999,0.0949830561876297
0.11766112595796585,0.012318235822021961,-0.0668439120054245,0.05769645422697067,-0.001440018997527659,0.09432917088270187
0.11815303564071655,0.011428099125623703,-0.06609237194061279,0.05511361360549927,-0.0014430427690967917,0.09636179357767105
0.11795863509178162,0.011254433542490005,-0.06687896698713303,0.05520682409405708,-0.0015254783211275935,0.09522424638271332
0.12017293274402618,0.011211645789444447,-0.06767724454402924,0.056539326906204224,-0.0019115599570795894,0.09658604860305786
0.11716125160455704,0.010977942496538162,-0.06764233857393265,0.058324653655290604,-0.0018386616138741374,0.09571986645460129
0.11844079941511154,0.0115401865914464,-0.06833338737487793,0.056483108550310135,-0.0015807371819391847,0.09812107682228088
0.11695144325494766,0.011401488445699215,-0.06845064461231232,0.055022943764925,-0.00153579271864146,0.09544066339731216
0.11802538484334946,0.01115887425839901,-0.06786948442459106,0.05643049255013466,-0.001410211785696447,0.09683945775032043
0.11744678765535355,0.011632133275270462,-0.06927969306707382,0.05656813457608223,-0.001344973687082529,0.09724326431751251
0.11780780553817749,0.011641162447631359,-0.06660157442092896,0.05626458302140236,-0.0014314259169623256,0.09663532674312592
0.11862318217754364,0.011778823100030422,-0.06876299530267715,0.056662362068891525,-0.001375048654153943,0.09683968126773834
0.11852999031543732,0.01255634892731905,-0.06908496469259262,0.05669613555073738,-0.0016777421114966273,0.09886010736227036
0.11877944320440292,0.012616356834769249,-0.06912447512149811,0.05650025233626366,-0.002085510641336441,0.09917798638343811
0.1190975084900856,0.012155024334788322,-0.06965665519237518,0.05723566934466362,-0.0020340168848633766,0.09886452555656433
0.1190975084900856,0.012155024334788322,-0.06965665519237518,0.05723566934466362,-0.0020340168848633766,0.09886452555656433
0.11912886053323746,0.012724023312330246,-0.06997901946306229,0.057247839868068695,-0.002028516260907054,0.09917446225881577
0.12063862383365631,0.012818722054362297,-0.06882549077272415,0.05771469697356224,-0.0016003127675503492,0.09984154254198074
0.12063862383365631,0.012818722054362297,-0.06882549077272415,0.05771469697356224,-0.0016003127675503492,0.09984154254198074
0.11978888511657715,0.012776431627571583,-0.07025009393692017,0.05819358304142952,-0.001631871797144413,0.10058391839265823
0.12119053304195404,0.012503236532211304,-0.07135072350502014,0.05688844993710518,-0.0017503623384982347,0.09975006431341171
0.12113256007432938,0.012700963765382767,-0.06975380331277847,0.05726807191967964,-0.0017957318341359496,0.10248982906341553
0.12069645524024963,0.01241187285631895,-0.07121236622333527,0.05789095163345337,-0.0021546557545661926,0.10087066143751144
0.12171097844839096,0.013060193508863449,-0.07137101888656616,0.060644473880529404,-0.001992601901292801,0.10191832482814789
0.12221401184797287,0.012250680476427078,-0.07149170339107513,0.05738789960741997,-0.0018780967220664024,0.10061264783143997
0.12259674072265625,0.012770498171448708,-0.07083553820848465,0.0576818473637104,-0.0017607731278985739,0.1013808473944664
0.12249455600976944,0.012363995425403118,-0.07157349586486816,0.05972969904541969,-0.001532751484774053,0.1007588803768158
0.12250926345586777,0.012490317225456238,-0.07120804488658905,0.06000996753573418,-0.0015584698412567377,0.10482776165008545
0.12462468445301056,0.012722919695079327,-0.07168050855398178,0.05728621408343315,-0.0015009789494797587,0.10139986872673035
0.1221141591668129,0.012437417171895504,-0.07202330976724625,0.05796028673648834,-0.001787847257219255,0.10401546210050583
0.12288624048233032,0.012751364149153233,-0.07211056351661682,0.05944694206118584,-0.0021172156557440758,0.10166887938976288
0.12361226230859756,0.012434786185622215,-0.0728631541132927,0.06019026041030884,-0.0022960666101425886,0.1040751039981842
0.12498275935649872,0.013003736734390259,-0.07376199960708618,0.061595141887664795,-0.0025251300539821386,0.10348591953516006
0.1232164055109024,0.012928135693073273,-0.07294346392154694,0.059597719460725784,-0.0022835994604974985,0.10288697481155396
0.12403234839439392,0.012980232946574688,-0.07402288168668747,0.060068413615226746,-0.0021152296103537083,0.10455651581287384
0.12440869957208633,0.013102799654006958,-0.0750286653637886,0.06006920710206032,-0.0019161640666425228,0.10490226000547409
0.12398684024810791,0.013075684197247028,-0.07359901070594788,0.060985688120126724,-0.0017390649300068617,0.10507384687662125
0.12434913963079453,0.013077855110168457,-0.07273814082145691,0.060838181525468826,-0.001751793548464775,0.10542427748441696
0.12479661405086517,0.013407847844064236,-0.07442162185907364,0.060342997312545776,-0.00248717307113111,0.10512588918209076
0.12556497752666473,0.012988810427486897,-0.0737808346748352,0.06317410618066788,-0.0022204893175512552,0.10466281324625015
0.12663285434246063,0.01368316076695919,-0.07579275965690613,0.05978840962052345,-0.001883449498564005,0.10774648934602737
0.12663285434246063,0.01368316076695919,-0.07579275965690613,0.05978840962052345,-0.001883449498564005,0.10774648934602737
0.12592773139476776,0.01288844645023346,-0.07365088164806366,0.060254428535699844,-0.0014067530864849687,0.10454336553812027
0.1255759596824646,0.01371573656797409,-0.07440570741891861,0.06122502684593201,-0.0012436078395694494,0.10739954560995102
0.12820811569690704,0.013355341739952564,-0.07433807104825974,0.061787672340869904,-0.0013096847105771303,0.10813971608877182
0.12410534173250198,0.01363389939069748,-0.07554876059293747,0.06143857166171074,-0.0016552526503801346,0.10658566653728485
0.12955284118652344,0.013211257755756378,-0.073618084192276,0.06229753792285919,-0.0020556298550218344,0.10712454468011856
0.12650920450687408,0.013640795834362507,-0.07449594885110855,0.061173249036073685,-0.0024662702344357967,0.10922569036483765
0.12799105048179626,0.013208143413066864,-0.07557638734579086,0.06186575070023537,-0.0026011369191110134,0.10725254565477371
0.1284458190202713,0.013281582854688168,-0.07279978692531586,0.061744943261146545,-0.0024400765541940928,0.11031746864318848
0.12661027908325195,0.013011185452342033,-0.07366326451301575,0.062009911984205246,-0.0024782440159469843,0.10858292132616043
0.12748198211193085,0.012573855929076672,-0.07378171384334564,0.061916861683130264,-0.002328466856852174,0.10712955892086029
0.12682531774044037,0.01316924300044775,-0.07430008798837662,0.06213279813528061,-0.002014213940128684,0.10829463601112366
0.13103048503398895,0.012614374980330467,-0.07450363785028458,0.06282217800617218,-0.0020289195235818624,0.10897357016801834
0.1262766271829605,0.013080069795250893,-0.07372895628213882,0.06273691356182098,-0.001985493814572692,0.10918838530778885
0.1288539171218872,0.012682999484241009,-0.07457750290632248,0.06271245330572128,-0.002368936548009515,0.10966844856739044
0.12845034897327423,0.01325837429612875,-0.07536574453115463,0.0636083334684372,-0.0023826092947274446,0.10862543433904648
0.12907633185386658,0.012711557559669018,-0.07468265295028687,0.06493338197469711,-0.0023326585069298744,0.10935928672552109
0.12840372323989868,0.013497640378773212,-0.07471852004528046,0.06469018757343292,-0.0020525180734694004,0.10942674428224564
0.12953560054302216,0.013054981827735901,-0.07442040741443634,0.06382089853286743,-0.0017417519120499492,0.1097942367196083
0.13056834042072296,0.01271096058189869,-0.07477164268493652,0.06426544487476349,-0.0017086376901715994,0.11141225695610046
0.12711650133132935,0.013349234126508236,-0.07514353841543198,0.06636536121368408,-0.001850977074354887,0.10789334028959274
0.13107822835445404,0.012471376918256283,-0.07525688409805298,0.06405056267976761,-0.0017488205339759588,0.1111445501446724
0.12898202240467072,0.012807807885110378,-0.0769699215888977,0.0642860010266304,-0.001864569610916078,0.11403687298297882
0.12898202240467072,0.012807807885110378,-0.0769699215888977,0.0642860010266304,-0.001864569610916078,0.11403687298297882
0.13109174370765686,0.013239335268735886,-0.07656991481781006,0.06510310620069504,-0.0019324691966176033,0.11386959999799728
0.13109174370765686,0.013239335268735886,-0.07656991481781006,0.06510310620069504,-0.0019324691966176033,0.11386959999799728
0.13145659863948822,0.013120478950440884,-0.07660089433193207,0.06558797508478165,-0.002086701337248087,0.11294879764318466
0.13192163407802582,0.013338146731257439,-0.07543206959962845,0.06478188931941986,-0.001969890436157584,0.11650225520133972
0.13184794783592224,0.013254226185381413,-0.07643295079469681,0.06759077310562134,-0.0022908414248377085,0.11366062611341476
0.12955400347709656,0.012904641218483448,-0.07596792280673981,0.06518656760454178,-0.0024351319298148155,0.11361434310674667
0.13559682667255402,0.012762602418661118,-0.07516571879386902,0.0647273138165474,-0.002411516383290291,0.11448386311531067
0.1328134387731552,0.013513206504285336,-0.07806751877069473,0.06708898395299911,-0.0023935865610837936,0.11430463939905167
