davideferrari95/blind_handover_controller/data/Test 40 - [2024-02-07 -- 14-59-57]/joint_states_data.csv
shoulder_pan_joint,shoulder_lift_joint,elbow_joint,wrist_1_joint,wrist_2_joint,wrist_3_joint
0.008299860171973705,-8.450655175629151e-10,-0.01188735757023096,0.012626037932932377,0.0,0.009545315988361835
0.008299860171973705,-8.450655175629151e-10,-0.01188735757023096,0.012626037932932377,0.0,0.009545315988361835
0.00876888819038868,-1.133763135457988e-11,-0.011535732075572014,0.01232112292200327,0.0,0.008731856942176819
0.008542249910533428,-1.5210879431015734e-13,-0.012422504834830761,0.012919154949486256,0.0,0.008493935689330101
0.008742234669625759,-2.04073360993021e-15,-0.011778032407164574,0.012415116652846336,0.0,0.009407219476997852
0.008712701499462128,-0.0011902401456609368,-0.011376791633665562,0.012706710956990719,0.0,0.009837856516242027
0.008743843995034695,-0.0009786284063011408,-0.011926049366593361,0.012467699125409126,0.0,0.009271664544939995
0.008743843995034695,-0.0009786284063011408,-0.011926049366593361,0.012467699125409126,0.0,0.009271664544939995
0.008640131913125515,-0.0005054979701526463,-0.012083162553608418,0.012538067065179348,0.0,0.009282810613512993
0.009224053472280502,0.0006051887758076191,-0.011790730059146881,0.011576466262340546,0.0,0.009994043037295341
0.009224053472280502,0.0006051887758076191,-0.011790730059146881,0.011576466262340546,0.0,0.009994043037295341
0.009072920307517052,0.00018888540216721594,-0.011747177690267563,0.011775937862694263,0.0,0.009209799580276012
0.008832426741719246,6.54425093671307e-06,-0.012525725178420544,0.010731358081102371,0.0,0.009590312838554382
0.009327579289674759,8.779948501569379e-08,-0.011975735425949097,0.011536561883985996,0.0,0.009048321284353733
0.009079690091311932,2.1202546554403845e-13,-0.013189051300287247,0.012259306386113167,0.0,0.009667294099926949
0.009079690091311932,2.1202546554403845e-13,-0.013189051300287247,0.012259306386113167,0.0,0.009667294099926949
0.008391179144382477,3.81638337534285e-17,-0.011423968710005283,0.01213920395821333,0.0,0.00928747933357954
0.008391179144382477,3.81638337534285e-17,-0.011423968710005283,0.01213920395821333,0.0,0.00928747933357954
0.008536309003829956,5.120165273641986e-19,-0.011975504457950592,0.013205962255597115,0.0,0.009064302779734135
0.009456101804971695,6.86935532427643e-21,-0.011377537623047829,0.01162383146584034,0.0,0.0095228161662817
0.009488551877439022,9.21611680529052e-23,-0.01183619350194931,0.011515837162733078,0.0,0.00908610224723816
0.009367969818413258,1.2364594981596692e-24,-0.011671880260109901,0.011587681248784065,0.0,0.009656461887061596
0.008885365910828114,1.6588683264212532e-26,-0.01174244750291109,0.012186571955680847,0.0,0.009144424460828304
0.008825310505926609,2.2255834585045015e-28,-0.011853898875415325,0.012072345241904259,0.0,0.00897673424333334
0.008750845678150654,2.9859044216536503e-30,-0.011438609100878239,0.012250830419361591,0.0,0.008802253752946854
0.009195754304528236,4.005971900144677e-32,-0.011973346583545208,0.011935972608625889,0.0,0.008979454636573792
0.009213663637638092,5.374522720787698e-34,-0.011909074150025845,0.011748436838388443,0.0,0.0091475248336792
0.008555678650736809,7.210607473807427e-36,-0.01171545498073101,0.012692397460341454,0.0,0.009139154106378555
0.009074083529412746,9.673950268451777e-38,-0.011692062020301819,0.01189350988715887,0.0,0.009125004522502422
0.009510292671620846,1.2978840389561099e-39,-0.011561018414795399,0.012022927403450012,0.0,0.009046854451298714
0.009078927338123322,1.7412534717700177e-41,-0.012516663409769535,0.012551721185445786,0.0,0.009267576970160007
0.009352627210319042,2.3401684354224445e-43,-0.01181691512465477,0.012050250545144081,0.0,0.00911338534206152
0.009294664487242699,2.802596928649634e-45,-0.011999041773378849,0.01210630964487791,0.0,0.008827787823975086
0.00970232579857111,0.0,-0.012224415317177773,0.011592008173465729,0.0,0.008593792095780373
0.00970232579857111,0.0,-0.012224415317177773,0.011592008173465729,0.0,0.008593792095780373
0.009702345356345177,0.0,-0.011643119156360626,0.011886518448591232,0.0,0.009295733645558357
0.009626167826354504,0.0,-0.01211453415453434,0.011966647580265999,0.0,0.008981703780591488
0.010081727989017963,0.0,-0.011784201487898827,0.012104194611310959,0.0,0.009347471408545971
0.009169836528599262,0.0,-0.012463095597922802,0.012199658900499344,0.0,0.00838592927902937
0.009745397605001926,0.0,-0.011982208117842674,0.012161250226199627,0.0,0.008073109202086926
0.009625164791941643,0.0,-0.011636238545179367,0.012593084946274757,0.0,0.008148733526468277
0.009448978118598461,0.0,-0.01205876562744379,0.012127378024160862,0.0,0.009003419429063797
0.009506706148386002,0.0,-0.012093832716345787,0.01222885213792324,0.0,0.008605463430285454
0.009283945895731449,0.0,-0.011925285682082176,0.012067211791872978,0.0,0.008739850483834743
0.009572257287800312,0.0,-0.01252927165478468,0.012477065436542034,0.0,0.009510714560747147
0.009516623802483082,0.0,-0.011945965699851513,0.011817415244877338,0.0,0.009363806806504726
0.00961475633084774,0.0,-0.01170523464679718,0.012216877192258835,0.0,0.009030709974467754
0.009951340965926647,0.0,-0.012823029421269894,0.01178647018969059,0.0,0.00898567121475935
0.009475931525230408,0.0,-0.012056553736329079,0.0119406683370471,0.0,0.00866591278463602
0.009791896678507328,0.0,-0.012419648468494415,0.012053405866026878,0.0,0.008567346259951591
0.009705670177936554,0.0,-0.012101825326681137,0.01139926165342331,0.0,0.008904102258384228
0.009403852745890617,0.0,-0.012290628626942635,0.012163943611085415,0.0,0.00929975789040327
0.00954367034137249,0.0,-0.012634409591555595,0.011523758992552757,0.0,0.008911080658435822
0.009760729037225246,0.0,-0.01168738305568695,0.011879730969667435,0.0,0.009057292714715004
0.009812443517148495,0.0,-0.012972556985914707,0.011908523738384247,0.0,0.009604979306459427
0.009568832814693451,0.0,-0.012180153280496597,0.011818241328001022,0.0,0.009821892715990543
0.009754707105457783,0.0,-0.01284896582365036,0.011847544461488724,0.0,0.00895133800804615
0.00962821114808321,0.0,-0.012289470992982388,0.011443356052041054,0.0,0.00902086216956377
0.0093395309522748,0.0,-0.012293714098632336,0.011702346615493298,0.0,0.008638703264296055
0.009170220233500004,0.0,-0.012545357458293438,0.012103413231670856,0.0,0.00864906795322895
0.009170220233500004,0.0,-0.012545357458293438,0.012103413231670856,0.0,0.00864906795322895
0.009300881065428257,0.0,-0.012081675231456757,0.011536765843629837,0.0,0.009040740318596363
0.00865087565034628,0.0,-0.012638719752430916,0.011751160956919193,0.0,0.009219948202371597
0.00902334414422512,0.0,-0.012065847404301167,0.011225580237805843,0.0,0.009021266363561153
0.009125439450144768,0.0,-0.012673811055719852,0.011552846059203148,0.0,0.008270458318293095
0.008878652937710285,0.0,-0.012388004921376705,0.011699398048222065,0.0,0.00860857404768467
0.009180530905723572,0.0,-0.012210364453494549,0.011603021062910557,0.0,0.009237789548933506
0.009138152003288269,0.0,-0.01192869246006012,0.011489108204841614,0.0,0.00939942616969347
0.009483364410698414,0.0,-0.012917027808725834,0.011867421679198742,0.0,0.00924723595380783
0.009312987327575684,0.0,-0.012080207467079163,0.011846108362078667,0.0,0.009212224744260311
0.008939286693930626,0.0,-0.012551273219287395,0.011997656896710396,0.0,0.00915459357202053
0.009152906015515327,0.0,-0.012187602929770947,0.01244334690272808,0.0,0.009526940062642097
0.009574517607688904,0.0,-0.012170199304819107,0.011943758465349674,0.0,0.008759980089962482
0.00930065382272005,0.0,-0.012610361911356449,0.01274136733263731,0.0,0.00920261163264513
0.00910450890660286,0.0,-0.012102631852030754,0.012226547114551067,0.0,0.0099846376106143
0.009395807981491089,0.0,-0.012592200189828873,0.01254736352711916,0.0,0.008863143622875214
0.0098266014829278,0.0,-0.011710459366440773,0.012492028996348381,0.0,0.008793875575065613
0.009035629220306873,0.0,-0.012047401629388332,0.011962276883423328,0.0,0.008798554539680481
0.009638054296374321,0.0,-0.012251700274646282,0.011810329742729664,0.0,0.008778899908065796
0.009523079730570316,0.0,-0.011883999221026897,0.01097823865711689,0.0,0.00872261542826891
0.009086176753044128,0.0,-0.011843984946608543,0.011796916835010052,0.0,0.009303011931478977
0.009489080868661404,0.0,-0.011793254874646664,0.011939811520278454,0.0,0.008700985461473465
0.009717307053506374,0.0,-0.012333180755376816,0.011325817555189133,0.0,0.00878363661468029
0.009826409630477428,0.0,-0.011393696069717407,0.011865629814565182,0.0,0.009190180338919163
0.009368889033794403,0.0,-0.012662979774177074,0.011752628721296787,0.0,0.008571227081120014
0.009442289359867573,0.0,-0.012377663515508175,0.012374147772789001,0.0,0.00869809091091156
0.009208612143993378,0.0,-0.01166493073105812,0.011643638834357262,0.0,0.009114707820117474
0.009473157115280628,0.0,-0.012891164049506187,0.011417856439948082,0.0,0.008981619961559772
0.00963156670331955,0.0,-0.01193488109856844,0.012050029821693897,0.0,0.008959178812801838
0.00963156670331955,0.0,-0.01193488109856844,0.012050029821693897,0.0,0.008959178812801838
0.009047405794262886,0.0,-0.012426911853253841,0.011673280969262123,0.0,0.008859171532094479
0.009047405794262886,0.0,-0.012426911853253841,0.011673280969262123,0.0,0.008859171532094479
0.009689362719655037,0.0,-0.01218743808567524,0.011720043607056141,0.0,0.008465863764286041
0.009592774324119091,0.0,-0.012560189701616764,0.011191568337380886,0.0,0.008521092124283314
0.009461984038352966,0.0,-0.011859174817800522,0.012031696736812592,0.0,0.008664309978485107
0.009439111687242985,0.0,-0.011991404928267002,0.011117902584373951,0.0,0.008985338732600212
0.008931124582886696,0.0,-0.012457012198865414,0.01114711444824934,0.0,0.00912819616496563
0.010410268791019917,0.0,-0.012676524929702282,0.010416570119559765,0.0,0.00897563248872757
0.009265981614589691,0.0,-0.012070001102983952,0.01120399497449398,0.0,0.008882513269782066
0.009669696912169456,0.0,-0.012507305480539799,0.011538084596395493,0.0,0.008608140982687473
0.009653851389884949,0.0,-0.01209616381675005,0.011714273132383823,0.0,0.00887696910649538
0.009293442592024803,0.0,-0.012506883591413498,0.01172430906444788,0.0,0.008865718729794025
0.009016289375722408,0.0,-0.012367595918476582,0.011317448690533638,0.0,0.008590882644057274
0.009505222551524639,0.0,-0.01219580415636301,0.011356906965374947,0.0,0.00860495213419199
0.010158897377550602,0.0,-0.012340929359197617,0.01144062913954258,0.0,0.008877665735781193
0.009323622100055218,0.0,-0.012124829925596714,0.011337537318468094,0.0,0.009080055169761181
0.009762654080986977,0.0,-0.012514423578977585,0.011560012586414814,0.0,0.008984778076410294
0.010512356646358967,0.0,-0.012156489305198193,0.011297247372567654,0.0,0.009280901402235031
0.00921472255140543,0.0,-0.012502170167863369,0.011700181290507317,0.0,0.009013992734253407
0.009657684713602066,0.0,-0.012415439821779728,0.011633403599262238,0.0,0.008659318089485168
0.009744647890329361,0.0,-0.012192973867058754,0.011553878895938396,0.0,0.009516997262835503
0.009416135028004646,0.0,-0.01158963330090046,0.011807730421423912,0.0,0.009072921238839626
0.010136613622307777,0.0,-0.011338772252202034,0.01125326007604599,0.0,0.008854024112224579
0.010136613622307777,0.0,-0.011338772252202034,0.01125326007604599,0.0,0.008854024112224579
0.009821058250963688,0.0,-0.012472672387957573,0.011340522207319736,0.0,0.008819310925900936
0.009291494265198708,0.0,-0.01169769000262022,0.011266035959124565,0.0,0.008877691812813282
0.009564572013914585,0.0,-0.011985867284238338,0.011069248430430889,0.0,0.00887989904731512
0.009481227025389671,0.0,-0.012214990332722664,0.011735495179891586,0.0,0.009283700957894325
0.009689784608781338,0.0,-0.011874807998538017,0.01207796297967434,0.0,0.009231566451489925
0.009968006983399391,0.0,-0.011717011220753193,0.011441593989729881,0.0,0.009013175964355469
0.009309867396950722,0.0,-0.012883635237812996,0.011106729507446289,0.0,0.0091902706772089
0.010724046267569065,0.0,-0.012122442945837975,0.011861382983624935,0.0,0.009326191619038582
0.008995536714792252,0.0,-0.011872703209519386,0.011782778427004814,0.0,0.009078535251319408
0.008962558582425117,0.0,-0.01232826802879572,0.012241366319358349,0.0,0.009390417486429214
0.010002573020756245,0.0,-0.01130959577858448,0.011832334101200104,0.0,0.009387900121510029
0.010170535184442997,0.0,-0.012106172740459442,0.011256418190896511,0.0,0.009012374095618725
0.010231995023787022,0.0,-0.01209706999361515,0.011606494896113873,0.0,0.009926446713507175
0.00998498871922493,0.0,-0.012120455503463745,0.01142968237400055,0.0,0.00934441015124321
0.009727472439408302,0.0,-0.011964271776378155,0.011491536162793636,0.0,0.009352217428386211
0.009511553682386875,0.0,-0.011393770575523376,0.011568264104425907,0.0,0.009610737673938274
0.009898447431623936,0.0,-0.012503210455179214,0.011313669383525848,0.0,0.00941653735935688
0.010067207738757133,0.0,-0.011965498328208923,0.011604312807321548,0.0,0.008982124738395214
0.010192420333623886,0.0,-0.012417580932378769,0.011070189997553825,0.0,0.009102223441004753
0.010015638545155525,0.0,-0.012309185229241848,0.011187764815986156,0.0,0.009014610201120377
0.009942530654370785,0.0,-0.012014620006084442,0.01178537867963314,0.0,0.009400278329849243
0.009774037636816502,0.0,-0.012745781801640987,0.01127848494797945,0.0,0.009579186327755451
0.009981933049857616,0.0,-0.01210982259362936,0.011756637133657932,0.0,0.009252364747226238
0.010122403502464294,0.0,-0.012746546417474747,0.01149243675172329,0.0,0.008795707486569881
0.010122403502464294,0.0,-0.012746546417474747,0.01149243675172329,0.0,0.008795707486569881
0.009285638108849525,0.0,-0.011744116432964802,0.011670510284602642,0.0,0.008972831070423126
0.009615848772227764,0.0,-0.012449056841433048,0.011977486312389374,0.0,0.009387679398059845
0.009918143041431904,0.0,-0.012534283101558685,0.011236549355089664,0.0,0.009417198598384857
0.009648527018725872,0.0,-0.012378609739243984,0.011618792079389095,0.0,0.010244718752801418
0.01042904332280159,0.0,-0.012859473004937172,0.011262109503149986,0.0,0.008368474431335926
0.009570240043103695,0.0,-0.013375727459788322,0.011478761211037636,0.0,0.009064726531505585
0.009570240043103695,0.0,-0.013375727459788322,0.011478761211037636,0.0,0.009064726531505585
0.010801135562360287,0.0,-0.012547628954052925,0.011341975070536137,0.0,0.010286156088113785
0.009851280599832535,0.0,-0.012618118897080421,0.011547842063009739,0.0,0.010159815661609173
0.009644420817494392,0.0,-0.012525670230388641,0.011153449304401875,0.0,0.009992023929953575
0.01040490623563528,0.0,-0.012616900727152824,0.011736473068594933,0.0,0.00986994244158268
0.009419714100658894,0.0,-0.01184731163084507,0.011395934037864208,0.0,0.01001108717173338
0.01000435184687376,0.0,-0.012437664903700352,0.01148812286555767,0.0,0.010814007371664047
0.01033784355968237,0.0,-0.012269625440239906,0.01133360993117094,0.0,0.010240809991955757
0.009373807348310947,0.0,-0.013037331402301788,0.011056607589125633,0.0,0.009542753919959068
0.010025432333350182,0.0,-0.012157246470451355,0.011466378346085548,0.0,0.010263356380164623
0.010248825885355473,0.0,-0.013029070571064949,0.01163818221539259,0.0,0.010058242827653885
0.009627357125282288,0.0,-0.012582809664309025,0.011529110372066498,0.0,0.009554513730108738
0.009708080440759659,0.0,-0.011977058835327625,0.011592497117817402,0.0,0.009531504474580288
0.010067394003272057,0.0,-0.01273875217884779,0.011385364457964897,0.0,0.0092031704261899
0.009635670110583305,0.0,-0.012311062775552273,0.011829439550638199,0.0,0.009865972213447094
0.009803433902561665,0.0,-0.01304254587739706,0.011313346214592457,0.0,0.009960085153579712
0.010099617764353752,0.0,-0.012728950940072536,0.011373421177268028,0.0,0.00934961624443531
0.009544157423079014,0.0,-0.012371398508548737,0.011509953066706657,0.0,0.009287609718739986
0.009731272235512733,0.0,-0.012543614953756332,0.011003074236214161,0.0,0.009681543335318565
0.010325776413083076,0.0,-0.012296607717871666,0.011568021960556507,0.0,0.009969581849873066
0.009723429568111897,0.0,-0.012642388232052326,0.011639745905995369,0.0,0.009285872802138329
0.009723429568111897,0.0,-0.012642388232052326,0.011639745905995369,0.0,0.009285872802138329
0.009819273836910725,0.0,-0.01184001099318266,0.01191055215895176,0.0,0.009459501132369041
0.010058628395199776,0.0,-0.012599528767168522,0.011623491533100605,0.0,0.009575992822647095
0.009603903628885746,0.0,-0.012674279510974884,0.011094980873167515,0.0,0.009533701464533806
0.009802937507629395,0.0,-0.012195393443107605,0.01169602107256651,0.0,0.009763400070369244
0.010097185149788857,0.0,-0.012067080475389957,0.011286639608442783,0.0,0.009746188297867775
0.009694669395685196,0.0,-0.011699981987476349,0.01154063455760479,0.0,0.009848793968558311
0.009907370433211327,0.0,-0.012233354151248932,0.0113559914752841,0.0,0.010427498258650303
0.010558787733316422,0.0,-0.012159215286374092,0.012404283508658409,0.0,0.010046211071312428
0.009999603033065796,0.0,-0.012031038291752338,0.011136868968605995,0.0,0.009852399118244648
0.009552041068673134,0.0,-0.012411496601998806,0.011545875109732151,0.0,0.010191697627305984
0.009619169868528843,0.0,-0.012494533322751522,0.011711617931723595,0.0,0.009423037990927696
0.010191514156758785,0.0,-0.011802801862359047,0.010947024449706078,0.0,0.009628036059439182
0.00971937645226717,0.0,-0.012218316085636616,0.0111924447119236,0.0,0.009833307936787605
0.01026277057826519,0.0,-0.011588424444198608,0.011316229589283466,0.0,0.009492233395576477
0.009886168874800205,0.0,-0.012115171179175377,0.011398338712751865,0.0,0.00971075240522623
0.009726044721901417,0.0,-0.012439512647688389,0.011685826815664768,0.0,0.010479594580829144
0.010282433591783047,0.0,-0.01213307585567236,0.011373956687748432,0.0,0.010146812535822392
0.010044503025710583,0.0,-0.012289409525692463,0.011434999294579029,0.0,0.009920169599354267
0.009689568541944027,5.318496550898999e-05,-0.011245056986808777,0.011777568608522415,0.0,0.009763067588210106
0.009907905012369156,7.055488822516054e-05,-0.011703326366841793,0.011307411827147007,0.0,0.009691424667835236
0.010159256868064404,6.97062787367031e-05,-0.011551203206181526,0.01160467229783535,0.0,0.010459273122251034
0.010070333257317543,6.864620809210464e-05,-0.011337515898048878,0.012033679522573948,0.0,0.00988597609102726
0.0097656836733222,6.761489203199744e-05,-0.012077773921191692,0.011734943836927414,0.0,0.010185551829636097
0.010416265577077866,6.66139749228023e-05,-0.011258531361818314,0.011051266454160213,0.0,0.009986556135118008
0.009767826646566391,6.564235081896186e-05,-0.011783110909163952,0.011001490987837315,0.0,0.00930118840187788
0.009767826646566391,6.564235081896186e-05,-0.011783110909163952,0.011001490987837315,0.0,0.00930118840187788
0.00974426418542862,6.469855725299567e-05,-0.011488786898553371,0.011681635864078999,0.0,0.009443465620279312
0.010181938298046589,6.378158286679536e-05,-0.011456679552793503,0.011924250051379204,0.0,0.010474070906639099
0.010405345819890499,6.289024167926982e-05,-0.012169931083917618,0.012058328837156296,0.0,0.010342876426875591
0.009798501618206501,6.202344957273453e-05,-0.011236079968512058,0.011475054547190666,0.0,0.00987947266548872
0.009481080807745457,6.118021701695397e-05,-0.011775856837630272,0.0112728551030159,0.0,0.01044002827256918
0.00961947999894619,6.830888014519587e-05,-0.01122200582176447,0.01206057146191597,0.0,0.010092712007462978
0.010176556184887886,7.053853914840147e-05,-0.011718361638486385,0.011836684308946133,0.0,0.010407495312392712
0.010130622424185276,6.962973566260189e-05,-0.011402624659240246,0.011734145693480968,0.0,0.009605368599295616
0.009939996525645256,6.87434003339149e-05,-0.012062893249094486,0.011380301788449287,0.0,0.009891401045024395
0.010234619490802288,7.53297790652141e-05,-0.011599347926676273,0.011972334235906601,0.0,0.010680637322366238
0.009867887943983078,7.815761637175456e-05,-0.011741302907466888,0.011907360516488552,0.0,0.010164780542254448
0.01057902630418539,7.724976603640243e-05,-0.012237688526511192,0.012091165408492088,0.0,0.01067307312041521
0.010113491676747799,7.631471089553088e-05,-0.011268297210335732,0.01195914950221777,0.0,0.010423032566905022
0.009497487917542458,7.540135993622243e-05,-0.012005199678242207,0.011671210639178753,0.0,0.009963372722268105
0.009904583916068077,7.363874465227127e-05,-0.011471385136246681,0.011498172767460346,0.0,0.010299994610249996
0.009904583916068077,7.363874465227127e-05,-0.011471385136246681,0.011498172767460346,0.0,0.010299994610249996
0.00969807617366314,8.277277083834633e-05,-0.011671709828078747,0.011927369050681591,0.0,0.010616020299494267
0.010193114168941975,8.223060285672545e-05,-0.011849969625473022,0.011855276301503181,0.0,0.010342677123844624
0.010802198201417923,8.130746573442593e-05,-0.012150074355304241,0.011645784601569176,0.0,0.010704781860113144
0.010384057648479939,8.039960084715858e-05,-0.011913220398128033,0.011653808876872063,0.0,0.010422631166875362
0.010047867894172668,7.951181032694876e-05,-0.011707593686878681,0.011318442411720753,0.0,0.010498267598450184
0.010930554941296577,0.00014253710105549544,-0.011877959594130516,0.011546713300049305,0.0,0.010053529404103756
0.011011401191353798,0.0001483047817600891,-0.011678268201649189,0.011307159438729286,0.0,0.010562521405518055
0.011801048181951046,0.00014370882126968354,-0.01236028503626585,0.011691619642078876,0.0,0.011081332340836525
0.011147147044539452,0.00013926361862104386,-0.012052408419549465,0.01196837518364191,0.0,0.010562065988779068
0.011494520120322704,0.00015892232477199286,-0.012304728850722313,0.011345049366354942,0.0,0.010382423177361488
0.011472338810563087,0.00015733273176010698,-0.012339954264461994,0.011609546840190887,0.0,0.010310814715921879
0.010495307855308056,0.00015291842282749712,-0.012226680293679237,0.011495811864733696,0.0,0.010391375049948692
0.010495307855308056,0.00015291842282749712,-0.012226680293679237,0.011495811864733696,0.0,0.010391375049948692
0.010884721763432026,0.00014870749146211892,-0.012867337092757225,0.011435288935899734,0.0,0.010247806087136269
0.011757426895201206,0.00014472217299044132,-0.011925382539629936,0.011671634390950203,0.0,0.010619142092764378
0.011480758897960186,0.00016024023352656513,-0.012785117141902447,0.011481426656246185,0.0,0.010672515258193016
0.010957175865769386,0.00015627755783498287,-0.012540942057967186,0.011251083575189114,0.0,0.010777570307254791
0.011333559639751911,0.00017340536578558385,-0.012560398317873478,0.010872287675738335,0.0,0.01025165431201458
0.011309340596199036,0.00017014947661664337,-0.011753944680094719,0.011072524823248386,0.0,0.010491850785911083
0.011228022165596485,0.00016623233386781067,-0.012450910173356533,0.011182855814695358,0.0,0.010192342102527618
0.01155250146985054,0.00016248135943897069,-0.012125574983656406,0.011376697570085526,0.0,0.010371857322752476
0.012271379120647907,0.0002584058966021985,-0.012500038370490074,0.011507277376949787,0.0,0.010868244804441929
0.013024103827774525,0.000256537547102198,-0.012219469994306564,0.011057055555284023,0.0,0.011173080652952194
0.01113772951066494,0.00024286395637318492,-0.012430417351424694,0.01161192636936903,0.0,0.010617968626320362
0.010809113271534443,0.00023042930115479976,-0.011688933707773685,0.011177591979503632,0.0,0.010838248766958714
0.01149491872638464,0.000262426066910848,-0.012321295216679573,0.011421997100114822,0.0,0.010777648538351059
0.011740741319954395,0.00025081695639528334,-0.012583264149725437,0.01155102625489235,0.0,0.010653415694832802
0.011153730563819408,0.00023969076573848724,-0.011771300807595253,0.010911059565842152,0.0,0.01119817141443491
0.011683347634971142,0.0002545929455664009,-0.012371260672807693,0.011197194457054138,0.0,0.011176170781254768
0.011832156218588352,0.0002566613839007914,-0.01205509714782238,0.011236530728638172,0.0,0.011343089863657951
0.011355121619999409,0.00024677402689121664,-0.01194444578140974,0.011194623075425625,0.0,0.011051323264837265
0.011437485925853252,0.0002597411221358925,-0.012465923093259335,0.011316611431539059,0.0,0.010933250188827515
0.011398660950362682,0.00026138400426134467,-0.012017529457807541,0.011064506135880947,0.0,0.011159101501107216
0.012172199785709381,0.0002527046308387071,-0.012571079656481743,0.01141400821506977,0.0,0.010926548391580582
0.011098582297563553,0.00033013589563779533,-0.011689282953739166,0.011687234044075012,0.0,0.010928614065051079
0.011824032291769981,0.00036312220618128777,-0.012142211198806763,0.011540797539055347,0.0,0.01100789476186037
0.011823688633739948,0.0003466509806457907,-0.012440770864486694,0.011976178735494614,0.0,0.010844268836081028
0.011823688633739948,0.0003466509806457907,-0.012440770864486694,0.011976178735494614,0.0,0.010844268836081028
0.011949820443987846,0.000377886084606871,-0.012151284143328667,0.011560416780412197,0.0,0.011100264266133308
0.012569321319460869,0.00035846661194227636,-0.012556574307382107,0.011540775187313557,0.0,0.01160302385687828
0.011492649093270302,0.00038696106639690697,-0.011866528540849686,0.011722678318619728,0.0,0.012646548449993134
0.011933824047446251,0.0005643513868562877,-0.012222169898450375,0.012577307410538197,0.0,0.010527334176003933
0.012244210578501225,0.000592849391978234,-0.012616567313671112,0.011927420273423195,0.0,0.011070769280195236
0.011909917928278446,0.0005440769018605351,-0.012791629880666733,0.01222554873675108,0.0,0.011198893189430237
0.011576578952372074,0.000548073323443532,-0.012062164954841137,0.011928985826671124,0.0,0.01096756849437952
0.01189905684441328,0.0005280149052850902,-0.012588809244334698,0.012040655128657818,0.0,0.011037569493055344
0.011852181516587734,0.00048749172128736973,-0.011849528178572655,0.0116919856518507,0.0,0.011099562980234623
0.012137822806835175,0.000516180822160095,-0.01253183837980032,0.011366990394890308,0.0,0.01173702348023653
0.012799836695194244,0.0004856590530835092,-0.012061966583132744,0.01156884990632534,0.0,0.011456163600087166
0.011940401047468185,0.0005040830001235008,-0.012263734824955463,0.011444717645645142,0.0,0.01137271523475647
0.012322833761572838,0.0005436453502625227,-0.012370697222650051,0.011359337717294693,0.0,0.011191911064088345
0.012381089851260185,0.0005740238702856004,-0.012406553141772747,0.011973989196121693,0.0,0.011348316445946693
0.012353884987533092,0.0006013696547597647,-0.01263654138892889,0.011286447755992413,0.0,0.011034625582396984
0.012337343767285347,0.0005631106905639172,-0.012236607261002064,0.011697109788656235,0.0,0.011524815112352371
0.012479355558753014,0.0007439249311573803,-0.012843781150877476,0.011860663071274757,0.0,0.011209851130843163
0.012643689289689064,0.000767805497162044,-0.012923250906169415,0.011637656018137932,0.0,0.011410826817154884
0.012215597555041313,0.000673709437251091,-0.012632773257791996,0.011860392056405544,0.0,0.011242351494729519
0.012641668319702148,0.0006944821798242629,-0.012642416171729565,0.011473785154521465,0.0,0.01158072892576456
0.012442468665540218,0.0006289160228334367,-0.012195685878396034,0.01229963917285204,3.143529454519012e-07,0.011940401047468185
0.012687277048826218,0.0006523412885144353,-0.012671682052314281,0.011957282200455666,2.0525003918692164e-08,0.012039241380989552
0.012454301118850708,0.0006232060841284692,-0.012121006846427917,0.011798192746937275,1.3401358911480088e-09,0.011617840267717838
0.012596665881574154,0.0006310018943622708,-0.012622356414794922,0.012298895977437496,8.750129787404859e-11,0.0117501150816679
0.012552999891340733,0.0006604382069781423,-0.012276580557227135,0.011463631875813007,5.7132098531254005e-12,0.011414403095841408
0.01263175718486309,0.0006843123701401055,-0.012794604524970055,0.01215806882828474,3.730318191928067e-13,0.01174623891711235
0.012616082094609737,0.000651486509013921,-0.012664210982620716,0.011558846570551395,2.4356312119618896e-14,0.011564898304641247
0.012616082094609737,0.000651486509013921,-0.012664210982620716,0.011558846570551395,2.4356312119618896e-14,0.011564898304641247
0.012411822564899921,0.0008444570703431964,-0.012591402977705002,0.01182569283992052,1.5902930294042794e-15,0.011676988564431667
0.013087914325296879,0.0008551593637093902,-0.012805778533220291,0.012299979105591774,1.0383476468391989e-16,0.011952916160225868
0.012945779599249363,0.0008292502025142312,-0.012784596532583237,0.013159647583961487,4.426638953501628e-19,0.011770057491958141
0.012730210088193417,0.0007784802000969648,-0.01245379913598299,0.011667538434267044,2.8902789201853834e-20,0.011580677703022957
0.012531032785773277,0.0007636213558726013,-0.013073944486677647,0.011958047747612,1.887145722622068e-21,0.011888911947607994
0.012874368578195572,0.0007828599191270769,-0.012859150767326355,0.012174384668469429,1.232171199002929e-22,0.011927212588489056
0.012772689573466778,0.0008716941229067743,-0.01279006153345108,0.012525655329227448,8.045197153035584e-24,0.011803560890257359
0.012937257066369057,0.0008205950143747032,-0.012737053446471691,0.012556944973766804,5.252938979243275e-25,0.011949672363698483
0.012402424588799477,0.0010636162478476763,-0.01241589616984129,0.011923650279641151,3.429793728131569e-26,0.012099675834178925
0.012854572385549545,0.0010516272159293294,-0.012679966166615486,0.012812980450689793,2.2394100947612463e-27,0.01233702152967453
0.012964002788066864,0.001029936713166535,-0.012077114544808865,0.012219690717756748,1.4621746804635392e-28,0.012107213959097862
0.01301578525453806,0.0011018625227734447,-0.012826633639633656,0.012232765555381775,9.546955857265437e-30,0.01174132153391838
0.012720849364995956,0.0010694051161408424,-0.012451214715838432,0.01213995274156332,6.233479622212774e-31,0.011801679618656635
0.012794203124940395,0.001137311919592321,-0.013067520223557949,0.012099242769181728,-0.00010500453936401755,0.01197538711130619
0.0132316118106246,0.0011321873171254992,-0.012298201210796833,0.012499759905040264,-0.00019282058929093182,0.01232924684882164
0.01323577482253313,0.0011315606534481049,-0.012650255113840103,0.012088969349861145,-0.00019067994435317814,0.011852984316647053
0.01427326537668705,0.0010962308151647449,-0.013233507052063942,0.012502580881118774,-0.0001833054848248139,0.011994373984634876
0.013565468601882458,0.0010852921986952424,-0.012886964716017246,0.012023288756608963,-0.0001761545572662726,0.013113590888679028
0.013540832325816154,0.0012351328041404486,-0.01325099915266037,0.012357945553958416,-0.00016951937868725508,0.011605514213442802
0.012935252860188484,0.0013030184200033545,-0.012571105733513832,0.012316558510065079,-0.00017936959920916706,0.011668497696518898
0.013854975812137127,0.0013470123521983624,-0.013428193517029285,0.011830483563244343,-0.00018808036111295223,0.011866060085594654
0.01319668535143137,0.0013262481661513448,-0.01279516238719225,0.012102651409804821,-0.00018269443535245955,0.012573780491948128
0.013496645726263523,0.0013624104904010892,-0.013459425419569016,0.012036455795168877,-0.00017677689902484417,0.012812617234885693
0.013239373452961445,0.0012141269398853183,-0.013366186991333961,0.01204852107912302,-0.000171176390722394,0.01238362118601799
0.013545239344239235,0.0012398759135976434,-0.013435998000204563,0.011796101927757263,-0.00016591693565715104,0.012453236617147923
0.01352622825652361,0.0013005916262045503,-0.013235927559435368,0.01154994871467352,-0.00016097062325570732,0.012513531371951103
0.013936633244156837,0.0013501191278919578,-0.013143721967935562,0.011938352137804031,-0.00017892270989250392,0.012341740541160107
0.01381597388535738,0.001527021755464375,-0.013830090872943401,0.01159641519188881,-0.00017700745956972241,0.012509274296462536
0.013601109385490417,0.0014217555290088058,-0.013729608617722988,0.01207629032433033,-0.00017236739222425967,0.012121346779167652
0.013115559704601765,0.0015935971168801188,-0.013670510612428188,0.011797175742685795,-0.00016778978169895709,0.012370883487164974
0.013115559704601765,0.0015935971168801188,-0.013670510612428188,0.011797175742685795,-0.00016778978169895709,0.012370883487164974
0.013401499018073082,0.0014541595010086894,-0.013335127383470535,0.012164661660790443,-0.00016343744937330484,0.012103651650249958
0.013907515443861485,0.0013826090143993497,-0.013554273173213005,0.011768599972128868,-0.0001805378560675308,0.01224363874644041
0.013932577334344387,0.0014110185438767076,-0.013920970261096954,0.01170948427170515,-0.00017329120601061732,0.012605790048837662
0.013887382112443447,0.001627831719815731,-0.013903265818953514,0.011623864062130451,-0.0001692238583927974,0.012535350397229195
0.01423831656575203,0.0015521056484431028,-0.014223484322428703,0.01216804888099432,-0.00016533823509234935,0.012776700779795647
0.013665678910911083,0.0016388481017202139,-0.01332422811537981,0.011916602961719036,-0.00019015083671547472,0.012736440636217594
0.013973228633403778,0.00175277900416404,-0.014103823341429234,0.011429470032453537,-0.00018653114966582507,0.01234424114227295
0.013587748631834984,0.0017953558126464486,-0.013425817713141441,0.011752301827073097,-0.00017937349912244827,0.012622660957276821
0.014274467714130878,0.0016304972814396024,-0.013717169873416424,0.011547724716365337,-0.00017251379904337227,0.01237390749156475
0.013856323435902596,0.0016493859002366662,-0.013383994810283184,0.01169841829687357,-0.00016614449850749224,0.01231637317687273
0.01425885409116745,0.001601893687620759,-0.014055734500288963,0.011973093263804913,-0.0001759286824380979,0.012202498503029346
0.013898217119276524,0.0014967251336202025,-0.014156922698020935,0.01138985063880682,-0.00018459469720255584,0.012792360968887806
0.014681190252304077,0.0016314596869051456,-0.014042338356375694,0.011938258074223995,-0.00017942016711458564,0.01311369426548481
0.01412899885326624,0.0017630006186664104,-0.014172333292663097,0.011715846136212349,-0.00017371065041515976,0.013119104318320751
0.014557043090462685,0.001845652237534523,-0.013733533211052418,0.011922696605324745,-0.00016829994274303317,0.013151810504496098
0.01426895335316658,0.0019203511765226722,-0.012760880403220654,0.011859792284667492,-0.00018858371186070144,0.012868951074779034
0.014524419791996479,0.001745393848977983,-0.011632081121206284,0.01214126031845808,-0.00018470911891199648,0.012838698923587799
0.014145055785775185,0.0018381517147645354,-0.013970930129289627,0.012052868492901325,-0.0001795526477508247,0.012996453791856766
0.014801546931266785,0.001707121031358838,-0.013954413123428822,0.011754879727959633,-0.00017458322690799832,0.013309722766280174
0.014589534141123295,0.0019508248660713434,-0.013929517939686775,0.011873394250869751,-0.00019094458548352122,0.012886556796729565
0.015102745033800602,0.0018043877789750695,-0.012946567498147488,0.012067622505128384,-0.0001888375118141994,0.013485117815434933
0.014624154195189476,0.0020332755520939827,-0.01352436002343893,0.011931173503398895,-0.0001841957273427397,0.013497154228389263
0.014624154195189476,0.0020332755520939827,-0.01352436002343893,0.011931173503398895,-0.0001841957273427397,0.013497154228389263
0.01508165430277586,0.0018767248839139938,-0.01297601405531168,0.012495282106101513,-0.00017961268895305693,0.013133189640939236
0.014620369300246239,0.0019961439538747072,-0.013657711446285248,0.012129286304116249,-0.00017524186114314944,0.012983742170035839
0.015137006528675556,0.002032520715147257,-0.012757477350533009,0.011667613871395588,-0.00019985529070254415,0.013038547709584236
0.014818262308835983,0.0019568863790482283,-0.013456635177135468,0.011830802075564861,-0.00020919711096212268,0.012022269889712334
0.014768488705158234,0.002127805259078741,-0.013793622143566608,0.012311971746385098,-0.00020001352822873741,0.012294127605855465
0.01527983509004116,0.0021405918523669243,-0.013554933480918407,0.012241054326295853,-0.00022469765099231154,0.012709716334939003
0.015021413564682007,0.0020616925321519375,-0.013728677295148373,0.012738475576043129,-0.00022009237727615982,0.013146483339369297
0.015178829431533813,0.0020387452095746994,-0.013489325530827045,0.012221643701195717,-0.0002117583208018914,0.01292059663683176
0.015036989003419876,0.00180046446621418,-0.012956354767084122,0.012021021917462349,-0.00022890327090863138,0.013508430682122707
0.014856874011456966,0.0020479760132730007,-0.013430669903755188,0.012342478148639202,-0.00022852543042972684,0.01349516212940216
0.01493808999657631,0.002004520734772086,-0.013533110730350018,0.012223317287862301,-0.00022102535876911134,0.013583457097411156
0.015073494985699654,0.002443046309053898,-0.014126688241958618,0.012477831915020943,-0.0002420130476821214,0.013651605695486069
0.015291870571672916,0.0024108709767460823,-0.013556746765971184,0.0117195975035429,-0.0002359395584790036,0.013409451581537724
0.015198986046016216,0.0025099541526287794,-0.013796456158161163,0.012525662779808044,-0.00022857007570564747,0.013437877409160137
0.015412464737892151,0.002280747052282095,-0.01310485228896141,0.012193894945085049,-0.0002779882925096899,0.013303770683705807
0.01503584161400795,0.0019654487259685993,-0.013929436914622784,0.012439264915883541,-0.00031243707053363323,0.013721324503421783
0.01529387105256319,0.002071699360385537,-0.01331497635692358,0.012114313431084156,-0.00029543915297836065,0.013462423346936703
0.015398986637592316,0.002012384356930852,-0.01416882872581482,0.012059228494763374,-0.0002774460590444505,0.013699812814593315
0.015828687697649002,0.002185311634093523,-0.013848799280822277,0.012626650743186474,-0.00030998457805253565,0.013683448545634747
0.015041627921164036,0.0022146571427583694,-0.014155174605548382,0.01205782126635313,-0.0002961523423437029,0.013979151844978333
0.015421443618834019,0.002582112094387412,-0.013375057838857174,0.012761186808347702,-0.00028094681329093874,0.01343913096934557
0.01578122191131115,0.0024019486736506224,-0.01407359167933464,0.012486519291996956,-0.00026706099743023515,0.013648425228893757
0.01578122191131115,0.0024019486736506224,-0.01407359167933464,0.012486519291996956,-0.00026706099743023515,0.013648425228893757
0.01621965877711773,0.0022881815675646067,-0.013561764732003212,0.012658245861530304,-0.0002833323087543249,0.013374947011470795
0.01621965877711773,0.0022881815675646067,-0.013561764732003212,0.012658245861530304,-0.0002833323087543249,0.013374947011470795
0.0162265133112669,0.0024917491246014833,-0.014328233897686005,0.012433481402695179,-0.0002601038431748748,0.014048885554075241
0.0162265133112669,0.0024917491246014833,-0.014328233897686005,0.012433481402695179,-0.0002601038431748748,0.014048885554075241
0.015495741739869118,0.002740888623520732,-0.014055758714675903,0.012139308266341686,-0.0002497899404261261,0.013589458540081978
0.01573239266872406,0.002777506597340107,-0.01404574140906334,0.01263499353080988,-0.00024026208848226815,0.013610415160655975
0.015106156468391418,0.002713893074542284,-0.013928736560046673,0.01339731551706791,-0.00023143450380302966,0.013498070649802685
0.01594567485153675,0.0023739407770335674,-0.013302597217261791,0.012777715921401978,-0.00022323254961520433,0.013302167877554893
0.015558539889752865,0.0024790996685624123,-0.01369270496070385,0.011915075592696667,-0.00021559245942626148,0.01342714112251997
0.01567620038986206,0.002428882522508502,-0.013467570766806602,0.012008060701191425,-0.0002224897179985419,0.013569037429988384
0.01567620038986206,0.002428882522508502,-0.013467570766806602,0.012008060701191425,-0.0002224897179985419,0.013569037429988384
0.0158486720174551,0.0029475821647793055,-0.014111991971731186,0.01232558861374855,-0.00021665971144102514,0.013781266286969185
0.016221920028328896,0.003003399819135666,-0.013478442095220089,0.012662481516599655,-0.0002103848528349772,0.013786708004772663
0.016575349494814873,0.0024547972716391087,-0.01398151833564043,0.012758810073137283,-0.00020462577231228352,0.014152757823467255
0.016346996650099754,0.001692578662186861,-0.013680486008524895,0.012531979009509087,-0.0001954033359652385,0.015151157975196838
0.016530891880393028,0.0012820814736187458,-0.014033461920917034,0.012151584960520267,-0.000187248588190414,0.013921034522354603
0.018085747957229614,0.0010641494300216436,-0.013364042155444622,0.01276075467467308,-0.0001797658042050898,0.013043783605098724
0.015995636582374573,0.001023962744511664,-0.014528438448905945,0.012307148426771164,-0.00017285904323216528,0.013752805069088936
0.015535085462033749,0.0007105033146217465,-0.013850742019712925,0.012377752922475338,-0.00016646322910673916,0.01396386418491602
0.01627333089709282,0.000787857745308429,-0.013919085264205933,0.012539622373878956,-0.00018836831441149116,0.014371711760759354
0.016681725159287453,0.0008347654365934432,-0.01319916918873787,0.012633433565497398,-0.0001857157185440883,0.014154637232422829
0.01636757329106331,0.001555707072839141,-0.013707706704735756,0.012677875347435474,-0.00017978184041567147,0.014063636772334576
0.017208272591233253,0.0014325540978461504,-0.013546609319746494,0.012363376095890999,-0.00017400417709723115,0.013849015347659588
0.016602875664830208,0.001319620292633772,-0.014045502059161663,0.012823695316910744,-0.00018235431343782693,0.014387182891368866
0.016805823892354965,0.0011299987090751529,-0.01444677822291851,0.012403469532728195,-0.00018977979198098183,0.014655333012342453
0.016805823892354965,0.0011299987090751529,-0.01444677822291851,0.012403469532728195,-0.00018977979198098183,0.014655333012342453
0.016698822379112244,0.0009125195210799575,-0.013954873196780682,0.012720786966383457,-0.00017982223653234541,0.014475199393928051
0.016698822379112244,0.0009125195210799575,-0.013954873196780682,0.012720786966383457,-0.00017982223653234541,0.014475199393928051
0.016674630343914032,0.0009105337085202336,-0.01418208796530962,0.01245352067053318,-0.0001981339300982654,0.014404195360839367
0.016190864145755768,0.0009091565734706819,-0.01426122710108757,0.01267529558390379,-0.00019430644169915468,0.014215203933417797
0.016955360770225525,0.0010577872162684798,-0.014255674555897713,0.012209363281726837,-0.00018929685757029802,0.01426570676267147
0.01680159755051136,0.0010371372336521745,-0.014708575792610645,0.012320957146584988,-0.0001844537619035691,0.014373182319104671
0.01694299280643463,0.0010474908631294966,-0.014475565403699875,0.012183607555925846,-0.00017984624719247222,0.014702921733260155
0.0167736504226923,0.001082067028619349,-0.015130736865103245,0.012061040848493576,-0.0002265465445816517,0.015024662017822266
0.017144424840807915,0.0010885833762586117,-0.01464299950748682,0.0119315255433321,-0.00021619674225803465,0.014379488304257393
0.01678117737174034,0.0010608932934701443,-0.014394242316484451,0.012165083549916744,-0.00020630256040021777,0.014144783839583397
0.017119839787483215,0.0010731160873547196,-0.014363209716975689,0.012010997161269188,-0.00023144153237808496,0.014156435616314411
0.017071416601538658,0.0012111341347917914,-0.014482371509075165,0.01245185174047947,-0.000226423901040107,0.014798355288803577
0.017091695219278336,0.0011744634248316288,-0.014596308581531048,0.012191065587103367,-0.00021760478557553142,0.014936267398297787
0.01712125912308693,0.0014112595235928893,-0.014854886569082737,0.012537113390862942,-0.00024169067910406739,0.014827693812549114
0.01684238202869892,0.0013572536408901215,-0.014199752360582352,0.01239815354347229,-0.00023480161326006055,0.01444084569811821
0.01747850887477398,0.0012888818746432662,-0.014611814171075821,0.012322510592639446,-0.0002264981303596869,0.014484868384897709
0.017114631831645966,0.001353632309474051,-0.014405977912247181,0.01280088908970356,-0.00024573778500780463,0.014397745952010155
0.017186935991048813,0.0013081266079097986,-0.01465462427586317,0.012753560207784176,-0.0002412277099210769,0.01448813546448946
0.017112866044044495,0.001251880661584437,-0.01393870823085308,0.012817184440791607,-0.00023364252410829067,0.014573882333934307
0.016800468787550926,0.0013961257645860314,-0.014298148453235626,0.01239414606243372,-0.0003141209890600294,0.015161015093326569
0.01739114336669445,0.00143738545011729,-0.014480956830084324,0.01249005738645792,-0.0003056984569411725,0.014759755693376064
0.01694304682314396,0.001709240023046732,-0.014768427237868309,0.012578433379530907,-0.0002870371099561453,0.015021002851426601
0.017053766176104546,0.0015960249584168196,-0.014252249151468277,0.012463489547371864,-0.0003096268337685615,0.015154901891946793
0.017100626602768898,0.0015217693289741874,-0.014681629836559296,0.012544052675366402,-0.0003045893390662968,0.01451112050563097
0.017168661579489708,0.0015268479473888874,-0.014063084498047829,0.01244430709630251,-0.00028909152024425566,0.014304651878774166
0.017542598769068718,0.0015693296445533633,-0.0146847078576684,0.012715989723801613,-0.0002967676555272192,0.014603132382035255
0.017542598769068718,0.0015693296445533633,-0.0146847078576684,0.012715989723801613,-0.0002967676555272192,0.014603132382035255
0.01739341951906681,0.0016671367920935154,-0.01469198428094387,0.012256789952516556,-0.00029054100741632283,0.015432839281857014
0.01739341951906681,0.0016671367920935154,-0.01469198428094387,0.012256789952516556,-0.00029054100741632283,0.015432839281857014
0.017232032492756844,0.0016245120204985142,-0.014167968183755875,0.012787721119821072,-0.00027781486278399825,0.01570037193596363
0.017128556966781616,0.0017361341742798686,-0.014709746465086937,0.012742113322019577,-0.00029904377879574895,0.01616484485566616
0.01759936846792698,0.0015793103957548738,-0.0141260651871562,0.012846769765019417,-0.0002914580109063536,0.016459085047245026
0.017209164798259735,0.0015699989162385464,-0.0145241254940629,0.012384586967527866,-0.0003166031383443624,0.01640566810965538
0.01705373078584671,0.0015739364316686988,-0.014140350744128227,0.012518608942627907,-0.000328972062561661,0.015702692791819572
0.017687682062387466,0.0015859531704336405,-0.014172866940498352,0.012304638512432575,-0.0003457484708633274,0.015247590839862823
0.01806831918656826,0.0015171794220805168,-0.014560597017407417,0.012356369756162167,-0.00037637961213476956,0.01557088177651167
0.01753051206469536,0.0018082184251397848,-0.01465468667447567,0.012098250910639763,-0.00039604047196917236,0.01590871997177601
0.017395155504345894,0.0019226986914873123,-0.01498201210051775,0.012340274639427662,-0.0003878922143485397,0.01582353189587593
0.01717752404510975,0.001987492898479104,-0.014175336807966232,0.012335597537457943,-0.0006185240927152336,0.015860384330153465
0.01701918989419937,0.0019004439236596227,-0.014507235027849674,0.012631185352802277,-0.000664038525428623,0.015551060438156128
0.017963174730539322,0.0019100893987342715,-0.01398042868822813,0.01261678896844387,-0.0006842863513156772,0.016052186489105225
0.017673591151833534,0.0017479737289249897,-0.014097115024924278,0.012651700526475906,-0.0006712871254421771,0.01580779068171978
0.017567647621035576,0.0018824265571311116,-0.01413631159812212,0.012707190588116646,-0.0006505035562440753,0.016471289098262787
0.017334237694740295,0.0019629085436463356,-0.014577865600585938,0.012934913858771324,-0.0007406417280435562,0.016539977863430977
0.01702078990638256,0.002218151930719614,-0.014729278162121773,0.012470594607293606,-0.0007523292442783713,0.016272524371743202
0.017622703686356544,0.002205852186307311,-0.014580351300537586,0.012253126129508018,-0.0007420425536110997,0.016137801110744476
0.01831478625535965,0.0021776820067316294,-0.014378203079104424,0.012926548719406128,-0.000709067564457655,0.015591006726026535
0.017971137538552284,0.002083551837131381,-0.014390900731086731,0.012546036392450333,-0.0007251959759742022,0.015562060289084911
0.01777961291372776,0.0020083673298358917,-0.014379305765032768,0.01379808783531189,-0.0007603078265674412,0.015695225447416306
0.017468947917222977,0.001940639689564705,-0.014468190260231495,0.012074073776602745,-0.0006821099668741226,0.016237173229455948
0.01749389059841633,0.001913192099891603,-0.014207497239112854,0.011510566808283329,-0.0005943668074905872,0.0162478256970644
0.017441220581531525,0.0021612702403217554,-0.014162694104015827,0.012261325493454933,-0.000622271909378469,0.016077149659395218
0.017542708665132523,0.0021777385845780373,-0.014340922236442566,0.012767203152179718,-0.0005635996349155903,0.017249369993805885
0.017542708665132523,0.0021777385845780373,-0.014340922236442566,0.012767203152179718,-0.0005635996349155903,0.017249369993805885
0.018237367272377014,0.0022520183119922876,-0.014394111931324005,0.01344301924109459,-0.0004664660373236984,0.015185607597231865
0.018237367272377014,0.0022520183119922876,-0.014394111931324005,0.01344301924109459,-0.0004664660373236984,0.015185607597231865
0.01718505285680294,0.002136117545887828,-0.01445664744824171,0.013615449890494347,-0.0004958041827194393,0.01533468533307314
0.018736444413661957,0.002185291610658169,-0.014087514951825142,0.012852881103754044,-0.00046369299525395036,0.01622873544692993
0.018469374626874924,0.002112120622768998,-0.014494087547063828,0.013417800888419151,-0.0004321408341638744,0.016566919162869453
0.01842348277568817,0.0022689641918987036,-0.014364398084580898,0.012913904152810574,-0.00045434519415721297,0.01670859567821026
0.018380168825387955,0.0023454332258552313,-0.014402174390852451,0.013290642760694027,-0.00041148465243168175,0.016392454504966736
0.018682941794395447,0.0023060841485857964,-0.01443751621991396,0.01315324567258358,-0.00034073423012159765,0.01674129255115986
0.01884835585951805,0.0021887326147407293,-0.014046010561287403,0.013000443577766418,-0.0003143145586363971,0.016509391367435455
0.018616897985339165,0.0022783989552408457,-0.014650068245828152,0.012798813171684742,-0.00034436717396602035,0.016674082726240158
0.018962737172842026,0.002185738878324628,-0.014568599872291088,0.013454088941216469,-0.0003302126715425402,0.01654326170682907
0.01887841336429119,0.002348714740946889,-0.01445726864039898,0.012945863418281078,-0.0003116099978797138,0.016834136098623276
0.01862913742661476,0.0026649488136172295,-0.01455755066126585,0.012830809690058231,-0.00033709369017742574,0.016678940504789352
0.018956495448946953,0.002825763076543808,-0.014816639013588428,0.01252539362758398,-0.00032551397453062236,0.016239499673247337
0.018848996609449387,0.0026953951455652714,-0.014680803753435612,0.012895048595964909,-0.0003098796878475696,0.016207454726099968
0.018596382811665535,0.00254440656863153,-0.0145556116476655,0.012929072603583336,-0.00029537221416831017,0.01632002368569374
0.01922072283923626,0.0024913065135478973,-0.014239005744457245,0.013791118748486042,-0.00028214219491928816,0.016772933304309845
0.01906302571296692,0.0024919311981648207,-0.014737308956682682,0.013912700116634369,-0.0003034744877368212,0.01691354624927044
0.018845008686184883,0.0027939840219914913,-0.014725139364600182,0.013481279835104942,-0.00029559904942288995,0.016893524676561356
0.01917487196624279,0.002961924532428384,-0.014542249031364918,0.012907035648822784,-0.00028422867762856185,0.016784267500042915
0.018863463774323463,0.0028263311833143234,-0.015612920746207237,0.012601573951542377,-0.00027345094713382423,0.016540871933102608
0.0187760628759861,0.002645780798047781,-0.015616660006344318,0.012996528297662735,-0.0002634451084304601,0.01693709008395672
0.019357644021511078,0.0027475757524371147,-0.01498895138502121,0.013199981302022934,-0.000274469843134284,0.01704239659011364
0.01940537430346012,0.0029168804176151752,-0.015911158174276352,0.013841225765645504,-0.00026562629500404,0.017475580796599388
0.018963811919093132,0.003148996504023671,-0.015045147389173508,0.013335570693016052,-0.00025127065600827336,0.01735360361635685
0.019306980073451996,0.00332890753634274,-0.015270854346454144,0.013461526483297348,-0.0002380072110099718,0.01690630428493023
0.019306980073451996,0.00332890753634274,-0.015270854346454144,0.013461526483297348,-0.0002380072110099718,0.01690630428493023
0.01924574188888073,0.00295747397467494,-0.014903243631124496,0.013094469904899597,-0.0002260489563923329,0.016538335010409355
0.0188896544277668,0.003018484916538,-0.015162649564445019,0.013182354159653187,-0.0002152342931367457,0.015924036502838135
0.01941937953233719,0.003019984345883131,-0.014218212105333805,0.012951127253472805,-0.00020540652622003108,0.01774453930556774
0.019274650141596794,0.0030325341504067183,-0.015092235989868641,0.013013801537454128,-0.00019643761334009469,0.016405213624238968
0.019018376246094704,0.0030640913173556328,-0.014919326640665531,0.012707053683698177,-0.0001882200303953141,0.016640130430459976
0.019409561529755592,0.003103778464719653,-0.014824598096311092,0.012917660176753998,-0.0002078091201838106,0.016685480251908302
0.019099781289696693,0.003075478132814169,-0.014900817535817623,0.01326853595674038,-0.0002006379363592714,0.017151370644569397
0.019588207826018333,0.003072082996368408,-0.015283419750630856,0.01351282186806202,-0.00019348379282746464,0.017122885212302208
0.019305873662233353,0.0028662681579589844,-0.015487222000956535,0.012722518295049667,-0.00020981833222322166,0.017842574045062065
0.01937548629939556,0.002876904094591737,-0.015491983853280544,0.013369069434702396,-0.0002101085556205362,0.017806151881814003
0.020002512261271477,0.003122037509456277,-0.016057344153523445,0.012960495427250862,-0.0002037875383393839,0.017063068225979805
0.020205842331051826,0.0031037728767842054,-0.015728140249848366,0.013273302465677261,-0.00021126520005054772,0.01725371927022934
0.01960265450179577,0.003053077030926943,-0.015572032891213894,0.013449963182210922,-0.00021784339332953095,0.01710718870162964
0.02016342245042324,0.0029722724575549364,-0.01601378247141838,0.01346558891236782,-0.00021226816170383245,0.017232613638043404
0.01952197216451168,0.002952484181150794,-0.014878273010253906,0.013345391489565372,-0.00022554212773684412,0.017519081011414528
0.01950918883085251,0.0024563982151448727,-0.01542458776384592,0.013289619237184525,-0.00022111102589406073,0.017484912648797035
0.020046843215823174,0.0022481693886220455,-0.015034043230116367,0.013289608992636204,-0.0002477517700754106,0.018275978043675423
0.020613668486475945,0.0019313334487378597,-0.015623446553945541,0.012946084141731262,-0.00024170424148906022,0.018471652641892433
0.02026350423693657,0.0018995952559635043,-0.015402453951537609,0.013366028666496277,-0.00026017645723186433,0.018403876572847366
0.019746707752346992,0.0022843892220407724,-0.01558731123805046,0.01314112264662981,-0.0002585178008303046,0.018156571313738823
0.020992888137698174,0.0025980675127357244,-0.01536816917359829,0.013385509140789509,-0.0002820374211296439,0.017574993893504143
0.021135061979293823,0.0024566936772316694,-0.015555872581899166,0.012935785576701164,-0.0002740623604040593,0.017838628962635994
0.020885923877358437,0.002439267933368683,-0.01576031558215618,0.013183950446546078,-0.0005136116524226964,0.01830623485147953
0.020921699702739716,0.002180450828745961,-0.015429576858878136,0.012999809347093105,-0.00047695846296846867,0.018161294981837273
0.02097848802804947,0.0021488836500793695,-0.015508661046624184,0.012630087323486805,-0.00047392724081873894,0.017838532105088234
0.02097848802804947,0.0021488836500793695,-0.015508661046624184,0.012630087323486805,-0.00047392724081873894,0.017838532105088234
0.0205155648291111,0.002024152083322406,-0.015499486587941647,0.012993472628295422,-0.00047035745228640735,0.017564551904797554
0.020254723727703094,0.0022097406908869743,-0.016057666391134262,0.013161336071789265,-0.00043492173426784575,0.017720552161335945
0.021027451381087303,0.0023144790902733803,-0.01548033393919468,0.014082122594118118,-0.0004650030459742993,0.018079539760947227
0.02181089296936989,0.0022263622377067804,-0.01560256164520979,0.013120491057634354,-0.00043682148680090904,0.01796436868607998
0.021122485399246216,0.002411428140476346,-0.015407656319439411,0.01316593773663044,-0.00040873250691220164,0.01803615130484104
0.02089141309261322,0.0021799467504024506,-0.016181467100977898,0.013045268133282661,-0.00043124405783601105,0.019128916785120964
0.02154853567481041,0.0022197547368705273,-0.015730859711766243,0.01328464038670063,-0.0004105958214495331,0.0177781879901886
0.021655499935150146,0.0021146228536963463,-0.01587575115263462,0.013564806431531906,-0.00044538051588460803,0.018023263663053513
0.02141674980521202,0.0024224165827035904,-0.01585829071700573,0.01327150035649538,-0.00047136456123553216,0.01828133873641491
0.021704433485865593,0.0022137309424579144,-0.015980035066604614,0.013493683189153671,-0.0004855052102357149,0.018424857407808304
0.021556347608566284,0.002519653644412756,-0.01537199318408966,0.013558987528085709,-0.0004829063545912504,0.01789797842502594
0.021323060616850853,0.0024594045244157314,-0.016353031620383263,0.01383217703551054,-0.0007324932957999408,0.018002459779381752
0.021533241495490074,0.0023643162567168474,-0.0156740453094244,0.013789953663945198,-0.0007810267270542681,0.01801946386694908
0.022189240902662277,0.0023986147716641426,-0.015911152586340904,0.01383385993540287,-0.0007980287191458046,0.017955459654331207
0.02189415693283081,0.002468722639605403,-0.01489388570189476,0.013736456632614136,-0.0007964502437971532,0.018234102055430412
0.021347345784306526,0.002355049131438136,-0.01579858548939228,0.013678550720214844,-0.0007386446814052761,0.01854962483048439
0.02141394279897213,0.0024403773713856936,-0.01567176543176174,0.013867251574993134,-0.0007738882559351623,0.01829485408961773
0.02208591252565384,0.002611864823848009,-0.015942903235554695,0.0133428405970335,-0.0007753820973448455,0.018498480319976807
0.022141801193356514,0.002509515965357423,-0.0160518791526556,0.013681536540389061,-0.0007049841224215925,0.01832645572721958
0.021950041875243187,0.0026290728710591793,-0.01590288244187832,0.013645325787365437,-0.0007147151627577841,0.018454156816005707
0.02172677591443062,0.0026065583806484938,-0.015709275379776955,0.013835691846907139,-0.0007210227777250111,0.01827705278992653
0.022167367860674858,0.00247235968708992,-0.01533524040132761,0.013232660479843616,-0.0007364763878285885,0.018483782187104225
0.022198082879185677,0.0025301561690866947,-0.016206422820687294,0.01384423952549696,-0.0007549728034064174,0.018754981458187103
0.021897731348872185,0.002685326151549816,-0.01604389026761055,0.013700954616069794,-0.0007167075527831912,0.01885090209543705
0.021881112828850746,0.0025677166413515806,-0.016672145575284958,0.014222685247659683,-0.0007134770276024938,0.018551234155893326
0.02215583249926567,0.0027486374601721764,-0.01589065045118332,0.013906681910157204,-0.0006622840301133692,0.018784908577799797
0.022142376750707626,0.0027934734243899584,-0.01624845713376999,0.014133933931589127,-0.0006802527350373566,0.018888643011450768
0.02212272770702839,0.0025212103500962257,-0.01616155356168747,0.013766610063612461,-0.0006263263639993966,0.018677016720175743
0.02212272770702839,0.0025212103500962257,-0.01616155356168747,0.013766610063612461,-0.0006263263639993966,0.018677016720175743
0.021483244374394417,0.0026557915844023228,-0.016171637922525406,0.014122230932116508,-0.0006253172177821398,0.0188223198056221
0.022003905847668648,0.0028308650944381952,-0.016578879207372665,0.0135621577501297,-0.0006534401327371597,0.018943380564451218
0.022362075746059418,0.0027625111397355795,-0.016163472086191177,0.013383100740611553,-0.0006674244650639594,0.018786830827593803
0.022541457787156105,0.0025080344639718533,-0.016369229182600975,0.013453155755996704,-0.0006545961950905621,0.019155018031597137
0.022633297368884087,0.0025034977588802576,-0.01647912710905075,0.013784307055175304,-0.0007798105361871421,0.020172374323010445
0.021731501445174217,0.002443408127874136,-0.016987789422273636,0.014132684096693993,-0.0008033447084017098,0.019386470317840576
0.02205437421798706,0.002749324543401599,-0.016821978613734245,0.014269188977777958,-0.0007928907871246338,0.018330343067646027
0.023197252303361893,0.0029425453394651413,-0.01739608123898506,0.0135209234431386,-0.0007278447155840695,0.018700307235121727
0.022762319073081017,0.002868856303393841,-0.016645522788167,0.013091051019728184,-0.000653928960673511,0.019319772720336914
0.02205178700387478,0.002838479820638895,-0.017383115366101265,0.01284007728099823,-0.0006653275340795517,0.019453907385468483
0.02302389405667782,0.0028718961402773857,-0.01749553345143795,0.013826806098222733,-0.0006180724012665451,0.01966724544763565
0.022638797760009766,0.002880735555663705,-0.017087453976273537,0.013390704058110714,-0.0005697653396055102,0.020101187750697136
0.02272769808769226,0.0027205892838537693,-0.017365528270602226,0.014010944403707981,-0.0005279914475977421,0.020116116851568222
0.022741109132766724,0.002563311019912362,-0.016371743753552437,0.01352818962186575,-0.0004918989143334329,0.01995183527469635
0.022667856886982918,0.002763510914519429,-0.017275935038924217,0.013559060171246529,-0.000417789415223524,0.01938311941921711
0.022193782031536102,0.0026429276913404465,-0.01732270047068596,0.013031459413468838,-0.000377765012672171,0.019265422597527504
0.02230059914290905,0.0026353197172284126,-0.01716705411672592,0.013847419992089272,-0.0003481868770904839,0.019279159605503082
0.0230708010494709,0.0026642638258635998,-0.017412997782230377,0.013768305070698261,-0.0003231409646105021,0.019629862159490585
0.02317120134830475,0.003117064479738474,-0.016714725643396378,0.013861460611224174,-0.0003014768590219319,0.019925255328416824
0.02324972115457058,0.003198168706148863,-0.01767326146364212,0.013893738389015198,-0.0002825363480951637,0.0192242618650198
0.022968715056777,0.003081745933741331,-0.017166277393698692,0.014096468687057495,-0.00026583822909742594,0.019632291048765182
0.022894319146871567,0.002833509584888816,-0.017078185454010963,0.013684473000466824,-0.0002944355073850602,0.02005132846534252
0.022995850071310997,0.0030254083685576916,-0.017686860635876656,0.014621888287365437,-0.00028484288486652076,0.019877612590789795
0.023237377405166626,0.0029615398962050676,-0.016961082816123962,0.014468722976744175,-0.0002709356776904315,0.019889062270522118
0.02305283397436142,0.002875298960134387,-0.017436213791370392,0.014432288706302643,-0.0002580125001259148,0.01953580603003502
0.02269582450389862,0.0026307294610887766,-0.017224809154868126,0.013795452192425728,-0.00024624535581097007,0.018769826740026474
0.023157119750976562,0.0026318880263715982,-0.01738988794386387,0.014040765352547169,-0.0002355033066123724,0.019374778494238853
0.023157119750976562,0.0026318880263715982,-0.01738988794386387,0.014040765352547169,-0.0002355033066123724,0.019374778494238853
0.023473544046282768,0.002762771677225828,-0.017955463379621506,0.015661083161830902,-0.0002582539163995534,0.01981106400489807
0.02323111519217491,0.002860612003132701,-0.016960984095931053,0.014228802174329758,-0.00025237989029847085,0.019798235967755318
0.023680701851844788,0.0029280330054461956,-0.017173366621136665,0.013708634302020073,-0.00024293878232128918,0.020216936245560646
0.02361525408923626,0.0030687982216477394,-0.016890322789549828,0.014418061822652817,-0.00024939797003753483,0.01983424462378025
0.02319524995982647,0.003032165579497814,-0.017569486051797867,0.014256641268730164,-0.0002483238058630377,0.019894037395715714
0.02363022416830063,0.003060677321627736,-0.016638517379760742,0.014021016657352448,-0.00024051894433796406,0.02024182677268982
0.023570165038108826,0.0030329914297908545,-0.017363298684358597,0.014386494643986225,-0.00023277474974747747,0.020478537306189537
0.023739909753203392,0.0028765497263520956,-0.017351042479276657,0.014443857595324516,-0.00021165872749406844,0.02037760801613331
0.02395746484398842,0.002668983768671751,-0.01719999872148037,0.014321565628051758,-0.00019826706557068974,0.019914627075195312
0.024648509919643402,0.002503644209355116,-0.01707226037979126,0.01449293177574873,-0.0001896442990982905,0.020270686596632004
0.02374679036438465,0.0028672972694039345,-0.016821708530187607,0.014889495447278023,-0.00018195643497165293,0.02032001130282879
0.023791903629899025,0.0034298142418265343,-0.017351653426885605,0.014948597177863121,-0.00020520536054391414,0.020566774532198906
0.024373600259423256,0.003336859866976738,-0.016992246732115746,0.014588105492293835,-0.0002017038204940036,0.020778803154826164
0.02448933944106102,0.0029764322098344564,-0.0170892421156168,0.014444660395383835,-0.00022495718440040946,0.020683538168668747
0.02429981902241707,0.0028419229201972485,-0.01732378825545311,0.014808271080255508,-0.00021912304509896785,0.02037513628602028
0.024648215621709824,0.0030088790226727724,-0.01701435074210167,0.0152143444865942,-0.00024010786728467792,0.020539874210953712
0.024740908294916153,0.0033281149808317423,-0.017225729301571846,0.015387419611215591,-0.00023433419119101018,0.020768968388438225
0.024837404489517212,0.0031019621528685093,-0.016946757212281227,0.014836089685559273,-0.0004146865976508707,0.020658964291214943
0.024647574871778488,0.002828615251928568,-0.01721537671983242,0.015057365410029888,-0.00045951566426083446,0.02075524814426899
0.024228213354945183,0.0026512390468269587,-0.017500102519989014,0.014712050557136536,-0.000485765456687659,0.02122674323618412
0.025227246806025505,0.002836675848811865,-0.016804838553071022,0.015133614651858807,-0.0004668563196901232,0.02111213468015194
0.025335047394037247,0.003194805234670639,-0.017283476889133453,0.01466311700642109,-0.0004935546312481165,0.020970197394490242
0.025465063750743866,0.0035172412171959877,-0.01707638055086136,0.014634266495704651,-0.0006852414226159453,0.021093908697366714
0.0253125187009573,0.003284711390733719,-0.01730666123330593,0.014408200047910213,-0.0007546055130660534,0.020971322432160378
0.024947648867964745,0.003091881750151515,-0.01749207265675068,0.014665649272501469,-0.0006918038125149906,0.021820085123181343
0.024076737463474274,0.0028325230814516544,-0.016833826899528503,0.014719061553478241,-0.0006898396532051265,0.0216621495783329
0.02479124628007412,0.002852291101589799,-0.01715761423110962,0.014919268898665905,-0.0006424501189030707,0.021842220798134804
0.02479124628007412,0.002852291101589799,-0.01715761423110962,0.014919268898665905,-0.0006424501189030707,0.021842220798134804
0.024907095357775688,0.002847997471690178,-0.017244655638933182,0.014915652573108673,-0.0005347516271285713,0.020897185429930687
0.02505389228463173,0.003127517644315958,-0.017503924667835236,0.01498807966709137,-0.000553629535716027,0.021102773025631905
0.02505389228463173,0.003127517644315958,-0.017503924667835236,0.01498807966709137,-0.000553629535716027,0.021102773025631905
0.026033807545900345,0.002842128509655595,-0.01709146797657013,0.015560800209641457,-0.0005217631114646792,0.0217524953186512
0.025888776406645775,0.0030302247032523155,-0.017315775156021118,0.01429679337888956,-0.0004869900003541261,0.02179701253771782
0.024950159713625908,0.0030473440419882536,-0.016914494335651398,0.014625419862568378,-0.0004447319661267102,0.021283820271492004
0.025211650878190994,0.003021136624738574,-0.017387021332979202,0.01416496280580759,-0.00039586221100762486,0.021202584728598595
0.024740340188145638,0.0035068292636424303,-0.017462167888879776,0.014554179273545742,-0.0003632368170656264,0.02176358364522457
0.025680910795927048,0.0032717420253902674,-0.01776288077235222,0.014209536835551262,-0.0003749006427824497,0.021498264744877815
0.025809457525610924,0.0030139158479869366,-0.017923830077052116,0.013911367394030094,-0.0003507998480927199,0.02081623114645481
0.02561207488179207,0.002861152170225978,-0.017754070460796356,0.014666962437331676,-0.0003804895677603781,0.021419718861579895
0.025691034272313118,0.0027403647545725107,-0.018136873841285706,0.014374746941030025,-0.00036195566644892097,0.020769337192177773
0.02591385692358017,0.0028281076811254025,-0.01790042035281658,0.014790971763432026,-0.0003424870374146849,0.020481020212173462
0.025429345667362213,0.0031249974854290485,-0.018313812091946602,0.014301273971796036,-0.0003680472436826676,0.021257471293210983
0.025817587971687317,0.00310918060131371,-0.017739951610565186,0.01496822014451027,-0.0003528249799273908,0.02193615771830082
0.02561076730489731,0.002912079682573676,-0.017696840688586235,0.014521895907819271,-0.000366196472896263,0.021911203861236572
0.025762975215911865,0.0028875393327325583,-0.018652528524398804,0.015516656450927258,-0.0003662584349513054,0.02186482585966587
0.025407085195183754,0.002996549941599369,-0.01844150573015213,0.01537644024938345,-0.00039052433567121625,0.021945098415017128
0.02614399418234825,0.0032804764341562986,-0.018288936465978622,0.015628743916749954,-0.0003787912137340754,0.02202589623630047
0.025911111384630203,0.003103409893810749,-0.01839153654873371,0.014823395758867264,-0.0004060342034790665,0.022039880976080894
0.02594531886279583,0.002864863257855177,-0.017831264063715935,0.014494471251964569,-0.0004289381904527545,0.022201910614967346
0.026199346408247948,0.002707361476495862,-0.018684349954128265,0.014953941106796265,-0.000567512062843889,0.022133613005280495
0.024135122075676918,0.0027723293751478195,-0.01850515604019165,0.014514587819576263,-0.0007214534562081099,0.022385120391845703
0.026569677516818047,0.003120553446933627,-0.017888111993670464,0.013902285136282444,-0.000669385539367795,0.022381631657481194
0.02670866809785366,0.0031970308627933264,-0.018486376851797104,0.014102129265666008,-0.000689965090714395,0.02222418040037155
0.025954173877835274,0.0030277760233730078,-0.017748067155480385,0.014130747877061367,-0.0006273651379160583,0.02225361205637455
0.025952830910682678,0.0033082542940974236,-0.017673810943961143,0.014809267595410347,-0.000646552536636591,0.02225014753639698
0.026308970525860786,0.003019097726792097,-0.01824944093823433,0.01466981042176485,-0.000657001044601202,0.02254508249461651
0.026149528101086617,0.0032650462817400694,-0.01809941604733467,0.015032683499157429,-0.0006251447484828532,0.02300344407558441
0.02661612443625927,0.003359617665410042,-0.01855693757534027,0.015285961329936981,-0.0006544829229824245,0.02259424887597561
0.027459222823381424,0.003532327013090253,-0.01886303350329399,0.015306035988032818,-0.0006743805133737624,0.022456957027316093
0.027456317096948624,0.0033178310841321945,-0.018284838646650314,0.014709767885506153,-0.0006625746609643102,0.022695664316415787
0.026256563141942024,0.0034432916436344385,-0.018661219626665115,0.014924549497663975,-0.0006427087937481701,0.02248753421008587
0.026256563141942024,0.0034432916436344385,-0.018661219626665115,0.014924549497663975,-0.0006427087937481701,0.02248753421008587
0.026769526302814484,0.003602326847612858,-0.017904389649629593,0.015025978907942772,-0.0006033993558958173,0.022770943120121956
0.026769526302814484,0.003602326847612858,-0.017904389649629593,0.015025978907942772,-0.0006033993558958173,0.022770943120121956
0.027263423427939415,0.003908560145646334,-0.01829824037849903,0.015012208372354507,-0.0005516519886441529,0.023031236603856087
0.02665296383202076,0.0039200871251523495,-0.018519975244998932,0.014667706564068794,-0.000564526068046689,0.023208972066640854
0.026827063411474228,0.003893125569447875,-0.018400495871901512,0.015011624433100224,-0.0005311003769747913,0.023005977272987366
0.027119796723127365,0.0033850721083581448,-0.018828120082616806,0.01477636955678463,-0.0004848199023399502,0.022858042269945145
0.02686036005616188,0.003459587460383773,-0.018255257979035378,0.014753698371350765,-0.00047825364163145423,0.022993234917521477
0.0264483280479908,0.0033703246153891087,-0.018657341599464417,0.015109142288565636,-0.0004923090455122292,0.023232351988554
0.026817258447408676,0.0035160991828888655,-0.018065791577100754,0.014744573272764683,-0.000477240071631968,0.023643353953957558
0.02795601449906826,0.003719025058671832,-0.018478143960237503,0.01520298421382904,-0.00048151073860935867,0.023343799635767937
0.02781829796731472,0.00393498782068491,-0.018408536911010742,0.014766671694815159,-0.0005136880208738148,0.023418372496962547
0.027815120294690132,0.003942838869988918,-0.017868004739284515,0.015398896299302578,-0.0005171950906515121,0.023284895345568657
0.028086399659514427,0.0038663160521537066,-0.018690910190343857,0.015024803578853607,-0.0005109269986860454,0.023203914985060692
0.02751287631690502,0.0037969916593283415,-0.018839653581380844,0.015477307140827179,-0.0005332956206984818,0.023731719702482224
0.02754979580640793,0.0037494762800633907,-0.018030203878879547,0.0152207650244236,-0.000620240462012589,0.024330386891961098
0.02792607620358467,0.0036745890974998474,-0.018541179597377777,0.015553385950624943,-0.0007045806269161403,0.0230848528444767
0.027654733508825302,0.003695152699947357,-0.018530933186411858,0.015594875440001488,-0.0006779934046790004,0.023025522008538246
0.028939485549926758,0.0037229484878480434,-0.018733996897935867,0.015887118875980377,-0.0006795552908442914,0.024093562737107277
0.028461724519729614,0.004044656176120043,-0.018730660900473595,0.015541279688477516,-0.0006339451065286994,0.02435009367763996
0.028578978031873703,0.003960220143198967,-0.01824650913476944,0.015655314549803734,-0.0006170843844301999,0.02348623238503933
0.028456885367631912,0.003758425824344158,-0.019029485061764717,0.015867557376623154,-0.000601637177169323,0.022792333737015724
0.02880861796438694,0.003710248740389943,-0.018784038722515106,0.01563001237809658,-0.0006080174935050309,0.023334214463829994
0.028873538598418236,0.00433371914550662,-0.018277542665600777,0.015879498794674873,-0.0006064902991056442,0.02457786351442337
0.02873961254954338,0.004158452153205872,-0.019041981548070908,0.015517556108534336,-0.0005889071035198867,0.024181479588150978
0.02924180217087269,0.003921128809452057,-0.02009199559688568,0.015961362048983574,-0.0005766769754700363,0.023977365344762802
0.028876477852463722,0.004260004963725805,-0.018940813839435577,0.015846161171793938,-0.0005639090086333454,0.02447059378027916
0.029098181053996086,0.004299440886825323,-0.01925615593791008,0.01589261367917061,-0.0005198866128921509,0.02526284195482731
0.02938948944211006,0.004476275760680437,-0.019204623997211456,0.01573394238948822,-0.0005396006163209677,0.024381155148148537
0.02938948944211006,0.004476275760680437,-0.019204623997211456,0.01573394238948822,-0.0005396006163209677,0.024381155148148537
0.029152579605579376,0.0041570342145860195,-0.018406929448246956,0.01575806364417076,-0.0005120791611261666,0.02357538230717182
0.02970711514353752,0.004090484231710434,-0.019659891724586487,0.015474168583750725,-0.000532269012182951,0.023429065942764282
0.029686493799090385,0.004086774308234453,-0.020015249028801918,0.01505543477833271,-0.000569848227314651,0.02403631992638111
0.030158672481775284,0.003919239621609449,-0.019624125212430954,0.015602411702275276,-0.0005957931862212718,0.025049587711691856
0.03044818714261055,0.00470886891707778,-0.019570033997297287,0.015648839995265007,-0.0005799130885861814,0.024962157011032104
0.03023536317050457,0.004421199671924114,-0.019513925537467003,0.015165307559072971,-0.0005391736049205065,0.024753302335739136
0.03035866469144821,0.004019011743366718,-0.02014894224703312,0.01552729681134224,-0.0006400712882168591,0.024915024638175964
0.030824173241853714,0.004309572279453278,-0.019409963861107826,0.01650129072368145,-0.0005705468938685954,0.025597698986530304
0.030838456004858017,0.004200446885079145,-0.019327029585838318,0.015321042388677597,-0.0006008529453538358,0.02537880837917328
0.031577903777360916,0.004097364842891693,-0.02025940828025341,0.014733715914189816,-0.0005461882101371884,0.025830231606960297
0.03156479820609093,0.0037379011046141386,-0.01951567642390728,0.015345482155680656,-0.0005568931810557842,0.025338059291243553
0.029250487685203552,0.003516902681440115,-0.019142361357808113,0.01566518284380436,-0.0005288416286930442,0.024974586442112923
0.03087146021425724,0.003891120431944728,-0.019497016444802284,0.01591622270643711,-0.0005402801907621324,0.025077074766159058
0.03165030851960182,0.003948467783629894,-0.020131507888436317,0.016017893329262733,-0.0005174372345209122,0.025358648970723152
0.03096757084131241,0.003831486916169524,-0.019872957840561867,0.01619604229927063,-0.0004874403530266136,0.025343991816043854
0.03163854777812958,0.00378698343411088,-0.019560344517230988,0.016851378604769707,-0.00045990722719579935,0.02573632262647152
0.03292738273739815,0.004205875098705292,-0.019977638497948647,0.0163153987377882,-0.0004906500107608736,0.02605145052075386
0.03217193856835365,0.0039839670062065125,-0.02018437348306179,0.016514144837856293,-0.0005149723729118705,0.025563042610883713
0.030970096588134766,0.004253988619893789,-0.019674820825457573,0.016345791518688202,-0.0005445145652629435,0.02558896131813526
0.0314929261803627,0.004346668254584074,-0.01972520723938942,0.016636241227388382,-0.0005222670151852071,0.025514185428619385
0.0319855660200119,0.004392419010400772,-0.020065605640411377,0.01702585630118847,-0.0007103221141733229,0.02552005648612976
0.03210661560297012,0.004303072579205036,-0.019614173099398613,0.016352564096450806,-0.000643715902697295,0.0251145176589489
0.03190579265356064,0.00408993661403656,-0.01989084482192993,0.016546497121453285,-0.0006619276246055961,0.02508104406297207
0.03227541595697403,0.004095721058547497,-0.01997966505587101,0.016071075573563576,-0.0006495283450931311,0.025889141485095024
0.03184472769498825,0.004156797658652067,-0.01963161863386631,0.01607183925807476,-0.0006286963471211493,0.026515686884522438
0.03211766853928566,0.004459724295884371,-0.019507277756929398,0.01550290361046791,-0.0006503951153717935,0.0261369738727808
0.03221183642745018,0.004691185895353556,-0.02008984424173832,0.01588168926537037,-0.0006055582780390978,0.0255984365940094
0.03241076320409775,0.0044500017538666725,-0.01980992779135704,0.01590629108250141,-0.0005942924180999398,0.02513480931520462
0.0320303812623024,0.004545980133116245,-0.01974695734679699,0.016551565378904343,-0.0006059673614799976,0.025719953700900078
0.0320303812623024,0.004545980133116245,-0.01974695734679699,0.016551565378904343,-0.0006059673614799976,0.025719953700900078
0.03201771900057793,0.005017078015953302,-0.01995202898979187,0.01601514220237732,-0.0005875960341654718,0.026009030640125275
0.03247375413775444,0.004421220626682043,-0.019876636564731598,0.016458475962281227,-0.0006039966829121113,0.02615957148373127
0.03260400891304016,0.004477883689105511,-0.020061738789081573,0.016309285536408424,-0.00057742721401155,0.02628200314939022
0.032856862992048264,0.0042270091362297535,-0.02019478566944599,0.016988562420010567,-0.0006398791447281837,0.02641955390572548
0.03241746872663498,0.004332573153078556,-0.019157107919454575,0.01649162359535694,-0.0006738145602867007,0.025886494666337967
0.03326157480478287,0.004607493057847023,-0.02010577730834484,0.016180040314793587,-0.0006793265929445624,0.02523944340646267
0.03361834958195686,0.004641440697014332,-0.02073332667350769,0.016230328008532524,-0.0007003482314758003,0.02577616460621357
0.03304922953248024,0.004841375630348921,-0.01990029402077198,0.01595340669155121,-0.0006635269382968545,0.02686772495508194
0.03200177103281021,0.004613121971487999,-0.01958378776907921,0.01606123521924019,-0.00075030472362414,0.027109066024422646
0.03321308270096779,0.004794561769813299,-0.01996065303683281,0.016186535358428955,-0.0007751412922516465,0.02682117000222206
0.03406016528606415,0.004736661911010742,-0.019864415749907494,0.01669267937541008,-0.000768488273024559,0.026771139353513718
0.03372557461261749,0.004737294744700193,-0.019693665206432343,0.016650652512907982,-0.000707924657035619,0.02671390026807785
0.034175001084804535,0.004453278612345457,-0.019993368536233902,0.01686479151248932,-0.0006378472317010164,0.026850927621126175
0.03378883749246597,0.0044481633231043816,-0.02002459019422531,0.016671497374773026,-0.0006398176774382591,0.027019184082746506
0.033353254199028015,0.004640793893486261,-0.01982390508055687,0.01630050502717495,-0.0006047440692782402,0.02711482159793377
0.033305488526821136,0.004765999969094992,-0.019959935918450356,0.017000021412968636,-0.0005618761642836034,0.02726486697793007
0.034122154116630554,0.004750936757773161,-0.020204205065965652,0.01708720065653324,-0.0005045783473178744,0.027173103764653206
0.034025151282548904,0.0044623613357543945,-0.019606096670031548,0.017134031280875206,-0.00045397321810014546,0.02704627998173237
0.033982083201408386,0.004147523548454046,-0.02035847306251526,0.01640733703970909,-0.000412343826610595,0.02704479917883873
0.03400431573390961,0.004448657855391502,-0.02065022848546505,0.01646406762301922,-0.0004478511109482497,0.026747366413474083
0.033960748463869095,0.004738246090710163,-0.019880471751093864,0.01688629388809204,-0.0004515143227763474,0.027128595858812332
0.03425515443086624,0.00472981994971633,-0.01981993019580841,0.016787050291895866,-0.0004503463569562882,0.026400098577141762
0.03410324081778526,0.0046477848663926125,-0.02027181163430214,0.01708829402923584,-0.0004665723245125264,0.026838727295398712
0.03410324081778526,0.0046477848663926125,-0.02027181163430214,0.01708829402923584,-0.0004665723245125264,0.026838727295398712
0.03364455699920654,0.00429530581459403,-0.020460713654756546,0.01808766834437847,-0.00042671061237342656,0.02715487591922283
0.03372706472873688,0.0044023264199495316,-0.020314805209636688,0.01657690852880478,-0.0004392254340928048,0.027258358895778656
0.032874695956707,0.004442814737558365,-0.02001739665865898,0.016629677265882492,-0.00047888242988847196,0.02720308117568493
0.032874695956707,0.004442814737558365,-0.02001739665865898,0.016629677265882492,-0.00047888242988847196,0.02720308117568493
0.03449323773384094,0.004990666173398495,-0.021002793684601784,0.016934996470808983,-0.0004999590455554426,0.02719626948237419
0.033925287425518036,0.00450208829715848,-0.020814945921301842,0.016738925129175186,-0.0006828158511780202,0.027140077203512192
0.03440924361348152,0.004514963831752539,-0.01995430886745453,0.01694456674158573,-0.0007758187712170184,0.027361007407307625
0.03440924361348152,0.004514963831752539,-0.01995430886745453,0.01694456674158573,-0.0007758187712170184,0.027361007407307625
0.034802235662937164,0.004528021905571222,-0.020708976313471794,0.01724284514784813,-0.0008793507004156709,0.027382005006074905
0.03465666249394417,0.004683168139308691,-0.021124541759490967,0.016917379572987556,-0.0010436441516503692,0.027124017477035522
0.03480567783117294,0.004600849002599716,-0.021212011575698853,0.017191575840115547,-0.0012006718898192048,0.02709072455763817
0.03484387323260307,0.004740801639854908,-0.02089761756360531,0.016463404521346092,-0.0011344668455421925,0.027222270146012306
0.034952566027641296,0.00473126582801342,-0.020985299721360207,0.016654470935463905,-0.0009937618160620332,0.02734084241092205
0.035089340060949326,0.004501100163906813,-0.020461706444621086,0.01687059924006462,-0.0009738284861668944,0.028082504868507385
0.03504383936524391,0.004558885004371405,-0.020039090886712074,0.016611965373158455,-0.0008642881293781102,0.027919987216591835
0.03513646870851517,0.0046659791842103004,-0.020015433430671692,0.017052652314305305,-0.0007509089191444218,0.02696799673140049
0.03490713983774185,0.004353220574557781,-0.021500611677765846,0.016235962510108948,-0.0006325296708382666,0.027030298486351967
0.035055916756391525,0.004357615951448679,-0.021183811128139496,0.01686735264956951,-0.0006342182168737054,0.02809412218630314
0.036038219928741455,0.00464800326153636,-0.020824864506721497,0.01647157035768032,-0.0006367625901475549,0.028488585725426674
0.03581006079912186,0.004700230434536934,-0.021237043663859367,0.016595594584941864,-0.0006182837532833219,0.027880525216460228
0.03394792973995209,0.004586857743561268,-0.02151206135749817,0.016948534175753593,-0.0006406483007594943,0.02886422723531723
0.0349464975297451,0.004431205336004496,-0.020362723618745804,0.017024610191583633,-0.0006582163623534143,0.028788143768906593
0.035919439047575,0.004230357240885496,-0.020572615787386894,0.01746710017323494,-0.000721337681170553,0.02788119949400425
0.03588373586535454,0.004417598247528076,-0.02105315402150154,0.01715446636080742,-0.0007177358493208885,0.027162183076143265
0.036337681114673615,0.00461290730163455,-0.02075251191854477,0.01713681034743786,-0.0006886612973175943,0.028528081253170967
0.03573990985751152,0.004747260827571154,-0.0204525887966156,0.017159998416900635,-0.0007063240627758205,0.02941661700606346
0.03500303998589516,0.004514673724770546,-0.02116510272026062,0.017182450741529465,-0.0007943389937281609,0.028942126780748367
0.034782495349645615,0.004150907509028912,-0.021349582821130753,0.018405957147479057,-0.0007887952378951013,0.028133410960435867
0.036023616790771484,0.004381005652248859,-0.020944757387042046,0.017843477427959442,-0.0007434562430717051,0.028457950800657272
0.03454025834798813,0.004686187021434307,-0.0205990057438612,0.017514925450086594,-0.0006570029654540122,0.028097908943891525
0.03622736409306526,0.00477173225954175,-0.020808909088373184,0.01747092232108116,-0.0006697701755911112,0.028239529579877853
0.03622736409306526,0.00477173225954175,-0.020808909088373184,0.01747092232108116,-0.0006697701755911112,0.028239529579877853
0.036368902772665024,0.004643058404326439,-0.02084367163479328,0.016851268708705902,-0.0006156273884698749,0.028169164434075356
0.03537026420235634,0.004293348174542189,-0.020687729120254517,0.01701977476477623,-0.0005511374329216778,0.02833491563796997
0.036553528159856796,0.004494793247431517,-0.02127230353653431,0.017673803493380547,-0.0005420736852101982,0.02842322178184986
0.03586971014738083,0.004700500052422285,-0.021080229431390762,0.018321452662348747,-0.0005060789990238845,0.028785908594727516
0.0361679382622242,0.0043527549132704735,-0.02073001116514206,0.018080780282616615,-0.00043866937630809844,0.028773289173841476
0.036429014056921005,0.004426490515470505,-0.02120819129049778,0.01814507693052292,-0.0004349685914348811,0.02883298136293888
0.036658935248851776,0.004983749706298113,-0.02106340602040291,0.017838697880506516,-0.0004344967601355165,0.0289961788803339
0.0360884889960289,0.0044519370421767235,-0.02044816128909588,0.017435433343052864,-0.0004668581241276115,0.029138976708054543
0.03685310110449791,0.004450728185474873,-0.02108919993042946,0.01773669943213463,-0.0004927268601022661,0.028789373114705086
0.038001976907253265,0.004447236657142639,-0.02168167755007744,0.017558975145220757,-0.0004714926180895418,0.02950875647366047
0.03599148988723755,0.004757841117680073,-0.021114259958267212,0.017346886917948723,-0.0007277594413608313,0.029522929340600967
0.035762324929237366,0.004833855666220188,-0.02097606658935547,0.017380882054567337,-0.0007634558132849634,0.029446512460708618
0.03706333041191101,0.004896409343928099,-0.02120146155357361,0.0173204243183136,-0.000780336617026478,0.029054325073957443
0.03690115734934807,0.005081582348793745,-0.021866673603653908,0.01757044531404972,-0.0007567568682134151,0.02912723273038864
0.0380542017519474,0.004850758705288172,-0.021616289392113686,0.017476612702012062,-0.0010188694577664137,0.030438564717769623
0.0378907173871994,0.004428734537214041,-0.021113697439432144,0.01778367906808853,-0.0009054008987732232,0.030774187296628952
0.036680661141872406,0.0045998371206223965,-0.020878871902823448,0.01809602789580822,-0.0008981670252978802,0.02968544512987137
0.036295175552368164,0.004603588953614235,-0.02139722742140293,0.019219469279050827,-0.0008901467081159353,0.028549307957291603
0.037891119718551636,0.004659653175622225,-0.021481556817889214,0.017397090792655945,-0.0008678479352965951,0.029415013268589973
0.03777609393000603,0.005065376870334148,-0.021353453397750854,0.01705566793680191,-0.0008618033607490361,0.02989748865365982
0.03751078248023987,0.004671606235206127,-0.021115437150001526,0.017774267122149467,-0.0008344019297510386,0.029885664582252502
0.03764323890209198,0.00552535243332386,-0.021052975207567215,0.018393859267234802,-0.0007865407387726009,0.03077586740255356
0.037654317915439606,0.00563637213781476,-0.02128785289824009,0.018101584166288376,-0.0007886430830694735,0.0306069478392601
0.037851426750421524,0.004826006945222616,-0.022102605551481247,0.01798221841454506,-0.000779880618210882,0.02981574274599552
0.03787761181592941,0.004298834130167961,-0.021804479882121086,0.01807706244289875,-0.000818178232293576,0.02940472587943077
0.03798260912299156,0.0050396365113556385,-0.022511251270771027,0.01775745302438736,-0.0008308420074172318,0.029520651325583458
0.03798260912299156,0.0050396365113556385,-0.022511251270771027,0.01775745302438736,-0.0008308420074172318,0.029520651325583458
0.03806502744555473,0.005448316689580679,-0.021767975762486458,0.017863400280475616,-0.0008393764146603644,0.030861103907227516
0.03845709562301636,0.005129145924001932,-0.0218366589397192,0.017594413831830025,-0.000927627261262387,0.029962841421365738
0.03861144930124283,0.005146435461938381,-0.022377127781510353,0.017967883497476578,-0.0009315145434811711,0.030323989689350128
0.03863172233104706,0.004999327007681131,-0.022179782390594482,0.017753254622220993,-0.0008683723863214254,0.03026832453906536
0.038076743483543396,0.005300713237375021,-0.021657854318618774,0.017957890406250954,-0.000868223316501826,0.0303617175668478
0.03872913494706154,0.005345213692635298,-0.022071272134780884,0.018166976049542427,-0.0008612595265731215,0.031009182333946228
0.039424147456884384,0.00496224919334054,-0.022476723417639732,0.017716078087687492,-0.0008599283755756915,0.031195739284157753
0.03849674016237259,0.005146711133420467,-0.022334206849336624,0.018106166273355484,-0.0008652539108879864,0.03076961636543274
0.038800306618213654,0.004955239128321409,-0.021611331030726433,0.01765969768166542,-0.0008415064658038318,0.03098362684249878
0.038961853832006454,0.005461122840642929,-0.02179430052638054,0.01780042052268982,-0.0007981257513165474,0.0310418251901865
0.03880167379975319,0.005180345382541418,-0.021919578313827515,0.018095221370458603,-0.0007998993387445807,0.031029419973492622
0.03955383971333504,0.004936551209539175,-0.022292878478765488,0.018197573721408844,-0.0008265070500783622,0.031258475035429
0.039014916867017746,0.005008535925298929,-0.022433388978242874,0.018912192434072495,-0.0007324917824007571,0.031070832163095474
0.038590170443058014,0.004947213921695948,-0.021996786817908287,0.01888110674917698,-0.0007455654558725655,0.030964436009526253
0.0388055220246315,0.005333409644663334,-0.022393155843019485,0.018547337502241135,-0.0007550909649580717,0.031358636915683746
0.039671339094638824,0.005598774179816246,-0.022753214463591576,0.018918760120868683,-0.000783336057793349,0.031025871634483337
0.04055730253458023,0.005423956550657749,-0.022496119141578674,0.018927281722426414,-0.0008180202567018569,0.03141731768846512
0.038519058376550674,0.005256911274045706,-0.021770035848021507,0.018756350502371788,-0.0008384623797610402,0.03143642097711563
0.03805214539170265,0.0049969591200351715,-0.021918993443250656,0.019031522795557976,-0.0007985469419509172,0.03147994354367256
0.03954543545842171,0.005355639848858118,-0.02230793796479702,0.018759986385703087,-0.0007603577105328441,0.030488286167383194
0.03990524634718895,0.005517677403986454,-0.022701526060700417,0.01843290589749813,-0.0008012618636712432,0.03217872604727745
0.04070832580327988,0.00549839623272419,-0.022237131372094154,0.01895320974290371,-0.0007161101093515754,0.03187776729464531
0.040672846138477325,0.0058891503140330315,-0.02164083905518055,0.018903708085417747,-0.0007346261409111321,0.0320187583565712
0.0383678637444973,0.005352973472326994,-0.02189323678612709,0.018796131014823914,-0.0007325983024202287,0.033096808940172195
0.03951437026262283,0.005647527053952217,-0.022074395790696144,0.019151397049427032,-0.0007492803852073848,0.032059673219919205
0.040587034076452255,0.005410322919487953,-0.022148553282022476,0.018682317808270454,-0.0007056317990645766,0.030990412458777428
0.040038250386714935,0.005413630045950413,-0.021867433562874794,0.018780941143631935,-0.0007037367904558778,0.03076588734984398
0.040038250386714935,0.005413630045950413,-0.021867433562874794,0.018780941143631935,-0.0007037367904558778,0.03076588734984398
0.04046256095170975,0.005614086985588074,-0.02216329425573349,0.01935030147433281,-0.0007283180020749569,0.03215642645955086
0.03987537696957588,0.005337591283023357,-0.02252058871090412,0.019459962844848633,-0.0006689004367217422,0.03284784033894539
0.04019172117114067,0.005408582277595997,-0.022096872329711914,0.02006014995276928,-0.0006908393697813153,0.03286183252930641
0.040040336549282074,0.00512228487059474,-0.02236633561551571,0.01930290088057518,-0.0008098284015432,0.03238808736205101
0.040196843445301056,0.0059465523809194565,-0.022168194875121117,0.018788931891322136,-0.0008376364130526781,0.03118547983467579
0.03973842412233353,0.005450517404824495,-0.02208629436790943,0.019128181040287018,-0.0008466215804219246,0.0314229391515255
0.04057621583342552,0.005351060535758734,-0.022167127579450607,0.019640782848000526,-0.0008051923359744251,0.032848015427589417
0.04136502742767334,0.005089664366096258,-0.022491365671157837,0.01978299580514431,-0.00097006926080212,0.033131349831819534
0.0390901081264019,0.004992311354726553,-0.02281070500612259,0.019581403583288193,-0.0009667907143011689,0.032439157366752625
0.039551835507154465,0.0057228622026741505,-0.022739501670002937,0.01908763498067856,-0.0009569220128469169,0.03215707466006279
0.03993240371346474,0.005692418664693832,-0.02283451147377491,0.019133523106575012,-0.0009410360944457352,0.031754303723573685
0.04011392220854759,0.0056909541599452496,-0.02193908393383026,0.019497448578476906,-0.0008485084399580956,0.03234182298183441
0.04182165116071701,0.005263359285891056,-0.022265911102294922,0.019012030214071274,-0.0007775930571369827,0.032411061227321625
0.039383091032505035,0.005520685110241175,-0.023069264367222786,0.01852411776781082,-0.000781066482886672,0.03241799399256706
0.03878675028681755,0.005602903664112091,-0.022897696122527122,0.018997931852936745,-0.0007954458706080914,0.03244006261229515
0.04086342453956604,0.005860336124897003,-0.02242848463356495,0.019384365528821945,-0.0008073496283032,0.032946839928627014
0.04079381376504898,0.005743556655943394,-0.022377580404281616,0.01876983232796192,-0.000898157071787864,0.033511336892843246
0.0404469296336174,0.005525052547454834,-0.023192018270492554,0.01873733289539814,-0.0009900974109768867,0.03256287798285484
0.04051803797483444,0.005749376490712166,-0.022951170802116394,0.019166819751262665,-0.0009831089992076159,0.0333138033747673
0.04072994366288185,0.005249785725027323,-0.0231713205575943,0.01947461999952793,-0.0009270351147279143,0.033923860639333725
0.04114580526947975,0.005183814559131861,-0.022409049794077873,0.019082441926002502,-0.001069314661435783,0.03360358998179436
0.041212741285562515,0.00570251839235425,-0.02211788296699524,0.018660040572285652,-0.0009720209054648876,0.033847399055957794
0.04078307002782822,0.0053869509138166904,-0.022365359589457512,0.01906706765294075,-0.000956205534748733,0.033592697232961655
0.040785033255815506,0.00510793924331665,-0.023319674655795097,0.019298508763313293,-0.0009546321234665811,0.0336327850818634
0.04158362001180649,0.005035636015236378,-0.02322487346827984,0.01890297420322895,-0.0009955025743693113,0.03261261060833931
0.04188642278313637,0.004843469243496656,-0.022312317043542862,0.019322440028190613,-0.0009829574264585972,0.03363138437271118
0.04188642278313637,0.004843469243496656,-0.022312317043542862,0.019322440028190613,-0.0009829574264585972,0.03363138437271118
0.04181807488203049,0.005169789306819439,-0.022381214424967766,0.019523685798048973,-0.0009712371975183487,0.03468994423747063
0.04212075099349022,0.005487106274813414,-0.022985994815826416,0.01940125972032547,-0.0009170692646875978,0.03413553163409233
0.04183599725365639,0.005201871041208506,-0.022898154333233833,0.019936375319957733,-0.0009924453916028142,0.03354347497224808
0.04206506907939911,0.005486851092427969,-0.02279685251414776,0.019119644537568092,-0.0009168072137981653,0.03407204523682594
0.04244411736726761,0.005594650283455849,-0.02237752638757229,0.019118139520287514,-0.0009103929623961449,0.03463628143072128
0.04203718900680542,0.005798439495265484,-0.022608378902077675,0.019975902512669563,-0.000895948673132807,0.03555192053318024
0.042473405599594116,0.005298123694956303,-0.023179247975349426,0.02005503885447979,-0.0008929101750254631,0.034702368080616
0.04242704436182976,0.005644811782985926,-0.02285010926425457,0.019679993391036987,-0.000893646851181984,0.0332898274064064
0.042696963995695114,0.00540909543633461,-0.02249736525118351,0.020118005573749542,-0.0008944167057052255,0.03343137353658676
0.04311671480536461,0.005373060703277588,-0.022496789693832397,0.019669339060783386,-0.0008818970527499914,0.03489575535058975
0.0431983582675457,0.005476795602589846,-0.02298150211572647,0.019337886944413185,-0.0008060760446824133,0.033852241933345795
0.04248815402388573,0.005671413615345955,-0.023197943344712257,0.020021669566631317,-0.0008149571367539465,0.0345129631459713
0.044288743287324905,0.005469966679811478,-0.023468531668186188,0.020866917446255684,-0.0008257759036496282,0.03500308468937874
0.043814126402139664,0.005655208602547646,-0.02351740002632141,0.020544402301311493,-0.0008441643440164626,0.034448131918907166
0.041923098266124725,0.005357926245778799,-0.023161085322499275,0.020453397184610367,-0.0010399241000413895,0.03442396596074104
0.04349151626229286,0.006097190547734499,-0.023295294493436813,0.020360980182886124,-0.0010393635602667928,0.03448467329144478
0.04379565268754959,0.005750747397542,-0.02351376973092556,0.019468767568469048,-0.0010207054438069463,0.0345587357878685
0.04382374882698059,0.0057816519401967525,-0.023653483018279076,0.0192885659635067,-0.0010058162733912468,0.034588996320962906
0.04481290280818939,0.0052252523601055145,-0.02338177151978016,0.01995192840695381,-0.000905254331883043,0.03466801717877388
0.0424291267991066,0.005836049094796181,-0.022844374179840088,0.019783372059464455,-0.0008881420944817364,0.0350368395447731
0.04403581842780113,0.00550509337335825,-0.02335173450410366,0.01871003583073616,-0.0008394123869948089,0.035319093614816666
0.0439237542450428,0.005910857114940882,-0.023625371977686882,0.0190141461789608,-0.0008437942015007138,0.03526008129119873
0.04390788823366165,0.005928403232246637,-0.02322820946574211,0.018873561173677444,-0.000810338999144733,0.03527528792619705
0.043105509132146835,0.005875084083527327,-0.02330216020345688,0.0200344305485487,-0.000789034238550812,0.034954898059368134
0.0438770167529583,0.005858706310391426,-0.023786276578903198,0.020530251786112785,-0.0008021733956411481,0.03534430265426636
0.04425283893942833,0.005811065901070833,-0.024410229176282883,0.020001161843538284,-0.0008413269533775747,0.03558572009205818
0.04425283893942833,0.005811065901070833,-0.024410229176282883,0.020001161843538284,-0.0008413269533775747,0.03558572009205818
0.04397191107273102,0.006151232868432999,-0.02424582652747631,0.01925303041934967,-0.0009373094653710723,0.03590255603194237
0.04369484633207321,0.005886204075068235,-0.02372785657644272,0.019619306549429893,-0.0010327007621526718,0.035649895668029785
0.045517344027757645,0.006132007110863924,-0.023551497608423233,0.01980639435350895,-0.0009795194491744041,0.035048894584178925
0.043924953788518906,0.005599393509328365,-0.023784004151821136,0.01962137036025524,-0.0009984307689592242,0.03704966977238655
0.04438174515962601,0.005961193237453699,-0.023455612361431122,0.020697258412837982,-0.0010252732317894697,0.03557245805859566
0.04473768547177315,0.005778215825557709,-0.02421458438038826,0.02035309001803398,-0.0010069257114082575,0.034819766879081726
0.04579082503914833,0.005529981572180986,-0.025240935385227203,0.02024088054895401,-0.000983388745225966,0.03612430393695831
0.04442214593291283,0.005737789906561375,-0.025341186672449112,0.020809736102819443,-0.0008819624199531972,0.03632869943976402
0.0429701991379261,0.006209634710103273,-0.02358122356235981,0.02053902857005596,-0.0008238669252023101,0.03731907159090042
0.045175936073064804,0.0061291237361729145,-0.023265281692147255,0.019853483885526657,-0.0008314322913065553,0.037107374519109726
