davideferrari95/blind_handover_controller/data/Test 105 - [2024-02-07 -- 16-21-30]/joint_states_data.csv
shoulder_pan_joint,shoulder_lift_joint,elbow_joint,wrist_1_joint,wrist_2_joint,wrist_3_joint
0.008444800041615963,-0.006607819348573685,-0.01729772798717022,0.02491317316889763,0.0,0.008151141926646233
0.008454776369035244,-0.006277818698436022,-0.017577800899744034,0.025298377498984337,0.0,0.008399944752454758
0.008454776369035244,-0.006277818698436022,-0.017577800899744034,0.025298377498984337,0.0,0.008399944752454758
0.007839469239115715,-0.006339927203953266,-0.017368357628583908,0.024912508204579353,0.0,0.007683367934077978
0.008582140319049358,-0.005996982101351023,-0.017671316862106323,0.02561013773083687,0.0,0.007870006375014782
0.008464142680168152,-0.006055526435375214,-0.017661307007074356,0.025523716583848,0.0,0.008282748982310295
0.00781528651714325,-0.006597226019948721,-0.016987893730401993,0.025083031505346298,0.0,0.00794882234185934
0.008331443183124065,-0.006040113512426615,-0.017550280317664146,0.025342611595988274,0.0,0.008025080896914005
0.008331443183124065,-0.006040113512426615,-0.017550280317664146,0.025342611595988274,0.0,0.008025080896914005
0.008048285730183125,-0.005813776981085539,-0.017368175089359283,0.02561020664870739,0.0,0.008007417432963848
0.007825718261301517,-0.006249383557587862,-0.016831839457154274,0.024062659591436386,0.0,0.008182195946574211
0.007825718261301517,-0.006249383557587862,-0.016831839457154274,0.024062659591436386,0.0,0.008182195946574211
0.008827820420265198,-0.00644531287252903,-0.017027325928211212,0.024463875219225883,0.0,0.00819978304207325
0.008235515095293522,-0.0058472347445786,-0.01625555381178856,0.024813106283545494,0.0,0.008489233441650867
0.007519867736846209,-0.0059529561549425125,-0.017009684816002846,0.024584127590060234,0.0,0.008043928071856499
0.007796925958245993,-0.006743708625435829,-0.016591597348451614,0.024430008605122566,0.0,0.007650305051356554
0.008100718259811401,-0.007102431263774633,-0.01652485877275467,0.024062473326921463,0.0,0.007960132323205471
0.008303041569888592,-0.0070127141661942005,-0.01681111380457878,0.024340294301509857,0.0,0.008139296434819698
0.007691391743719578,-0.005928751081228256,-0.01619378663599491,0.024310657754540443,0.0,0.007757151033729315
0.00811648927628994,-0.00645477743819356,-0.016606463119387627,0.024941574782133102,0.0,0.007965263910591602
0.008162572048604488,-0.006811859551817179,-0.016303032636642456,0.025405842810869217,0.0,0.008318020030856133
0.007911094464361668,-0.007419464644044638,-0.016982847824692726,0.025293799117207527,0.0,0.00858711451292038
0.008678361773490906,-0.006478667259216309,-0.017495907843112946,0.024753622710704803,0.0,0.0079546719789505
0.008589955978095531,-0.006280723959207535,-0.01653568260371685,0.02434912696480751,0.0,0.00746264448389411
0.007872646674513817,-0.0069107785820961,-0.01696642115712166,0.0244206003844738,0.0,0.008517427369952202
0.007702812552452087,-0.006919509265571833,-0.016624050214886665,0.024784941226243973,0.0,0.008208193816244602
0.007773270830512047,-0.007378445006906986,-0.01700509712100029,0.024370906874537468,0.0,0.007970907725393772
0.007820398546755314,-0.006108889356255531,-0.016168398782610893,0.024567656219005585,0.0,0.007931435480713844
0.007699680980294943,-0.006445374805480242,-0.016683559864759445,0.02568429335951805,0.0,0.007884958758950233
0.00825820118188858,-0.0066809519194066525,-0.017159976065158844,0.025850443169474602,0.0,0.00801029521971941
0.008456308394670486,-0.007237220648676157,-0.016910819336771965,0.02494148164987564,0.0,0.008040067739784718
0.00830548070371151,-0.006526720244437456,-0.01670399121940136,0.02381514012813568,0.0,0.00796399638056755
0.008063494227826595,-0.006292921025305986,-0.01623472012579441,0.023785779252648354,0.0,0.008118660189211369
0.008463983424007893,-0.006928083952516317,-0.01688465289771557,0.024555275216698647,0.0,0.008120407350361347
0.008557358756661415,-0.006952374707907438,-0.01753533072769642,0.02552376687526703,0.0,0.007534450851380825
0.008557358756661415,-0.006952374707907438,-0.01753533072769642,0.02552376687526703,0.0,0.007534450851380825
0.00802648440003395,-0.00645102234557271,-0.01708676479756832,0.024640480056405067,0.0,0.00790775753557682
0.008312168531119823,-0.006551357917487621,-0.01627335511147976,0.024479351937770844,0.0,0.008392341434955597
0.008838800713419914,-0.006972905248403549,-0.017108475789427757,0.02426747977733612,0.0,0.00808057002723217
0.007952296175062656,-0.006933607626706362,-0.016513636335730553,0.023857494816184044,0.0,0.00815587118268013
0.007121437694877386,-0.00665341317653656,-0.016766050830483437,0.02404351718723774,0.0,0.007870383560657501
0.0079945158213377,-0.006640822626650333,-0.016870694234967232,0.02395525947213173,0.0,0.00780694792047143
0.008355860598385334,-0.006791415624320507,-0.016609594225883484,0.023929482325911522,0.0,0.008714862167835236
0.0077418251894414425,-0.007057299837470055,-0.01551875751465559,0.0241691954433918,0.0,0.008161753416061401
0.007964110933244228,-0.007056644652038813,-0.017369545996189117,0.025496695190668106,0.0,0.007660930044949055
0.007883956655859947,-0.006758526898920536,-0.016987266018986702,0.023246679455041885,0.0,0.007522604428231716
0.007747688330709934,-0.007408113684505224,-0.01643148437142372,0.023272326216101646,0.0,0.007626855280250311
0.0073870024643838406,-0.007823735475540161,-0.016177961602807045,0.02387986145913601,0.0,0.007711335085332394
0.008107481524348259,-0.007161950226873159,-0.016966048628091812,0.02390807867050171,0.0,0.0074357762932777405
0.008365076035261154,-0.006683737970888615,-0.016044430434703827,0.023711828514933586,0.0,0.007225772365927696
0.00795627199113369,-0.006754502188414335,-0.01670585386455059,0.023388966917991638,0.0,0.007570208981633186
0.007573198527097702,-0.007103372365236282,-0.01663018763065338,0.023592093959450722,0.0,0.0072208889760077
0.008089020848274231,-0.0071134427562355995,-0.01689460687339306,0.023767437785863876,0.0,0.007189030759036541
0.008111841976642609,-0.006704175379127264,-0.01688951998949051,0.023984583094716072,0.0,0.007360072340816259
0.007569218520075083,-0.007110557984560728,-0.01642637513577938,0.023828420788049698,0.0,0.00802286621183157
0.008127822540700436,-0.0076002320274710655,-0.016792025417089462,0.02348584495484829,0.0,0.007836391218006611
0.008528837002813816,-0.007119018118828535,-0.016250548884272575,0.02362494170665741,0.0,0.007379462011158466
0.007987544871866703,-0.006982534658163786,-0.016645226627588272,0.02374980039894581,0.0,0.006998188327997923
0.007987544871866703,-0.006982534658163786,-0.016645226627588272,0.02374980039894581,0.0,0.006998188327997923
0.007840202189981937,-0.007248071953654289,-0.016311079263687134,0.023849643766880035,0.0,0.00788925588130951
0.007956345565617085,-0.007370412349700928,-0.016400907188653946,0.02380787581205368,0.0,0.007676655892282724
0.008801408112049103,-0.007838213816285133,-0.01615755446255207,0.02385784313082695,0.0,0.006978025659918785
0.008037605322897434,-0.006950377952307463,-0.016627348959445953,0.023942232131958008,0.0,0.007185414433479309
0.008091255091130733,-0.007103420794010162,-0.01602110266685486,0.02424035407602787,0.0,0.007306442596018314
0.008136318065226078,-0.007461673580110073,-0.016317157074809074,0.02417047508060932,0.0,0.007635741960257292
0.00784353818744421,-0.007277961820363998,-0.015987582504749298,0.024141302332282066,0.0,0.00759852072224021
0.008217163383960724,-0.007138315588235855,-0.01649186946451664,0.024024514481425285,0.0,0.007544802967458963
0.008406485430896282,-0.007257627788931131,-0.016556693241000175,0.023656433448195457,0.0,0.006978013552725315
0.008227130398154259,-0.007328859530389309,-0.015892673283815384,0.024039121344685555,0.0,0.007019498385488987
0.007976486347615719,-0.006965097039937973,-0.016437333077192307,0.024433080106973648,0.0,0.00806333776563406
0.00846161600202322,-0.007100243587046862,-0.01587962545454502,0.02443375624716282,0.0,0.00710257375612855
0.008647402748465538,-0.007460398133844137,-0.016571681946516037,0.02361730858683586,0.0,0.006857719738036394
0.007999632507562637,-0.007733394391834736,-0.016232211142778397,0.023744918406009674,0.0,0.007572622504085302
0.008128942921757698,-0.007482863962650299,-0.01635151170194149,0.024235092103481293,0.0,0.007746887858957052
0.008422295562922955,-0.007332274690270424,-0.01621197536587715,0.02410769648849964,0.0,0.007683536969125271
0.00816046167165041,-0.007481255568563938,-0.015978869050741196,0.024183033034205437,0.0,0.007413375657051802
0.00815208163112402,-0.007491813041269779,-0.016716403886675835,0.023472672328352928,0.0,0.007481539621949196
0.008002327755093575,-0.007341926451772451,-0.01618625782430172,0.023289963603019714,0.0,0.00774373859167099
0.008112543262541294,-0.007235955446958542,-0.016551688313484192,0.023618513718247414,0.0,0.007859009318053722
0.008062034845352173,-0.007438529748469591,-0.016044680029153824,0.0241989903151989,0.0,0.007609058637171984
0.008295753039419651,-0.007499368861317635,-0.016456332057714462,0.023854514583945274,0.0,0.007707600481808186
0.008643471635878086,-0.007290063425898552,-0.016496678814291954,0.02366214245557785,0.0,0.007226066198199987
0.008116104640066624,-0.007033295929431915,-0.01634105108678341,0.02401612140238285,0.0,0.007856846787035465
0.008001860231161118,-0.0077880253084003925,-0.016431748867034912,0.024036899209022522,0.0,0.007848610170185566
0.008001860231161118,-0.0077880253084003925,-0.016431748867034912,0.024036899209022522,0.0,0.007848610170185566
0.008976736105978489,-0.007249349262565374,-0.01667364314198494,0.02289612405002117,0.0,0.006612797267735004
0.008976736105978489,-0.007249349262565374,-0.01667364314198494,0.02289612405002117,0.0,0.006612797267735004
0.008073416538536549,-0.008138212375342846,-0.016430916264653206,0.02236000820994377,0.0,0.007423169910907745
0.008248399943113327,-0.007671243976801634,-0.0162881538271904,0.023350274190306664,0.0,0.007291683927178383
0.00824850145727396,-0.0067971013486385345,-0.01641172170639038,0.023109249770641327,0.0,0.006983831990510225
0.008274982683360577,-0.006927153095602989,-0.016421915963292122,0.02244124561548233,0.0,0.007268997840583324
0.00809386558830738,-0.008195227012038231,-0.016133328899741173,0.02291550114750862,0.0,0.007202978245913982
0.008438369259238243,-0.007814300246536732,-0.016740331426262856,0.02328777126967907,0.0,0.00719356769695878
0.008373009972274303,-0.007449037861078978,-0.016261698678135872,0.023031897842884064,0.0,0.007456695195287466
0.008144757710397243,-0.007769548799842596,-0.01667383871972561,0.02270723506808281,0.0,0.0071425368078053
0.00837687961757183,-0.007952884770929813,-0.01657426916062832,0.02272671088576317,0.0,0.007220478728413582
0.008890819735825062,-0.007921425625681877,-0.017121735960245132,0.02275998331606388,0.0,0.007845325395464897
0.008600132539868355,-0.007107618264853954,-0.017236247658729553,0.023449765518307686,0.0,0.007803810760378838
0.008379951119422913,-0.006998058408498764,-0.016251366585493088,0.02296634018421173,0.0,0.0076174200512468815
0.009153049439191818,-0.0073453825898468494,-0.016554145142436028,0.022862382233142853,0.0,0.006921730469912291
0.008654146455228329,-0.006805039942264557,-0.01661526970565319,0.023239178583025932,0.0,0.0066118501126766205
0.008243006654083729,-0.0057626343332231045,-0.017321307212114334,0.02325146272778511,0.0,0.0068795750848948956
0.009124410338699818,-0.005210062023252249,-0.017646655440330505,0.023309670388698578,0.0,0.00703792180866003
0.008737057447433472,-0.006305898539721966,-0.01657090149819851,0.02278377115726471,0.0,0.007586355321109295
0.008606928400695324,-0.006177952513098717,-0.017358649522066116,0.022533157840371132,0.0,0.007111005485057831
0.00856519304215908,-0.006048586219549179,-0.016918564215302467,0.022833703085780144,0.0,0.007317929994314909
0.00852966494858265,-0.00593124283477664,-0.01674656569957733,0.023525776341557503,0.0,0.006711038760840893
0.008719483390450478,-0.005569754168391228,-0.016669923439621925,0.023051049560308456,0.0,0.006811591796576977
0.0084926076233387,-0.006178361363708973,-0.016611415892839432,0.02238672412931919,0.0,0.0072462595999240875
0.0084926076233387,-0.006178361363708973,-0.016611415892839432,0.02238672412931919,0.0,0.0072462595999240875
0.008783681318163872,-0.005875586066395044,-0.017238933593034744,0.02172725461423397,0.0,0.0072518326342105865
0.008935432881116867,-0.005573786795139313,-0.016860028728842735,0.022832337766885757,0.0,0.0067982058972120285
0.00845056027173996,-0.004793680738657713,-0.015196209773421288,0.022968405857682228,0.0,0.007167153526097536
0.008881732821464539,-0.005599168129265308,-0.017221735790371895,0.022588225081562996,0.0,0.006953849457204342
0.00873860064893961,-0.005808478686958551,-0.017385929822921753,0.022508595138788223,0.0,0.006866751238703728
0.008357741869986057,-0.005869314074516296,-0.016521448269486427,0.023491349071264267,0.0,0.006826850585639477
0.009429569356143475,-0.005351956933736801,-0.01677500456571579,0.02359672635793686,0.0,0.006808744743466377
0.008828374557197094,-0.00486507685855031,-0.016539381816983223,0.02286011166870594,0.0,0.007088164333254099
0.008378049358725548,-0.005328962113708258,-0.017404654994606972,0.021862177178263664,0.0,0.006967354565858841
0.009052668698132038,-0.005380738060921431,-0.016560666263103485,0.021453604102134705,0.0,0.006756753195077181
0.009214005433022976,-0.005896163638681173,-0.01617104560136795,0.02162516862154007,0.0,0.006586134899407625
0.008523495867848396,-0.0058488682843744755,-0.016734875738620758,0.022615620866417885,0.0,0.006949476897716522
0.008527579717338085,-0.0056052301079034805,-0.016059963032603264,0.022413013502955437,0.0,0.0068632494658231735
0.009066534228622913,-0.005400558467954397,-0.016950270161032677,0.022106852382421494,0.0,0.0065652476623654366
0.009107056073844433,-0.005599612835794687,-0.01630445010960102,0.022562911733984947,0.0,0.006997938267886639
0.008446997962892056,-0.0057969409972429276,-0.016729630529880524,0.022660264745354652,0.0,0.0069386325776577
0.008789630606770515,-0.006107299122959375,-0.016761813312768936,0.021977698430418968,0.0,0.0066309343092143536
0.008969699032604694,-0.005731634795665741,-0.016309324651956558,0.021908443421125412,0.0,0.006702531594783068
0.00904932338744402,-0.005626969039440155,-0.016260679811239243,0.022298665717244148,0.0,0.006716814823448658
0.008856075815856457,-0.005579174030572176,-0.015957726165652275,0.022126330062747,0.0,0.006487807258963585
0.009175891987979412,-0.00573270209133625,-0.016938591375947,0.02120785601437092,0.0,0.0061064851470291615
0.00873414147645235,-0.005510909017175436,-0.016489185392856598,0.021321013569831848,0.0,0.006256320513784885
0.008661589585244656,-0.005455909296870232,-0.016632918268442154,0.021472040563821793,0.0,0.00622526602819562
0.008908117190003395,-0.005074974149465561,-0.016475815325975418,0.021717362105846405,0.0,0.0061872550286352634
0.008809559047222137,-0.005208319518715143,-0.01640670746564865,0.02208145521581173,0.0,0.006334021687507629
0.008745353668928146,-0.005519058555364609,-0.016864672303199768,0.021410109475255013,0.0,0.006517881061881781
0.008916252292692661,-0.005996705498546362,-0.016367945820093155,0.02135680429637432,0.0,0.006133866962045431
0.008943263441324234,-0.005263085942715406,-0.015689445659518242,0.022280992940068245,0.0,0.006410454865545034
0.008943263441324234,-0.005263085942715406,-0.015689445659518242,0.022280992940068245,0.0,0.006410454865545034
0.009070214815437794,-0.004967810586094856,-0.01618839055299759,0.021984118968248367,0.0,0.006305110175162554
0.009177531115710735,-0.005884333048015833,-0.01638021133840084,0.022014018148183823,0.0,0.006087313871830702
0.008720677345991135,-0.005462754052132368,-0.016353411599993706,0.02230765111744404,0.0,0.006407265085726976
0.008923565037548542,-0.005473538767546415,-0.01590554602444172,0.022210659459233284,0.0,0.0060476865619421005
0.008959455415606499,-0.005592706147581339,-0.015617093071341515,0.02228354848921299,0.0,0.0061516184359788895
0.008995026350021362,-0.005352219101041555,-0.016311990097165108,0.02217869646847248,0.0,0.0064880214631557465
0.009108200669288635,-0.005299918819218874,-0.015737222507596016,0.02203919179737568,0.0,0.005878296680748463
0.00978381372988224,-0.005509395617991686,-0.01611793041229248,0.022057056427001953,0.0,0.0059167626313865185
0.008976098150014877,-0.006024263799190521,-0.015844140201807022,0.02206202782690525,0.0,0.005927546881139278
0.009589980356395245,-0.005481214728206396,-0.01651640050113201,0.022135701030492783,0.0,0.006122893188148737
0.009063812904059887,-0.005302138160914183,-0.016934696584939957,0.022460611537098885,0.0,0.006547013763338327
0.008937518112361431,-0.0049955472350120544,-0.016011206433176994,0.023228710517287254,0.0,0.006524904165416956
0.00881770346313715,-0.005388116929680109,-0.01656203716993332,0.021734969690442085,0.0,0.005886886268854141
0.00927283987402916,-0.0057751783169806,-0.015779893845319748,0.02117990329861641,0.0,0.005882489029318094
0.009067750535905361,-0.005666492041200399,-0.016386767849326134,0.021611647680401802,0.0,0.006133924704045057
0.009229663759469986,-0.005592651199549437,-0.01587100327014923,0.021962586790323257,0.0,0.006161343771964312
0.01041038054972887,-0.005250878166407347,-0.016497081145644188,0.0215829536318779,0.0,0.005452100653201342
0.009027348831295967,-0.00525822164490819,-0.016273725777864456,0.02179303951561451,0.0,0.005550839938223362
0.008586319163441658,-0.005163973663002253,-0.016467535868287086,0.022054214030504227,0.0,0.005828059744089842
0.009251787327229977,-0.00571666331961751,-0.016222471371293068,0.02214895933866501,0.0,0.0060866763815283775
0.009675418958067894,-0.005366908386349678,-0.01558968797326088,0.02223840169608593,0.0,0.006028692238032818
0.009534941986203194,-0.005801557097584009,-0.0167530570179224,0.02206321246922016,0.0,0.005804723594337702
0.00944843515753746,-0.005206741858273745,-0.016229556873440742,0.021590156480669975,0.0,0.005523259285837412
0.009017416276037693,-0.005437355954200029,-0.016636893153190613,0.022073542699217796,0.0,0.005484048742800951
0.008906268514692783,-0.005302872974425554,-0.016332009807229042,0.021660780534148216,0.0,0.005524622276425362
0.008906268514692783,-0.005302872974425554,-0.016332009807229042,0.021660780534148216,0.0,0.005524622276425362
0.0091786440461874,-0.0057175601832568645,-0.01676853373646736,0.021237213164567947,0.0,0.005846818909049034
0.009111967869102955,-0.005284365266561508,-0.016216257587075233,0.02154790610074997,0.0,0.005634594243019819
0.009108715690672398,-0.00521116191521287,-0.016558097675442696,0.022364696487784386,0.0,0.005114431958645582
0.009420028887689114,-0.00554900337010622,-0.015965640544891357,0.022209256887435913,0.0,0.005121801048517227
0.00986198429018259,-0.005286607425659895,-0.016997195780277252,0.021310390904545784,0.0,0.005336043890565634
0.009036721661686897,-0.005678256507962942,-0.017043111845850945,0.020989006385207176,0.0,0.005853317677974701
0.009640107862651348,-0.005496693775057793,-0.016653764992952347,0.0210499819368124,0.0,0.005601381417363882
0.009081503376364708,-0.005213097203522921,-0.016467979177832603,0.021059894934296608,0.0,0.005839904770255089
0.009460167959332466,-0.005297868046909571,-0.016394833102822304,0.02169048599898815,0.0,0.005561863537877798
0.009286369197070599,-0.0054786307737231255,-0.01669418066740036,0.021636908873915672,0.0,0.0057608094066381454
0.009482555091381073,-0.005517332814633846,-0.016462743282318115,0.02148013561964035,0.0,0.005574049428105354
0.009159981273114681,-0.0054749841801822186,-0.016894757747650146,0.021733881905674934,0.0,0.005371558014303446
0.009273543953895569,-0.005093669053167105,-0.016817620024085045,0.021965567022562027,0.0,0.005501403007656336
0.009380284696817398,-0.005156375467777252,-0.01641705632209778,0.021651992574334145,0.0,0.005659147631376982
0.008904245682060719,-0.005481982138007879,-0.01663762517273426,0.021487746387720108,0.0,0.005591956898570061
0.009051339700818062,-0.005118588451296091,-0.01597311720252037,0.02117367833852768,0.0,0.005585856735706329
0.009072110056877136,-0.005929327104240656,-0.01658281683921814,0.020876511931419373,0.0,0.005508225876837969
0.00924115814268589,-0.005500095896422863,-0.016410594806075096,0.020880118012428284,0.0,0.005530314985662699
0.009852727875113487,-0.005346848163753748,-0.016624899581074715,0.021786555647850037,0.0,0.00527873495593667
0.009290854446589947,-0.005246209446340799,-0.016743984073400497,0.022022606804966927,0.0,0.00564147811383009
0.009290854446589947,-0.005246209446340799,-0.016743984073400497,0.022022606804966927,0.0,0.00564147811383009
0.00916542112827301,-0.005481671076267958,-0.016232088208198547,0.021945951506495476,0.0,0.00544379185885191
0.009029869921505451,-0.005685640033334494,-0.016260506585240364,0.021655889227986336,0.0,0.005131353158503771
0.009957733564078808,-0.005355662200599909,-0.016490966081619263,0.021336635574698448,0.0,0.005232482682913542
0.00871756300330162,-0.005321046337485313,-0.015880681574344635,0.021061869338154793,0.0,0.005713039077818394
0.009556575678288937,-0.005160070955753326,-0.016539951786398888,0.021810399368405342,0.0,0.005115760490298271
0.009556575678288937,-0.005160070955753326,-0.016539951786398888,0.021810399368405342,0.0,0.005115760490298271
0.009537680074572563,-0.005451122298836708,-0.016587387770414352,0.02164633385837078,0.0,0.004816966596990824
0.009510296396911144,-0.005251277703791857,-0.01622590608894825,0.021234948188066483,0.0,0.004655905533581972
0.009306826628744602,-0.0047148349694907665,-0.01574120670557022,0.021633021533489227,0.0,0.004584293346852064
0.00915308017283678,-0.004863453563302755,-0.016377557069063187,0.021834710612893105,0.0,0.00492052873596549
0.00959978997707367,-0.00491044856607914,-0.01575828157365322,0.021061602979898453,0.0,0.0051856134086847305
0.009526313282549381,-0.004888608120381832,-0.01647164858877659,0.020552098751068115,0.0,0.004931043367832899
0.008979718200862408,-0.00509622972458601,-0.016090478748083115,0.02122478187084198,0.0,0.004864922724664211
0.009369906969368458,-0.005520969163626432,-0.016229776665568352,0.02201460301876068,0.0,0.004790942184627056
0.009608784690499306,-0.005069820210337639,-0.015966400504112244,0.021772531792521477,0.0,0.004738536197692156
0.009464542381465435,-0.004739043302834034,-0.01578451134264469,0.021187491714954376,0.0,0.004758991301059723
0.009470490738749504,-0.005054370034486055,-0.016107479110360146,0.020398221909999847,0.0,0.005067086312919855
0.009549722075462341,-0.005208001472055912,-0.015788042917847633,0.020579403266310692,0.0,0.004868011921644211
0.009402340278029442,-0.0052855652756989,-0.01596657745540142,0.020833225920796394,0.0,0.004591547418385744
0.009195448830723763,-0.005366173107177019,-0.015562503598630428,0.02146311104297638,0.0,0.004606299102306366
0.009472881443798542,-0.005235721357166767,-0.015484324656426907,0.020974356681108475,0.0,0.004580523818731308
0.009472881443798542,-0.005235721357166767,-0.015484324656426907,0.020974356681108475,0.0,0.004580523818731308
0.009280896745622158,-0.004895913880318403,-0.015764694660902023,0.021491626277565956,0.0,0.004647370427846909
0.00952216051518917,-0.004799029789865017,-0.015680257230997086,0.022004051133990288,0.0,0.004753471817821264
0.009832043200731277,-0.005369042046368122,-0.015867330133914948,0.021616898477077484,0.0,0.005225315690040588
0.009832043200731277,-0.005369042046368122,-0.015867330133914948,0.021616898477077484,0.0,0.005225315690040588
0.009432584047317505,-0.005117118824273348,-0.01587880775332451,0.020767483860254288,0.0,0.004396109376102686
0.009432584047317505,-0.005117118824273348,-0.01587880775332451,0.020767483860254288,0.0,0.004396109376102686
0.00949362013489008,-0.004979630932211876,-0.01531557273119688,0.021276580169796944,0.0,0.004555651918053627
0.009732324630022049,-0.00525436969473958,-0.01617816649377346,0.021668029949069023,0.0,0.004637683276087046
0.009708686731755733,-0.005090082995593548,-0.01543380692601204,0.021575724706053734,0.0,0.0047693741507828236
0.009627687744796276,-0.004909232258796692,-0.01608327031135559,0.021660059690475464,0.0,0.004623033571988344
0.009613540954887867,-0.00524918083101511,-0.015334120951592922,0.02146129310131073,0.0,0.004160481970757246
0.009648727253079414,-0.005190734751522541,-0.01595940999686718,0.021007061004638672,0.0,0.004269597586244345
0.009883671998977661,-0.00498897023499012,-0.015828747302293777,0.02100546285510063,0.0,0.004431251902133226
0.009822157211601734,-0.005138420965522528,-0.015575448982417583,0.021173080429434776,-6.557911547133699e-06,0.004435932729393244
0.00945902056992054,-0.0049867029301822186,-0.01593037322163582,0.02124480903148651,-0.00010999537335010245,0.004406915046274662
0.010041779838502407,-0.004861258435994387,-0.014996004290878773,0.021251993253827095,-0.00011396736226743087,0.00435137702152133
0.009767860174179077,-0.004983977414667606,-0.01626758836209774,0.021284939721226692,-0.00013241115084383637,0.004091792739927769
0.009622631594538689,-0.005009947344660759,-0.016072243452072144,0.021957116201519966,-0.0001305960031459108,0.003899747971445322
0.010121885687112808,-0.004920423496514559,-0.016083287075161934,0.021523654460906982,-0.00012760059325955808,0.0038639777339994907
0.01091185212135315,-0.0050900643691420555,-0.015995703637599945,0.02123822271823883,-0.0001246606552740559,0.004266006872057915
0.009913019835948944,-0.004957994446158409,-0.016541125252842903,0.021461214870214462,-0.0001218480319948867,0.004540190100669861
0.009672221727669239,-0.004799059592187405,-0.016068730503320694,0.021508120000362396,-0.00013388754450716078,0.00458383746445179
0.010242011398077011,-0.005007939878851175,-0.01615367829799652,0.021079789847135544,-0.00013568247959483415,0.0041480036452412605
0.009568635374307632,-0.005043475888669491,-0.015912305563688278,0.020319432020187378,-0.00013312096416484565,0.004366546403616667
0.00942570623010397,-0.005374324042350054,-0.0157818291336298,0.020759353414177895,-0.00013038569886703044,0.0041322349570691586
0.009837997145950794,-0.00553065026178956,-0.01624588668346405,0.020762547850608826,-0.00013671985652763397,0.003999377600848675
0.009651532396674156,-0.0050644101575016975,-0.0158628411591053,0.02064475044608116,-0.00014248554361984134,0.00402112165465951
0.009718691930174828,-0.004933674354106188,-0.016533570364117622,0.020487729460000992,-0.00014026295684743673,0.004048203583806753
0.010532445274293423,-0.004705396015197039,-0.01592879183590412,0.02081328071653843,-0.00013761824811808765,0.004001135937869549
0.009319073520600796,-0.004887984599918127,-0.01573716290295124,0.02024608477950096,-0.00013503940135706216,0.003909294027835131
0.00956077128648758,-0.005353922955691814,-0.015831410884857178,0.019939297810196877,-0.00019763506134040654,0.004173860885202885
0.010756008327007294,-0.005088309291750193,-0.015870343893766403,0.020380452275276184,-0.0002480102702975273,0.004051246680319309
0.009855884127318859,-0.004868951626121998,-0.01597604900598526,0.020025666803121567,-0.00023885256086941808,0.00415985519066453
0.009855884127318859,-0.004868951626121998,-0.01597604900598526,0.020025666803121567,-0.00023885256086941808,0.00415985519066453
0.009377485141158104,-0.005035539157688618,-0.016212133690714836,0.019991574808955193,-0.00026935202185995877,0.004180365242063999
0.009821781888604164,-0.005048160441219807,-0.015622373670339584,0.020937392488121986,-0.00028592318994924426,0.004286074545234442
0.009550598450005054,-0.005024261772632599,-0.016166115179657936,0.020628169178962708,-0.00027591519756242633,0.00412106653675437
0.010538555681705475,-0.005292093381285667,-0.01516998652368784,0.02007102780044079,-0.000264494214206934,0.00397974718362093
0.009713136591017246,-0.005083040799945593,-0.015978869050741196,0.020170094445347786,-0.0002806514094118029,0.0037744869478046894
0.009422584436833858,-0.005161953624337912,-0.01577703282237053,0.020549023523926735,-0.00027825403958559036,0.0035562480334192514
0.010853258892893791,-0.004947286564856768,-0.015763157978653908,0.020146790891885757,-0.0002684310602489859,0.003939904272556305
0.010271353647112846,-0.004929414950311184,-0.016246600076556206,0.0201288852840662,-0.00025881658075377345,0.004186610691249371
0.01032122503966093,-0.005183389876037836,-0.015450257807970047,0.020412499085068703,-0.0002498366520740092,0.0040516178123652935
0.011646576225757599,-0.005318956915289164,-0.015988511964678764,0.020363377407193184,-0.00024194801517296582,0.003867564257234335
0.010998562909662724,-0.004759184084832668,-0.015378648415207863,0.0201751496642828,-0.0003135536389891058,0.003412360092625022
0.010968729853630066,-0.004596259444952011,-0.015964528545737267,0.020409664139151573,-0.0002985395258292556,0.003457220969721675
0.01145663671195507,-0.004874206613749266,-0.0154280886054039,0.020034082233905792,-0.00030758613138459623,0.0036331915762275457
0.010311608202755451,-0.005000714212656021,-0.016322065144777298,0.019857177510857582,-0.0003147912211716175,0.004063062369823456
0.011913665570318699,-0.005201295018196106,-0.015906361863017082,0.02037583664059639,-0.0002990000939462334,0.004238600842654705
0.011521528474986553,-0.005183299537748098,-0.01599295623600483,0.020488470792770386,-0.00028341030701994896,0.004088689107447863
0.010608832351863384,-0.004937725607305765,-0.015901409089565277,0.020038845017552376,-0.0002692798152565956,0.003931855317205191
0.011026732623577118,-0.004709499888122082,-0.01588481105864048,0.02020762674510479,-0.0002935072989203036,0.0034995346795767546
0.011783846653997898,-0.0046224226243793964,-0.016005584970116615,0.02028208039700985,-0.000285288697341457,0.003504720749333501
0.011488838121294975,-0.004788384772837162,-0.015909114852547646,0.020125333219766617,-0.00027324463007971644,0.003422832116484642
0.011233405210077763,-0.00498151034116745,-0.016338860616087914,0.02045035921037197,-0.00029433006420731544,0.0034509547986090183
0.011181234382092953,-0.005169006995856762,-0.01572607457637787,0.0204382985830307,-0.00028704633587040007,0.0035037542693316936
0.011688790284097195,-0.005430079996585846,-0.015999281778931618,0.02016465924680233,-0.00027631924604065716,0.003514921525493264
0.011688790284097195,-0.005430079996585846,-0.015999281778931618,0.02016465924680233,-0.00027631924604065716,0.003514921525493264
0.01139378547668457,-0.0050861113704741,-0.015607234090566635,0.020223205909132957,-0.00026612309738993645,0.003552069189026952
0.011541599407792091,-0.004642171319574118,-0.015893731266260147,0.020988326519727707,-0.0002566378389019519,0.0034773668739944696
0.012239757925271988,-0.004965162370353937,-0.015911895781755447,0.02076760120689869,-0.00026625877944752574,0.0033073623199015856
0.011508319526910782,-0.005464443005621433,-0.016113989055156708,0.0203911904245615,-0.0002519293047953397,0.003003234975039959
0.010452371090650558,-0.005148232448846102,-0.01558439526706934,0.019595103338360786,-0.00027379824314266443,0.003231379669159651
0.01132062915712595,-0.005294375121593475,-0.016175877302885056,0.01919672079384327,-0.00027108704671263695,0.0031074045691639185
0.01173294335603714,-0.004942474886775017,-0.015297988429665565,0.019421067088842392,-0.0002588143106549978,0.003406492294743657
0.011714651249349117,-0.004922039341181517,-0.015822162851691246,0.020462751388549805,-0.00024701838265173137,0.003482520580291748
0.012363173998892307,-0.004928275942802429,-0.01516682468354702,0.020504111424088478,-0.0002362133382121101,0.0033354072365909815
0.0114931371062994,-0.0057199192233383656,-0.016100673004984856,0.019591420888900757,-0.0002541861031204462,0.00303935375995934
0.011897779069840908,-0.005567537620663643,-0.015588854439556599,0.019978884607553482,-0.00025276592350564897,0.0029464371036738157
0.012291637249290943,-0.005175645928829908,-0.016084933653473854,0.020020337775349617,-0.00024356560606975108,0.0028242534026503563
0.012015272863209248,-0.004753798712044954,-0.016252689063549042,0.020275413990020752,-0.0002345348912058398,0.0028392442036420107
0.011706472374498844,-0.004594078287482262,-0.016087405383586884,0.020302914083003998,-0.00022611793247051537,0.002919564489275217
0.011444490402936935,-0.0043507651425898075,-0.016641734167933464,0.02018517069518566,-0.00021828249737154692,0.0033144219778478146
0.011696312576532364,-0.0036725953686982393,-0.015705665573477745,0.01911705732345581,-0.00023327807139139622,0.003256413619965315
0.012515595182776451,-0.0032080032397061586,-0.016548803076148033,0.019324123859405518,-0.00023278575099539012,0.003085479838773608
0.011794651858508587,-0.0034266288857907057,-0.015961576253175735,0.019610565155744553,-0.0002259408065583557,0.0028993478044867516
0.012164904735982418,-0.0038137517403811216,-0.01613013632595539,0.01939321681857109,-0.00021909538190811872,0.0026210544165223837
0.01199367456138134,-0.003909126855432987,-0.01570204459130764,0.019633617252111435,-0.00021262654627207667,0.0028631247114390135
0.012020353227853775,-0.0034143016673624516,-0.016154371201992035,0.019715506583452225,-0.00020652686362154782,0.0028267826419323683
0.011925414204597473,-0.003091235179454088,-0.016657687723636627,0.01958346925675869,-0.00020076773944310844,0.0031147655099630356
0.01208877470344305,-0.0033484362065792084,-0.01632966659963131,0.01896980218589306,-0.00020564600708894432,0.0029833673033863306
0.011930831708014011,-0.0032912592869251966,-0.016533011570572853,0.020160948857665062,-0.00020017979841213673,0.0025314954109489918
0.011930831708014011,-0.0032912592869251966,-0.016533011570572853,0.020160948857665062,-0.00020017979841213673,0.0025314954109489918
0.011617329902946949,-0.003311248030513525,-0.015715524554252625,0.020345423370599747,-0.00019188328587915748,0.0025036772713065147
0.011900554411113262,-0.0034111218992620707,-0.016259443014860153,0.019659560173749924,-0.00021595288126263767,0.002421932527795434
0.012183322571218014,-0.003383805276826024,-0.01585448905825615,0.01949840411543846,-0.00021186024241615087,0.002389058005064726
0.011992060579359531,-0.0030410371255129576,-0.0167728029191494,0.019629936665296555,-0.00022929973783902824,0.0025684332940727472
0.012376876547932625,-0.0027490591164678335,-0.01671552285552025,0.019713064655661583,-0.00022139919747132808,0.002585378708317876
0.012049337849020958,-0.0027718523051589727,-0.0168997161090374,0.01925194449722767,-0.00024042352742981166,0.0026310018729418516
0.011896807700395584,-0.002810506848618388,-0.015663214027881622,0.018959324806928635,-0.00023618318664375693,0.002581425243988633
0.012592381797730923,-0.0028265772853046656,-0.016465771943330765,0.019546879455447197,-0.00022891104163136333,0.0026941015385091305
0.012160094454884529,-0.00267068762332201,-0.016066791489720345,0.020147496834397316,-0.00022187235299497843,0.0026395053137093782
0.012178453616797924,-0.002840601373463869,-0.016687460243701935,0.019185442477464676,-0.00021524025942198932,0.002403272781521082
0.01251185778528452,-0.0029281454626470804,-0.01691056787967682,0.0193436611443758,-0.0003003696911036968,0.002227586228400469
0.012135271914303303,-0.003382794326171279,-0.01642950065433979,0.018966875970363617,-0.0003094100393354893,0.0019774585962295532
0.012558767572045326,-0.0032328679226338863,-0.016688844189047813,0.018725614994764328,-0.00029131799237802625,0.0019270061748102307
0.01186156366020441,-0.0030197470914572477,-0.016078466549515724,0.019276399165391922,-0.0002737156755756587,0.0021472459193319082
0.012046920135617256,-0.002920585684478283,-0.016753805801272392,0.01950688101351261,-0.0002960511192213744,0.002371495123952627
0.012282398529350758,-0.0028110849671065807,-0.01639452390372753,0.019055604934692383,-0.000291944743366912,0.0024436097592115402
0.011692672967910767,-0.0030932780355215073,-0.016665199771523476,0.018715674057602882,-0.0002777053159661591,0.00226980191655457
0.012110591866075993,-0.0033475332893431187,-0.016646334901452065,0.01878104731440544,-0.00026416635955683887,0.002141652163118124
0.012036739848554134,-0.003633361542597413,-0.016695775091648102,0.018649911507964134,-0.00029094572528265417,0.0018964569317176938
0.012451392598450184,-0.003314176807180047,-0.017206862568855286,0.019769154489040375,-0.00028053735150024295,0.0018510364461690187
0.012143008410930634,-0.0032259167637676,-0.0163403507322073,0.01964859664440155,-0.00026873472961597145,0.0018533170223236084
0.012273873202502728,-0.0032918660435825586,-0.017009051516652107,0.019188839942216873,-0.0002577778068371117,0.0020295444410294294
0.012450152076780796,-0.0034801382571458817,-0.016705907881259918,0.020117802545428276,-0.00024761835811659694,0.0026654538232833147
0.012040513567626476,-0.0032675527036190033,-0.01705518551170826,0.019239608198404312,-0.0002700059558264911,0.0024295682087540627
0.01269223541021347,-0.0029750398825854063,-0.016894077882170677,0.01865953579545021,-0.0002622142492327839,0.0021040295250713825
0.012430553324520588,-0.003306652419269085,-0.01639520935714245,0.019126230850815773,-0.00025313475634902716,0.0018528759246692061
0.011957385577261448,-0.0031554121524095535,-0.0164590235799551,0.01978784240782261,-0.00025791730149649084,0.0015185072552412748
0.012171657755970955,-0.0032611857168376446,-0.01584491692483425,0.019453102722764015,-0.0002566089970059693,0.0015601955819875002
0.012171657755970955,-0.0032611857168376446,-0.01584491692483425,0.019453102722764015,-0.0002566089970059693,0.0015601955819875002
0.012277062982320786,-0.003250476438552141,-0.016566937789320946,0.019228549674153328,-0.00024359137751162052,0.001724344678223133
0.012394429184496403,-0.003413471160456538,-0.016011476516723633,0.019264185801148415,-0.00027417801902629435,0.0017705961363390088
0.012257649563252926,-0.003738952800631523,-0.01661752536892891,0.01904216781258583,-0.00026360261836089194,0.002209726255387068
0.01241201814264059,-0.003474467433989048,-0.01626601628959179,0.019075587391853333,-0.00025986554101109505,0.0018641146598383784
0.012535822577774525,-0.0031384748872369528,-0.0160228218883276,0.018782200291752815,-0.00026708809309639037,0.0017807087861001492
0.012054823338985443,-0.002936195582151413,-0.015958407893776894,0.01900261640548706,-0.0002573680249042809,0.001574824913404882
0.012188376858830452,-0.003049458609893918,-0.016768693923950195,0.019239431247115135,-0.0002802739036269486,0.0014103851281106472
0.01249746885150671,-0.003258093260228634,-0.016344040632247925,0.018860848620533943,-0.00027184313512407243,0.0014046094147488475
0.012270363047719002,-0.003490581875666976,-0.01609599031507969,0.01882726512849331,-0.0003653903550002724,0.0012574815191328526
0.013419875875115395,-0.0032353883143514395,-0.016247106716036797,0.01900164596736431,-0.00036942693986929953,0.0011507509043440223
0.012755035422742367,-0.003045034594833851,-0.016126612201333046,0.01861121691763401,-0.00034344999585300684,0.0011013749754056334
0.012956490740180016,-0.003400180023163557,-0.01661491207778454,0.01929098181426525,-0.0003192142175976187,0.0011237530270591378
0.012738938443362713,-0.003233542898669839,-0.015954116359353065,0.018962541595101357,-0.00034192175371572375,0.0013082930818200111
0.012788472697138786,-0.0032568355090916157,-0.01638663187623024,0.01833174377679825,-0.0003344199503771961,0.001425325870513916
0.012969519011676311,-0.0032360530458390713,-0.015984831377863884,0.01879740320146084,-0.00031575316097587347,0.0017479941016063094
0.012768035754561424,-0.003437252715229988,-0.01638025976717472,0.018820850178599358,-0.0003446491900831461,0.0016775671392679214
0.013070943765342236,-0.0036193509586155415,-0.01659001223742962,0.018660882487893105,-0.00032963379635475576,0.0015195142477750778
0.012711426243185997,-0.0033492743968963623,-0.016103101894259453,0.018908336758613586,-0.00031342674628831446,0.0013007816160097718
0.013134103268384933,-0.003085535950958729,-0.016449283808469772,0.018558712676167488,-0.0002985805331263691,0.0009991679107770324
0.012942105531692505,-0.0030059507116675377,-0.01593991555273533,0.01849714294075966,-0.0002850682067219168,0.0009660649811848998
0.013329556211829185,-0.0031540768686681986,-0.016339274123311043,0.01891535334289074,-0.000272723933449015,0.000945157662499696
0.012949643656611443,-0.003508825320750475,-0.01619647443294525,0.01811300218105316,-0.00026140600675716996,0.0009383969590999186
0.01327987015247345,-0.0035510805901139975,-0.016650807112455368,0.0182747021317482,-0.00027749629225581884,0.0008771844441071153
0.012969305738806725,-0.0033950486686080694,-0.01605789177119732,0.018862934783101082,-0.000275243102805689,0.0008801656076684594
0.013193674385547638,-0.0033585340715944767,-0.015858745202422142,0.018267115578055382,-0.0002656331053003669,0.0009531209361739457
0.013509185053408146,-0.003186674788594246,-0.01615348644554615,0.018551677465438843,-0.000256214669207111,0.0009088141960091889
0.013379450887441635,-0.003441838314756751,-0.015911435708403587,0.018410032615065575,-0.00024741189554333687,0.0011788522824645042
0.013434763997793198,-0.0032663156744092703,-0.01670600101351738,0.017873752862215042,-0.00023919194063637406,0.0010216169757768512
0.01342169102281332,-0.003110984805971384,-0.015935242176055908,0.018076278269290924,-0.00023149987100623548,0.0009947919752448797
0.01342169102281332,-0.003110984805971384,-0.015935242176055908,0.018076278269290924,-0.00023149987100623548,0.0009947919752448797
0.013618582859635353,-0.003150942036882043,-0.016320960596203804,0.018151501193642616,-0.00021751201711595058,0.0008628418436273932
0.013723758049309254,-0.003422211855649948,-0.016253838315606117,0.01848246157169342,-0.00021131041285116225,0.0007762818713672459
0.013354439288377762,-0.003219482023268938,-0.016552548855543137,0.01819790154695511,-0.0001861977216321975,0.0006597944884561002
0.01394050382077694,-0.0031034417916089296,-0.01643950119614601,0.018193302676081657,-0.00017776955792214721,0.0006499753217212856
0.013572574593126774,-0.003092050552368164,-0.017275523394346237,0.01836974546313286,-0.00017094542272388935,0.0006502593751065433
0.014136715792119503,-0.0031185694970190525,-0.016128962859511375,0.017987726256251335,-0.0001646836899453774,0.0006300613167695701
0.013796394690871239,-0.0031532994471490383,-0.01688922941684723,0.018386762589216232,-0.00015886861365288496,0.000646234315354377
0.014160772785544395,-0.003024424659088254,-0.016737010329961777,0.0184077899903059,-0.00015345025167334825,0.0006019764114171267
0.013953796587884426,-0.00291053275577724,-0.016653528437018394,0.018128234893083572,-0.00014838966308161616,0.0006791658815927804
0.014144102111458778,-0.0028911347035318613,-0.01691647246479988,0.01850026845932007,-0.00015774214989505708,0.000666145293507725
0.013991962186992168,-0.0030080522410571575,-0.016688812524080276,0.018266545608639717,-0.00016609359590802342,0.0006399104604497552
0.014453423209488392,-0.0031599781941622496,-0.017027361318469048,0.018391424790024757,-0.00016197384684346616,0.0005751353455707431
0.014086255803704262,-0.0033535563852638006,-0.016312377527356148,0.018663283437490463,-0.00017017907521221787,0.0005616635899059474
0.014297732152044773,-0.0032241037115454674,-0.016354218125343323,0.017994457855820656,-0.00017746702360454947,0.0005503122229129076
0.014018243178725243,-0.0030714403837919235,-0.017119204625487328,0.01791105791926384,-0.00017337217286694795,0.0005083507276140153
0.014580917544662952,-0.0033926740288734436,-0.016812773421406746,0.017694149166345596,-0.00018664564413484186,0.0004705153114628047
0.014663771726191044,-0.003071516053751111,-0.017123255878686905,0.01818792335689068,-0.00018745273700915277,0.0004959572688676417
0.014922063797712326,-0.0031577004119753838,-0.016328424215316772,0.018567979335784912,-0.00018305692356079817,0.0004675333038903773
0.014395534060895443,-0.0030960163567215204,-0.016765041276812553,0.018279338255524635,-0.00024356563517358154,0.0004392443806864321
0.01460875105112791,-0.0029662714805454016,-0.01634245552122593,0.017661940306425095,-0.0002512799110263586,0.0004139929369557649
0.014448678120970726,-0.0032041766680777073,-0.01650502160191536,0.017610790207982063,-0.000280748528894037,0.0003914774861186743
0.014303067699074745,-0.0029536685906350613,-0.01651245728135109,0.017411937937140465,-0.00027235058951191604,0.0003712819016072899
0.013900628313422203,-0.003205690300092101,-0.016121163964271545,0.0172740425914526,-0.00025962950894609094,0.0003530692192725837
0.013900628313422203,-0.003205690300092101,-0.016121163964271545,0.0172740425914526,-0.00025962950894609094,0.0003530692192725837
0.01461468730121851,-0.003371254075318575,-0.016644736751914024,0.01718156971037388,-0.0002835053892340511,0.0003365598386153579
0.014827096834778786,-0.0031260785181075335,-0.016564399003982544,0.017506452277302742,-0.00030121373129077256,0.00030778005020692945
0.0144812585785985,-0.003251889254897833,-0.01612367108464241,0.01764747127890587,-0.0004102139500901103,0.00029515905771404505
0.01489493902772665,-0.0036481625866144896,-0.016496092081069946,0.018050262704491615,-0.00047822666238062084,0.00028353428933769464
0.01442632358521223,-0.003211019327864051,-0.01674831472337246,0.01874580793082714,-0.0005145282484591007,0.00027279058122076094
0.015177207067608833,-0.0031422064639627934,-0.01649024523794651,0.01856638863682747,-0.0004795481509063393,0.0002628304355312139
0.014941222965717316,-0.00302249938249588,-0.016880471259355545,0.01809987984597683,-0.00047662510769441724,0.00025357294362038374
0.015093542635440826,-0.0029038884676992893,-0.01594749093055725,0.01747559756040573,-0.0004732484230771661,0.0002449457242619246
0.014723239466547966,-0.0028050648979842663,-0.01659161038696766,0.01681778021156788,-0.0004421413177624345,0.00023688553483225405
0.014866882935166359,-0.002989740576595068,-0.016342472285032272,0.01727895624935627,-0.0004567003925330937,0.0002293397265020758
0.015058991499245167,-0.0031831152737140656,-0.016593974083662033,0.017457807436585426,-0.00044219987466931343,0.00022225901193451136
0.01565045863389969,-0.003119230968877673,-0.01720062643289566,0.017980284988880157,-0.00046924082562327385,0.00021560290770139545
0.015571140684187412,-0.002924892818555236,-0.016579559072852135,0.01794103905558586,-0.000441895768744871,0.0002093344955937937
0.015447916463017464,-0.0026932854671031237,-0.01681048609316349,0.01728508435189724,-0.0004034648009110242,0.00020341943309176713
0.015320543199777603,-0.0028076900634914637,-0.015950700268149376,0.01801913231611252,-0.0004061438958160579,0.00019783004245255142
0.015664946287870407,-0.002923730295151472,-0.016832608729600906,0.017428340390324593,-0.00040806535980664194,0.00019253937352914363
0.01576980948448181,-0.00265115755610168,-0.016915127635002136,0.018105830997228622,-0.00038136786315590143,0.0001875242596725002
0.015552799217402935,-0.0027520116418600082,-0.01661871001124382,0.018668243661522865,-0.00035632867366075516,0.00018276406626682729
0.016188951209187508,-0.003061942057684064,-0.01663261093199253,0.01758766360580921,-0.00038610229967162013,0.0001782394974725321
0.015542016364634037,-0.0031682963017374277,-0.01597500964999199,0.01787624880671501,-0.00039253191789612174,0.00016324868192896247
0.016185065731406212,-0.0030534628313034773,-0.01643683947622776,0.016986781731247902,-0.00039479939732700586,0.00014932396879885346
0.015477722510695457,-0.0027719882782548666,-0.01621261239051819,0.01675250567495823,-0.00042346285772509873,0.00014522451965603977
0.01549059059470892,-0.0029230290092527866,-0.016841351985931396,0.017020216211676598,-0.00039446589653380215,0.00014191017544362694
0.01534554734826088,-0.0029776610899716616,-0.016486583277583122,0.01701444946229458,-0.0004164324200246483,0.00013879298057872802
0.015951260924339294,-0.003037074115127325,-0.01639716699719429,0.01809845119714737,-0.0004019793414045125,5.0329988880548626e-05
0.01588602177798748,-0.002890288829803467,-0.01631966605782509,0.018396038562059402,-0.00042913536890409887,4.356596400612034e-05
0.015912968665361404,-0.002879281062632799,-0.016173498705029488,0.01789691112935543,-0.0004087221750523895,2.3875654733274132e-05
0.015618676319718361,-0.002481906209141016,-0.016811659559607506,0.017974693328142166,-0.0004246962198521942,2.0778590624104254e-05
0.015618676319718361,-0.002481906209141016,-0.016811659559607506,0.017974693328142166,-0.0004246962198521942,2.0778590624104254e-05
0.016088591888546944,-0.0027006720192730427,-0.016793323680758476,0.0176492091268301,-0.00039136846316978335,2.5871643174468772e-06
0.016088591888546944,-0.0027006720192730427,-0.016793323680758476,0.0176492091268301,-0.00039136846316978335,2.5871643174468772e-06
0.0167267806828022,-0.003013976151123643,-0.0164596326649189,0.017598504200577736,-0.0004637778038159013,1.1029488433678125e-08
0.016174018383026123,-0.0027496307156980038,-0.017020678147673607,0.018041182309389114,-0.00046192441368475556,7.201467200346201e-10
0.016376128420233727,-0.002476173685863614,-0.016597900539636612,0.018064001575112343,-0.000427786580985412,4.7020439625233834e-11
0.017023902386426926,-0.0024136467836797237,-0.01709226332604885,0.017888495698571205,-0.00044506709673441947,3.070098645793773e-12
0.015662170946598053,-0.0023096788208931684,-0.0165973212569952,0.018075060099363327,-0.00042980146827176213,-0.000302774686133489
0.01615520752966404,-0.002609540708363056,-0.017023881897330284,0.01781790889799595,-0.0004456736787687987,-0.0010832848493009806
0.016558043658733368,-0.0028198736254125834,-0.016860464587807655,0.01786465011537075,-0.0004322117893025279,-0.0009765269351191819
0.016832878813147545,-0.0026383011136204004,-0.016246620565652847,0.018204722553491592,-0.00040854979306459427,-0.0008972889045253396
0.016514070332050323,-0.0024893053341656923,-0.01716648042201996,0.017747610807418823,-0.00038665792089886963,-0.0008359656203538179
0.016898559406399727,-0.0024365561548620462,-0.01667156256735325,0.018089521676301956,-0.0003948007361032069,-0.0007919737254269421
0.01696927100419998,-0.0023580766282975674,-0.017447933554649353,0.017431490123271942,-0.0003892510721925646,-0.0007622195989824831
0.016530442982912064,-0.0027803436387330294,-0.017372800037264824,0.01704130508005619,-0.00042687481618486345,-0.0007397346780635417
0.016884729266166687,-0.0026878926437348127,-0.016538728028535843,0.017518209293484688,-0.0003997463791165501,-0.000833422236610204
0.016539687290787697,-0.002501931507140398,-0.017291519790887833,0.017465686425566673,-0.00042607515933923423,-0.001428790856152773
0.017266971990466118,-0.0023473105393350124,-0.016881003975868225,0.01837565377354622,-0.00040594348683953285,-0.0015480704605579376
0.016943998634815216,-0.002172267297282815,-0.017972467467188835,0.018324151635169983,-0.0004289760545361787,-0.0014669601805508137
0.01741035096347332,-0.0022962847724556923,-0.016881370916962624,0.01734667271375656,-0.0004109628207515925,-0.0015198251930996776
0.017101917415857315,-0.0022998235654085875,-0.016870541498064995,0.017479415982961655,-0.00046930756070651114,-0.00153007369954139
0.01703699491918087,-0.0022363720927387476,-0.017822008579969406,0.018262870609760284,-0.0004933805321343243,-0.001691724406555295
0.01780717633664608,-0.002346420893445611,-0.016782689839601517,0.018492557108402252,-0.0004923514788970351,-0.0017641517333686352
0.0175120048224926,-0.0021599000319838524,-0.01656995341181755,0.01771838776767254,-0.00048724605585448444,-0.002217706525698304
0.017474666237831116,-0.0017852209275588393,-0.01662961021065712,0.016724523156881332,-0.00044925868860445917,-0.002063883002847433
0.01740157976746559,-0.0013640570687130094,-0.016987131908535957,0.017549099400639534,-0.0004148801090195775,-0.0020909272134304047
0.017069848254323006,-0.001088621444068849,-0.017341792583465576,0.01707417331635952,-0.0004449657863005996,-0.001961581641808152
0.01774248480796814,-0.0010498077608644962,-0.016960928216576576,0.016765624284744263,-0.00041923564276658,-0.002087971428409219
0.017623117193579674,-0.0010281112045049667,-0.01710568368434906,0.01661168783903122,-0.00039330433355644345,-0.002301216358318925
0.017623117193579674,-0.0010281112045049667,-0.01710568368434906,0.01661168783903122,-0.00039330433355644345,-0.002301216358318925
0.01770704798400402,-0.0008169186185114086,-0.016567150130867958,0.016779271885752678,-0.00039595022099092603,-0.002292927820235491
0.017852764576673508,-0.0008594386163167655,-0.01672177016735077,0.017812447622418404,-0.0003978230233769864,-0.0024283844977617264
0.0178770013153553,-0.0015868621412664652,-0.016532879322767258,0.01704263873398304,-0.00035965166171081364,-0.0025302283465862274
0.017814673483371735,-0.001491066301241517,-0.017015863209962845,0.017399854958057404,-0.00034036103170365095,-0.0025319780688732862
0.017340483143925667,-0.0012521210592240095,-0.016364173963665962,0.017035579308867455,-0.0003166965616401285,-0.002336635487154126
0.01801302097737789,-0.0010469339322298765,-0.016593925654888153,0.01723380945622921,-0.0002958803961519152,-0.002428466686978936
0.017937613651156425,-0.0008502381970174611,-0.016110463067889214,0.016884367913007736,-0.00027761879027821124,-0.00259610777720809
0.018005356192588806,-0.0007149344892241061,-0.01663070172071457,0.017089879140257835,-0.00026148042525164783,-0.0024806116707623005
0.01776737906038761,-0.0007382621988654137,-0.01690065488219261,0.017023185268044472,-0.0002835505874827504,-0.0025207914877682924
0.017751628533005714,-0.0007576809730380774,-0.016318801790475845,0.016619600355625153,-0.0002802485250867903,-0.0025418084114789963
0.018173599615693092,-0.0007702564471401274,-0.016801126301288605,0.017064154148101807,-0.00026712799444794655,-0.0033789665903896093
0.018081730231642723,-0.0006898633437231183,-0.01623372919857502,0.017015796154737473,-0.0002545788593124598,-0.003987881354987621
0.01775314472615719,-0.0007134258630685508,-0.016816459596157074,0.01745963841676712,-0.0002431179746054113,-0.003974949009716511
0.01836511865258217,-0.000738236412871629,-0.01632944867014885,0.01757952943444252,-0.00023264168703462929,-0.003457489889115095
0.018169714137911797,-0.0007552442839369178,-0.01649281568825245,0.01740221492946148,-0.0002412164758425206,-0.0031435478013008833
0.018196165561676025,-0.0009637833572924137,-0.01677141711115837,0.017897164449095726,-0.0002486408920958638,-0.0031756244134157896
0.018177837133407593,-0.0009821240091696382,-0.016465025022625923,0.01739257201552391,-0.00024026480969041586,-0.004035082645714283
0.0182400643825531,-0.0009265386615879834,-0.01708175428211689,0.017168069258332253,-0.00023150698689278215,-0.004141832236200571
0.01857791841030121,-0.000844328198581934,-0.016642117872834206,0.016821205615997314,-0.00022330459614749998,-0.004014925099909306
0.018687570467591286,-0.0008467900333926082,-0.016836069524288177,0.016642779111862183,-0.0002423863479634747,-0.0034854868426918983
0.01804109662771225,-0.0007845676154829562,-0.01685887575149536,0.01667611114680767,-0.00023804508964531124,-0.003439870197325945
0.01847362518310547,-0.0007684536976739764,-0.016717316582798958,0.016353746876120567,-0.00023646457702852786,-0.003609082894399762
0.01790667325258255,-0.0007853983552195132,-0.016994262114167213,0.01682836189866066,-0.00023077634978108108,-0.003743082983419299
0.017873059958219528,-0.0007987779099494219,-0.01647377945482731,0.016514206305146217,-0.00021991838002577424,-0.0037867380306124687
0.018604032695293427,-0.0007484810194000602,-0.016973670572042465,0.01669776625931263,-0.000209694670047611,-0.0037590465508401394
0.018397849053144455,-0.0008510897750966251,-0.016364451497793198,0.017207389697432518,-0.00023768989194650203,-0.0036784233525395393
0.018684834241867065,-0.000865141220856458,-0.016351675614714622,0.01722671464085579,-0.00023000105284154415,-0.0042381794191896915
0.018001990392804146,-0.000836737803183496,-0.01664968952536583,0.01696150377392769,-0.00021209262195043266,-0.004412733018398285
0.018001990392804146,-0.000836737803183496,-0.01664968952536583,0.01696150377392769,-0.00021209262195043266,-0.004412733018398285
0.018642980605363846,-0.0007798010483384132,-0.017002277076244354,0.017269887030124664,-0.00023578239779453725,-0.0041876183822751045
0.01898309960961342,-0.0007658413960598409,-0.01619660295546055,0.017341969534754753,-0.0002292687859153375,-0.004256397020071745
0.01836858130991459,-0.0006633611628785729,-0.016579564660787582,0.017254982143640518,-0.0002487745077814907,-0.004605098627507687
0.018369587138295174,-0.000692033558152616,-0.016177143901586533,0.01745326817035675,-0.00024411524645984173,-0.004850783385336399
0.018667379394173622,-0.0007046177051961422,-0.016512613743543625,0.016933733597397804,-0.00023634923854842782,-0.00492520909756422
0.01835007034242153,-0.0006437133415602148,-0.016852963715791702,0.01725945807993412,-0.0002845139824785292,-0.0048821475356817245
0.018482550978660583,-0.0006663622916676104,-0.016388140618801117,0.017225056886672974,-0.00031693626078777015,-0.004685295280069113
0.018604908138513565,-0.0006867693737149239,-0.01688612811267376,0.01677459292113781,-0.0003283974656369537,-0.004465981386601925
0.018497353419661522,-0.0006843568990007043,-0.016144484281539917,0.01695738174021244,-0.00033497862750664353,-0.004419713746756315
0.01936585269868374,-0.0006402998114936054,-0.016408519819378853,0.016462067142128944,-0.0003170705458614975,-0.004780502524226904
0.019097961485385895,-0.0006349130417220294,-0.016195135191082954,0.016706237569451332,-0.00029958575032651424,-0.004729828797280788
0.019662242382764816,-0.0006037400453351438,-0.016673890873789787,0.01611482724547386,-0.0003187319671269506,-0.004910971969366074
0.01959303580224514,-0.0006205047247931361,-0.016922075301408768,0.017215974628925323,-0.0003137980820611119,-0.005166853778064251
0.019085148349404335,-0.0005792114534415305,-0.016601236537098885,0.018000999465584755,-0.000339457590598613,-0.005162685643881559
0.018975336104631424,-0.0005941416602581739,-0.01699540950357914,0.017657095566391945,-0.0003266999847255647,-0.005293519236147404
0.01964937336742878,-0.0005322336219251156,-0.017102301120758057,0.017901169136166573,-0.00037232565227895975,-0.005119900684803724
0.019479982554912567,-0.0005697861197404563,-0.017127547413110733,0.01787649840116501,-0.0003967971133533865,-0.005706470925360918
0.019372254610061646,-0.0005165282636880875,-0.016926642507314682,0.01749301142990589,-0.0003680817026179284,-0.005494133103638887
0.019780240952968597,-0.0005466863512992859,-0.016274454072117805,0.017641890794038773,-0.000399228825699538,-0.005412457976490259
0.019941000267863274,-0.0005057844682596624,-0.017133206129074097,0.017078353092074394,-0.0003792052739299834,-0.005645105615258217
0.019800543785095215,-0.0005119069828651845,-0.016645019873976707,0.01704598031938076,-0.0003548013628460467,-0.00598907470703125
0.020039619877934456,-0.0004977743956260383,-0.01738913170993328,0.01703278161585331,-0.000373801973182708,-0.005747403018176556
0.020044319331645966,-0.00046782841673120856,-0.017030492424964905,0.017145201563835144,-0.00036491811624728143,-0.0058489637449383736
0.01970551908016205,-0.0004683511215262115,-0.017070582136511803,0.017489535734057426,-0.00034572003642097116,-0.005830868147313595
0.020045341923832893,-0.0004801166069228202,-0.017091380432248116,0.01726498454809189,-0.0003713803016580641,-0.006078236736357212
0.020045341923832893,-0.0004801166069228202,-0.017091380432248116,0.01726498454809189,-0.0003713803016580641,-0.006078236736357212
0.02005264163017273,-0.00046537103480659425,-0.01630290597677231,0.017323460429906845,-0.00035740851308219135,-0.005738309118896723
0.020086251199245453,-0.00047540501691401005,-0.017209718003869057,0.01736704260110855,-0.00040116149466484785,-0.005351481027901173
0.020047055557370186,-0.00043166251271031797,-0.017835281789302826,0.017512543126940727,-0.00041224321466870606,-0.006128164939582348
0.02020263671875,-0.0004039813647978008,-0.017632000148296356,0.016892295330762863,-0.0004393222916405648,-0.005754923913627863
0.020150024443864822,-0.00037963283830322325,-0.016802124679088593,0.017223140224814415,-0.00041779177263379097,-0.005817122757434845
0.02064437046647072,-0.00040847729542292655,-0.017240850254893303,0.01697912998497486,-0.0004407106898725033,-0.00604715570807457
0.02043568342924118,-0.00038718650466762483,-0.01637866534292698,0.01680902950465679,-0.0004215521621517837,-0.006410437170416117
0.02022625133395195,-0.00036743393866345286,-0.018136238679289818,0.0169921163469553,-0.0005416254280135036,-0.006186586804687977
0.020193520933389664,-0.0003495914861559868,-0.01693722791969776,0.016930829733610153,-0.0005033391062170267,-0.006373233161866665
0.02071565017104149,-0.0003334017237648368,-0.016816992312669754,0.017160028219223022,-0.0004539602668955922,-0.006851497106254101
0.020638570189476013,-0.00032086187275126576,-0.01779235154390335,0.017195716500282288,-0.00041239781421609223,-0.006528993137180805
0.020830513909459114,-0.00030064606107771397,-0.017103834077715874,0.017254425212740898,-0.00044790736865252256,-0.00659099780023098
0.021331440657377243,-0.0002818301145453006,-0.016945550218224525,0.017475400120019913,-0.00041781034087762237,-0.0066986302845180035
0.021315135061740875,-0.0002652173861861229,-0.01699099875986576,0.01658620499074459,-0.00041944763506762683,-0.006711889989674091
0.020418794825673103,-0.0002504541480448097,-0.016682272776961327,0.016965536400675774,-0.0004202167328912765,-0.006450160872191191
0.020762242376804352,-0.00023724795028101653,-0.017233246937394142,0.016853315755724907,-0.0003956964355893433,-0.006723360158503056
0.021176062524318695,-0.00022536538017448038,-0.0163754690438509,0.01713000424206257,-0.0004184273420833051,-0.006864970084279776
0.021285444498062134,-0.00021461615688167512,-0.017356501892209053,0.01705942489206791,-0.00040139310294762254,-0.006872040219604969
0.021360404789447784,-0.00020484552078414708,-0.01766633242368698,0.016518929973244667,-0.00038058016798458993,-0.007017112802714109
0.021476099267601967,-0.00019592593889683485,-0.01741122268140316,0.017475510016083717,-0.0003596586175262928,-0.00736261485144496
0.021884771063923836,-0.00018775062926579267,-0.017444929108023643,0.01681414619088173,-0.00033362352405674756,-0.007048063911497593
0.021292801946401596,-0.00018023059237748384,-0.016925590112805367,0.017755892127752304,-0.00036838697269558907,-0.006737121380865574
0.020630843937397003,-0.00017328989633824676,-0.017700431868433952,0.01734388992190361,-0.0003911470412276685,-0.006680304650217295
0.021601727232336998,-0.00016686403250787407,-0.017270371317863464,0.016954926773905754,-0.00038107397267594934,-0.0066712526604533195
0.021802514791488647,-0.00016089758719317615,-0.01678515411913395,0.017313336953520775,-0.00040468620136380196,-0.007144687231630087
0.021778222173452377,-0.0001553431648062542,-0.017635751515626907,0.016333410516381264,-0.0005193162360228598,-0.007410041987895966
0.020993679761886597,-0.00015015924873296171,-0.017089365050196648,0.016713831573724747,-0.0005758612533099949,-0.007126494310796261
0.021857894957065582,-0.00014531021588481963,-0.017422253265976906,0.01699576899409294,-0.0006136544398032129,-0.006763690151274204
0.021857894957065582,-0.00014531021588481963,-0.017422253265976906,0.01699576899409294,-0.0006136544398032129,-0.006763690151274204
0.022311924025416374,-0.0001407646923325956,-0.017456980422139168,0.017090367153286934,-0.000557083694729954,-0.007393479347229004
0.021852688863873482,-0.00013247648894321173,-0.017180321738123894,0.017327450215816498,-0.0005386819830164313,-0.007572125643491745
0.022108351811766624,-0.0001286880869884044,-0.016698509454727173,0.016398640349507332,-0.0005485902074724436,-0.007979747839272022
0.022022664546966553,-0.0001251102949026972,-0.017698748037219048,0.01776261441409588,-0.0005247620865702629,-0.007832659408450127
0.021922333166003227,-0.00012172583228675649,-0.018013140186667442,0.01706511527299881,-0.000490083359181881,-0.007571281399577856
0.022769443690776825,-0.00011851987073896453,-0.01770878955721855,0.016936570405960083,-0.00048554784734733403,-0.0076760184019804
0.022388987243175507,-0.00011547851318027824,-0.017842983826994896,0.016639469191432,-0.0004482220683712512,-0.007563414983451366
0.022558491677045822,-0.00011258920130785555,-0.017461881041526794,0.01708855666220188,-0.00044765687198378146,-0.007977083325386047
0.02321797050535679,-0.00010984090476995334,-0.01757948473095894,0.01716584339737892,-0.0004463937075342983,-0.00803210586309433
0.022895492613315582,-0.00010722375009208918,-0.01721665821969509,0.016470642760396004,-0.000414457346778363,-0.008310594595968723
0.02263524755835533,-0.00010472825670149177,-0.017091603949666023,0.016938677057623863,-0.000385037885280326,-0.00843937136232853
0.022394591942429543,-0.00010234646470053121,-0.017794346436858177,0.016330143436789513,-0.00035940390080213547,-0.00790513027459383
0.023282350972294807,-0.00010007049422711134,-0.01772085577249527,0.016701262444257736,-0.0003369652549736202,-0.007892780937254429
0.022961094975471497,-9.789348405320197e-05,-0.018092041835188866,0.01631844788789749,-0.0003628815175034106,-0.008220666088163853
0.02279152348637581,-9.580933692632243e-05,-0.018320534378290176,0.01667517051100731,-0.0003490234666969627,-0.00796821340918541
0.0230295117944479,-9.381196286994964e-05,-0.017794892191886902,0.01669248938560486,-0.00033108246861957014,-0.008085448294878006
0.023431334644556046,-9.189617412630469e-05,-0.018026527017354965,0.016828695312142372,-0.00031457244767807424,-0.008614050224423409
0.02320200577378273,-9.00571612874046e-05,-0.01777002587914467,0.016976216807961464,-0.00033120837179012597,-0.008284163661301136
0.02323642559349537,-8.829024591250345e-05,-0.017505154013633728,0.016883037984371185,-0.0003261313831899315,-0.007892369292676449
0.02349955216050148,-8.659130980959162e-05,-0.017733853310346603,0.017040207982063293,-0.0003126166993752122,-0.0074755167588591576
0.02349955216050148,-8.659130980959162e-05,-0.017733853310346603,0.017040207982063293,-0.0003126166993752122,-0.0074755167588591576
0.0233826395124197,-6.678385398117825e-05,-0.018198171630501747,0.016639728099107742,-0.00027537293499335647,-0.008368399925529957
0.023271584883332253,-6.54933974146843e-05,-0.018204672262072563,0.016733478754758835,-0.00025931966956704855,-0.007977214641869068
0.023646051064133644,-6.432220106944442e-05,-0.017983559519052505,0.01591549813747406,-0.00028760451823472977,-0.007947726175189018
0.02383337914943695,-6.319311069091782e-05,-0.01785111613571644,0.016662877053022385,-0.0002785696415230632,-0.00781608372926712
0.02356296218931675,-6.210301944520324e-05,-0.017567601054906845,0.016586247831583023,-0.0002652624680195004,-0.008063877932727337
0.02356296218931675,-6.210301944520324e-05,-0.017567601054906845,0.016586247831583023,-0.0002652624680195004,-0.008063877932727337
0.023558953776955605,-6.003187445458025e-05,-0.019198860973119736,0.01720375381410122,-0.0002816197811625898,-0.008131681941449642
0.023807166144251823,-5.904719728277996e-05,-0.018678193911910057,0.016611836850643158,-0.00030563297332264483,-0.008291896432638168
0.024417517706751823,-5.8094370615435764e-05,-0.01813419908285141,0.017025737091898918,-0.00043446378549560905,-0.00848331768065691
0.02375510148704052,-5.717177191399969e-05,-0.019014323130249977,0.01699848473072052,-0.0005026289145462215,-0.008219296112656593
0.023892316967248917,-5.6278062402270734e-05,-0.018103094771504402,0.017983991652727127,-0.0004807777004316449,-0.008421155624091625
0.023879045620560646,-5.541183418245055e-05,-0.0180453360080719,0.01714318059384823,-0.000511394115164876,-0.008672431111335754
0.024638114497065544,-5.457181396195665e-05,-0.017984382808208466,0.016521595418453217,-0.0005360858631320298,-0.008462375029921532
0.02471642941236496,-4.4908749259775504e-05,-0.017956068739295006,0.017115410417318344,-0.000510841840878129,-0.008342813700437546
0.024032730609178543,-3.978613676736131e-05,-0.018854329362511635,0.016046272590756416,-0.0006947560468688607,-0.008435196243226528
0.02323557622730732,-3.9149414078565314e-05,-0.018655238673090935,0.016369322314858437,-0.0007065106765367091,-0.009334513917565346
0.02535528503358364,3.965404539485462e-05,-0.018275991082191467,0.016434205695986748,-0.0006497761933133006,-0.009391856379806995
0.02538035437464714,4.6986780944280326e-05,-0.01857050694525242,0.017324265092611313,-0.0006523089250549674,-0.009094190783798695
0.024170169606804848,6.150841363705695e-05,-0.018106434494256973,0.01776961050927639,-0.0006108402158133686,-0.009266501292586327
0.02516898512840271,6.0677353758364916e-05,-0.01817166432738304,0.0174265019595623,-0.0005966160679236054,-0.009119643829762936
0.025379560887813568,5.9674308431567624e-05,-0.018305622041225433,0.017290538176894188,-0.0005832841852679849,-0.008930458687245846
0.025276463478803635,5.8701345551526174e-05,-0.01785852387547493,0.01638995297253132,-0.0005416702479124069,-0.009013371542096138
0.025464199483394623,5.775955651188269e-05,-0.018741361796855927,0.016595961526036263,-0.0004998103249818087,-0.008856365457177162
0.02429293654859066,5.684749339707196e-05,-0.018452662974596024,0.01687363162636757,-0.0004511572187766433,-0.009189527481794357
0.024358808994293213,5.596376649918966e-05,-0.017629485577344894,0.016917338594794273,-0.00048073750804178417,-0.009433376602828503
0.025290118530392647,6.417682743631303e-05,-0.018363337963819504,0.017117515206336975,-0.00048658240120857954,-0.009623502381145954
0.02535983920097351,6.778218812542036e-05,-0.017983226105570793,0.015916354954242706,-0.00048296444583684206,-0.00906105525791645
0.025316670536994934,6.683680112473667e-05,-0.01798027567565441,0.016723578795790672,-0.0005062173586338758,-0.0095016835257411
0.02544725127518177,6.585950904991478e-05,-0.018302133306860924,0.017345285043120384,-0.00048372813034802675,-0.00966037530452013
0.025211136788129807,0.0002940254926215857,-0.017878636717796326,0.01673608459532261,-0.0006399097037501633,-0.009432144463062286
0.025414220988750458,0.00030318161589093506,-0.018422633409500122,0.016733678057789803,-0.0006267448770813644,-0.009841939434409142
0.02571902610361576,0.00028440734604373574,-0.018413832411170006,0.016536429524421692,-0.0006461218581534922,-0.00979704037308693
0.02545122615993023,0.0002524919109418988,-0.017907332628965378,0.016412634402513504,-0.0006256449269130826,-0.010278617031872272
0.02545122615993023,0.0002524919109418988,-0.017907332628965378,0.016412634402513504,-0.0006256449269130826,-0.010278617031872272
0.02552608959376812,0.00028492650017142296,-0.01780455745756626,0.016549890860915184,-0.0007379728485830128,-0.009427979588508606
0.02565694972872734,0.0002723902289289981,-0.0174949262291193,0.016583995893597603,-0.0007567783468402922,-0.00972066167742014
0.0258317943662405,0.00028766109608113766,-0.017789429053664207,0.016285156831145287,-0.0007597883814014494,-0.010370006784796715
0.026112882420420647,0.00028848956571891904,-0.01709289290010929,0.01657862775027752,-0.0007012382266111672,-0.010166937485337257
0.02663567289710045,0.00027603612397797406,-0.017983464524149895,0.016025571152567863,-0.0006985104992054403,-0.010725564323365688
0.026304563507437706,0.00029775884468108416,-0.0183997955173254,0.01652025617659092,-0.0006553205894306302,-0.010182416066527367
0.026458898559212685,0.0002899938262999058,-0.017542744055390358,0.016581933945417404,-0.0006018308340571821,-0.009836631827056408
0.026483286172151566,0.00027881981804966927,-0.01818144880235195,0.017106173560023308,-0.0005640382296405733,-0.010752708651125431
0.026549596339464188,0.00032715508132241666,-0.017796603962779045,0.017154810950160027,-0.0005061296978965402,-0.01138683594763279
0.026719659566879272,0.0003122455673292279,-0.017870672047138214,0.016416212543845177,-0.0005217553698457778,-0.010644686408340931
0.02657119743525982,0.0003302802797406912,-0.01784825511276722,0.01693810150027275,-0.0004944392130710185,-0.010807240381836891
0.026645774021744728,0.00032885954715311527,-0.01725199446082115,0.017034310847520828,-0.0005244744243100286,-0.011541652493178844
0.02661203406751156,0.00031021577888168395,-0.018122827634215355,0.017393410205841064,-0.000539725529961288,-0.011160229332745075
0.026851078495383263,0.00034156511537730694,-0.0181820597499609,0.01694084331393242,-0.000517159525770694,-0.010986649431288242
0.026925290003418922,0.00032461099908687174,-0.0175042562186718,0.016835754737257957,-0.0005679230089299381,-0.011017689481377602
0.027064131572842598,0.00035219170968048275,-0.0184983778744936,0.017162449657917023,-0.0005306456005200744,-0.011312841437757015
0.02721533365547657,0.00033632339909672737,-0.018458735197782516,0.016906719654798508,-0.0004763456527143717,-0.011596296913921833
0.027304677292704582,0.00046152371214702725,-0.017881931737065315,0.01728333905339241,-0.0005107418401166797,-0.01131497509777546
0.02635660022497177,0.000505323987454176,-0.01775433123111725,0.01725347898900509,-0.0004713502712547779,-0.01130281388759613
0.027064437046647072,0.00046510345418937504,-0.017892757430672646,0.01725085824728012,-0.0004687923064921051,-0.011666796170175076
0.027914592996239662,0.000498584471642971,-0.018552817404270172,0.01729714125394821,-0.0004660186532419175,-0.011609780602157116
0.028109252452850342,0.0005210651434026659,-0.01900635100901127,0.016774680465459824,-0.0004660958657041192,-0.011720558628439903
0.027725908905267715,0.0004946471308358014,-0.017864374443888664,0.017243532463908195,-0.0004639237595256418,-0.010927347466349602
0.02720627188682556,0.0006524129421450198,-0.018503569066524506,0.017147082835435867,-0.000437544280430302,-0.011030761525034904
0.0264218058437109,0.0006819867412559688,-0.01837179996073246,0.016969697549939156,-0.0004202432173769921,-0.01135588251054287
0.0264218058437109,0.0006819867412559688,-0.01837179996073246,0.016969697549939156,-0.0004202432173769921,-0.01135588251054287
0.027194976806640625,0.0006093642441555858,-0.017762435600161552,0.016899142414331436,-0.0003919222217518836,-0.011694761924445629
0.02735079824924469,0.0005799647769890726,-0.018298428505659103,0.016505688428878784,-0.0003986071387771517,-0.011674133129417896
0.02782750129699707,0.0006058600847609341,-0.018510736525058746,0.016459299251437187,-0.00040334867662750185,-0.011506838724017143
0.028159938752651215,0.0006422883016057312,-0.018370790407061577,0.016651876270771027,-0.00040523981442674994,-0.011591372080147266
0.02735045924782753,0.0006741221877746284,-0.017508206889033318,0.01676126755774021,-0.00042970964568667114,-0.012400511652231216
0.027349676936864853,0.0006913307588547468,-0.018859051167964935,0.016758909448981285,-0.0004121845995541662,-0.011534461751580238
0.02701472118496895,0.0007122133974917233,-0.018606025725603104,0.01695043221116066,-0.0005354630993679166,-0.011252515017986298
0.027272922918200493,0.0008507890161126852,-0.018083229660987854,0.016428142786026,-0.0005793516174890101,-0.011419336311519146
0.027905140072107315,0.0009470152435824275,-0.018425777554512024,0.016904611140489578,-0.0006110839312896132,-0.011806470341980457
0.02786303125321865,0.00103238713927567,-0.018363887444138527,0.016985546797513962,-0.0006315390928648412,-0.011920562013983727
0.027652395889163017,0.00120535830501467,-0.018091648817062378,0.016934411600232124,-0.000745368015486747,-0.011794199235737324
0.027754297479987144,0.0012544695055112243,-0.01811232417821884,0.01571047119796276,-0.0007680858834646642,-0.011827553622424603
0.028026316314935684,0.0011885432759299874,-0.01792233996093273,0.016717687249183655,-0.0007606827421113849,-0.011713051237165928
0.028115933761000633,0.0011423606192693114,-0.018125467002391815,0.017636243253946304,-0.0006927198846824467,-0.0118528101593256
0.028040919452905655,0.0011945712612941861,-0.018885338678956032,0.01706763356924057,-0.0006155648152343929,-0.011762410402297974
0.028178824111819267,0.0011825953843072057,-0.01836910843849182,0.01708195172250271,-0.0005969032063148916,-0.012292618863284588
0.027695849537849426,0.0014506648294627666,-0.01855732873082161,0.016780206933617592,-0.0005816532648168504,-0.012081422843039036
0.0280547384172678,0.00159590900875628,-0.018406907096505165,0.016679581254720688,-0.0005718012107536197,-0.012055543251335621
0.027920635417103767,0.0015023096930235624,-0.01803717203438282,0.017135730013251305,-0.0005609883228316903,-0.012356046587228775
0.027790678665041924,0.0013900299090892076,-0.018644114956259727,0.017063075676560402,-0.0005268249660730362,-0.0124032748863101
0.02792627178132534,0.0014296200824901462,-0.01820671744644642,0.01757110096514225,-0.0004522570234257728,-0.012306955642998219
0.02642737329006195,0.001369445351883769,-0.018051980063319206,0.01704900525510311,-0.0004695841926150024,-0.011922534555196762
0.02903389185667038,0.001497345045208931,-0.018370922654867172,0.016649972647428513,-0.0004489472776185721,-0.012279992923140526
0.028787292540073395,0.0015693671302869916,-0.01821892522275448,0.01672755368053913,-0.0004753582470584661,-0.012347503565251827
0.028243256732821465,0.002122098347172141,-0.018457453697919846,0.01623804308474064,-0.00044963881373405457,-0.01250808872282505
0.027918998152017593,0.0020072930492460728,-0.01848330907523632,0.01670713536441326,-0.0004760022275149822,-0.012261742725968361
0.028035352006554604,0.002233565552160144,-0.01781155727803707,0.01662251725792885,-0.0005875480128452182,-0.012089032679796219
0.028049351647496223,0.002019111067056656,-0.01857917197048664,0.017390884459018707,-0.0006581119378097355,-0.01231524720788002
0.0292988121509552,0.0019840721506625414,-0.01837882399559021,0.017125112935900688,-0.0006872023222967982,-0.012125439941883087
0.0292988121509552,0.0019840721506625414,-0.01837882399559021,0.017125112935900688,-0.0006872023222967982,-0.012125439941883087
0.029200658202171326,0.0019333052914589643,-0.018283914774656296,0.015850620344281197,-0.0006970324320718646,-0.012395540252327919
0.027474403381347656,0.002248916309326887,-0.018535884097218513,0.016431329771876335,-0.0007938403286971152,-0.012205799110233784
0.02837447077035904,0.0022457591257989407,-0.018026722595095634,0.01708138734102249,-0.0008034975617192686,-0.012594877742230892
0.029126549139618874,0.0024934823159128428,-0.018364328891038895,0.016737595200538635,-0.0007278250996023417,-0.012605573050677776
0.028847603127360344,0.0025649224407970905,-0.01821141503751278,0.016784891486167908,-0.0007211969932541251,-0.012566469609737396
0.02907573990523815,0.002419008407741785,-0.018542027100920677,0.017320534214377403,-0.0006685707485303283,-0.011966452933847904
0.029694348573684692,0.0024436614476144314,-0.01883588172495365,0.01601991429924965,-0.0006690958980470896,-0.012164108455181122
0.029377417638897896,0.0028194673359394073,-0.018654199317097664,0.01625528186559677,-0.0006301107350736856,-0.01218461524695158
0.028856147080659866,0.003216246608644724,-0.019042201340198517,0.016357211396098137,-0.000583356770221144,-0.012028266675770283
0.028893882408738136,0.0029020365327596664,-0.018770402297377586,0.016867689788341522,-0.0006083219777792692,-0.012439349666237831
0.029521869495511055,0.002806407865136862,-0.018609920516610146,0.017405208200216293,-0.0006440227152779698,-0.012172320857644081
0.029872331768274307,0.0027787124272435904,-0.019253507256507874,0.017012789845466614,-0.0006695822230540216,-0.012699877843260765
0.030023768544197083,0.00312293553724885,-0.01921710930764675,0.017000947147607803,-0.0010351825039833784,-0.012782524339854717
0.030144857242703438,0.00321503565646708,-0.018528057262301445,0.01621863804757595,-0.0009569738176651299,-0.012975000776350498
0.02989049442112446,0.0032498901709914207,-0.019089611247181892,0.0166298970580101,-0.0009444528841413558,-0.012617429718375206
0.029831470921635628,0.0032093836925923824,-0.01932249404489994,0.016685156151652336,-0.000828631455078721,-0.012250305153429508
0.02992985025048256,0.0033627208322286606,-0.01872118003666401,0.016892412677407265,-0.0007827856461517513,-0.012455632910132408
0.030235176905989647,0.003278526710346341,-0.01894981972873211,0.016958998516201973,-0.0007463978254236281,-0.012710705399513245
0.030927395448088646,0.0036181386094540358,-0.01951487921178341,0.01637563854455948,-0.0006788842147216201,-0.012855269946157932
0.030510693788528442,0.004261813126504421,-0.01921592652797699,0.016692359000444412,-0.0005868635489605367,-0.012500496581196785
0.030290894210338593,0.00411600898951292,-0.019865497946739197,0.01647823117673397,-0.0005136792315170169,-0.012640207074582577
0.03035927563905716,0.0034975563175976276,-0.019829532131552696,0.016849206760525703,-0.0005398286739364266,-0.013181718997657299
0.030605845153331757,0.0036070148926228285,-0.019138731062412262,0.016185592859983444,-0.0005407763528637588,-0.013024403713643551
0.030559657141566277,0.004000548273324966,-0.019115908071398735,0.01659519225358963,-0.0005322462529875338,-0.01279112882912159
0.03129292652010918,0.004100306425243616,-0.019386230036616325,0.016739141196012497,-0.0004930052673444152,-0.012892873957753181
0.03085690177977085,0.004521404393017292,-0.019276471808552742,0.016196411103010178,-0.0005180835723876953,-0.013130598701536655
0.03083096817135811,0.004462601616978645,-0.020039979368448257,0.016592038795351982,-0.000486994773382321,-0.013159709051251411
0.03172438591718674,0.004268107004463673,-0.020040901377797127,0.016917884349822998,-0.0005312776775099337,-0.013128409162163734
0.03159380331635475,0.003940322436392307,-0.018906651064753532,0.016332441940903664,-0.0004863646172452718,-0.013246187008917332
0.03180266544222832,0.004286776762455702,-0.019765369594097137,0.01753956452012062,-0.0005211805109865963,-0.013538960367441177
0.031522564589977264,0.00420043570920825,-0.020290469750761986,0.01770082488656044,-0.0004801740578841418,-0.013076520524919033
0.032022323459386826,0.004479112569242716,-0.019669024273753166,0.017864419147372246,-0.0005095670348964632,-0.013326515443623066
0.03204625844955444,0.004407770000398159,-0.020210284739732742,0.017336783930659294,-0.0004970189183950424,-0.013498218730092049
0.03204625844955444,0.004407770000398159,-0.020210284739732742,0.017336783930659294,-0.0004970189183950424,-0.013498218730092049
0.03230628743767738,0.004450927954167128,-0.019681286066770554,0.01733863167464733,-0.0004718968993984163,-0.01335821021348238
0.031930483877658844,0.00450203288346529,-0.01959603652358055,0.016691425815224648,-0.0004952750750817358,-0.01362101174890995
0.032590724527835846,0.004631040617823601,-0.01943141594529152,0.01669600047171116,-0.00046312090125866234,-0.01360469963401556
0.03360677510499954,0.0049272337928414345,-0.019270790740847588,0.016299434006214142,-0.0004991285386495292,-0.013446507044136524
0.03385096788406372,0.004816433414816856,-0.019900210201740265,0.01675649732351303,-0.0005279817851260304,-0.01365125086158514
0.031040674075484276,0.0053082481026649475,-0.01996746100485325,0.016805080696940422,-0.0005478346720337868,-0.013505601324141026
0.032620105892419815,0.0051980940625071526,-0.019947776570916176,0.017107250168919563,-0.0005256157601252198,-0.014095909893512726
0.03394792228937149,0.005402708426117897,-0.019335126504302025,0.01741212047636509,-0.0006805520970374346,-0.014915394596755505
0.03264782205224037,0.005569274537265301,-0.01982114277780056,0.01680341176688671,-0.0007082622032612562,-0.014073719270527363
0.033774953335523605,0.005080366972833872,-0.020091863349080086,0.017131561413407326,-0.0006393034127540886,-0.014164334163069725
0.035113587975502014,0.0056159282103180885,-0.019617948681116104,0.017171602696180344,-0.0006544336793012917,-0.014488949440419674
0.033990371972322464,0.005466220900416374,-0.0200673658400774,0.018025709316134453,-0.0006444879109039903,-0.01444855984300375
0.03251083940267563,0.005950993858277798,-0.020410243421792984,0.01776919513940811,-0.0006266562850214541,-0.014602878130972385
0.033606112003326416,0.005354572087526321,-0.01971024088561535,0.01667495258152485,-0.0006472931709140539,-0.014325592666864395
0.03431050106883049,0.005346907768398523,-0.019970852881669998,0.016746267676353455,-0.0005774482269771397,-0.014170495793223381
0.034309789538383484,0.005604327190667391,-0.020517835393548012,0.016226876527071,-0.0006004613824188709,-0.014446988701820374
0.034200288355350494,0.005616726353764534,-0.02010248228907585,0.016666121780872345,-0.0005510812625288963,-0.014777641743421555
0.034054361283779144,0.005617812741547823,-0.02008226327598095,0.016685761511325836,-0.0005781554500572383,-0.014678535982966423
0.033900536596775055,0.005442723631858826,-0.020993586629629135,0.016219651326537132,-0.0005901835975237191,-0.014889813028275967
0.03394123166799545,0.005651604384183884,-0.020328110083937645,0.017402339726686478,-0.0005617757560685277,-0.014722507447004318
0.03427019715309143,0.005560837220400572,-0.019752927124500275,0.017342375591397285,-0.0005249131936579943,-0.014359002001583576
0.03461107984185219,0.005727561190724373,-0.02040642313659191,0.01714644581079483,-0.0005222420440986753,-0.01452232338488102
0.03454078361392021,0.006132746580988169,-0.02062230557203293,0.017137067392468452,-0.00047131639439612627,-0.014943518675863743
0.034027185291051865,0.005498452577739954,-0.02005566656589508,0.017085488885641098,-0.0005060049006715417,-0.01517050713300705
0.034412071108818054,0.0057877409271895885,-0.020123887807130814,0.017723433673381805,-0.0005050321342423558,-0.015152713283896446
0.034661393612623215,0.005725855939090252,-0.02039192058146,0.01749991439282894,-0.0005342646036297083,-0.015287000685930252
0.03456651046872139,0.006274834740906954,-0.020170491188764572,0.017718961462378502,-0.0005289274849928916,-0.014638513326644897
0.03432593122124672,0.005890375934541225,-0.01993289776146412,0.01739402487874031,-0.0006271107122302055,-0.014497046358883381
0.03597434610128403,0.005797295365482569,-0.020352764055132866,0.01758618839085102,-0.0007008693064562976,-0.014197531156241894
0.034790199249982834,0.005902043543756008,-0.02013341896235943,0.017252933233976364,-0.000715364352799952,-0.014393785037100315
0.03405766561627388,0.005923853255808353,-0.02023394964635372,0.01715879887342453,-0.0008836410706862807,-0.014976547099649906
0.03405766561627388,0.005923853255808353,-0.02023394964635372,0.01715879887342453,-0.0008836410706862807,-0.014976547099649906
0.03543499484658241,0.005865957587957382,-0.020296333357691765,0.017473723739385605,-0.0008806153782643378,-0.01554776169359684
0.03516402095556259,0.005478580482304096,-0.019749164581298828,0.017449669539928436,-0.000818180269561708,-0.015822315588593483
0.035514842718839645,0.0054932390339672565,-0.020387563854455948,0.01801956444978714,-0.0008164189639501274,-0.01535857655107975
0.036400917917490005,0.006214795168489218,-0.020770100876688957,0.017335008829832077,-0.0007350738160312176,-0.015612812712788582
0.03601402789354324,0.006329365074634552,-0.020136455073952675,0.017715301364660263,-0.0007399258902296424,-0.015606655739247799
0.034850168973207474,0.00605821656063199,-0.020035408437252045,0.017893284559249878,-0.0006859891000203788,-0.015734177082777023
0.03518472611904144,0.006034063640981913,-0.02051571011543274,0.01706509292125702,-0.0006116563454270363,-0.015627704560756683
0.035898350179195404,0.005606289487332106,-0.021273298189044,0.01735888049006462,-0.000617990386672318,-0.015093288384377956
0.03602776303887367,0.005924784112721682,-0.02066626027226448,0.017357083037495613,-0.0005760723724961281,-0.014784659259021282
0.03599325567483902,0.006183995865285397,-0.02097974717617035,0.016743088141083717,-0.0005967950564809144,-0.015065370127558708
0.03550751507282257,0.006049431394785643,-0.020779546350240707,0.017762962728738785,-0.0005544921732507646,-0.015423906035721302
0.03574008122086525,0.004396142903715372,-0.02021189033985138,0.018222354352474213,-0.0005779302446171641,-0.015604835934937
0.03548327833414078,0.0032972563058137894,-0.020088016986846924,0.018160760402679443,-0.0005882362020201981,-0.015419775620102882
0.03512421250343323,0.003329150378704071,-0.022619148716330528,0.017780151218175888,-0.0005660151946358383,-0.015342150814831257
0.035041093826293945,0.004028770606964827,-0.020344752818346024,0.01756247878074646,-0.0005795127362944186,-0.015346524305641651
0.035980839282274246,0.004925656132400036,-0.019839797168970108,0.018122149631381035,-0.0005439188098534942,-0.01540528703480959
0.03653930500149727,0.0048482841812074184,-0.02109440043568611,0.017920179292559624,-0.0005665906355716288,-0.015996087342500687
0.03558173030614853,0.004418403375893831,-0.02214968577027321,0.01774316094815731,-0.000565342721529305,-0.01587369479238987
0.036355458199977875,0.004093434661626816,-0.021394183859229088,0.01775420270860195,-0.0005560962599702179,-0.016063179820775986
0.03623263165354729,0.003942978102713823,-0.019770527258515358,0.01736287772655487,-0.0006316646467894316,-0.015602989122271538
0.03592731058597565,0.003845753613859415,-0.021236859261989594,0.01778765395283699,-0.0006670022266916931,-0.016479868441820145
0.03615056350827217,0.00426279753446579,-0.021270019933581352,0.01764843612909317,-0.0006930303643457592,-0.015901407226920128
0.03628479689359665,0.004359436687082052,-0.02065744809806347,0.016915326938033104,-0.0007137334323488176,-0.015917131677269936
0.03656817972660065,0.004240073263645172,-0.020673926919698715,0.01679256558418274,-0.000894930912181735,-0.01611536182463169
0.036523785442113876,0.004184883087873459,-0.02113410085439682,0.017565518617630005,-0.0009225216927006841,-0.016114678233861923
0.03684452176094055,0.0035830424167215824,-0.021084018051624298,0.01726839877665043,-0.0009117066510953009,-0.016204992309212685
0.03684452176094055,0.0035830424167215824,-0.021084018051624298,0.01726839877665043,-0.0009117066510953009,-0.016204992309212685
0.037635430693626404,0.003509967587888241,-0.021236784756183624,0.01673581637442112,-0.0008930732146836817,-0.016503339633345604
0.03707433119416237,0.004165123216807842,-0.021076802164316177,0.017195872962474823,-0.0008809373248368502,-0.016090622171759605
0.036639872938394547,0.0045951311476528645,-0.02135481685400009,0.017085541039705276,-0.0008179701981134713,-0.016689041629433632
0.03710021451115608,0.004357439931482077,-0.020880814641714096,0.017707737162709236,-0.0007710119825787842,-0.016857462003827095
0.03844577074050903,0.0044864085502922535,-0.02091692015528679,0.017360219731926918,-0.0007319510914385319,-0.016814250499010086
0.03834761679172516,0.004206131212413311,-0.021611353382468224,0.017385704442858696,-0.0006586501840502024,-0.016897354274988174
0.036229707300662994,0.004261660855263472,-0.02151975966989994,0.017385732382535934,-0.0006697772187180817,-0.016552219167351723
0.03776698559522629,0.004520269576460123,-0.021032074466347694,0.017055291682481766,-0.0006218502530828118,-0.01637127809226513
0.03769587725400925,0.004238904919475317,-0.021441634744405746,0.01785975694656372,-0.0005729763652198017,-0.01621314138174057
0.03862784802913666,0.004942766390740871,-0.021355945616960526,0.017949124798178673,-0.0004984438419342041,-0.01634981296956539
0.03857839107513428,0.004944861866533756,-0.020783361047506332,0.01776188425719738,-0.0004413989372551441,-0.016327878460288048
0.037374578416347504,0.005013149697333574,-0.020827870815992355,0.01788553223013878,-0.000475962704513222,-0.016537243500351906
0.03715380281209946,0.005203236825764179,-0.02141588367521763,0.017261426895856857,-0.0005053716013208032,-0.016915494576096535
0.03899336978793144,0.00468066381290555,-0.02123143896460533,0.017450233921408653,-0.0005261426558718085,-0.017010696232318878
0.038904767483472824,0.005013050977140665,-0.02063893713057041,0.017614608630537987,-0.0005095505039207637,-0.016726741567254066
0.03863576427102089,0.0050200182013213634,-0.020857667550444603,0.017611918970942497,-0.0007473059231415391,-0.016697579994797707
0.03921474143862724,0.0052864267490804195,-0.020825888961553574,0.018105408176779747,-0.000722053344361484,-0.016794824972748756
0.0382634773850441,0.005565945990383625,-0.021021293476223946,0.017377154901623726,-0.000791303173173219,-0.01688764989376068
0.03854891285300255,0.005149443633854389,-0.020827602595090866,0.01734858565032482,-0.0007667627069167793,-0.01728680543601513
0.03854891285300255,0.005149443633854389,-0.020827602595090866,0.01734858565032482,-0.0007667627069167793,-0.01728680543601513
0.038912661373615265,0.005081757437437773,-0.020913228392601013,0.01736491732299328,-0.001013288856483996,-0.01723187044262886
0.038272228091955185,0.0049831620417535305,-0.02091396600008011,0.016846317797899246,-0.0009717913926579058,-0.016392312943935394
0.03884001821279526,0.005688204430043697,-0.020630676299333572,0.01721384935081005,-0.0008945117588154972,-0.016643356531858444
0.038899339735507965,0.005430494900792837,-0.02068985253572464,0.017806338146328926,-0.0007611482869833708,-0.017273075878620148
0.040349576622247696,0.005056099034845829,-0.020617399364709854,0.016863573342561722,-0.0007642085547558963,-0.017713328823447227
0.03916677460074425,0.005164698697626591,-0.021051326766610146,0.01779618114233017,-0.0006825890159234405,-0.017578186467289925
0.0383605994284153,0.005578072741627693,-0.021750206127762794,0.017349734902381897,-0.0006936023128218949,-0.017314905300736427
0.0383605994284153,0.005578072741627693,-0.021750206127762794,0.017349734902381897,-0.0006936023128218949,-0.017314905300736427
0.039616405963897705,0.006291008088737726,-0.021630575880408287,0.017770102247595787,-0.0007135799387469888,-0.018617091700434685
0.038769520819187164,0.005649883765727282,-0.020724745467305183,0.01738780550658703,-0.0006944584310986102,-0.016721291467547417
0.040300238877534866,0.005223311949521303,-0.020883111283183098,0.01677832193672657,-0.0007293489761650562,-0.01638101413846016
0.040142688900232315,0.005328962113708258,-0.021561862900853157,0.01788373477756977,-0.000750321545638144,-0.016874579712748528
0.039032213389873505,0.005117688328027725,-0.02114182896912098,0.017486028373241425,-0.0007664031581953168,-0.01731179654598236
0.0383652038872242,0.0060107954777777195,-0.020850155502557755,0.0161803737282753,-0.0009077643626369536,-0.017507517710328102
0.039959125220775604,0.005793034564703703,-0.021061798557639122,0.0177898146212101,-0.00095774931833148,-0.01751435548067093
0.039808839559555054,0.005369456019252539,-0.02108680084347725,0.018167193979024887,-0.0008333449368365109,-0.017250828444957733
0.039575133472681046,0.004923178814351559,-0.021437987685203552,0.01824086904525757,-0.0008344357484020293,-0.01746605522930622
0.03945816308259964,0.0052189757116138935,-0.02136114239692688,0.017754781991243362,-0.0008415853953920305,-0.017400721088051796
0.04005160182714462,0.005448350217193365,-0.021429920569062233,0.01709546148777008,-0.0008132006041705608,-0.017441995441913605
0.039828553795814514,0.006540378555655479,-0.021530410274863243,0.017573468387126923,-0.0008399191428907216,-0.01772807352244854
0.03957006335258484,0.005911081098020077,-0.02038130722939968,0.017190754413604736,-0.0008488708990626037,-0.01755952090024948
0.039814192801713943,0.005751352291554213,-0.02082427591085434,0.017363978549838066,-0.0008549783960916102,-0.017666639760136604
0.039893828332424164,0.005634429398924112,-0.021075256168842316,0.01743289828300476,-0.0010668921750038862,-0.017547152936458588
0.04012662172317505,0.005652899853885174,-0.0221917275339365,0.01728077046573162,-0.0009879267308861017,-0.017317892983555794
0.03972829133272171,0.005389369558542967,-0.021461348980665207,0.0175903532654047,-0.0009706843411549926,-0.017893385142087936
0.040107812732458115,0.006402397062629461,-0.021313879638910294,0.017465386539697647,-0.0009607619722373784,-0.017680983990430832
0.039749376475811005,0.005807816516608,-0.021239036694169044,0.017634285613894463,-0.0008971933275461197,-0.017394477501511574
0.039529312402009964,0.005314487498253584,-0.021649710834026337,0.017886418849229813,-0.0007866797968745232,-0.01768949255347252
0.039529312402009964,0.005314487498253584,-0.021649710834026337,0.017886418849229813,-0.0007866797968745232,-0.01768949255347252
0.04105578735470772,0.005321652162820101,-0.02105722762644291,0.01791081577539444,-0.0007357075228355825,-0.01811283826828003
0.040342893451452255,0.00562941562384367,-0.021131444722414017,0.017888102680444717,-0.0006968476227484643,-0.01795273832976818
0.040775611996650696,0.005570190958678722,-0.021615073084831238,0.01783958449959755,-0.0007161220419220626,-0.018048886209726334
0.04038321599364281,0.005394566338509321,-0.02124597690999508,0.0181698240339756,-0.0006958575686439872,-0.018159180879592896
0.040896765887737274,0.005630002822726965,-0.021359974518418312,0.01788092404603958,-0.0007174438214860857,-0.017880046740174294
0.040371041744947433,0.005650975275784731,-0.02195855602622032,0.018167169764637947,-0.0007394611020572484,-0.017794091254472733
0.04064725711941719,0.006274758372455835,-0.021951312199234962,0.01803467608988285,-0.0007570275338366628,-0.017918938770890236
0.04010658338665962,0.006094614043831825,-0.02127896249294281,0.017602724954485893,-0.0009526213980279863,-0.018091000616550446
0.04103909432888031,0.005759330000728369,-0.021374430507421494,0.017781829461455345,-0.0010068276897072792,-0.0185130275785923
0.04241369292140007,0.005464343354105949,-0.021722804754972458,0.017742902040481567,-0.0009938040748238564,-0.018339350819587708
0.03981084004044533,0.00559845520183444,-0.021719366312026978,0.017573177814483643,-0.0009646700345911086,-0.018732760101556778
0.03992389515042305,0.00615772744640708,-0.020786618813872337,0.01819232478737831,-0.0008866806165315211,-0.017579060047864914
0.04045118764042854,0.005977087654173374,-0.021187711507081985,0.01776164583861828,-0.000849548086989671,-0.017724674195051193
0.04114265367388725,0.0061494880355894566,-0.02237859182059765,0.017669765278697014,-0.0008547643665224314,-0.018344584852457047
0.04239649325609207,0.0056716022081673145,-0.02243153192102909,0.017556123435497284,-0.0008521905983798206,-0.01862570270895958
0.04082983359694481,0.005682350602000952,-0.021826408803462982,0.017311999574303627,-0.000843197398353368,-0.018544400110840797
0.040128566324710846,0.0063958982937037945,-0.021753383800387383,0.01805698685348034,-0.0008303592330776155,-0.018764130771160126
0.041676394641399384,0.006139216013252735,-0.022361164912581444,0.017729321494698524,-0.0008625166956335306,-0.01878550462424755
0.041968755424022675,0.00629199156537652,-0.02247016690671444,0.01813003420829773,-0.0008863505790941417,-0.018284225836396217
0.041552718728780746,0.006049568764865398,-0.02193671651184559,0.018209436908364296,-0.0008969900663942099,-0.01878436468541622
0.04149597883224487,0.005822181701660156,-0.022149009630084038,0.017425067722797394,-0.0010174608323723078,-0.01904689520597458
0.04126601666212082,0.006135907024145126,-0.022311272099614143,0.017950722947716713,-0.0009788918541744351,-0.019412826746702194
0.04152156040072441,0.005923843011260033,-0.022312704473733902,0.01796809211373329,-0.0008939444087445736,-0.01896652951836586
0.041291531175374985,0.006079952698200941,-0.022388063371181488,0.01834464631974697,-0.0008810126455500722,-0.018359027802944183
0.04143569618463516,0.00569166662171483,-0.02246745303273201,0.01792931742966175,-0.0008678205194883049,-0.018043141812086105
0.04120801389217377,0.006005978211760521,-0.02257675677537918,0.0169054064899683,-0.0008186456980183721,-0.01858564466238022
0.04120801389217377,0.006005978211760521,-0.02257675677537918,0.0169054064899683,-0.0008186456980183721,-0.01858564466238022
0.04182332754135132,0.006749217864125967,-0.022542741149663925,0.01752474531531334,-0.0008214800036512315,-0.01898445002734661
0.04290136322379112,0.006174164358526468,-0.02260803058743477,0.017193615436553955,-0.000831735145766288,-0.019222315400838852
0.04076680168509483,0.006155031733214855,-0.022406842559576035,0.01756313443183899,-0.0007822668412700295,-0.018425922840833664
0.041566625237464905,0.007149794138967991,-0.022678349167108536,0.018067076802253723,-0.0009487585630267859,-0.018689259886741638
0.04137568548321724,0.006556360051035881,-0.023013729602098465,0.01840328797698021,-0.0008806815021671355,-0.01865922287106514
0.043343186378479004,0.006267784629017115,-0.02250213362276554,0.018282586708664894,-0.0008792280568741262,-0.01829654909670353
