davideferrari95/blind_handover_controller/data/Test 63 - [2024-02-07 -- 15-45-19]/joint_states_data.csv
shoulder_pan_joint,shoulder_lift_joint,elbow_joint,wrist_1_joint,wrist_2_joint,wrist_3_joint
0.005650229286402464,0.00667236652225256,-0.008302919566631317,0.0030171952676028013,0.0,0.005442311055958271
0.005650229286402464,0.00667236652225256,-0.008302919566631317,0.0030171952676028013,0.0,0.005442311055958271
0.005406426731497049,0.0069819423370063305,-0.009193411096930504,0.0029023215174674988,0.0,0.005363635718822479
0.005406426731497049,0.0069819423370063305,-0.009193411096930504,0.0029023215174674988,0.0,0.005363635718822479
0.0055168429389595985,0.007444670889526606,-0.008580467663705349,0.0032037063501775265,0.0,0.00551488297060132
0.0062064798548817635,0.006874231621623039,-0.00826389342546463,0.0033091106452047825,0.0,0.005412030965089798
0.005743251647800207,0.006551619153469801,-0.009051922708749771,0.0031833923421800137,0.0,0.0056650820188224316
0.005727363750338554,0.00621227128431201,-0.00891552772372961,0.002959502162411809,0.0,0.005485472735017538
0.004403666127473116,0.006765441037714481,-0.009239385835826397,0.0030655874870717525,0.0,0.005117417778819799
0.004863707814365625,0.006361484993249178,-0.010418888181447983,0.0033539137803018093,0.0,0.005027225706726313
0.005012739449739456,0.006290113553404808,-0.009044948033988476,0.0035871583968400955,0.0,0.005125118885189295
0.00481659360229969,0.00628497451543808,-0.009074179455637932,0.0036451539490371943,0.0,0.005011788569390774
0.005156578030437231,0.007148898672312498,-0.00964328832924366,0.003479067701846361,0.0,0.005167394410818815
0.005005634855479002,0.006388621870428324,-0.009565739892423153,0.003214991884306073,0.0,0.005557863973081112
0.0047136470675468445,0.006287096068263054,-0.008914721198379993,0.002946539083495736,0.0,0.005363159812986851
0.004648193251341581,0.006503712851554155,-0.00961090438067913,0.003061862662434578,0.0,0.005577204283326864
0.004730769898742437,0.006322271656244993,-0.009340285323560238,0.0029666200280189514,0.0,0.005238253157585859
0.004755319561809301,0.006271475460380316,-0.00886552594602108,0.0032474289182573557,0.0,0.005419345106929541
0.004702948499470949,0.006074510980397463,-0.009727707132697105,0.0033412138000130653,0.0,0.0051285699009895325
0.005299412179738283,0.006044028792530298,-0.0096115842461586,0.003233782947063446,0.0,0.004931468982249498
0.00503286998718977,0.0061079696752130985,-0.009418504312634468,0.002888200804591179,0.0,0.005325259640812874
0.004614523611962795,0.0062796371057629585,-0.009530830197036266,0.002843228867277503,0.0,0.005176072008907795
0.005096807144582272,0.006079165264964104,-0.00924776028841734,0.0028974313754588366,0.0,0.005279282573610544
0.0048476275987923145,0.0060756877064704895,-0.00879470445215702,0.0029164717998355627,0.0,0.00566799845546484
0.0048476275987923145,0.0060756877064704895,-0.00879470445215702,0.0029164717998355627,0.0,0.00566799845546484
0.004875209182500839,0.006299218162894249,-0.009562702849507332,0.002899251878261566,0.0,0.00552023621276021
0.00488420482724905,0.005760775879025459,-0.009461376816034317,0.003088860772550106,0.0,0.005458345636725426
0.005131931509822607,0.006476788315922022,-0.00904691219329834,0.0029765828512609005,0.0,0.005419848021119833
0.004901476204395294,0.006095703225582838,-0.008840820752084255,0.003281173761934042,0.0,0.005238589830696583
0.00454414589330554,0.005892238579690456,-0.009462547488510609,0.0035102928522974253,0.0,0.005152525380253792
0.004595253616571426,0.006073321215808392,-0.008857157081365585,0.00340556213632226,0.0,0.005584643688052893
0.004936280194669962,0.006016090512275696,-0.009532703086733818,0.0029042207170277834,0.0,0.0052670761942863464
0.004958381876349449,0.006318380124866962,-0.00923893041908741,0.0029239917639642954,0.0,0.005316781345754862
0.004816217347979546,0.006077940110117197,-0.00949973426759243,0.0027619735337793827,0.0,0.005587962456047535
0.004672651179134846,0.006263472605496645,-0.00889213103801012,0.0032039161305874586,0.0,0.005439031403511763
0.0047164843417704105,0.006857611238956451,-0.008892443031072617,0.00331530487164855,0.0,0.005103659350425005
0.004580738488584757,0.006259682588279247,-0.008309608325362206,0.003157947678118944,0.0,0.005489043891429901
0.004595842212438583,0.00585238728672266,-0.008983160369098186,0.0033662773203104734,0.0,0.005698170978575945
0.0050354464910924435,0.006029582116752863,-0.008834468200802803,0.003141567809507251,0.0,0.0056940363720059395
0.004992869682610035,0.005947986617684364,-0.008617179468274117,0.003311441047117114,0.0,0.005264734849333763
0.0054648141376674175,0.0063911075703799725,-0.009048092179000378,0.00341024249792099,0.0,0.005326821003109217
0.005206955596804619,0.006842306815087795,-0.008776688948273659,0.00345068727619946,0.0,0.005462793633341789
0.005079717840999365,0.006203727331012487,-0.008395800366997719,0.003601439530029893,0.0,0.0057427468709647655
0.004925154149532318,0.005914321169257164,-0.008707420900464058,0.0033083127345889807,0.0,0.005847226362675428
0.0048502529971301556,0.006118216086179018,-0.00849441159516573,0.0034969483967870474,0.0,0.005236682947725058
0.005240264348685741,0.0065461089834570885,-0.008420680649578571,0.003332301042973995,0.0,0.005208523944020271
0.005076603032648563,0.006249373313039541,-0.008280842565000057,0.0034907395020127296,0.0,0.0051759411580860615
0.005142740905284882,0.006474850699305534,-0.008295168168842793,0.0036639736499637365,0.0,0.005465048365294933
0.005005094222724438,0.006019019987434149,-0.008345182053744793,0.0034474623389542103,0.0,0.0058267074637115
0.005005094222724438,0.006019019987434149,-0.008345182053744793,0.0034474623389542103,0.0,0.0058267074637115
0.004759748931974173,0.005984376650303602,-0.008176219649612904,0.003265880048274994,0.0,0.005951883736997843
0.004858355037868023,0.006793388165533543,-0.007846729829907417,0.003174834419041872,0.0,0.005416354164481163
0.005313239526003599,0.006357080768793821,-0.008837674744427204,0.003047740086913109,0.0,0.005340533796697855
0.005604218691587448,0.005805143155157566,-0.008577188476920128,0.0030063686426728964,0.0,0.005466220900416374
0.005023963283747435,0.006081877276301384,-0.008164367638528347,0.0032853956799954176,0.0,0.005471237935125828
0.0046800533309578896,0.0065812659449875355,-0.007629360072314739,0.0036743460223078728,0.0,0.005643709097057581
0.005225409287959337,0.006500654853880405,-0.008809912949800491,0.0038433405570685863,0.0,0.005411792080849409
0.005022186320275068,0.006090517155826092,-0.008395550772547722,0.003786060493439436,0.0,0.005374914966523647
0.005528193432837725,0.006074115168303251,-0.007938461378216743,0.0034035248681902885,0.0,0.0053181457333266735
0.005785136017948389,0.006407051347196102,-0.008199173957109451,0.003220499260351062,0.0,0.005298852454870939
0.005328334867954254,0.006827201694250107,-0.008184175938367844,0.0029997285455465317,0.0,0.005701192654669285
0.00492231547832489,0.0060579837299883366,-0.007962404750287533,0.0028394253458827734,0.0,0.0054179406724870205
0.005261674989014864,0.005875269416719675,-0.00835233274847269,0.0031668003648519516,0.0,0.004963126964867115
0.00524977408349514,0.006053240038454533,-0.00844500120729208,0.0030734154861420393,0.0,0.004867085721343756
0.006007582880556583,0.006456808187067509,-0.008519786410033703,0.003418550593778491,0.0,0.00518893264234066
0.0054375422187149525,0.006205989979207516,-0.008100351318717003,0.0036137797869741917,0.0,0.005269964225590229
0.005758646875619888,0.005852308124303818,-0.008676059544086456,0.0035860987845808268,0.0,0.005231381859630346
0.005360499024391174,0.005632835440337658,-0.007827251218259335,0.003352782456204295,0.0,0.0051852064207196236
0.004858407191932201,0.005976543761789799,-0.008228478021919727,0.0034896053839474916,0.0,0.005751283839344978
0.00542821642011404,0.006564646493643522,-0.008956916630268097,0.003304355312138796,0.0,0.005634251981973648
0.005618073977530003,0.006348000839352608,-0.008126736618578434,0.003095662919804454,0.0,0.0057031684555113316
0.005587487481534481,0.006087033543735743,-0.00808302778750658,0.0033134992700070143,0.0,0.005276167765259743
0.005587487481534481,0.006087033543735743,-0.00808302778750658,0.0033134992700070143,0.0,0.005276167765259743
0.005204504821449518,0.005680963397026062,-0.00794380996376276,0.003613702254369855,0.0,0.00534095847979188
0.005210250150412321,0.005769822746515274,-0.008429570123553276,0.0033328121062368155,0.0,0.005486308131366968
0.005315917078405619,0.006772584281861782,-0.008393519558012486,0.003329154336825013,0.0,0.005389595869928598
0.005817058030515909,0.006275273859500885,-0.008455079048871994,0.0032413406297564507,0.0,0.005379899870604277
0.005643840413540602,0.005870107561349869,-0.008922228589653969,0.0031315619125962257,0.0,0.005727879703044891
0.005412722937762737,0.006145205348730087,-0.00887896865606308,0.0033548518549650908,0.0,0.005852973088622093
0.005717271473258734,0.005621079821139574,-0.008494707755744457,0.0032554203644394875,0.0,0.005575063172727823
0.005504564382135868,0.006499044597148895,-0.00818606186658144,0.0029786163941025734,0.0,0.005415895022451878
0.005861310288310051,0.005882974248379469,-0.008816460147500038,0.002851657336577773,0.0,0.005374150816351175
0.0057024299167096615,0.005560069344937801,-0.00816116388887167,0.0034304722212255,0.0,0.005526295863091946
0.0058117820881307125,0.005885939113795757,-0.00863636750727892,0.0037955688312649727,0.0,0.0056336428970098495
0.0052445633336901665,0.006402421742677689,-0.00882755871862173,0.003623323980718851,0.0,0.005237659439444542
0.005971916951239109,0.005769733339548111,-0.008021320216357708,0.003448434406891465,0.0,0.005252362694591284
0.006128745619207621,0.005813885480165482,-0.00846418272703886,0.003225333523005247,0.0,0.005575820803642273
0.006167348474264145,0.005713144317269325,-0.008590969257056713,0.003223709063604474,0.0,0.005551161244511604
0.005620100069791079,0.0055441842414438725,-0.008457854390144348,0.003417422529309988,0.0,0.005683961324393749
0.005766251124441624,0.005805038381367922,-0.007856848649680614,0.003070435719564557,0.0,0.006052125245332718
0.005460102576762438,0.006071620155125856,-0.008896536193788052,0.002804114716127515,0.0,0.0061884066089987755
0.006039795465767384,0.005471702199429274,-0.008827738463878632,0.002886522561311722,0.0,0.005285666789859533
0.006836164277046919,0.005589475855231285,-0.008096819743514061,0.0030994336120784283,0.0,0.005362869706004858
0.006010440178215504,0.0060548074543476105,-0.008318491280078888,0.0034765058662742376,0.0,0.005407254211604595
0.005352497100830078,0.0056169466115534306,-0.00897924229502678,0.003641257295385003,0.0,0.005919233430176973
0.005593354348093271,0.005764760542660952,-0.00818474031984806,0.0035805103834718466,0.0,0.006313196383416653
0.0061194272711873055,0.0055486345663666725,-0.007974859327077866,0.0033357751090079546,0.0,0.005722429603338242
0.0061194272711873055,0.0055486345663666725,-0.007974859327077866,0.0033357751090079546,0.0,0.005722429603338242
0.0061017246916890144,0.005698828492313623,-0.008977648802101612,0.0033187263179570436,0.0,0.0057983966544270515
0.0061017246916890144,0.005698828492313623,-0.008977648802101612,0.0033187263179570436,0.0,0.0057983966544270515
0.005483411252498627,0.005586512386798859,-0.008409830741584301,0.003245134139433503,0.0,0.006214792840182781
0.0056296042166650295,0.005620600655674934,-0.009113581851124763,0.0033034661319106817,0.0,0.005796405486762524
0.006215549539774656,0.005393384024500847,-0.008324275724589825,0.0036114065442234278,0.0,0.0057052322663366795
0.006152043119072914,0.005416805390268564,-0.0084112249314785,0.003380952402949333,0.0,0.005920198746025562
0.00575566291809082,0.005532428156584501,-0.008705487474799156,0.0033687991090118885,0.0,0.005816865712404251
0.0054771192371845245,0.005498380865901709,-0.009005595929920673,0.003489626571536064,0.0,0.006009806878864765
0.0055420901626348495,0.005457669962197542,-0.009258662350475788,0.003657077206298709,0.0,0.005726831499487162
0.006158849224448204,0.005524687469005585,-0.008666724897921085,0.0035122279077768326,0.0,0.005843481980264187
0.005672748200595379,0.005433464888483286,-0.008626245893537998,0.0035557050723582506,0.0,0.00541436905041337
0.005885888822376728,0.005400549620389938,-0.00881897658109665,0.003289351472631097,0.0,0.005419685505330563
0.005535784177482128,0.005521262064576149,-0.008478209376335144,0.0035051715094596148,0.0,0.005526306573301554
0.005925939884036779,0.005700709763914347,-0.009507023729383945,0.0034817499108612537,0.0,0.005441628862172365
0.005830042064189911,0.00528601324185729,-0.008925850503146648,0.0035247195046395063,0.0,0.005471364129334688
0.005693203303962946,0.005231157410889864,-0.008982029743492603,0.0036477402318269014,0.0,0.005265800282359123
0.00576320243999362,0.005523301661014557,-0.008745347149670124,0.0037972317077219486,0.0,0.0057765827514231205
0.005485284607857466,0.005568328313529491,-0.008273664861917496,0.0038071628659963608,0.0,0.005554763600230217
0.005717678926885128,0.005516250617802143,-0.008238631300628185,0.0036883708089590073,0.0,0.00584184005856514
0.005913390778005123,0.004983096849173307,-0.009269249625504017,0.003349028527736664,0.0,0.005860147066414356
0.006515603978186846,0.004852786660194397,-0.009317698888480663,0.00314385280944407,0.0,0.0063833375461399555
0.005718255881220102,0.005316069815307856,-0.008504209108650684,0.0031801913864910603,0.0,0.006313096731901169
0.005002130288630724,0.005204171407967806,-0.008877867832779884,0.0035495723132044077,0.0,0.005842976737767458
0.0058976649306714535,0.005844292230904102,-0.009017201140522957,0.003544498234987259,0.0,0.005885115824639797
0.0062670414336025715,0.005420503672212362,-0.00818935688585043,0.003789705689996481,0.0,0.0056870561093091965
0.006176881492137909,0.00511133810505271,-0.00855737179517746,0.0037123479414731264,0.0,0.006094884593039751
0.006050919182598591,0.0048999725840985775,-0.00937956664711237,0.0035844603553414345,0.0,0.005829907488077879
0.00589742511510849,0.004850627388805151,-0.008878359571099281,0.003403427079319954,0.0,0.005933689419180155
0.006393105257302523,0.0055974130518734455,-0.008878226391971111,0.003337500151246786,0.0,0.005626360885798931
0.006722136400640011,0.005519052501767874,-0.00944710336625576,0.003599000396206975,0.0,0.005629578605294228
0.006722136400640011,0.005519052501767874,-0.00944710336625576,0.003599000396206975,0.0,0.005629578605294228
0.006680347491055727,0.0053032259456813335,-0.009144455194473267,0.003741102758795023,0.0,0.00602887524291873
0.006129538640379906,0.0048076496459543705,-0.00835338979959488,0.003721148706972599,0.0,0.0060000005178153515
0.006300794426351786,0.004570069722831249,-0.008708816953003407,0.003702753921970725,0.0,0.006079769227653742
0.006717403884977102,0.0056199850514531136,-0.009328577667474747,0.0037610323633998632,0.0,0.005968574434518814
0.006283508148044348,0.005462360102683306,-0.00919167511165142,0.003364044241607189,0.0,0.00590109545737505
0.006432839669287205,0.005894361063838005,-0.008682345040142536,0.0033715697936713696,0.0,0.006129144225269556
0.00637917360290885,0.005370894446969032,-0.009036784060299397,0.003641949500888586,0.0,0.005756768863648176
0.006031530909240246,0.005186034832149744,-0.009264227002859116,0.003774000331759453,0.0,0.0058485353365540504
0.006612366996705532,0.005281423684209585,-0.00828696321696043,0.0036715425085276365,0.0,0.005775474011898041
0.00638682022690773,0.005434298422187567,-0.009432115592062473,0.0035555176436901093,0.0,0.0059146941639482975
0.0060990117490291595,0.0052888174541294575,-0.009103529155254364,0.00340106338262558,0.0,0.006110746879130602
0.006550369784235954,0.005134841427206993,-0.009058674797415733,0.0034561657812446356,0.0,0.0057144202291965485
0.006788622122257948,0.004824345465749502,-0.00870345626026392,0.0032790391705930233,0.0,0.005859708413481712
0.006538902409374714,0.004769409541040659,-0.00871290173381567,0.0035239742137491703,0.0,0.0064620571210980415
0.0064158146269619465,0.0056412480771541595,-0.008997033350169659,0.004163218662142754,0.0,0.006778551731258631
0.006612771190702915,0.005488573107868433,-0.00955827534198761,0.004189749248325825,0.0,0.006337577942758799
0.006852773949503899,0.005980025045573711,-0.009403993375599384,0.003538466989994049,0.0,0.005772667936980724
0.007352329324930906,0.005235379096120596,-0.008954823948442936,0.003531932132318616,0.0,0.00587426545098424
0.006861419416964054,0.004912280943244696,-0.00941163394600153,0.0037572868168354034,0.0,0.006081093568354845
0.006357721984386444,0.005417719483375549,-0.009001368656754494,0.004365070722997189,0.0,0.006189489271491766
0.006588501390069723,0.005568616092205048,-0.008246427401900291,0.004079347010701895,0.0,0.005741077475249767
0.007146981544792652,0.005630758125334978,-0.009813039563596249,0.004032074008136988,0.0,0.005935078952461481
0.007380919996649027,0.00549472076818347,-0.009202591143548489,0.0039006760343909264,0.0,0.006097113247960806
0.007429562974721193,0.005407989490777254,-0.008608464151620865,0.0035883684176951647,0.0,0.006227490957826376
0.0070752231404185295,0.005507303401827812,-0.00897536426782608,0.003544565523043275,0.0,0.006760221906006336
0.0070752231404185295,0.005507303401827812,-0.00897536426782608,0.003544565523043275,0.0,0.006760221906006336
0.00753539614379406,0.00556102953851223,-0.009004591964185238,0.003926194738596678,0.0,0.006201009266078472
0.007047586143016815,0.005596571136265993,-0.008447220548987389,0.003928359132260084,0.0,0.006028399802744389
0.0068789939396083355,0.005536891054362059,-0.008147851563990116,0.003547980450093746,0.0,0.006457256618887186
0.006681911647319794,0.005372925661504269,-0.008949954062700272,0.003302642609924078,0.0,0.007127211894840002
0.007072814740240574,0.005634245928376913,-0.00878426618874073,0.0033151977695524693,0.0,0.006987838074564934
0.007265911437571049,0.00533638009801507,-0.008425413630902767,0.003616977483034134,0.0,0.006331705953925848
0.007069640327244997,0.005416588392108679,-0.009492406621575356,0.003901998046785593,0.0,0.006219090428203344
0.006862484384328127,0.005733776837587357,-0.008673359639942646,0.003980665933340788,0.0,0.00639320258051157
0.0076540932059288025,0.0051727755926549435,-0.0092453109100461,0.004297330975532532,0.0,0.00666845915839076
0.00712038017809391,0.00534691009670496,-0.008851274847984314,0.004091770853847265,0.0,0.0063087125308811665
0.006764217279851437,0.005649544298648834,-0.008608322590589523,0.003474756143987179,0.0,0.006368187256157398
0.007034622132778168,0.005722821224480867,-0.008845302276313305,0.0035356602165848017,2.0207437501085224e-06,0.00704363314434886
0.007233130279928446,0.005687640514224768,-0.009798240847885609,0.0037999902851879597,1.319401121691044e-07,0.006981322076171637
0.007187069859355688,0.005435499828308821,-0.008844106458127499,0.003886079415678978,8.614747137869472e-09,0.006227855570614338
0.007156338542699814,0.00561132188886404,-0.008542505092918873,0.003775777295231819,5.624814503057962e-10,0.006109344307333231
0.00820042472332716,0.005379924550652504,-0.009331551380455494,0.0036853812634944916,3.672602152948734e-11,0.006220445968210697
0.007253773044794798,0.005804030224680901,-0.008702997118234634,0.0037464608903974295,2.397946858440081e-12,0.006834257859736681
0.006868912372738123,0.005976306274533272,-0.008545013144612312,0.0038605593144893646,1.5656880902447518e-13,0.007265378721058369
0.006749095395207405,0.005746908485889435,-0.009383175522089005,0.00347536220215261,1.0222822852720258e-14,0.006697180215269327
0.007103900425136089,0.005300421733409166,-0.009132308885455132,0.003456780221313238,6.674773149085577e-16,0.006310109980404377
0.007256318815052509,0.005337436217814684,-0.008622036315500736,0.0036822250112891197,4.358149618873641e-17,0.005907207261770964
0.007203605026006699,0.005452392157167196,-0.00903544295579195,0.0039832089096307755,2.8455600370059065e-18,0.006559472065418959
0.0071432460099458694,0.0056182993575930595,-0.009387011639773846,0.004026724956929684,1.8579474344554894e-19,0.006442767567932606
0.007148127071559429,0.005457588937133551,-0.008970464579761028,0.003928540740162134,1.2131068164391145e-20,0.006375858094543219
0.007464251946657896,0.005536649376153946,-0.008735474199056625,0.0041098459623754025,7.920721370851131e-22,0.006120174191892147
0.007182315923273563,0.005257012322545052,-0.009364917874336243,0.004215856082737446,5.1716651250902054e-23,0.0065496983006596565
0.007352589163929224,0.005852780304849148,-0.008950632065534592,0.0035951368045061827,3.3767277822684985e-24,0.006742502562701702
0.007018403150141239,0.005650087259709835,-0.009205141104757786,0.0038256265688687563,2.204761952541819e-25,0.0064615425653755665
0.007018403150141239,0.005650087259709835,-0.009205141104757786,0.0038256265688687563,2.204761952541819e-25,0.0064615425653755665
0.00799702387303114,0.005624106153845787,-0.008749885484576225,0.004086559172719717,9.399244944899301e-28,0.006537726614624262
0.007135717198252678,0.005515252705663443,-0.008324120193719864,0.0038716457784175873,6.137035351247582e-29,0.007094806991517544
0.007135717198252678,0.005515252705663443,-0.008324120193719864,0.0038716457784175873,6.137035351247582e-29,0.007094806991517544
0.007841669023036957,0.005673354957252741,-0.009103208780288696,0.00376037135720253,4.007045455625396e-30,0.0069916825741529465
0.007952168583869934,0.005969537887722254,-0.009257708676159382,0.004133473616093397,2.616314468644947e-31,0.006483038887381554
0.007136241067200899,0.005521025974303484,-0.008945174515247345,0.004172985441982746,1.708266447244556e-32,0.006386479362845421
0.007157949730753899,0.005116741172969341,-0.00949766580015421,0.0040040528401732445,1.1153757126303971e-33,0.0064205690287053585
0.008201147429645061,0.004965638276189566,-0.00915183499455452,0.0038563446141779423,7.282605928823441e-35,0.006982899736613035
0.007974879816174507,0.004910409450531006,-0.008557209745049477,0.004258230794221163,4.755021011898155e-36,0.0066093560308218
0.007499922066926956,0.005261088255792856,-0.008846001699566841,0.0041051460430026054,2.027139938488631e-38,0.006606637965887785
0.0075127421878278255,0.0056571937166154385,-0.008786427788436413,0.0037726841401308775,1.3235782475979697e-39,0.0071469517424702644
0.00796442199498415,0.005225075408816338,-0.009462722577154636,0.003636267501860857,8.641947759337579e-41,0.00689326599240303
0.007580423261970282,0.004819239489734173,-0.009810328483581543,0.0036558047868311405,5.6430289158360383e-42,0.007314847316592932
0.00739130936563015,0.005267489235848188,-0.009118808433413506,0.004039662424474955,3.685414961174269e-43,0.006726603023707867
0.007893699221313,0.005260395351797342,-0.008526858873665333,0.004257092252373695,2.382207389352189e-44,0.006793818436563015
0.008490479551255703,0.00521683506667614,-0.009439708665013313,0.004539688117802143,1.401298464324817e-45,0.007823348976671696
0.007842879742383957,0.005241049453616142,-0.008594037033617496,0.004183468408882618,0.0,0.007420689798891544
0.008078000508248806,0.004857952240854502,-0.008506699465215206,0.0038566850125789642,0.0,0.006738742347806692
0.008028706535696983,0.004722621291875839,-0.009347302839159966,0.004015438724309206,0.0,0.007099167909473181
0.008029112592339516,0.0049872081726789474,-0.009163773618638515,0.004036673344671726,0.0,0.007056275382637978
0.007602793164551258,0.004982115235179663,-0.008065049536526203,0.0043411534279584885,0.0,0.007300631608814001
0.007394369225949049,0.0050666979514062405,-0.008852098137140274,0.0044635748490691185,0.0,0.007470728363841772
0.009133685380220413,0.005152828525751829,-0.00882441084831953,0.00478691142052412,0.0,0.007732241414487362
0.009133685380220413,0.005152828525751829,-0.00882441084831953,0.00478691142052412,0.0,0.007732241414487362
0.008093144744634628,0.0054227085784077644,-0.00895135011523962,0.00435758987441659,0.0,0.006923143286257982
0.007799729239195585,0.0052680461667478085,-0.009645024314522743,0.004420964512974024,0.0,0.007143291644752026
0.008469472639262676,0.00494493218138814,-0.00913242157548666,0.004161498975008726,0.0,0.007458113133907318
0.00799211859703064,0.005374037194997072,-0.00938145536929369,0.004366380162537098,0.0,0.008022909983992577
0.008059779182076454,0.005159211810678244,-0.009616016410291195,0.0045908777974545956,0.0,0.007624292280524969
0.00830572098493576,0.005139091983437538,-0.009656338021159172,0.004369392059743404,0.0,0.00762289110571146
0.00830572098493576,0.005139091983437538,-0.009656338021159172,0.004369392059743404,0.0,0.00762289110571146
0.00816345028579235,0.004941788502037525,-0.008583019487559795,0.004328911658376455,0.0,0.007229022681713104
0.007961544208228588,0.004853345453739166,-0.010141907259821892,0.004057324957102537,0.0,0.007103465963155031
0.007607727777212858,0.005080781877040863,-0.009942956268787384,0.004314666148275137,0.0,0.007247337140142918
0.00888792984187603,0.005320735275745392,-0.009050881490111351,0.004515271168202162,0.0,0.007366432808339596
0.008197012357413769,0.005003799218684435,-0.009789452888071537,0.004386304412037134,0.0,0.008018231019377708
0.007820877246558666,0.0048128836788237095,-0.008617318235337734,0.004582602996379137,0.0,0.007079514674842358
0.00816847663372755,0.00481252558529377,-0.009564686566591263,0.0043152328580617905,0.0,0.0069131082855165005
0.008132346905767918,0.005117225926369429,-0.010135232470929623,0.0043315221555531025,0.0,0.007322695106267929
0.008133194409310818,0.005632464773952961,-0.00907946564257145,0.004501665476709604,0.0,0.008156347088515759
0.008435958996415138,0.005222845356911421,-0.009924211539328098,0.004945726133882999,0.0,0.007847587577998638
0.009150232188403606,0.005115394946187735,-0.010356898419559002,0.005053489934653044,0.0,0.00754255335777998
0.008496234193444252,0.004982249345630407,-0.009006128646433353,0.005174610763788223,0.0,0.007604178972542286
0.008268891833722591,0.004766764119267464,-0.009752080775797367,0.005044631659984589,0.0,0.008191785775125027
0.008412158116698265,0.005271328613162041,-0.00968788843601942,0.004460451193153858,0.0,0.00759841175749898
0.008858336135745049,0.00528979767113924,-0.009231637232005596,0.004066585097461939,0.0,0.007345316465944052
0.008087835274636745,0.005050661973655224,-0.011074830777943134,0.004196364898234606,0.0,0.007406228221952915
0.008509747684001923,0.0050678676925599575,-0.010301330126821995,0.004390364047139883,0.0,0.007988255470991135
0.009250253438949585,0.00490148039534688,-0.0093225771561265,0.0048440867103636265,0.0,0.00797170028090477
0.00863839965313673,0.004817630164325237,-0.0105541767552495,0.004979581106454134,0.0,0.0075409249402582645
0.009407296776771545,0.005051441490650177,-0.010008459910750389,0.005055910907685757,0.0,0.008280600421130657
0.00876399502158165,0.005469679832458496,-0.009268013760447502,0.004804451949894428,0.0,0.0084890928119421
0.008617963641881943,0.005553539376705885,-0.010936486534774303,0.004396659787744284,0.0,0.00800077710300684
0.008727744221687317,0.005099214613437653,-0.010478508658707142,0.004452391993254423,0.0,0.008026777766644955
0.009267590008676052,0.004905895330011845,-0.009723681025207043,0.004648254252970219,0.0,0.008159367367625237
0.009267590008676052,0.004905895330011845,-0.009723681025207043,0.004648254252970219,0.0,0.008159367367625237
0.008421978913247585,0.00570259103551507,-0.009827656671404839,0.004773939494043589,0.0,0.007509282324463129
0.008758448995649815,0.0055828760378062725,-0.009734099730849266,0.005103749223053455,0.0,0.007395004387944937
0.008754813112318516,0.005453259684145451,-0.009381061419844627,0.004733205307275057,0.0,0.007481299340724945
0.00881330668926239,0.005243252031505108,-0.009692730382084846,0.004612010903656483,0.0,0.008712542243301868
0.009106862358748913,0.005509278737008572,-0.010740429162979126,0.004885736852884293,0.0,0.00817147083580494
0.008795169182121754,0.005312445107847452,-0.009900318458676338,0.005103102419525385,0.0,0.0076247514225542545
0.009829659014940262,0.005051071755588055,-0.009852108545601368,0.0051017445512115955,0.0,0.007617493625730276
0.008924933150410652,0.005756665021181107,-0.010127998888492584,0.005190241616219282,0.0,0.008376866579055786
0.008859536610543728,0.005351184401661158,-0.009841705672442913,0.00510614737868309,0.0,0.008332631550729275
0.009211426600813866,0.00515596941113472,-0.01005522906780243,0.004951313603669405,0.0,0.008424893021583557
0.009174945764243603,0.004941691178828478,-0.009653227403759956,0.004908718168735504,0.0,0.008657209575176239
0.010262267664074898,0.005231883376836777,-0.010111818090081215,0.005110662896186113,0.0,0.008467869833111763
0.008615812286734581,0.005165147129446268,-0.009825268760323524,0.004730960354208946,0.0,0.008178903721272945
0.008454253897070885,0.005830215755850077,-0.009477799758315086,0.005370758473873138,0.0,0.008302458561956882
0.009293850511312485,0.005428543779999018,-0.009676245972514153,0.005706551019102335,0.0,0.00896452832967043
0.009375836700201035,0.004950962029397488,-0.009579591453075409,0.0051108114421367645,0.0,0.008380945771932602
0.009247693233191967,0.005272309295833111,-0.009331602603197098,0.005280918441712856,0.0,0.008548012934625149
0.009116808883845806,0.0053125773556530476,-0.009940150193870068,0.005243378225713968,0.0,0.00837617926299572
0.01002503652125597,0.005458144936710596,-0.01015455275774002,0.005310498643666506,0.0,0.008375599049031734
0.009512582793831825,0.005538430064916611,-0.010429897345602512,0.005637491121888161,0.0,0.008174451999366283
0.009348854422569275,0.005246229004114866,-0.009583849459886551,0.005551287904381752,0.0,0.008579391054809093
0.009481452405452728,0.0053781066089868546,-0.009462585672736168,0.005141697358340025,0.0,0.008450277149677277
0.009106631390750408,0.005058751441538334,-0.009386816062033176,0.005221744999289513,0.0,0.008318216539919376
0.009035910479724407,0.005412947852164507,-0.009775008074939251,0.005428713280707598,0.0,0.008401531726121902
0.009333792142570019,0.005560601130127907,-0.009857367724180222,0.004790167789906263,0.0,0.00866793468594551
0.009253528900444508,0.00518770981580019,-0.009667006321251392,0.004559529013931751,0.0,0.008762546814978123
0.009135625325143337,0.005326638929545879,-0.01022293884307146,0.004557190928608179,0.0,0.009327155537903309
0.0102086728438735,0.005100174807012081,-0.00970257818698883,0.005104525480419397,0.0,0.009022202342748642
0.009197241626679897,0.005347980186343193,-0.00900936871767044,0.005210127681493759,0.0,0.009131544269621372
0.009197241626679897,0.005347980186343193,-0.00900936871767044,0.005210127681493759,0.0,0.009131544269621372
0.00965758878737688,0.005671159829944372,-0.009425340220332146,0.005047747399657965,0.0,0.008807376027107239
0.009839988313615322,0.005181027576327324,-0.010036330670118332,0.0048323203809559345,0.0,0.008816953748464584
0.009564184583723545,0.005195031873881817,-0.009484288282692432,0.004623178392648697,0.0,0.008975730277597904
0.008926909416913986,0.005252624861896038,-0.009472398087382317,0.004674810450524092,0.0,0.008825874887406826
0.009527012705802917,0.005647397134453058,-0.009759343229234219,0.005115076433867216,0.0,0.009505034424364567
0.009904259815812111,0.00516064977273345,-0.009108055382966995,0.005437400192022324,0.0,0.009161820635199547
0.009387478232383728,0.004483032505959272,-0.009364639408886433,0.005496753379702568,0.0,0.009861853905022144
0.010125819593667984,0.005086285062134266,-0.009221963584423065,0.005481795407831669,0.0,0.008575988002121449
0.009177402593195438,0.005103586707264185,-0.009505046531558037,0.005299774929881096,0.0,0.008986368775367737
0.009728528559207916,0.004880934022367001,-0.010026202537119389,0.0051796650514006615,0.0,0.009712012484669685
0.010488583706319332,0.005078870337456465,-0.0094935717061162,0.006221942603588104,0.0,0.009658921509981155
0.009217001497745514,0.00510324165225029,-0.009209733456373215,0.005908846855163574,0.0,0.009538297541439533
0.009791682474315166,0.004871842917054892,-0.010098970495164394,0.005485659930855036,0.0,0.009486746042966843
0.010632968507707119,0.00463400362059474,-0.009558310732245445,0.005361507646739483,0.0,0.009535625576972961
0.009927715174853802,0.005109118763357401,-0.009375018998980522,0.00549151049926877,0.0,0.009452220052480698
0.009873091243207455,0.005039619281888008,-0.01072601042687893,0.005649724043905735,0.0,0.00953709427267313
0.010246316902339458,0.004988683387637138,-0.00977605301886797,0.006038297433406115,-0.00013174187915865332,0.00980351585894823
0.0102692237123847,0.004809856414794922,-0.009321585297584534,0.0059312982484698296,-0.0002203345502493903,0.009288097731769085
0.010084548965096474,0.004651304334402084,-0.00968116894364357,0.005987922661006451,-0.0002562874578870833,0.009275929071009159
0.009981751441955566,0.004432932939380407,-0.009252442046999931,0.005928821861743927,-0.00026774880825541914,0.009954912588000298
0.009634685702621937,0.004755780100822449,-0.008845880627632141,0.005721472669392824,-0.00027501353179104626,0.009383500553667545
0.010534783825278282,0.004975599702447653,-0.009690930135548115,0.006031593307852745,-0.0002646960783749819,0.009550000540912151
0.009995909407734871,0.004908562637865543,-0.009980379603803158,0.00605899328365922,-0.00028556404868140817,0.010484433732926846
0.009613355621695518,0.0050997622311115265,-0.009014802053570747,0.005958528257906437,-0.0002788283454719931,0.009913718327879906
0.01000214647501707,0.004835084080696106,-0.009571162983775139,0.006041477434337139,-0.0005072248168289661,0.009358852170407772
0.01000214647501707,0.004835084080696106,-0.009571162983775139,0.006041477434337139,-0.0005072248168289661,0.009358852170407772
0.009312305599451065,0.004220633301883936,-0.009420398622751236,0.005810658447444439,-0.0005233461270108819,0.009770774282515049
0.009312305599451065,0.004220633301883936,-0.009420398622751236,0.005810658447444439,-0.0005233461270108819,0.009770774282515049
0.009827719070017338,0.004353849217295647,-0.009973496198654175,0.005701146554201841,-0.0004820827452931553,0.00974211934953928
0.010292617604136467,0.005007467698305845,-0.009632572531700134,0.006000096909701824,-0.0004970099544152617,0.010462314821779728
0.009646986611187458,0.0050985729321837425,-0.009122381918132305,0.005799591075628996,-0.00047622498823329806,0.009772596880793571
0.009765495546162128,0.005296045448631048,-0.00961254257708788,0.006067505106329918,-0.00044375989818945527,0.009391967207193375
0.009826535359025002,0.004925892688333988,-0.009407097473740578,0.006189357023686171,-0.00041460912325419486,0.009593307040631771
0.01023686770349741,0.004686595872044563,-0.009534072130918503,0.006131613161414862,-0.00041821497143246233,0.009962634183466434
0.009791013784706593,0.0047583007253706455,-0.00980768445879221,0.0057253167033195496,-0.00039565248880535364,0.009984881617128849
0.010233866982161999,0.005329640116542578,-0.008175731636583805,0.005882741417735815,-0.0003750643809325993,0.0099989278241992
0.00987700279802084,0.00505483616143465,-0.010299363173544407,0.00653515849262476,-0.00035711046075448394,0.009841443039476871
0.009760206565260887,0.004675537813454866,-0.009851553477346897,0.006720471661537886,-0.0003320641117170453,0.010459529235959053
0.009944210760295391,0.00451061874628067,-0.009095422923564911,0.006222292315214872,-0.00030930954380892217,0.010193005204200745
0.010875481180846691,0.004804251715540886,-0.00924864411354065,0.005782056134194136,-0.00028941116761416197,0.009892534464597702
0.010212389752268791,0.0048122103326022625,-0.009579217061400414,0.006234168540686369,-0.0002983798913192004,0.009931376203894615
0.009908158332109451,0.005347671918570995,-0.009384269826114178,0.006591035984456539,-0.00030587377841584384,0.010388958267867565
0.010219626128673553,0.004664504434913397,-0.010133212432265282,0.006517931818962097,-0.00029098274535499513,0.010994614101946354
0.010134766809642315,0.004543171264231205,-0.011467852629721165,0.006328938063234091,-0.00027619910542853177,0.010352403856813908
0.009848088026046753,0.004418625496327877,-0.010618430562317371,0.005782913416624069,-0.000284142472082749,0.01007151324301958
0.010008738376200199,0.004242195747792721,-0.010354236699640751,0.006804431788623333,-0.00029086408903822303,0.010721281170845032
0.01007022988051176,0.004889297764748335,-0.010455258190631866,0.007074849214404821,-0.00027926694019697607,0.010754977352917194
0.010371866635978222,0.0050055235624313354,-0.010216901078820229,0.006691052112728357,-0.0002674914139788598,0.01037204172462225
0.011100725270807743,0.004879945423454046,-0.011147350072860718,0.006089786998927593,-0.0002565995673649013,0.010406587272882462
0.010187587700784206,0.004860439337790012,-0.010902435518801212,0.006292038597166538,-0.00024655580637045205,0.010093622840940952
0.010277924127876759,0.004787709563970566,-0.010984216816723347,0.0063676992431283,-0.00026886380510404706,0.010159977711737156
0.010397814214229584,0.004738403018563986,-0.0113672548905015,0.006250516977161169,-0.0002611703530419618,0.009945135563611984
0.010397814214229584,0.004738403018563986,-0.0113672548905015,0.006250516977161169,-0.0002611703530419618,0.009945135563611984
0.009880317375063896,0.004592866636812687,-0.010540594346821308,0.006320960819721222,-0.00025215730420313776,0.009531629271805286
0.010807191953063011,0.004705627448856831,-0.011112651787698269,0.0061831967905163765,-0.00024363254487980157,0.009417819790542126
0.011284121312201023,0.005312381312251091,-0.01085491944104433,0.006621904671192169,-0.00022818874276708812,0.010476968251168728
0.011284121312201023,0.005312381312251091,-0.01085491944104433,0.006621904671192169,-0.00022818874276708812,0.010476968251168728
0.010385324247181416,0.004777401220053434,-0.011588219553232193,0.006522170267999172,-0.0002202338946517557,0.010043410584330559
0.010634015314280987,0.0046136812306940556,-0.011723250150680542,0.006383776664733887,-0.00020978042448405176,0.01020115427672863
0.010110591538250446,0.004624311346560717,-0.011496298015117645,0.006909141317009926,-0.00020042234973516315,0.01046585664153099
0.011814677156507969,0.005235583055764437,-0.01068015955388546,0.006996556185185909,-0.00018402583373244852,0.010310236364603043
0.012642113491892815,0.005033007822930813,-0.011064420454204082,0.0066196126863360405,-0.00020744673383887857,0.010274150408804417
0.01248873583972454,0.004578193183988333,-0.010985546745359898,0.006567494478076696,-0.00020382451475597918,0.011325470171868801
0.0122347641736269,0.004444294609129429,-0.010883823037147522,0.006743353791534901,-0.00019667505694087595,0.010386503301560879
0.012396274134516716,0.004426734056323767,-0.011041509918868542,0.006381816230714321,-0.00018978015577886254,0.010276829823851585
0.012176278047263622,0.004625455942004919,-0.010338205844163895,0.0063243736512959,-0.00020595024398062378,0.01060202531516552
0.012749292887747288,0.0046390509232878685,-0.010867314413189888,0.006468933541327715,-0.00020635056716855615,0.010756786912679672
0.01267910934984684,0.005367623176425695,-0.01096181571483612,0.006312743294984102,-0.00020025786943733692,0.010720856487751007
0.012903247959911823,0.005737655330449343,-0.010785377584397793,0.006670869421213865,-0.00019411713583394885,0.010978063568472862
0.012971087358891964,0.0048760282807052135,-0.01095063891261816,0.006801581475883722,-0.00018831607303582132,0.010646168142557144
0.01276720967143774,0.0048462506383657455,-0.011058833450078964,0.0067500099539756775,-0.0001828500535339117,0.010845070704817772
0.012801042757928371,0.0049528456293046474,-0.011395055800676346,0.006053474731743336,-0.00017769249097909778,0.011147750541567802
0.012834209948778152,0.005143902264535427,-0.011356284841895103,0.006355634890496731,-0.00017281774489674717,0.010747476480901241
0.013381915166974068,0.00562279112637043,-0.011101377196609974,0.007212158292531967,-0.0001682034635450691,0.010927126742899418
0.012531451880931854,0.005147932097315788,-0.011474971659481525,0.007601437158882618,-0.00016382908506784588,0.010879072360694408
0.013013496063649654,0.004788458347320557,-0.011025601997971535,0.007007251493632793,-0.00015967663784977049,0.010766878724098206
0.012706415727734566,0.005058759357780218,-0.010996534489095211,0.006435023620724678,-0.0001557293435325846,0.011078055948019028
0.012888750992715359,0.005153491161763668,-0.010598085820674896,0.00712163420394063,-0.00017082654812838882,0.011044979095458984
0.012888750992715359,0.005153491161763668,-0.010598085820674896,0.00712163420394063,-0.00017082654812838882,0.011044979095458984
0.01311472151428461,0.005366130731999874,-0.010456155985593796,0.006658255588263273,-0.00016567640705034137,0.011465341784060001
0.01311472151428461,0.005366130731999874,-0.010456155985593796,0.006658255588263273,-0.00016567640705034137,0.011465341784060001
0.013030481524765491,0.005197381135076284,-0.010600486770272255,0.006634902209043503,-0.00016196072101593018,0.011650512926280499
0.01289826538413763,0.005310968030244112,-0.01034638937562704,0.006898032501339912,-0.00015839838306419551,0.01150546409189701
0.012822875753045082,0.00505609717220068,-0.010221569798886776,0.00787655171006918,-0.00015498840366490185,0.011158022098243237
0.012881514616310596,0.004799132701009512,-0.010590840131044388,0.007152571342885494,-0.00015172245912253857,0.01104174554347992
0.012833306565880775,0.005107567645609379,-0.011412006802856922,0.006583742797374725,-0.00014558646944351494,0.011244532652199268
0.013567827641963959,0.005354901310056448,-0.010464217513799667,0.007011359091848135,-0.00014270091196522117,0.011145537719130516
0.012338126078248024,0.004952697549015284,-0.010122970677912235,0.007263763342052698,-0.0001400775945512578,0.010781803168356419
0.013361352495849133,0.005084281321614981,-0.010842738673090935,0.007203445769846439,-0.00013999138900544494,0.011005650274455547
0.013573478907346725,0.004843146540224552,-0.010628125630319118,0.006868993863463402,-0.00013603820116259158,0.01215920690447092
0.013609307818114758,0.004952633753418922,-0.01026227232068777,0.007293494418263435,-0.00013206360745243728,0.011489992029964924
0.013584538362920284,0.0053425561636686325,-0.010780485346913338,0.0079570971429348,-0.00012829927436541766,0.011549610644578934
0.01339807640761137,0.005342031363397837,-0.01076656486839056,0.007307921536266804,-0.000124742480693385,0.011493244208395481
0.01331804133951664,0.005307188257575035,-0.011062114499509335,0.006608918309211731,-0.00012137759040342644,0.011420103721320629
0.013287132605910301,0.004874001257121563,-0.010779991745948792,0.006698209326714277,-0.00011818942584795877,0.012178553268313408
0.013914625160396099,0.004851191304624081,-0.011064321734011173,0.007096756715327501,-0.00011516473023220897,0.0116960434243083
0.01316919643431902,0.005099753383547068,-0.010409333743155003,0.006820598617196083,-0.00013179256347939372,0.011953812092542648
0.013441174291074276,0.004916601814329624,-0.010888975113630295,0.006755573209375143,-0.00013127502461429685,0.012042350135743618
0.012948980554938316,0.0047512538731098175,-0.010009398683905602,0.006799854338169098,-0.0001283307938138023,0.011989695951342583
0.013265587389469147,0.004977934528142214,-0.010679714381694794,0.007272707764059305,-0.00012536281428765506,0.011836148798465729
0.013291407376527786,0.004897283855825663,-0.010553822852671146,0.007467102259397507,-0.00013766108895651996,0.011811518110334873
0.013594609685242176,0.0045265136286616325,-0.010043506510555744,0.007537754252552986,-0.00013942313671577722,0.012083553709089756
0.013171150349080563,0.004530541133135557,-0.010804934427142143,0.007717795670032501,-0.0001367115182802081,0.011748873628675938
0.013171150349080563,0.004530541133135557,-0.010804934427142143,0.007717795670032501,-0.0001367115182802081,0.011748873628675938
0.013514349237084389,0.004968188237398863,-0.010433482937514782,0.008107819594442844,-0.000133828041725792,0.011618228629231453
0.013402417302131653,0.00481820572167635,-0.01098515372723341,0.008133068680763245,-0.00013104562822263688,0.012087246403098106
0.013637127354741096,0.004748795181512833,-0.011331586167216301,0.007790150120854378,-0.00014430885494221002,0.01194467768073082
0.013796789571642876,0.0049204775132238865,-0.010290981270372868,0.008012644946575165,-0.00014362751971930265,0.012392353266477585
0.013918563723564148,0.005217436701059341,-0.010846186429262161,0.0076747434213757515,-0.00014095910592004657,0.012020946480333805
0.013738446868956089,0.004847387317568064,-0.011499368585646152,0.007414389401674271,-0.00013826142821926624,0.012591098435223103
0.013471498154103756,0.00495485495775938,-0.010870333760976791,0.007151330821216106,-0.00013565713015850633,0.01158870942890644
0.01396897528320551,0.005112200044095516,-0.011014213785529137,0.007802534848451614,-0.00018810875189956278,0.011911370791494846
0.013939856551587582,0.005471793934702873,-0.010854406282305717,0.008146028965711594,-0.00018105292110703886,0.011660590767860413
0.013494477607309818,0.005195399280637503,-0.01147520449012518,0.007891405373811722,-0.00019982528465334326,0.012169052846729755
0.014088872820138931,0.004730020184069872,-0.0111918356269598,0.008112690411508083,-0.0002005265123443678,0.012244283221662045
0.013721495866775513,0.004949972499161959,-0.011236573569476604,0.0077749318443238735,-0.0001938572822837159,0.011968900449573994
0.014047909528017044,0.005400344729423523,-0.00993411149829626,0.007438874337822199,-0.00021025483147241175,0.012323752045631409
0.013764724135398865,0.005111620761454105,-0.012180356308817863,0.007735969964414835,-0.0002105239254888147,0.012779023498296738
0.014374211430549622,0.005172413308173418,-0.01168616022914648,0.007710656151175499,-0.00020417722407728434,0.012742205522954464
0.013865470886230469,0.005008684005588293,-0.010754328221082687,0.007452170830219984,-0.00019779702415689826,0.012839515693485737
0.013983639888465405,0.004881969187408686,-0.011102845892310143,0.00713592953979969,-0.00021206476958468556,0.01274553406983614
0.013770068064332008,0.00517644127830863,-0.01123549323529005,0.007276549004018307,-0.00021223502699285746,0.01218772865831852
0.014082084409892559,0.0048548574559390545,-0.010854775086045265,0.007437837775796652,-0.00020656509150285274,0.012169708497822285
0.014152062125504017,0.004659899976104498,-0.011319441720843315,0.0070760827511549,-0.00020083028357475996,0.012254135683178902
0.014840607531368732,0.0049813478253781796,-0.01095358096063137,0.006888244301080704,-0.0002484730212017894,0.012339102104306221
0.01425911858677864,0.004936513490974903,-0.010973450727760792,0.006917092949151993,-0.0002830621670000255,0.012728340923786163
0.014619898051023483,0.005230903159826994,-0.011464669369161129,0.007212095893919468,-0.00029564896249212325,0.012731478549540043
0.014149912633001804,0.005080500617623329,-0.010515151545405388,0.007949619553983212,-0.00030345155391842127,0.012826145626604557
0.013950908556580544,0.004800825845450163,-0.011720421724021435,0.0075902435928583145,-0.0003122942289337516,0.012601028196513653
0.013950908556580544,0.004800825845450163,-0.011720421724021435,0.0075902435928583145,-0.0003122942289337516,0.012601028196513653
0.013921106234192848,0.004556083586066961,-0.012061623856425285,0.007758151274174452,-0.00031834535184316337,0.012617774307727814
0.014266119338572025,0.004710728768259287,-0.011454771272838116,0.007785743568092585,-0.0003043883480131626,0.012684685178101063
0.014164046384394169,0.005279954057186842,-0.011211550794541836,0.008072545751929283,-0.00032638662378303707,0.012526375241577625
0.0143583407625556,0.004999591037631035,-0.010964684188365936,0.008178872987627983,-0.00031695005600340664,0.012840627692639828
0.014333578757941723,0.00535653717815876,-0.011542657390236855,0.008024945855140686,-0.0004633437783923,0.012975865975022316
0.01458579022437334,0.004593985620886087,-0.011205465532839298,0.008044883608818054,-0.0005179422441869974,0.013113881461322308
0.014294999651610851,0.004610017873346806,-0.010915596038103104,0.0077942851930856705,-0.0005224324413575232,0.012984603643417358
0.014886665157973766,0.005408016033470631,-0.011952339671552181,0.007951522246003151,-0.0005425090785138309,0.013271747156977654
0.01576763577759266,0.00507855461910367,-0.011719364672899246,0.008143238723278046,-0.00072370411362499,0.01334434375166893
0.014710147865116596,0.004910114221274853,-0.011389810591936111,0.00825672596693039,-0.0006866164621897042,0.013283398933708668
0.014914439059793949,0.004652379546314478,-0.011058427393436432,0.007887407205998898,-0.0007107334677129984,0.01315116137266159
0.014666604809463024,0.004169498570263386,-0.011595559306442738,0.008285971358418465,-0.0007117526256479323,0.013396070338785648
0.01551197748631239,0.004421757999807596,-0.011457107961177826,0.008131161332130432,-0.0006610667333006859,0.01320942584425211
0.01480279304087162,0.004554882645606995,-0.011559800244867802,0.007484446745365858,-0.0006623354274779558,0.013281717896461487
0.015304171480238438,0.0048402948305010796,-0.012140357866883278,0.008589077740907669,-0.0006242924137040973,0.01315249688923359
0.01506004948168993,0.004916766658425331,-0.011312682181596756,0.008332968689501286,-0.0005756153841502964,0.013268017210066319
0.015380160883069038,0.004781597759574652,-0.011678321287035942,0.00797483790665865,-0.0005410998710431159,0.013224945403635502
0.015626361593604088,0.004649891052395105,-0.011624548584222794,0.0073683662340044975,-0.00048598210560157895,0.014632678590714931
0.015737924724817276,0.0046082367189228535,-0.012259284034371376,0.007581223268061876,-0.0005142702138982713,0.013638531789183617
0.015539707615971565,0.004547390155494213,-0.012002890929579735,0.007990831509232521,-0.0004788890073541552,0.013082650490105152
0.015163786709308624,0.004347904585301876,-0.01172723714262247,0.008187654428184032,-0.000494321808218956,0.01313457079231739
0.015779245644807816,0.0045058042742311954,-0.01316474936902523,0.008214673027396202,-0.0004738603893201798,0.013732600025832653
0.015333320014178753,0.00468167569488287,-0.011836135759949684,0.008025762625038624,-0.00047234579687938094,0.013859987258911133
0.015608894638717175,0.004700223449617624,-0.012106673792004585,0.00799472350627184,-0.0004696778196375817,0.013891546055674553
0.015608894638717175,0.004700223449617624,-0.012106673792004585,0.00799472350627184,-0.0004696778196375817,0.013891546055674553
0.01533055305480957,0.0040960656479001045,-0.012573406100273132,0.00795716606080532,-0.00044263454037718475,0.013964636251330376
0.0160185769200325,0.004375724587589502,-0.012600704096257687,0.008325573988258839,-0.0004195264191366732,0.013999039307236671
0.01578443869948387,0.004754259251058102,-0.012522670440375805,0.008514275774359703,-0.00042020759428851306,0.014186670072376728
0.015923654660582542,0.00438492139801383,-0.011740653775632381,0.00808902271091938,-0.0003866858023684472,0.01402704045176506
0.015710314735770226,0.00393986701965332,-0.013261733576655388,0.008087930269539356,-0.00039071773062460124,0.013876673765480518
0.016025938093662262,0.004068455658853054,-0.012154992669820786,0.008424772880971432,-0.00039369723526760936,0.01338488981127739
0.016269583255052567,0.004139155615121126,-0.012514105997979641,0.008402715437114239,-0.00036885475856252015,0.013580371625721455
0.016147548332810402,0.004367276560515165,-0.012783428654074669,0.00822226982563734,-0.00034538458567112684,0.013680211268365383
0.016391262412071228,0.0045357439666986465,-0.012955858372151852,0.008430667221546173,-0.0003246204578317702,0.013773396611213684
0.016591431573033333,0.0045549301430583,-0.012146089226007462,0.008559315465390682,-0.0003371856873854995,0.014086510054767132
0.01653188094496727,0.004442320670932531,-0.01294801477342844,0.008460336364805698,-0.00032078128424473107,0.013632812537252903
0.01638204976916313,0.0046903095208108425,-0.012811978347599506,0.00851091556251049,-0.0003052834654226899,0.013990161009132862
0.016703695058822632,0.004896293859928846,-0.013326948508620262,0.008371406234800816,-0.0002911734045483172,0.013842308893799782
0.01643979921936989,0.004799611400812864,-0.012752708047628403,0.008335086517035961,-0.0002977403346449137,0.01382012851536274
0.016689982265233994,0.004375440534204245,-0.01308970432728529,0.008754712529480457,-0.0003032791428267956,0.01361947599798441
0.016602421179413795,0.004486536141484976,-0.01298904325813055,0.008711160160601139,-0.00029215338872745633,0.014229398220777512
0.017033284530043602,0.004883177112787962,-0.013188734650611877,0.008673720061779022,-0.00028083319193683565,0.014539772644639015
0.0164006557315588,0.00494721345603466,-0.013099592179059982,0.009036797098815441,-0.00027029390912503004,0.014854497276246548
0.01709885336458683,0.0046468460932374,-0.012915452010929585,0.008708348497748375,-0.00026051272288896143,0.014464887790381908
0.016672756522893906,0.004457545932382345,-0.01332227885723114,0.008653896860778332,-0.00024064966419246048,0.014710030518472195
0.016278531402349472,0.004854675382375717,-0.012889411300420761,0.008745040744543076,-0.00022584979888051748,0.014216070994734764
0.016278531402349472,0.004854675382375717,-0.012889411300420761,0.008745040744543076,-0.00022584979888051748,0.014216070994734764
0.016807179898023605,0.004621002823114395,-0.012540769763290882,0.009269140660762787,-0.00020507672161329538,0.014196285977959633
0.016917500644922256,0.004947615787386894,-0.01305730827152729,0.00843600369989872,-0.000196135719306767,0.014709769748151302
0.016917500644922256,0.004947615787386894,-0.01305730827152729,0.00843600369989872,-0.000196135719306767,0.014709769748151302
0.016877157613635063,0.0048310053534805775,-0.012796497903764248,0.00869425293058157,-0.00018794197239913046,0.014809636399149895
0.016993356868624687,0.0043877894058823586,-0.013016410171985626,0.00897064059972763,-0.00020782710635103285,0.014275673776865005
0.016993356868624687,0.0043877894058823586,-0.013016410171985626,0.00897064059972763,-0.00020782710635103285,0.014275673776865005
0.016605319455266,0.004504922311753035,-0.012588069774210453,0.008778057061135769,-0.00020039427909068763,0.015412392094731331
0.017156431451439857,0.005118354689329863,-0.01300557516515255,0.008912074379622936,-0.00019323999003972858,0.013450773432850838
0.016733890399336815,0.005074653774499893,-0.012700896710157394,0.008875112980604172,-0.0002018022642005235,0.013463783077895641
0.017239578068256378,0.004939372185617685,-0.012023329734802246,0.008555351756513119,-0.0002093537332257256,0.014182357117533684
0.017314521595835686,0.005189473275095224,-0.012856646440923214,0.008997675031423569,-0.00020352157298475504,0.014531447552144527
0.01704447902739048,0.004552280530333519,-0.013749944977462292,0.00894671119749546,-0.00019721078570000827,0.014444551430642605
0.01768195629119873,0.004568023607134819,-0.012765106745064259,0.009102082811295986,-0.0002114580274792388,0.01508492510765791
0.017321426421403885,0.004688364453613758,-0.012994986027479172,0.00930496584624052,-0.0002116455143550411,0.014805383048951626
0.017468515783548355,0.005061555653810501,-0.013359872624278069,0.008852539584040642,-0.00020030350424349308,0.014803940430283546
0.017686638981103897,0.005120481364428997,-0.01322230976074934,0.008870306424796581,-0.00023873448662925512,0.014758369885385036
0.018586209043860435,0.004889194387942553,-0.012882054783403873,0.00923494528979063,-0.00023291308025363833,0.014585789293050766
0.018407341092824936,0.004747940693050623,-0.013420107774436474,0.008765587583184242,-0.00022185490524861962,0.01498494017869234
0.017457492649555206,0.00457378663122654,-0.012697837315499783,0.008548932150006294,-0.00021145532082300633,0.01455453597009182
0.01761050894856453,0.004698724951595068,-0.013263650238513947,0.009066937491297722,-0.00020196448895148933,0.014619232155382633
0.017458375543355942,0.00523357093334198,-0.013043031096458435,0.009120108559727669,-0.0001932871964527294,0.014669103547930717
0.017949450761079788,0.005072301719337702,-0.013421032577753067,0.00883229449391365,-0.00018532518879510462,0.015068967826664448
0.017880424857139587,0.00487155606970191,-0.01288415864109993,0.009240423329174519,-0.0001954150793608278,0.014745117165148258
0.01781812496483326,0.004782019183039665,-0.013402211479842663,0.009313556365668774,-0.00020427680283319205,0.015089665539562702
0.017785239964723587,0.004787496291100979,-0.013648567721247673,0.008409980684518814,-0.00019785437325481325,0.014970214106142521
0.017827721312642097,0.004711813293397427,-0.013399109244346619,0.00879371166229248,-0.00019092719594482332,0.015040514059364796
0.0180729478597641,0.005324885249137878,-0.013307797722518444,0.009228795766830444,-0.0001844104699557647,0.015245090238749981
0.0180729478597641,0.005324885249137878,-0.013307797722518444,0.009228795766830444,-0.0001844104699557647,0.015245090238749981
0.01825864054262638,0.0048518977127969265,-0.01326912920922041,0.008789444342255592,-0.0002004001144086942,0.015396542847156525
0.01830342411994934,0.004687760025262833,-0.01306324452161789,0.009495117701590061,-0.0001950859441421926,0.015603945590555668
0.01830342411994934,0.004687760025262833,-0.01306324452161789,0.009495117701590061,-0.0001950859441421926,0.015603945590555668
0.01895005814731121,0.004731238353997469,-0.013827681541442871,0.009155772626399994,-0.00018928255303762853,0.015483233146369457
0.017498046159744263,0.004828498698771,-0.013079232536256313,0.009037605486810207,-0.0001837644085753709,0.015384712256491184
0.018093420192599297,0.005098038353025913,-0.013270416297018528,0.009079376235604286,-0.00019745220197364688,0.015625862404704094
0.018740158528089523,0.0052828253246843815,-0.012770564295351505,0.009139832109212875,-0.00019800750305876136,0.01553004328161478
0.018549127504229546,0.0046336231753230095,-0.013438817113637924,0.009126822464168072,-0.00019308857736177742,0.015576405450701714
0.01899855025112629,0.004513025749474764,-0.012948966585099697,0.009079442359507084,-0.0001880701311165467,0.015058540739119053
0.01857483573257923,0.004916043020784855,-0.013454845175147057,0.008916270919144154,-0.00019517639884725213,0.015524448826909065
0.019375568255782127,0.00446955393999815,-0.01333619561046362,0.00868466217070818,-0.0001908460253616795,0.015799030661582947
0.019066222012043,0.004482584539800882,-0.013382548466324806,0.009685162454843521,-0.0002010486787185073,0.015191642567515373
0.018694456666707993,0.0047226944006979465,-0.012938284315168858,0.009148376993834972,-0.0002099427510984242,0.015437920577824116
0.019268101081252098,0.004732903093099594,-0.01299354899674654,0.008900321088731289,-0.00020313607819844037,0.015919791534543037
0.019301528111100197,0.00441612908616662,-0.012703071348369122,0.009486977010965347,-0.00019583958783186972,0.016329867765307426
0.01907239481806755,0.004549982957541943,-0.013202096335589886,0.009413952939212322,-0.00021835678489878774,0.016159487888216972
0.019252179190516472,0.004494513384997845,-0.013172922655940056,0.009936385788023472,-0.00022780841391067952,0.01564982160925865
0.019278664141893387,0.004740118980407715,-0.013787203468382359,0.00993006769567728,-0.00023447744024451822,0.016090160235762596
0.019484760239720345,0.004832909442484379,-0.013256902806460857,0.009714973159134388,-0.000388193700928241,0.01619987189769745
0.01951644942164421,0.004749483894556761,-0.013823091052472591,0.009865053929388523,-0.00044459672062657773,0.01633273810148239
0.019200976938009262,0.0043990835547447205,-0.013495638966560364,0.010040739551186562,-0.0004469921113923192,0.016408273950219154
0.019391993060708046,0.004225132521241903,-0.013953651301562786,0.009936676360666752,-0.00047950525186024606,0.016353664919734
0.019912639632821083,0.0044865235686302185,-0.01405929122120142,0.009919064119458199,-0.0005051326006650925,0.016180671751499176
0.019828325137495995,0.004541859030723572,-0.014094305224716663,0.010060500353574753,-0.0007968679419718683,0.016253869980573654
0.019038239493966103,0.004835897590965033,-0.013600473292171955,0.009721699170768261,-0.0008521438576281071,0.01635403372347355
0.019775455817580223,0.004378088749945164,-0.014089424163103104,0.009900993667542934,-0.0008612400270067155,0.016450852155685425
0.019775455817580223,0.004378088749945164,-0.014089424163103104,0.009900993667542934,-0.0008612400270067155,0.016450852155685425
0.019741320982575417,0.004285505972802639,-0.014251179993152618,0.010316092520952225,-0.0008660285384394228,0.01660068705677986
0.019528644159436226,0.004052275326102972,-0.014420715160667896,0.009770474396646023,-0.0010491602588444948,0.016675470396876335
0.019976820796728134,0.0043384176678955555,-0.01403804775327444,0.00941329263150692,-0.0010484103113412857,0.016689665615558624
0.01980084739625454,0.004543763119727373,-0.013914170674979687,0.010041376575827599,-0.0010618874803185463,0.016886068508028984
0.019257619976997375,0.004748034756630659,-0.01408429816365242,0.010327499359846115,-0.0011217118008062243,0.016651086509227753
0.01986156776547432,0.004531994462013245,-0.013930793851613998,0.009919214062392712,-0.0012167751556262374,0.016527077183127403
0.0198166873306036,0.004601470194756985,-0.01463833637535572,0.010222903452813625,-0.0011708876118063927,0.01614524982869625
0.019725890830159187,0.004443217068910599,-0.014339787885546684,0.010505328886210918,-0.0010743504390120506,0.016479264944791794
0.020025476813316345,0.004424747079610825,-0.014595596119761467,0.010275042615830898,-0.0010161370737478137,0.016662202775478363
0.020110122859477997,0.004650309681892395,-0.014879534021019936,0.00954916886985302,-0.0009809205075725913,0.01661401242017746
0.01998503878712654,0.004491263069212437,-0.014201775193214417,0.011444462463259697,-0.0009420192218385637,0.01678098365664482
0.020019318908452988,0.004559905268251896,-0.014444762840867043,0.01041035633534193,-0.0008576997206546366,0.018079979345202446
0.020112723112106323,0.004596696700900793,-0.014314720407128334,0.010278039611876011,-0.0007676304667256773,0.01720043644309044
0.020417718216776848,0.00453442707657814,-0.014712998643517494,0.0105318333953619,-0.0007226343150250614,0.016627538949251175
0.02080473303794861,0.004325935151427984,-0.01452817302197218,0.010460886172950268,-0.0006861882284283638,0.016424529254436493
0.02074996754527092,0.004228881094604731,-0.014439958147704601,0.01022527925670147,-0.0006863433518446982,0.01731489598751068
0.020107051357626915,0.004245473071932793,-0.01445730123668909,0.010850213468074799,-0.0006396110984496772,0.017873331904411316
0.019777005538344383,0.004493988584727049,-0.014524314552545547,0.010357698425650597,-0.0005819679354317486,0.017711525782942772
0.02038179524242878,0.004590475931763649,-0.01590033248066902,0.010655025020241737,-0.0005984076415188611,0.01825367659330368
0.0200049988925457,0.0045830137096345425,-0.01456912886351347,0.010971756651997566,-0.0005607048515230417,0.01843949407339096
0.020327936857938766,0.004325495101511478,-0.014497469179332256,0.010110949166119099,-0.0005207116482779384,0.017842790111899376
0.02029174380004406,0.004257136024534702,-0.014325425028800964,0.010121606290340424,-0.0004856074810959399,0.017275331541895866
0.02012411132454872,0.0044821035116910934,-0.01510896347463131,0.010416874662041664,-0.00045491039054468274,0.01740669272840023
0.02012411132454872,0.0044821035116910934,-0.01510896347463131,0.010416874662041664,-0.00045491039054468274,0.01740669272840023
0.021234044805169106,0.004806072451174259,-0.014611323364078999,0.010607445612549782,-0.00035879708593711257,0.01859487220644951
0.021234044805169106,0.004806072451174259,-0.014611323364078999,0.010607445612549782,-0.00035879708593711257,0.01859487220644951
0.02057328261435032,0.0046430849470198154,-0.014423365704715252,0.010306362994015217,-0.0003320584655739367,0.018540704622864723
0.020503001287579536,0.004799308255314827,-0.01497243158519268,0.009738600812852383,-0.0003092096885666251,0.01841319166123867
0.0203312486410141,0.004322985652834177,-0.014409907162189484,0.01043118815869093,-0.0003318995295558125,0.018420452252030373
0.020223036408424377,0.00445040687918663,-0.014886667020618916,0.010118781588971615,-0.00032519889646209776,0.01792091503739357
0.02038254402577877,0.004213640931993723,-0.014076050370931625,0.009723606519401073,-0.0003075403510592878,0.01845499686896801
0.020276712253689766,0.003988073207437992,-0.014853001572191715,0.01063874177634716,-0.0002910177572630346,0.018467659130692482
0.01987498626112938,0.004341612569987774,-0.014621899463236332,0.01089862547814846,-0.0002761349896900356,0.018393732607364655
0.02125846967101097,0.004300194792449474,-0.014282061718404293,0.011167481541633606,-0.00025050737895071507,0.018023042008280754
0.020859893411397934,0.004448262043297291,-0.01461353525519371,0.010387740097939968,-0.00023939881066326052,0.0181305892765522
0.020965708419680595,0.004139030817896128,-0.014307232573628426,0.010954984463751316,-0.0002479164977557957,0.0182418804615736
0.021188348531723022,0.003922393545508385,-0.015189946629106998,0.010949676856398582,-0.00025527150137349963,0.01831134408712387
0.021704990416765213,0.004235371015965939,-0.014746183529496193,0.010437840595841408,-0.0002464231220073998,0.019016388803720474
0.02190721593797207,0.004352568183094263,-0.015093992464244366,0.011189477518200874,-0.00023721721663605422,0.020451024174690247
0.021802404895424843,0.0045454432256519794,-0.014449630863964558,0.010967331007122993,-0.00022861239267513156,0.018417343497276306
0.021841073408722878,0.00417422316968441,-0.0151212802156806,0.0110304681584239,-0.00022060642368160188,0.01834724098443985
0.02181386388838291,0.003906101221218705,-0.014557969756424427,0.011464076116681099,-0.00022806604101788253,0.01861620508134365
0.02156367152929306,0.004081317223608494,-0.015088699758052826,0.010992499068379402,-0.0002346046967431903,0.018891561776399612
0.021984806284308434,0.003993257414549589,-0.0144407469779253,0.011298427358269691,-0.0002280853223055601,0.01946001872420311
0.022142093628644943,0.00383026828058064,-0.01498454250395298,0.01158005278557539,-0.000221138761844486,0.019294528290629387
0.022130876779556274,0.004215104039758444,-0.01429879292845726,0.011222247034311295,-0.00021455276873894036,0.018916228786110878
0.02196870930492878,0.004603119567036629,-0.014964566566050053,0.01150796003639698,-0.00019458758470136672,0.019463982433080673
0.022395895794034004,0.004767348989844322,-0.014133387245237827,0.011153586208820343,-0.00018278983770869672,0.019165581092238426
0.022304914891719818,0.004287438001483679,-0.014588681049644947,0.011413066647946835,-0.00017540875705890357,0.0187851469963789
0.022304914891719818,0.004287438001483679,-0.014588681049644947,0.011413066647946835,-0.00017540875705890357,0.0187851469963789
0.022300532087683678,0.004001745022833347,-0.014811468310654163,0.011093469336628914,-0.0001867773535195738,0.0195542573928833
0.022300532087683678,0.004001745022833347,-0.014811468310654163,0.011093469336628914,-0.0001867773535195738,0.0195542573928833
0.022195296362042427,0.004089565481990576,-0.014654584228992462,0.01183924451470375,-0.00018787900626193732,0.018893368542194366
0.02284875698387623,0.004007939249277115,-0.014909262768924236,0.011442262679338455,-0.00018204166553914547,0.019025791436433792
0.022767886519432068,0.004342429339885712,-0.01439625583589077,0.01119768526405096,-0.0001905287936097011,0.01921951025724411
0.022620635107159615,0.004453480243682861,-0.014994577504694462,0.01172166969627142,-0.0001980253728106618,0.019159678369760513
0.022455444559454918,0.0043311649933457375,-0.01491034310311079,0.01159411109983921,-0.00019284445443190634,0.019432809203863144
0.02273714356124401,0.00408507464453578,-0.015228570438921452,0.011960374191403389,-0.00018717216153163463,0.019543804228305817
0.02318759262561798,0.004392983857542276,-0.015375138260424137,0.011654268018901348,-0.0002059966791421175,0.019279496744275093
0.023129506036639214,0.004218724090605974,-0.015111035667359829,0.01198825053870678,-0.0002018024679273367,0.01948150247335434
0.02251940220594406,0.0039709871634840965,-0.015396644361317158,0.012391425669193268,-0.0002647766668815166,0.01988908089697361
0.02316129393875599,0.004515405278652906,-0.015375028364360332,0.01161409355700016,-0.00032369018299505115,0.01956532895565033
0.023496590554714203,0.004132007714360952,-0.014644304290413857,0.011129985563457012,-0.0003305309219285846,0.019072305411100388
0.02374958246946335,0.0044156452640891075,-0.015091934241354465,0.01108098030090332,-0.00035157083766534925,0.018600082024931908
0.023917613551020622,0.004101664759218693,-0.014906135387718678,0.011824922636151314,-0.0003444931353442371,0.019775277003645897
0.023656677454710007,0.004399464465677738,-0.015971794724464417,0.011562159284949303,-0.0003709354205057025,0.01973501220345497
0.022726649418473244,0.004108543507754803,-0.015283521264791489,0.012109444476664066,-0.0005591833614744246,0.020075278356671333
0.023586450144648552,0.004320822656154633,-0.015489882789552212,0.011713540181517601,-0.0006532149855047464,0.019848808646202087
0.024108991026878357,0.004504856653511524,-0.014962342567741871,0.012148361653089523,-0.0007637041271664202,0.020159224048256874
0.024104639887809753,0.0045259571634233,-0.016044767573475838,0.012613481841981411,-0.0011343585792928934,0.02044249325990677
0.023514825850725174,0.004364595748484135,-0.01579419896006584,0.012445622123777866,-0.0012105024652555585,0.02096446231007576
0.023693358525633812,0.004548774100840092,-0.016368919983506203,0.012080117128789425,-0.0011607322376221418,0.020525949075818062
0.024243807420134544,0.004508094396442175,-0.01577923260629177,0.011667230166494846,-0.001056377892382443,0.02040255442261696
0.024480251595377922,0.004761571530252695,-0.01552340853959322,0.011667631566524506,-0.0009727088618092239,0.02023964375257492
0.024419544264674187,0.004824418108910322,-0.01606663316488266,0.011786248534917831,-0.0008547582547180355,0.019872764125466347
0.023872172459959984,0.004419602453708649,-0.015622809529304504,0.011496213264763355,-0.000791008525993675,0.02023194544017315
0.023872172459959984,0.004419602453708649,-0.015622809529304504,0.011496213264763355,-0.000791008525993675,0.02023194544017315
0.024148881435394287,0.0045034317299723625,-0.015330574475228786,0.01156899519264698,-0.0007081474177539349,0.02146330662071705
0.02470487914979458,0.004879366606473923,-0.01608515903353691,0.011938606388866901,-0.0006786748417653143,0.021550117060542107
0.02444969117641449,0.004811137914657593,-0.015961963683366776,0.012156817130744457,-0.0006910653901286423,0.021161986514925957
0.02444969117641449,0.004811137914657593,-0.015961963683366776,0.012156817130744457,-0.0006910653901286423,0.021161986514925957
0.024751469492912292,0.004698092583566904,-0.015582084655761719,0.012159543111920357,-0.0006400531274266541,0.020722979679703712
0.02467530407011509,0.004594934638589621,-0.01631348952651024,0.012548989616334438,-0.0005883458652533591,0.020814895629882812
0.024902766570448875,0.004661723971366882,-0.01599808968603611,0.01130570750683546,-0.0005238018929958344,0.02122315764427185
0.02460874244570732,0.004756209906190634,-0.015875881537795067,0.01160229928791523,-0.0005563671002164483,0.02127121016383171
0.024533366784453392,0.00473626796156168,-0.015629129484295845,0.011859362944960594,-0.0005717077874578536,0.020902983844280243
0.024294544011354446,0.004546307027339935,-0.01615833304822445,0.012572010979056358,-0.0005420470843091607,0.02098233625292778
0.024863267317414284,0.004718396347016096,-0.015432220883667469,0.012915371917188168,-0.0005002515972591937,0.02104136534035206
0.025202512741088867,0.004713053815066814,-0.016206109896302223,0.01296777743846178,-0.0005206603673286736,0.02096685580909252
0.024792641401290894,0.004450676031410694,-0.01594018004834652,0.01251755841076374,-0.0005332636646926403,0.021888000890612602
0.024878252297639847,0.0049789599142968655,-0.015755467116832733,0.013139569200575352,-0.0005529187619686127,0.020716138184070587
0.024710409343242645,0.00502361636608839,-0.01606050878763199,0.012645506300032139,-0.0005215419223532081,0.020541615784168243
0.02526867762207985,0.00481359101831913,-0.016417929902672768,0.012942736968398094,-0.00047688119229860604,0.021281005814671516
0.025110190734267235,0.004811523016542196,-0.01605156622827053,0.01264144852757454,-0.000501228729262948,0.021822037175297737
0.025354456156492233,0.005001790355890989,-0.01647530123591423,0.013116536661982536,-0.0005049599567428231,0.021664470434188843
0.02554369531571865,0.004433285910636187,-0.015458845533430576,0.013355272822082043,-0.0005003519472666085,0.02139812894165516
0.025334220379590988,0.0044874087907373905,-0.016518745571374893,0.013381578028202057,-0.00046969609684310853,0.02135634236037731
0.025553110986948013,0.0051469081081449986,-0.016223013401031494,0.013444521464407444,-0.00048684602370485663,0.02152954787015915
0.025557076558470726,0.0049330098554492,-0.016368884593248367,0.012827547267079353,-0.0004550372832454741,0.021564336493611336
0.025788424536585808,0.0049729058519005775,-0.016354205086827278,0.01300831325352192,-0.0004142464604228735,0.021336158737540245
0.025247350335121155,0.00519171915948391,-0.016393553465604782,0.012925367802381516,-0.00043498940067365766,0.02170911803841591
0.025413725525140762,0.004854042548686266,-0.016708126291632652,0.013726331293582916,-0.0004184926801826805,0.021585915237665176
0.026019662618637085,0.004615250043570995,-0.016255412250757217,0.013135449960827827,-0.0003894214751198888,0.02151651680469513
0.026757778599858284,0.0044034384191036224,-0.016929011791944504,0.013448922894895077,-0.0003632808802649379,0.02191133238375187
0.026616007089614868,0.004580232314765453,-0.016414916142821312,0.012885436415672302,-0.00038213335210457444,0.02209009788930416
0.02532769925892353,0.005076142027974129,-0.016850488260388374,0.013303090818226337,-0.00037256767973303795,0.021967226639389992
0.024802466854453087,0.005144099239259958,-0.016592130064964294,0.013512243516743183,-0.0003525647916831076,0.0220720786601305
0.024802466854453087,0.005144099239259958,-0.016592130064964294,0.013512243516743183,-0.0003525647916831076,0.0220720786601305
0.0271113533526659,0.005039664916694164,-0.01632891595363617,0.013373254798352718,-0.0003783403954003006,0.022228632122278214
0.026531793177127838,0.004848094657063484,-0.01656147837638855,0.013137084431946278,-0.0003622029034886509,0.02209051325917244
0.025605184957385063,0.004986607003957033,-0.01635550707578659,0.012817765586078167,-0.0003450301883276552,0.022156983613967896
0.02623111940920353,0.004940885119140148,-0.017299383878707886,0.013493644073605537,-0.0003292598994448781,0.02213945798575878
0.026231830939650536,0.005252584349364042,-0.01640157774090767,0.01316110696643591,-0.00031439505983144045,0.02231665886938572
0.026608694344758987,0.005092635750770569,-0.016281094402074814,0.01382942870259285,-0.00029449842986650765,0.02250334620475769
0.026274971663951874,0.004721841309219599,-0.016793644055724144,0.013166501186788082,-0.00027644215151667595,0.022820143029093742
0.02578810416162014,0.004646615590900183,-0.016784543171525,0.013641763478517532,-0.0003089154197368771,0.022973008453845978
0.026027020066976547,0.0047598048113286495,-0.0174083448946476,0.013445311225950718,-0.0002951851056423038,0.022114301100373268
0.026956573128700256,0.004986809100955725,-0.016556724905967712,0.013872507028281689,-0.0002800776273943484,0.02225658856332302
0.027013231068849564,0.004804512485861778,-0.01696852780878544,0.013501879759132862,-0.00030760670779272914,0.022272156551480293
0.026622788980603218,0.004687868058681488,-0.017180100083351135,0.013461506925523281,-0.0003177428152412176,0.0234240535646677
0.02648218162357807,0.004610741510987282,-0.017535652965307236,0.013807913288474083,-0.0003089188248850405,0.02351412922143936
0.027087219059467316,0.004462210927158594,-0.016282910481095314,0.01369777973741293,-0.00029650895157828927,0.023087605834007263
0.027028698474168777,0.0049123615026474,-0.016946395859122276,0.013922974467277527,-0.00035818779724650085,0.022319935262203217
0.026842264458537102,0.004853637423366308,-0.01682208478450775,0.013929427601397038,-0.00035465037217363715,0.022810418158769608
0.026909835636615753,0.005103330593556166,-0.017405623570084572,0.013730685226619244,-0.00033022809657268226,0.023327983915805817
0.026902183890342712,0.0051004462875425816,-0.01787351444363594,0.013804414309561253,-0.0003376268141437322,0.023613344877958298
0.027399247512221336,0.004722644109278917,-0.016984866932034492,0.013643451035022736,-0.0003435739199630916,0.02306460775434971
0.027216875925660133,0.004595039412379265,-0.01725255325436592,0.013580722734332085,-0.0003510544775053859,0.02291937544941902
0.02702515199780464,0.004593246150761843,-0.017190800979733467,0.013083724305033684,-0.0003556421725079417,0.02341839298605919
0.027446355670690536,0.0047102016396820545,-0.017601029947400093,0.013414731249213219,-0.00033814451307989657,0.02390536479651928
0.027713388204574585,0.005218300502747297,-0.018016710877418518,0.01293964684009552,-0.00036371927126310766,0.023469453677535057
0.02764199674129486,0.004677880555391312,-0.017077047377824783,0.013576246798038483,-0.0004114797047805041,0.02276432141661644
0.027751876041293144,0.0040350607596337795,-0.01824476197361946,0.013348260894417763,-0.0004745756450574845,0.02287106402218342
0.028278004378080368,0.003987639676779509,-0.018289480358362198,0.014397939667105675,-0.00047486135736107826,0.022775869816541672
0.02760728821158409,0.003986986819654703,-0.01727456785738468,0.013760602101683617,-0.0005021149991080165,0.023317210376262665
0.027918212115764618,0.004457937087863684,-0.0175411906093359,0.01423705369234085,-0.0005228754016570747,0.023653972893953323
0.028685765340924263,0.004619920160621405,-0.01777551881968975,0.013703570701181889,-0.0005066480953246355,0.02341625466942787
0.02811664156615734,0.004870504606515169,-0.018674124032258987,0.013894254341721535,-0.0007179243839345872,0.023233626037836075
0.02802501805126667,0.004729877691715956,-0.019035452976822853,0.01341306697577238,-0.0007534956675954163,0.0233516413718462
0.028612764552235603,0.004317963495850563,-0.01762630045413971,0.014101854525506496,-0.0007223276770673692,0.02503996156156063
0.028612764552235603,0.004317963495850563,-0.01762630045413971,0.014101854525506496,-0.0007223276770673692,0.02503996156156063
0.02857094444334507,0.004314015619456768,-0.018238309770822525,0.013896249234676361,-0.0006910979864187539,0.023639535531401634
0.028583403676748276,0.004072771407663822,-0.01835060305893421,0.014069880358874798,-0.0006685885600745678,0.023515285924077034
0.027802005410194397,0.004509125370532274,-0.017424555495381355,0.013691950589418411,-0.0006474584224633873,0.023191390559077263
0.02895902842283249,0.004744344390928745,-0.017956431955099106,0.013132696971297264,-0.0006346407462842762,0.02346043474972248
0.02921857312321663,0.004578159190714359,-0.017725257202982903,0.01336551085114479,-0.0006457456620410085,0.023907121270895004
0.028940273448824883,0.0043693180195987225,-0.01860370673239231,0.013912674970924854,-0.0006476740236394107,0.02408609911799431
0.028606412932276726,0.004361286293715239,-0.01864122785627842,0.014271348714828491,-0.0006712982431054115,0.024012722074985504
0.02881922759115696,0.00398154417052865,-0.018698059022426605,0.014783171005547047,-0.0007612979388795793,0.02438645251095295
0.029461288824677467,0.004285111092031002,-0.019636929035186768,0.014825590886175632,-0.0007903473451733589,0.02408730424940586
0.02869568206369877,0.004282642621546984,-0.01835082843899727,0.014861052855849266,-0.0007899249321781099,0.023842094466090202
0.029364127665758133,0.004557655658572912,-0.01835263893008232,0.014687953516840935,-0.0007259409758262336,0.024167919531464577
0.029931966215372086,0.004391541704535484,-0.01907266117632389,0.0142537085339427,-0.0007325951009988785,0.02420578896999359
0.029392773285508156,0.004071350675076246,-0.018677672371268272,0.01424945704638958,-0.0007708171615377069,0.024385957047343254
0.02917495183646679,0.00388189940713346,-0.018236402422189713,0.013989439234137535,-0.000756578694563359,0.025195933878421783
0.029034651815891266,0.00437411991879344,-0.01830383762717247,0.013860114850103855,-0.0007162891561165452,0.02494443766772747
0.029402509331703186,0.004237375222146511,-0.01873801089823246,0.014226147904992104,-0.0006357691017910838,0.024804258719086647
0.030017908662557602,0.003944546915590763,-0.019326649606227875,0.01491639856249094,-0.0006568283424712718,0.02373374253511429
0.030035652220249176,0.004370813257992268,-0.018570691347122192,0.015337768942117691,-0.0005999634740874171,0.023626677691936493
0.02993595227599144,0.0045195044949650764,-0.01879015937447548,0.015714097768068314,-0.0006207875558175147,0.024364454671740532
0.03008398599922657,0.004328479059040546,-0.01946861855685711,0.015463125891983509,-0.0005758666666224599,0.02535499446094036
0.02989257127046585,0.004026905633509159,-0.01915103755891323,0.015900030732154846,-0.0005388265708461404,0.024628521874547005
0.02993100695312023,0.0039684283547103405,-0.018733542412519455,0.015535677783191204,-0.00048597194836474955,0.024288399145007133
0.030416985973715782,0.004048262722790241,-0.019121326506137848,0.015555314719676971,-0.0005030541215091944,0.024928970262408257
0.02977326139807701,0.003967155236750841,-0.018610630184412003,0.014839641749858856,-0.0004782688629347831,0.025158017873764038
0.029825134202837944,0.004365731496363878,-0.01898166909813881,0.015299294143915176,-0.0004405196232255548,0.024668708443641663
0.02994421124458313,0.00416222820058465,-0.01947612874209881,0.014279809780418873,-0.00044025108218193054,0.024008918553590775
0.02994421124458313,0.00416222820058465,-0.01947612874209881,0.014279809780418873,-0.00044025108218193054,0.024008918553590775
0.030112331733107567,0.004406857769936323,-0.01933980919420719,0.01477067545056343,-0.000439600640675053,0.024250710383057594
0.029828542843461037,0.004098869394510984,-0.01918386109173298,0.014299212954938412,-0.0004561563255265355,0.023902736604213715
0.0293904859572649,0.004402612801641226,-0.01913100853562355,0.014897780492901802,-0.0004418248136062175,0.02488691173493862
0.03083907812833786,0.0043076626025140285,-0.01877487264573574,0.01468008104711771,-0.00041711272206157446,0.025318866595625877
0.03065527230501175,0.004155625589191914,-0.019092796370387077,0.015223555266857147,-0.0004245061136316508,0.0251326747238636
0.029894795268774033,0.004532383289188147,-0.019765550270676613,0.014989645220339298,-0.00039846377330832183,0.025112628936767578
0.02978432923555374,0.004779208917170763,-0.019098583608865738,0.015168414451181889,-0.00043485991773195565,0.025289922952651978
0.02989308163523674,0.004854962229728699,-0.019092656672000885,0.015226691029965878,-0.00040659389924257994,0.025414442643523216
0.031207900494337082,0.004617094527930021,-0.01939338445663452,0.015468955971300602,-0.0003783788124565035,0.025202926248311996
0.030879106372594833,0.004291157238185406,-0.018975496292114258,0.015947649255394936,-0.0003869064967148006,0.025251397863030434
0.029909342527389526,0.004373766481876373,-0.019710715860128403,0.015977639704942703,-0.00041322491597384214,0.025196170434355736
0.03094514086842537,0.004672997631132603,-0.020089926198124886,0.015841146931052208,-0.0003937957517337054,0.02560838684439659
0.03119124285876751,0.004502496682107449,-0.019644884392619133,0.01607808656990528,-0.0004228610487189144,0.025441493839025497
0.031090127304196358,0.004483333323150873,-0.01994253695011139,0.01585402339696884,-0.0004309494106564671,0.025713000446558
0.03187580406665802,0.0045376308262348175,-0.019139142706990242,0.01636468432843685,-0.00039617024594917893,0.026324007660150528
0.03165825828909874,0.004606802947819233,-0.018806224688887596,0.015878044068813324,-0.0004319573054090142,0.025511985644698143
0.03110285848379135,0.004701660946011543,-0.019424444064497948,0.015826284885406494,-0.00040404757601208985,0.025526560842990875
0.030685152858495712,0.004426996223628521,-0.019561827182769775,0.01560719683766365,-0.00043447050848044455,0.02585330791771412
0.030981028452515602,0.0045397463254630566,-0.019905053079128265,0.015651704743504524,-0.00041000338387675583,0.025980472564697266
0.0319054014980793,0.00448789494112134,-0.01988227851688862,0.01568523421883583,-0.00042569334618747234,0.026078980416059494
0.03223844990134239,0.004546608775854111,-0.01967373862862587,0.015498479828238487,-0.0004138949734624475,0.02595331147313118
0.0322602204978466,0.004611589014530182,-0.019538411870598793,0.01567964069545269,-0.0004811779363080859,0.0260922834277153
0.03212433680891991,0.004619958344846964,-0.020551705732941628,0.015248737297952175,-0.0005245914217084646,0.026170821860432625
0.03207157924771309,0.004699083045125008,-0.02031160332262516,0.015326544642448425,-0.0005482295528054237,0.026209572330117226
0.031132979318499565,0.0046976832672953606,-0.019899820908904076,0.014958159998059273,-0.0005768188275396824,0.026628829538822174
0.03236934915184975,0.004889239557087421,-0.020185548812150955,0.015414221212267876,-0.0005510327755473554,0.026651661843061447
0.03236934915184975,0.004889239557087421,-0.020185548812150955,0.015414221212267876,-0.0005510327755473554,0.026651661843061447
0.032609570771455765,0.004368640948086977,-0.02055155485868454,0.015134021639823914,-0.0007618347299285233,0.026618117466568947
0.032331496477127075,0.004340569954365492,-0.020242268219590187,0.015644993633031845,-0.0007924111559987068,0.026145661249756813
0.03238988667726517,0.004695936106145382,-0.020387154072523117,0.015395638532936573,-0.0007990118465386331,0.026353614404797554
0.03239249438047409,0.005178836174309254,-0.02067134715616703,0.015777427703142166,-0.0008101075072772801,0.026573074981570244
0.03264306113123894,0.004901612177491188,-0.020540926605463028,0.015716975554823875,-0.0008819355280138552,0.026759615167975426
0.033026717603206635,0.004891735967248678,-0.02049790509045124,0.015997692942619324,-0.000926479697227478,0.027264632284641266
0.032904911786317825,0.004802234470844269,-0.02068118005990982,0.01581379398703575,-0.0009251395240426064,0.02635851502418518
0.032457947731018066,0.004724356345832348,-0.020920829847455025,0.015620873309671879,-0.0009140137699432671,0.02587958611547947
0.032939739525318146,0.0046468800865113735,-0.020427074283361435,0.015679970383644104,-0.0009047896601259708,0.026890872046351433
0.032876551151275635,0.004731939639896154,-0.020289676263928413,0.01565614528954029,-0.0009414462256245315,0.027953237295150757
0.03311969339847565,0.00478891609236598,-0.020566893741488457,0.01510574296116829,-0.00090032845037058,0.02584855630993843
0.033460669219493866,0.004770563915371895,-0.02053193561732769,0.015564538538455963,-0.0008546064491383731,0.02669448032975197
0.033290814608335495,0.004594132769852877,-0.020714320242404938,0.015898507088422775,-0.00094184884801507,0.02777634561061859
0.033651575446128845,0.0045983390882611275,-0.020568517968058586,0.016347713768482208,-0.0009769608732312918,0.027064649388194084
0.03357574716210365,0.004655869212001562,-0.02020411379635334,0.01702004112303257,-0.000985482707619667,0.027319367974996567
0.03356052562594414,0.004628341179341078,-0.020376505330204964,0.016521675512194633,-0.0010744722094386816,0.028947239741683006
0.03419804200530052,0.004747794941067696,-0.021068468689918518,0.016758043318986893,-0.001083650509826839,0.028315851464867592
0.03546161577105522,0.004313034005463123,-0.020669996738433838,0.015937943011522293,-0.001034761662594974,0.02655147761106491
0.03518225997686386,0.004454151261597872,-0.020610559731721878,0.01604846492409706,-0.0009185649687424302,0.025986704975366592
0.03244009241461754,0.004567726515233517,-0.021087460219860077,0.015475275926291943,-0.0009018213604576886,0.027280287817120552
0.034787267446517944,0.004566325806081295,-0.020958812907338142,0.01675003208220005,-0.0008132304064929485,0.028042711317539215
0.035071562975645065,0.004797721281647682,-0.020359056070446968,0.016957003623247147,-0.0006993155693635345,0.027753053233027458
0.03486192971467972,0.0047928462736308575,-0.020143335685133934,0.017208706587553024,-0.0006919685984030366,0.027476981282234192
0.03558832406997681,0.004771988373249769,-0.020494339987635612,0.0174905713647604,-0.0007144113769754767,0.027477962896227837
0.03558832406997681,0.004771988373249769,-0.020494339987635612,0.0174905713647604,-0.0007144113769754767,0.027477962896227837
0.03539643436670303,0.004677952732890844,-0.020715387538075447,0.01629355363547802,-0.000710207037627697,0.027812262997031212
0.034364067018032074,0.004707694053649902,-0.020892411470413208,0.016348447650671005,-0.0007410449325107038,0.02844127081334591
0.034364067018032074,0.004707694053649902,-0.020892411470413208,0.016348447650671005,-0.0007410449325107038,0.02844127081334591
0.035671133548021317,0.004776014946401119,-0.02115572802722454,0.01700962334871292,-0.000736356945708394,0.02840723842382431
0.03540400415658951,0.0045683132484555244,-0.02052134834229946,0.016497697681188583,-0.0006999121396802366,0.028113525360822678
0.0352407731115818,0.004881535656750202,-0.02016989141702652,0.016269732266664505,-0.0006229197606444359,0.028262559324502945
0.03544342517852783,0.004837388638406992,-0.020317643880844116,0.016607649624347687,-0.0006266359705477953,0.02784394472837448
0.03533569723367691,0.004389718174934387,-0.02070160210132599,0.01594601944088936,-0.0005889284075237811,0.028319070115685463
0.035239558666944504,0.004476405680179596,-0.020295387133955956,0.016559863463044167,-0.0006114054122008383,0.028633788228034973
0.034848034381866455,0.004491585772484541,-0.020645136013627052,0.016282638534903526,-0.0005730247939936817,0.028371110558509827
0.03542434051632881,0.004838086664676666,-0.020980069413781166,0.016824759542942047,-0.0005383049137890339,0.028750604018568993
0.035435739904642105,0.004847109317779541,-0.02077765017747879,0.01698811538517475,-0.0005291003035381436,0.028662804514169693
0.035579804331064224,0.004802045878022909,-0.0209774449467659,0.017252404242753983,-0.0005505359149537981,0.028230147436261177
0.03592826798558235,0.004510900005698204,-0.020831935107707977,0.016678808256983757,-0.0005738455802202225,0.02835659869015217
0.035413362085819244,0.004554040729999542,-0.020174583420157433,0.01656714268028736,-0.0006369954789988697,0.029068291187286377
0.035474613308906555,0.004743858240544796,-0.021100124344229698,0.016910383477807045,-0.0007004906074143946,0.02940467745065689
0.036710552871227264,0.004708434920758009,-0.021575549617409706,0.016839442774653435,-0.0006733913905918598,0.028686417266726494
0.036960702389478683,0.004786163102835417,-0.020661991089582443,0.016772931441664696,-0.000650332251098007,0.0274217426776886
0.03504227474331856,0.005255629308521748,-0.01913163997232914,0.01664605550467968,-0.0006287975702434778,0.02768806181848049
0.03516926243901253,0.004627332556992769,-0.021827775985002518,0.016977079212665558,-0.0006449641659855843,0.02872662991285324
0.03681335970759392,0.004421665798872709,-0.021656082943081856,0.01662161573767662,-0.0006553122075274587,0.029003053903579712
0.036556944251060486,0.004564234521239996,-0.021919965744018555,0.016881883144378662,-0.0007100905058905482,0.029491571709513664
0.03733404725790024,0.004772795829921961,-0.02151508629322052,0.01709854230284691,-0.000654956849757582,0.02979617565870285
0.0369764044880867,0.00503911729902029,-0.021759042516350746,0.016740424558520317,-0.0006763365818187594,0.02948000840842724
0.036039963364601135,0.005041844677180052,-0.02129020355641842,0.016831589862704277,-0.0006978722522035241,0.028262488543987274
0.03614593669772148,0.004746404476463795,-0.02130488120019436,0.01631169579923153,-0.0008297839085571468,0.028321975842118263
0.036686334758996964,0.004158316645771265,-0.021502254530787468,0.016511278226971626,-0.0008520977571606636,0.029573043808341026
0.03696262836456299,0.004346699919551611,-0.022079432383179665,0.016091423109173775,-0.0007520372746512294,0.03019234724342823
0.03698202967643738,0.00434426823630929,-0.021477123722434044,0.016161201521754265,-0.0007555008050985634,0.029582401737570763
0.03681899234652519,0.004254243336617947,-0.021589841693639755,0.01645837165415287,-0.0006859737914055586,0.029271777719259262
0.03644299879670143,0.004442971665412188,-0.02117101289331913,0.016671981662511826,-0.0006954220007173717,0.02933034859597683
0.036757517606019974,0.004714579321444035,-0.022246191278100014,0.01730209030210972,-0.000662311736959964,0.029568636789917946
0.036757517606019974,0.004714579321444035,-0.022246191278100014,0.01730209030210972,-0.000662311736959964,0.029568636789917946
0.03693581372499466,0.004209248814731836,-0.02202468365430832,0.01739908754825592,-0.000672894821036607,0.029802454635500908
0.036927659064531326,0.004218121524900198,-0.021771105006337166,0.017960865050554276,-0.0006719290395267308,0.02978507988154888
0.03695452958345413,0.004215563181787729,-0.020911501720547676,0.018188944086432457,-0.0006490072119049728,0.029936227947473526
0.03598695248365402,0.004178169183433056,-0.021654600277543068,0.017824100330471992,-0.0007175355567596853,0.02985857054591179
0.03769325464963913,0.004045742563903332,-0.02196524105966091,0.017670491710305214,-0.0008072956115938723,0.029922284185886383
0.03726669028401375,0.004313740413635969,-0.02147017791867256,0.01750793121755123,-0.0007935056346468627,0.030337369069457054
0.03742193430662155,0.00457540899515152,-0.02173454873263836,0.017949746921658516,-0.0008046412840485573,0.029405031353235245
0.03757404163479805,0.004701592959463596,-0.022019773721694946,0.018121933564543724,-0.000913927040528506,0.029707157984375954
0.03760768473148346,0.00427846796810627,-0.021653147414326668,0.018290800973773003,-0.0010313934180885553,0.029776757583022118
0.03768710047006607,0.003999834414571524,-0.02143021859228611,0.018295709043741226,-0.001017690054140985,0.030324308201670647
0.03780147805809975,0.004125557839870453,-0.02174856700003147,0.01791391707956791,-0.0008922200067900121,0.030255712568759918
0.03767213597893715,0.004202785436064005,-0.021875863894820213,0.018057961016893387,-0.0008858298533596098,0.030024182051420212
0.03798279911279678,0.004922324325889349,-0.021782398223876953,0.01807829737663269,-0.0008518866379745305,0.029832055792212486
0.038168419152498245,0.004921692423522472,-0.02172796241939068,0.01806633733212948,-0.000807891774456948,0.030103664845228195
0.03819384053349495,0.004486787598580122,-0.02165800891816616,0.018290486186742783,-0.0007571281748823822,0.030285967513918877
0.03810074180364609,0.004036158323287964,-0.022098522633314133,0.018000589683651924,-0.0007484591915272176,0.030652647837996483
0.038516540080308914,0.00409099692478776,-0.02221544459462166,0.018430324271321297,-0.0006912085809744895,0.030508145689964294
0.03934095427393913,0.004094644449651241,-0.021513866260647774,0.018526427447795868,-0.0006894735852256417,0.030015502125024796
0.03881949558854103,0.00445781834423542,-0.02187972329556942,0.018099065870046616,-0.0006475889822468162,0.029894787818193436
0.03740499168634415,0.004168373066931963,-0.021960604935884476,0.01831098645925522,-0.00059857516316697,0.030190352350473404
0.03920929878950119,0.004390669520944357,-0.02226756326854229,0.019097596406936646,-0.0005356806796044111,0.031238652765750885
0.03935772180557251,0.004118604119867086,-0.0217483751475811,0.01878664456307888,-0.0005679246387444437,0.031641699373722076
0.040330782532691956,0.003951313905417919,-0.02165411040186882,0.019143670797348022,-0.0005824524560011923,0.03005133755505085
0.0390496589243412,0.00394185446202755,-0.022076323628425598,0.018936997279524803,-0.0005513515206985176,0.029159333556890488
0.0390496589243412,0.00394185446202755,-0.022076323628425598,0.018936997279524803,-0.0005513515206985176,0.029159333556890488
0.038738030940294266,0.0039639645256102085,-0.021958261728286743,0.018422575667500496,-0.0005707687232643366,0.030052699148654938
0.037877775728702545,0.00397746916860342,-0.02201475016772747,0.01855207420885563,-0.0006283976254053414,0.030685584992170334
0.03903965279459953,0.00393128115683794,-0.022372379899024963,0.018117064610123634,-0.0006912995595484972,0.03080649860203266
0.03937147185206413,0.004149756394326687,-0.02272474393248558,0.01852562464773655,-0.0006879997672513127,0.03156987205147743
0.0395536907017231,0.003921919036656618,-0.022426944226026535,0.018038414418697357,-0.0006912542739883065,0.029954854398965836
0.039082664996385574,0.004053221084177494,-0.022015651687979698,0.017934352159500122,-0.0006494052358902991,0.030629290267825127
0.039602480828762054,0.003938737325370312,-0.022228913381695747,0.017895113676786423,-0.0007184834103100002,0.0316394604742527
0.039049357175827026,0.003776522586122155,-0.02297831140458584,0.01753617450594902,-0.0007471833960153162,0.031801916658878326
0.03940082713961601,0.003823342267423868,-0.023274406790733337,0.018293336033821106,-0.0007239361293613911,0.031273070722818375
0.03978946805000305,0.004329996649175882,-0.022913368418812752,0.01839263178408146,-0.0006929233786650002,0.031334858387708664
0.03940306231379509,0.004426761996001005,-0.02255261316895485,0.018054602667689323,-0.0007101857918314636,0.031017417088150978
0.038862187415361404,0.003840169170871377,-0.02363569475710392,0.01814754121005535,-0.0007523598033003509,0.031043248251080513
0.04021913558244705,0.0035755799617618322,-0.02403193898499012,0.01783987134695053,-0.000776133791077882,0.030942805111408234
0.04153301566839218,0.0036144698970019817,-0.023856453597545624,0.018326060846447945,-0.0007631430635228753,0.03128117695450783
0.03873692452907562,0.0042693233117461205,-0.022641485556960106,0.018747268244624138,-0.0007271197973750532,0.031611163169145584
0.0396413691341877,0.0040922402404248714,-0.023088296875357628,0.018621182069182396,-0.0007416282896883786,0.031597331166267395
0.04006244242191315,0.003886455437168479,-0.02372531220316887,0.018104365095496178,-0.0007903835503384471,0.03173622861504555
0.04027961939573288,0.004313608631491661,-0.024077562615275383,0.017754465341567993,-0.0008309685508720577,0.03192292898893356
0.041487276554107666,0.004118731245398521,-0.02375027909874916,0.017637325450778008,-0.0008259236929006875,0.03181939572095871
0.041487276554107666,0.004118731245398521,-0.02375027909874916,0.017637325450778008,-0.0008259236929006875,0.03181939572095871
0.04037924483418465,0.004162736237049103,-0.023524142801761627,0.018578089773654938,-0.0008339290507137775,0.03215039521455765
0.04075238108634949,0.0038470313884317875,-0.023798387497663498,0.01845947839319706,-0.0009623660007491708,0.032462283968925476
0.04075238108634949,0.0038470313884317875,-0.023798387497663498,0.01845947839319706,-0.0009623660007491708,0.032462283968925476
0.04068148136138916,0.004214854445308447,-0.02366853691637516,0.01866310089826584,-0.0009822231950238347,0.03232255578041077
0.040434956550598145,0.004067489877343178,-0.02384357713162899,0.01845809444785118,-0.0009813031647354364,0.0320599228143692
0.0402815118432045,0.004460764583200216,-0.02389153651893139,0.01833709329366684,-0.0010903994552791119,0.03164249286055565
0.040737804025411606,0.004609850235283375,-0.024442793801426888,0.018600862473249435,-0.0010787885403260589,0.032853834331035614
0.040457818657159805,0.004261805210262537,-0.024216122925281525,0.018470559269189835,-0.0010394843993708491,0.03323977440595627
0.04079241305589676,0.003992858342826366,-0.02415218949317932,0.018684253096580505,-0.0010186327854171395,0.03258316218852997
0.04100552573800087,0.00421542301774025,-0.024172227829694748,0.018974261358380318,-0.0009346293518319726,0.031267814338207245
0.041146278381347656,0.004268186632543802,-0.024566777050495148,0.019130650907754898,-0.0007870044792070985,0.03214329108595848
0.04097670316696167,0.004629346542060375,-0.024791467934846878,0.01931796409189701,-0.0007699720445089042,0.032269466668367386
0.04123449698090553,0.004238866735249758,-0.023974455893039703,0.019074218347668648,-0.0007327182684093714,0.033607251942157745
0.04075176268815994,0.0043711368925869465,-0.02414853684604168,0.019559133797883987,-0.0007467254181392491,0.0329730324447155
0.04105386510491371,0.004190178122371435,-0.024412179365754128,0.01927753910422325,-0.0007075530011206865,0.03264867886900902
