davideferrari95/blind_handover_controller/data/Test 3 - [2024-02-07 -- 12-51-25]/joint_states_data.csv
shoulder_pan_joint,shoulder_lift_joint,elbow_joint,wrist_1_joint,wrist_2_joint,wrist_3_joint
0.0031581318471580744,0.003923054784536362,-0.0039007910527288914,0.0,-0.00021396513329818845,0.0031526219099760056
0.0031581318471580744,0.003923054784536362,-0.0039007910527288914,0.0,-0.00021396513329818845,0.0031526219099760056
0.0031310033518821,0.004306957125663757,-0.004807419143617153,0.0,-0.00021495888358913362,0.003189516020938754
0.0031310033518821,0.004306957125663757,-0.004807419143617153,0.0,-0.00021495888358913362,0.003189516020938754
0.003396602813154459,0.004075623583048582,-0.0045875245705246925,0.0,-0.00020792825671378523,0.003168619703501463
0.0032713504042476416,0.003882108721882105,-0.004503714386373758,0.0,-0.00020128827600274235,0.0030363567639142275
0.0035535439383238554,0.004294132348150015,-0.004096591379493475,0.0,-0.0002210429374827072,0.0030168425291776657
0.003239614190533757,0.004134794231504202,-0.004376741126179695,0.0,-0.00021610286785289645,0.003143198788166046
0.0030631492845714092,0.0034999451600015163,-0.004416196141391993,0.0,-0.00020991286146454513,0.002882132539525628
0.003269750624895096,0.004061340820044279,-0.004292221274226904,0.0,-0.000226104399189353,0.0027441256679594517
0.0032772631384432316,0.004181380849331617,-0.004824479576200247,0.0,-0.00022292805078905076,0.0027976336423307657
0.0035388560499995947,0.004231855273246765,-0.004429023712873459,0.0,-0.00021715030015911907,0.0028270832262933254
0.003665236057713628,0.003994272090494633,-0.004457153379917145,0.0,-0.000211493214010261,0.0028737266547977924
0.003315848298370838,0.00382226356305182,-0.004327108152210712,0.0,-0.000298022961942479,0.002728929976001382
0.003079203190281987,0.004317921586334705,-0.004808393772691488,0.0,-0.0003107670054305345,0.0027865113224834204
0.0032728228252381086,0.004121729172766209,-0.004809971433132887,0.0,-0.00029570097103714943,0.0027528132777661085
0.003512886818498373,0.00456986203789711,-0.0044545927084982395,0.0,-0.0002666226355358958,0.002856688341125846
0.0033696116879582405,0.004220101982355118,-0.004454365000128746,0.0,-0.00029074872145429254,0.0030860116239637136
0.0035289539955556393,0.004361375700682402,-0.004974805284291506,0.0,-0.0002827260468620807,0.0031978583429008722
0.0037426019553095102,0.0041958331130445,-0.004512155894190073,0.0,-0.0002708955726120621,0.003273013746365905
0.0033769020810723305,0.0043170941062271595,-0.004528416320681572,0.0,-0.00025974560412578285,0.0032666113693267107
0.003625334706157446,0.004444036167114973,-0.0042223273776471615,0.0,-0.0002494598738849163,0.0028025065548717976
0.0038477848283946514,0.004146582446992397,-0.004154130816459656,1.8143025499739451e-06,-0.00026530688046477735,0.0027014068327844143
0.0038477848283946514,0.004146582446992397,-0.004154130816459656,1.8143025499739451e-06,-0.00026530688046477735,0.0027014068327844143
0.003483999753370881,0.004546208772808313,-0.0037110536359250546,1.1846098857404286e-07,-0.0002635896671563387,0.0026396990288048983
0.003589401487261057,0.004561382345855236,-0.0035325384233146906,7.734656470859136e-09,-0.000254784245043993,0.0028461513575166464
0.0037467312067747116,0.004348463844507933,-0.0036672991700470448,5.050178053522814e-10,-0.00024610821856185794,0.003251088783144951
0.0033274327870458364,0.0042566764168441296,-0.0041583385318517685,3.297405404278919e-11,-0.00023797467292752117,0.003052818588912487
0.0034170958679169416,0.004113537725061178,-0.004076057579368353,2.1529698596839397e-12,-0.00025167761486954987,0.0030715984757989645
0.0036126619670540094,0.004439357202500105,-0.0037559932097792625,1.4057354726874222e-13,-0.0002506320015527308,0.002774405525997281
0.0036531775258481503,0.004721199162304401,-0.004146203398704529,9.178447322381704e-15,-0.00024353600747417659,0.0026028938591480255
0.003619070630520582,0.004848836921155453,-0.004164921585470438,5.992870333689686e-16,-0.00023645533656235784,0.0026460830122232437
0.003554431488737464,0.004443031270056963,-0.0039689140394330025,3.9129160145722784e-17,-0.0002327506081201136,0.0027719440404325724
0.0035646159667521715,0.004161431919783354,-0.0038484111428260803,2.5548542349641985e-18,-0.00022220762912184,0.002819099696353078
0.0034341737627983093,0.004136772360652685,-0.003926774021238089,1.6681372719732725e-19,-0.00021180724434088916,0.002687666332349181
0.0034379675053060055,0.004542774520814419,-0.004041038453578949,1.0891744811633571e-20,-0.0002022876578848809,0.0026178814005106688
0.0032351412810385227,0.004702483769506216,-0.0039992304518818855,7.111531330775956e-22,-0.00022713287035003304,0.002364231739193201
0.003646091092377901,0.0041862549260258675,-0.0039047652389854193,4.643321747286088e-23,-0.00022238017118070275,0.0023850402794778347
0.0033643327187746763,0.0043297018855810165,-0.004444030579179525,3.031757527908766e-24,-0.00021387204469647259,0.002523941919207573
0.0035937349312007427,0.004155491944402456,-0.0045928554609417915,1.979520840204876e-25,-0.00020574220980051905,0.0024403519928455353
0.0032116586808115244,0.003983638249337673,-0.004351008217781782,1.2924855767768475e-26,-0.0001981906680157408,0.0025658714585006237
0.003292156383395195,0.004201790783554316,-0.004029756877571344,8.439007089506935e-28,-0.0001911734725581482,0.002469836501404643
0.003327948972582817,0.004090627655386925,-0.0038658224511891603,5.510068719004868e-29,-0.0002113290538545698,0.002302753273397684
0.003519207937642932,0.00426391139626503,-0.004101650323718786,3.5976811466238514e-30,-0.00020801946811843663,0.002075440715998411
0.0034026065841317177,0.004293386824429035,-0.0048377332277596,1.533747853944076e-32,-0.00019536535546649247,0.001955388579517603
0.0035973177291452885,0.004465445410460234,-0.004902402870357037,1.0014276983655001e-33,-0.0001894897286547348,0.0019273392390459776
0.0037629150319844484,0.00410917354747653,-0.004492275882512331,6.538607544361687e-35,-0.00019685301231220365,0.0021705308463424444
0.003422827459871769,0.004118773620575666,-0.004048046190291643,4.2692431644065924e-36,-0.00020339716866146773,0.0021622299682348967
0.003422827459871769,0.004118773620575666,-0.004048046190291643,4.2692431644065924e-36,-0.00020339716866146773,0.0021622299682348967
0.0034833294339478016,0.0040777698159217834,-0.003831544192507863,2.787510437278836e-37,-0.0001985779235837981,0.0021759127266705036
0.0031122113578021526,0.004400201141834259,-0.00409769406542182,1.8200452614325342e-38,-0.0001932983723236248,0.0020166917238384485
0.003312148852273822,0.0046155015006661415,-0.004675394855439663,1.1883599522829465e-39,-0.00018824714061338454,0.0019690420012921095
0.0036270529963076115,0.004838574677705765,-0.004783127922564745,7.759129726812945e-41,-0.0001834508148021996,0.002050794893875718
0.0036975645925849676,0.0042789047583937645,-0.004749942570924759,5.065693948534214e-42,-0.00017889273294713348,0.0020491669420152903
0.003742361441254616,0.003938325215131044,-0.004426503553986549,3.3070643758065683e-43,-0.00019259407417848706,0.002191524486988783
0.0037490238901227713,0.004082080442458391,-0.004289483185857534,2.1019476964872256e-44,-0.00019059801707044244,0.002202520612627268
0.0036564450711011887,0.004600470419973135,-0.004318900406360626,1.401298464324817e-45,-0.00018323866243008524,0.0022977052722126245
0.004181304946541786,0.004675379488617182,-0.004355830140411854,0.0,-0.0001760930026648566,0.002097352873533964
0.003653179854154587,0.004868317861109972,-0.0044555957429111,0.0,-0.00016946268442552537,0.00202657631598413
0.003497881116345525,0.004672212991863489,-0.0046013882383704185,0.0,-0.0001633116917219013,0.001827079220674932
0.003572523593902588,0.004274363629519939,-0.004670663736760616,0.0,-0.00015759145026095212,0.0016620593378320336
0.0042535909451544285,0.004401110578328371,-0.004695198964327574,0.0,-0.00017479494272265583,0.0015423726290464401
0.004502364434301853,0.004085995256900787,-0.004208506550639868,0.0,-0.0001762135943863541,0.0014435648918151855
0.004285415168851614,0.004482491407543421,-0.004501180723309517,0.0,-0.00017109494365286082,0.0014685677597299218
0.0035354492720216513,0.0046834382228553295,-0.004206887446343899,0.0,-0.0001658694673096761,0.00148785300552845
0.003539801575243473,0.004676023963838816,-0.004440659191459417,0.0,-0.0001609278260730207,0.0016548932762816548
0.004288916476070881,0.004328047391027212,-0.004419394303113222,0.0,-0.00015627067477907985,0.001597300753928721
0.00397077901288867,0.00404214346781373,-0.004245854448527098,0.0,-0.00014772018766961992,0.0012979054590687156
0.0042967949993908405,0.00443195691332221,-0.004398161079734564,0.0,-0.00014378652849700302,0.0013189779128879309
0.004190427716821432,0.004647280555218458,-0.004621016327291727,0.0,-0.00016032462008297443,0.001289993873797357
0.003964059986174107,0.004463074263185263,-0.004304824396967888,0.0,-0.00015906796033959836,0.0013919885968789458
0.003921359311789274,0.004738342482596636,-0.004184002988040447,0.0,-0.00015532816178165376,0.0014826213009655476
0.003993966616690159,0.004318649414926767,-0.004855410195887089,0.0,-0.00015160237671807408,0.0017736899899318814
0.004019741900265217,0.004442248027771711,-0.00495326379314065,0.0,-0.000148040329804644,0.0017091472400352359
0.004019741900265217,0.004442248027771711,-0.00495326379314065,0.0,-0.000148040329804644,0.0017091472400352359
0.003983416594564915,0.004122647922486067,-0.004735050722956657,0.0,-0.00014464165724348277,0.0015670193824917078
0.003933256026357412,0.004436563700437546,-0.004260133486241102,0.0,-0.00014139522681944072,0.0013361074961721897
0.004183041397482157,0.004278508014976978,-0.004428766667842865,0.0,-0.00015211416757665575,0.001167031703516841
0.004183041397482157,0.004278508014976978,-0.004428766667842865,0.0,-0.00015211416757665575,0.001167031703516841
0.004117447417229414,0.004863520618528128,-0.004522138740867376,0.0,-0.0001512346207164228,0.0011340880300849676
0.004371607676148415,0.004429585300385952,-0.004649104084819555,0.0,-0.00014827138511464,0.001117263687774539
0.004067118279635906,0.004430040717124939,-0.004669681191444397,0.0,-0.00014528920291922987,0.0010041262721642852
0.004397164098918438,0.004226496443152428,-0.004652534611523151,0.0,-0.00014241572353057563,0.000982483965344727
0.004186270758509636,0.004223911091685295,-0.004647205583751202,0.0,-0.00013965359539724886,0.0009707274148240685
0.004443303216248751,0.004240596201270819,-0.004204500932246447,0.0,-0.00013699631381314248,0.0009291765745729208
0.004149317741394043,0.00443711131811142,-0.004374749958515167,0.0,-0.00013443823263514787,0.0008721068152226508
0.004135277587920427,0.004634268581867218,-0.004587906878441572,0.0,-0.0001353702537016943,0.0008085831650532782
0.004069847520440817,0.004713478963822126,-0.004728260450065136,0.0,-0.0001346965873381123,0.0008159378776326776
0.004293445497751236,0.0038060222286731005,-0.004582786466926336,0.0,-0.00013099596253596246,0.0008047305746003985
0.004437532741576433,0.0030562758911401033,-0.0042890445329248905,0.0,-0.00012730451999232173,0.0007450748234987259
0.004310141317546368,0.0027249513659626245,-0.0045080906711518764,0.0,-0.00012380276166368276,0.0007079062052071095
0.004463172052055597,0.002806253032758832,-0.004501250572502613,0.0,-0.00012048760254401714,0.0006188699626363814
0.004184239078313112,0.0034293169155716896,-0.0045639402233064175,0.0,-0.00011734561849152669,0.0006377853569574654
0.004569522105157375,0.003889631712809205,-0.004708775319159031,0.0,-0.00011152853403473273,0.0005679946625605226
0.004569522105157375,0.003889631712809205,-0.004708775319159031,0.0,-0.00011152853403473273,0.0005679946625605226
0.004180779680609703,0.0034143063239753246,-0.004149462096393108,0.0,-0.00010626135917846113,0.000513186096213758
0.004437469411641359,0.00316846021451056,-0.004495830740779638,0.0,-0.00010380987805547193,0.0004746534104924649
0.004541464149951935,0.0030103083699941635,-0.004725001286715269,0.0,-0.00010146910062758252,0.0005000110249966383
0.0052488623186945915,0.0031265858560800552,-0.0047243316657841206,0.0,-9.923151810653508e-05,0.00047110457671806216
0.005022148136049509,0.0032017044723033905,-0.00461600860580802,0.0,-9.709040023153648e-05,0.00044239358976483345
0.004502431023865938,0.003162776120007038,-0.004299880471080542,0.0,-9.503974433755502e-05,0.0004167887382209301
0.004479943308979273,0.003007314633578062,-0.0044114370830357075,0.0,-9.307412983616814e-05,0.0003957258886657655
0.004479943308979273,0.003007314633578062,-0.0044114370830357075,0.0,-9.307412983616814e-05,0.0003957258886657655
0.004752082284539938,0.0036807735450565815,-0.004890693351626396,2.1029680283390917e-05,-9.817069076234475e-05,0.0003078141016885638
0.004740653559565544,0.0032914169132709503,-0.004638611804693937,2.1739586372859776e-05,-0.00010457028838573024,0.00028795914840884507
0.004740653559565544,0.0032914169132709503,-0.004638611804693937,2.1739586372859776e-05,-0.00010457028838573024,0.00028795914840884507
0.004623954184353352,0.003280752571299672,-0.0048153274692595005,3.160381311317906e-05,-0.00010311579535482451,0.0002706233353819698
0.004672508221119642,0.0033230604603886604,-0.004785195458680391,4.1149640310322866e-05,-0.0001012182401609607,0.0002552644582465291
0.004661865066736937,0.0031690262258052826,-0.0043694325722754,5.1142851589247584e-05,-9.935825801221654e-05,0.00024155672872439027
0.004711523652076721,0.0032120062969624996,-0.004480804316699505,0.0005736626917496324,-9.756325744092464e-05,0.00022924650693312287
0.004591033328324556,0.003346893237903714,-0.004512828309088945,0.0008350526914000511,-9.583176870364696e-05,0.00021813037164974958
0.004898512735962868,0.0031289802864193916,-0.00462220748886466,0.0008865633280947804,-0.00010780016600620002,0.0002080430422211066
0.004780793562531471,0.0031763259321451187,-0.004713272210210562,0.0010342103196308017,-0.00010783739708131179,0.00019884773064404726
0.004753677640110254,0.0033944356255233288,-0.004762090742588043,0.0011797703336924314,-0.00010614337952574715,0.00019043116481043398
0.004701203666627407,0.003460998646914959,-0.004624012857675552,0.0012296587228775024,-0.00010439256584504619,0.00018269802967552096
0.004739883355796337,0.003161399159580469,-0.0045840563252568245,0.0012316755019128323,-0.00011358226038282737,0.00017556865350343287
0.004794824402779341,0.0030320179648697376,-0.0046124826185405254,0.0014082846464589238,-0.00011523268767632544,0.00016897497698664665
0.004825679585337639,0.00338985538110137,-0.004817943554371595,0.0013596410863101482,-0.00011364028614480048,0.0001628585159778595
0.005167525727301836,0.0032208124175667763,-0.004395177587866783,0.0016164460685104132,-0.00012549101666081697,0.0001571694010635838
0.00543219456449151,0.0032824105583131313,-0.005000123754143715,0.001639969297684729,-0.00013472748105414212,0.00015186479140538722
0.005220755469053984,0.00324130617082119,-0.005009450484067202,0.0016941792564466596,-0.00013163525727577507,0.0001469064736738801
0.005029743071645498,0.0033162361942231655,-0.004572214093059301,0.0018057161942124367,-0.00014907555305399,0.00013790161756332964
0.0049023935571312904,0.0035190728958696127,-0.004569476004689932,0.0018449717899784446,-0.00016628635057713836,0.000133800960611552
0.005414359737187624,0.0037059630267322063,-0.00462921429425478,0.0019945420790463686,-0.00016484274237882346,0.0001299371651839465
0.005153028294444084,0.0033442864660173655,-0.004643235821276903,0.002004927257075906,-0.00017211139493156224,0.00012629017874132842
0.004926357418298721,0.0034747121389955282,-0.00473135057836771,0.001795490155927837,-0.00017847471463028342,0.00012284239346627146
0.0051308274269104,0.0031180246733129025,-0.005079207476228476,0.0018205742817372084,-0.0001748350914567709,0.00010783246398204938
0.005096684210002422,0.0031812842935323715,-0.004939414095133543,0.0017046344000846148,-0.00036700660712085664,9.39805613597855e-05
0.005873975809663534,0.003324126824736595,-0.004535831976681948,0.0017593553056940436,-0.0003970108227804303,9.088640217669308e-05
0.005422212649136782,0.0032021987717598677,-0.004596088081598282,0.001910790684632957,-0.00040426134364679456,8.860223169904202e-05
0.005068445578217506,0.0034549052361398935,-0.005008922889828682,0.002020555781200528,-0.0004065897664986551,8.647092909086496e-05
0.005267553962767124,0.003664871212095022,-0.0050369082018733025,0.0018654955783858895,-0.00038010350544936955,7.406611257465556e-05
0.005030706990510225,0.0037016060668975115,-0.004803901072591543,0.0018323654076084495,-0.0003987837699241936,6.258108624024317e-05
0.005191001109778881,0.0036718137562274933,-0.005024013575166464,0.0017468268051743507,-0.0003878243442159146,6.053947436157614e-05
0.005596637260168791,0.003713450161740184,-0.004961725324392319,0.0018841413548216224,-0.0003661650116555393,5.9171008615521714e-05
0.005596637260168791,0.003713450161740184,-0.004961725324392319,0.0018841413548216224,-0.0003661650116555393,5.9171008615521714e-05
0.005559629760682583,0.003344273427501321,-0.004511495120823383,0.0017369543202221394,-0.00038887819391675293,3.4009549381153192e-06
0.005736060440540314,0.003142740810289979,-0.004445885308086872,0.001660423120483756,-0.00037450477248057723,-4.787870784639381e-05
0.005190835800021887,0.003192838979884982,-0.005164249334484339,0.0015909193316474557,-0.00035634779487736523,-4.9889986257767305e-05
0.00517688412219286,0.003474746597930789,-0.005009905900806189,0.0016024622600525618,-0.0003836449177470058,-6.073101394576952e-05
0.005289618391543627,0.0042548212222754955,-0.004602066241204739,0.0017297406448051333,-0.00036011237534694374,-7.041699427645653e-05
0.005729611963033676,0.00415908545255661,-0.005003123078495264,0.0018061030423268676,-0.00039591448148712516,-8.648908988106996e-05
0.0052605727687478065,0.0035453729797154665,-0.004964585416018963,0.0019369501387700438,-0.0003726581926457584,-8.981685823528096e-05
0.005763574503362179,0.003335344372317195,-0.004826772958040237,0.001800105907022953,-0.00039162655593827367,-0.00010708646004786715
0.005358298309147358,0.003482031635940075,-0.004818924702703953,0.0018615064909681678,-0.00038128861342556775,-0.00010747532360255718
0.005899856798350811,0.0036781111266463995,-0.005194185767322779,0.0017559460829943419,-0.00039828752051107585,-0.00046692995238117874
0.005529163870960474,0.0036459199618548155,-0.004886073525995016,0.001719514955766499,-0.00038871177821420133,-0.000521955662406981
0.0059165991842746735,0.0034459258895367384,-0.0045061176642775536,0.0016793468967080116,-0.0004738470888696611,-0.0005261431797407568
0.005276496056467295,0.003831755369901657,-0.004878163803368807,0.0015247169649228454,-0.0004978173528797925,-0.0007959201466292143
0.005588765721768141,0.0035510947927832603,-0.0048680794425308704,0.00147537502925843,-0.0005267859087325633,-0.000998316565528512
0.006153155583888292,0.0035879204515367746,-0.004936134908348322,0.0014680421445518732,-0.0005466949078254402,-0.0014143983134999871
0.005860474891960621,0.003432655008509755,-0.004814996849745512,0.0014096463564783335,-0.0005236502038314939,-0.0019695768132805824
0.006062512751668692,0.0035375612787902355,-0.004641990642994642,0.0013173563638702035,-0.0006685119587928057,-0.0018558796728029847
0.005544921383261681,0.00367696862667799,-0.004664625506848097,0.0013554698089137673,-0.0006954536656849086,-0.0018460529390722513
0.005856384057551622,0.003412521444261074,-0.005100664682686329,0.001325824181549251,-0.0006415121024474502,-0.0016879471950232983
0.006160543765872717,0.0034025919158011675,-0.005426131654530764,0.0012817642418667674,-0.0006573842256329954,-0.001396067556925118
0.0058807129971683025,0.0036059131380170584,-0.005216905381530523,0.0014440142549574375,-0.0006054330733604729,-0.0014298245077952743
0.00561866071075201,0.00372400414198637,-0.0047743613831698895,0.0013676489470526576,-0.0005911320331506431,-0.0017466651042923331
0.005838626064360142,0.003793886164203286,-0.004691789858043194,0.0014066692674532533,-0.0005783126107417047,-0.0020058383233845234
0.005647746846079826,0.0034091693814843893,-0.004812024533748627,0.001380994450300932,-0.0005373936146497726,-0.0026528052985668182
0.005647746846079826,0.0034091693814843893,-0.004812024533748627,0.001380994450300932,-0.0005373936146497726,-0.0026528052985668182
0.005999310873448849,0.003419442567974329,-0.005422459915280342,0.0015382991405203938,-0.00047233517398126423,-0.0024929072242230177
0.00578564265742898,0.0034532668069005013,-0.005156372673809528,0.0015298455255106091,-0.0004905352252535522,-0.0023310743272304535
0.00578564265742898,0.0034532668069005013,-0.005156372673809528,0.0015298455255106091,-0.0004905352252535522,-0.0023310743272304535
0.005629087798297405,0.00350224319845438,-0.004784326069056988,0.0015728618018329144,-0.00046739564277231693,-0.0020589863415807486
0.005687646567821503,0.003290697233751416,-0.005150547716766596,0.001638908521272242,-0.0004840630281250924,-0.001882568933069706
0.006202308461070061,0.0034804248716682196,-0.004935596138238907,0.0015548554947599769,-0.00046478083822876215,-0.001839872682467103
0.006336130667477846,0.003666542936116457,-0.004950693808495998,0.00155329005792737,-0.0004639331891667098,-0.0023476628120988607
0.005678119137883186,0.003829409833997488,-0.00534707261249423,0.0014900944661349058,-0.00046184452367015183,-0.003545293817296624
0.0058477516286075115,0.0033972118981182575,-0.005354295484721661,0.001402399968355894,-0.00048008080921135843,-0.003714177291840315
0.0058983503840863705,0.003551773726940155,-0.005342305172234774,0.0014540089759975672,-0.0004742656310554594,-0.0034591094590723515
0.006328490562736988,0.003766833571717143,-0.005319968797266483,0.0014716651057824492,-0.00043166501563973725,-0.0031860999297350645
0.006198159419000149,0.003417620901018381,-0.005553905852138996,0.0015456599649041891,-0.0004671830392908305,-0.003033160464838147
0.006086563225835562,0.003332951571792364,-0.005231011193245649,0.0014582101721316576,-0.00043436605483293533,-0.0031383128371089697
0.006046597380191088,0.003476660465821624,-0.005048413760960102,0.0014326213859021664,-0.00045154811232350767,-0.00323538389056921
0.0062426612712442875,0.0035766002256423235,-0.005215304903686047,0.001306777005083859,-0.0004356416466180235,-0.0034638000652194023
0.00610946211963892,0.003427263582125306,-0.005318087060004473,0.0012415137607604265,-0.0004083917592652142,-0.003659699810668826
0.006214562803506851,0.00351339322514832,-0.005606971215456724,0.0012705640401691198,-0.0004102426173631102,-0.0037639911752194166
0.006512726657092571,0.00371843040920794,-0.00515319500118494,0.0014817776391282678,-0.00041137507651001215,-0.0033578011207282543
0.006223643664270639,0.0037790723145008087,-0.005421036388725042,0.0016085765091702342,-0.00037064365460537374,-0.003369064535945654
0.006223643664270639,0.0037790723145008087,-0.005421036388725042,0.0016085765091702342,-0.00037064365460537374,-0.003369064535945654
0.006086660549044609,0.0035791241098195314,-0.00564086576923728,0.00168075121473521,-0.00034257443621754646,-0.004111430607736111
0.00642715347930789,0.0035211609210819006,-0.005313169676810503,0.0017789434641599655,-0.0003201444633305073,-0.0044495039619505405
0.006492926739156246,0.003617127425968647,-0.005063104908913374,0.0016598028596490622,-0.00032804286456666887,-0.0041550686582922935
0.006115223281085491,0.0037029359955340624,-0.005651586223393679,0.0017168197082355618,-0.00033442300627939403,-0.004256015177816153
0.006445044185966253,0.0037377276457846165,-0.0058957957662642,0.0017520316177979112,-0.00031655989005230367,-0.004117392003536224
0.006378579884767532,0.003780835308134556,-0.005823713727295399,0.002100782236084342,-0.00033588422229513526,-0.004274133592844009
0.006084340624511242,0.0038497005589306355,-0.005203006323426962,0.0019789678044617176,-0.00032981610274873674,-0.004505380056798458
0.006262290757149458,0.0038900740910321474,-0.005239685531705618,0.0020555739756673574,-0.00031412066891789436,-0.00451540295034647
0.006803940981626511,0.003578061005100608,-0.005380407441407442,0.0019229252357035875,-0.0002992449444718659,-0.004469265230000019
0.006803940981626511,0.003578061005100608,-0.005380407441407442,0.0019229252357035875,-0.0002992449444718659,-0.004469265230000019
0.00728862639516592,0.003041481599211693,-0.00571239460259676,0.0017852101009339094,-0.0003158150939270854,-0.004578402265906334
0.0063361614011228085,0.0030802348628640175,-0.00487802317366004,0.0014832235174253583,-0.0002992873778566718,-0.004539896734058857
0.0063361614011228085,0.0030802348628640175,-0.00487802317366004,0.0014832235174253583,-0.0002992873778566718,-0.004539896734058857
0.0069010271690785885,0.0033772236201912165,-0.006224373821169138,0.0014142742147669196,-0.0002763805096037686,-0.005052374210208654
0.006586405448615551,0.0031985528767108917,-0.005738735198974609,0.0016046154778450727,-0.0003068519872613251,-0.004910727962851524
0.006586405448615551,0.0031985528767108917,-0.005738735198974609,0.0016046154778450727,-0.0003068519872613251,-0.004910727962851524
0.00712290033698082,0.0029177807737141848,-0.005597214680165052,0.0016744440654292703,-0.00029028215794824064,-0.00489462586119771
0.006411458365619183,0.0029257009737193584,-0.005347725935280323,0.0018646683311089873,-0.00027288220007903874,-0.00517113134264946
0.006694783456623554,0.0030905299354344606,-0.005867497064173222,0.0017999354749917984,-0.00029520675889216363,-0.005324953235685825
0.006886820308864117,0.0031008166261017323,-0.005559698212891817,0.0016617284854874015,-0.0002911566407419741,-0.0051798513159155846
0.007208322174847126,0.0030440089758485556,-0.0058605605736374855,0.0016795279225334525,-0.00027699407655745745,-0.004957408178597689
0.0069429040886461735,0.002869641175493598,-0.006469124462455511,0.0016885072691366076,-0.00030155511922203004,-0.005154492799192667
0.006404737010598183,0.002961017657071352,-0.005661354400217533,0.0019090794958174229,-0.0002927538298536092,-0.005271350033581257
0.006668826099485159,0.0031437959987670183,-0.005377138964831829,0.002261845162138343,-0.000309633556753397,-0.0053901467472314835
0.006833635736256838,0.0031140027567744255,-0.0056045143865048885,0.0023109097965061665,-0.000305802037473768,-0.00549326092004776
0.007143930997699499,0.0031102353241294622,-0.006091340444982052,0.0021101548336446285,-0.0003790781775023788,-0.005357561632990837
0.007558478508144617,0.002872432814911008,-0.005759956780821085,0.001986146904528141,-0.0004139559168834239,-0.006151493173092604
0.006866934709250927,0.0029827444814145565,-0.005276829935610294,0.001880750758573413,-0.00044054057798348367,-0.005915860645473003
0.006707020103931427,0.0033767044078558683,-0.00567162549123168,0.0019227993907406926,-0.00045591333764605224,-0.005741690751165152
0.006707020103931427,0.0033767044078558683,-0.00567162549123168,0.0019227993907406926,-0.00045591333764605224,-0.005741690751165152
0.007122628856450319,0.0031283427961170673,-0.006390276364982128,0.0019004445057362318,-0.0007876096642576158,-0.0058603668585419655
0.007166811730712652,0.002917912323027849,-0.005709946621209383,0.001807865221053362,-0.0007503771921619773,-0.0056890035048127174
0.007049582898616791,0.0029792783316224813,-0.005309307482093573,0.0019032580312341452,-0.0007651721243746579,-0.005695396102964878
0.006776610855013132,0.0032409154810011387,-0.005320683587342501,0.0022101299837231636,-0.0007602398400194943,-0.005991668906062841
0.006776610855013132,0.0032409154810011387,-0.005320683587342501,0.0022101299837231636,-0.0007602398400194943,-0.005991668906062841
0.007403345312923193,0.0031518118921667337,-0.005535282660275698,0.00225794967263937,-0.0007149903103709221,-0.0057230605743825436
0.007578786462545395,0.003030681051313877,-0.005870262160897255,0.0025030893739312887,-0.0008115394157357514,-0.0058502559550106525
0.006796896457672119,0.0027848982717841864,-0.006021447479724884,0.0022784783504903316,-0.0008287934469990432,-0.005860863719135523
0.006844132672995329,0.0029472727328538895,-0.005507107824087143,0.0021838799584656954,-0.0007842454360798001,-0.00619215052574873
0.007023481652140617,0.002988784108310938,-0.005446396302431822,0.0023498807568103075,-0.0008010758319869637,-0.00626338692381978
0.007616694085299969,0.0029432803858071566,-0.005118303466588259,0.0023758269380778074,-0.0010221529519185424,-0.006195834372192621
0.007139209657907486,0.0027333961334079504,-0.005943368189036846,0.002552247839048505,-0.0010153199546039104,-0.006478365510702133
0.006692586466670036,0.0028796596452593803,-0.005760166794061661,0.0023587541654706,-0.0010165841085836291,-0.006741395220160484
0.007016779854893684,0.002940765116363764,-0.0052991751581430435,0.002222891664132476,-0.0010682445717975497,-0.006484592333436012
0.007765207439661026,0.002973034745082259,-0.005296060815453529,0.001968982396647334,-0.0010834079002961516,-0.006352272816002369
0.007839305326342583,0.0027546114288270473,-0.005653086118400097,0.0018707712879404426,-0.001127247349359095,-0.006588401272892952
0.007066862192004919,0.002957290271297097,-0.005629547871649265,0.0019567657727748156,-0.001037387177348137,-0.007044575177133083
0.007311584893614054,0.0030176411382853985,-0.00570168811827898,0.0022044775541871786,-0.0009944273624569178,-0.007225882727652788
0.007881822064518929,0.002976123010739684,-0.0056631918996572495,0.0025300972629338503,-0.0009724559495225549,-0.007039117161184549
0.007813765667378902,0.0027137226425111294,-0.005344181787222624,0.0024348318111151457,-0.0009074038243852556,-0.007447265088558197
0.0070036426186561584,0.0028106560930609703,-0.005602759774774313,0.002516052918508649,-0.0008450269815512002,-0.0070869531482458115
0.007113571744412184,0.0026719572488218546,-0.006571262143552303,0.002464910037815571,-0.0007635965594090521,-0.006803115364164114
0.007868840359151363,0.0026941148098558187,-0.006101518403738737,0.0025985371321439743,-0.0006819152040407062,-0.00711125647649169
0.007618548348546028,0.0027253394946455956,-0.005705776624381542,0.002701285993680358,-0.0005944918375462294,-0.0074806613847613335
0.007307780906558037,0.0027824118733406067,-0.005193791352212429,0.002792698796838522,-0.00052514614071697,-0.007716123480349779
0.008122158236801624,0.0025998062919825315,-0.005455829668790102,0.0027230356354266405,-0.0005573617527261376,-0.007936712354421616
0.008423461578786373,0.0027516998816281557,-0.005880501586943865,0.0026315825525671244,-0.000510325247887522,-0.00829342007637024
0.007813538424670696,0.00278729060664773,-0.006040273234248161,0.002247822703793645,-0.0005335785099305212,-0.008155249059200287
0.007464831229299307,0.0026467035058885813,-0.0056481678038835526,0.002097807824611664,-0.0005003155092708766,-0.008574418723583221
0.007464831229299307,0.0026467035058885813,-0.0056481678038835526,0.002097807824611664,-0.0005003155092708766,-0.008574418723583221
0.007613098248839378,0.0027344527188688517,-0.0056586796417832375,0.0019854239653795958,-0.0004640367696993053,-0.008596030063927174
0.007920458912849426,0.00316290813498199,-0.0056639984250068665,0.0022373725660145283,-0.0004896321916021407,-0.00865673366934061
0.007588627748191357,0.0032182836439460516,-0.006206535268574953,0.0028710581827908754,-0.00046195174218155444,-0.008711442351341248
0.007362264208495617,0.0030157470609992743,-0.006844718474894762,0.0030937069095671177,-0.0004374344425741583,-0.008828321471810341
0.007973508909344673,0.002713916590437293,-0.006004077848047018,0.003033099230378866,-0.0003985856310464442,-0.008349954150617123
0.007849028334021568,0.0026260334998369217,-0.006386193446815014,0.002788631711155176,-0.0003661182417999953,-0.00853779911994934
0.008181899785995483,0.002714052563533187,-0.006131768226623535,0.0027991998940706253,-0.0003385495801921934,-0.008577077649533749
0.008607562631368637,0.0030944570899009705,-0.006350886542350054,0.002917445031926036,-0.000314844714011997,-0.00795889925211668
0.008076920174062252,0.002926186192780733,-0.006749316118657589,0.0026841936632990837,-0.0002942455466836691,-0.007537588011473417
0.008146708831191063,0.0030639490578323603,-0.006857001688331366,0.002686229068785906,-0.0003168504626955837,-0.008023939095437527
0.00802952703088522,0.002932359930127859,-0.006769345607608557,0.002450321102514863,-0.0003112897102255374,-0.00826588086783886
0.008616064675152302,0.0028313444927334785,-0.006241063587367535,0.002299380721524358,-0.00029510402237065136,-0.008539614267647266
0.008716621436178684,0.0027258701156824827,-0.006648507434874773,0.0026284537743777037,-0.0002798591449391097,-0.00866650603711605
0.007984126918017864,0.0028843425679951906,-0.006796561647206545,0.0029873503372073174,-0.00030446506571024656,-0.008608306758105755
0.008052468299865723,0.0028668108861893415,-0.0066716293804347515,0.0029272777028381824,-0.00029544520657509565,-0.00894096028059721
0.008457470685243607,0.002468434628099203,-0.006448968779295683,0.002833137521520257,-0.0003022629243787378,-0.008729669265449047
0.008234851062297821,0.0023642464075237513,-0.006891806144267321,0.00299859419465065,-0.00029625141178257763,-0.009095072746276855
0.008604716509580612,0.002334128599613905,-0.006945955101400614,0.0032256192062050104,-0.00029180804267525673,-0.008948620408773422
0.00920266192406416,0.0026215212419629097,-0.006975317373871803,0.003160882741212845,-0.0002810600562952459,-0.009495608508586884
0.008433131501078606,0.0027705312240868807,-0.0069779991172254086,0.003310178406536579,-0.0003143206413369626,-0.009113085456192493
0.00848507322371006,0.0023944915737956762,-0.007791459560394287,0.002979663899168372,-0.00030009541660547256,-0.009500465355813503
0.008476660586893559,0.0023137545213103294,-0.0068297251127660275,0.0027294193860143423,-0.00032864304375834763,-0.009159380570054054
0.008690525777637959,0.0023872919846326113,-0.006326193455606699,0.002660981612280011,-0.0003483317559584975,-0.009471341036260128
0.008690525777637959,0.0023872919846326113,-0.006326193455606699,0.002660981612280011,-0.0003483317559584975,-0.009471341036260128
0.00863723922520876,0.002327908296138048,-0.006231667008250952,0.0025669760070741177,-0.0003425901522859931,-0.00913263764232397
0.009114905260503292,0.002564378548413515,-0.007217020727694035,0.002950785681605339,-0.0006031498196534812,-0.009476683102548122
0.008620976470410824,0.002366549102589488,-0.007386814337223768,0.0030481326393783092,-0.0006516902358271182,-0.009083044715225697
0.008672879077494144,0.002455330453813076,-0.006729757413268089,0.0029496727511286736,-0.0006729515152983367,-0.009628512896597385
0.009143900126218796,0.0023460520897060633,-0.006653694435954094,0.002760743722319603,-0.0006949226371943951,-0.009618351235985756
0.00893905758857727,0.002204867312684655,-0.006860697641968727,0.0030104517936706543,-0.0008519940893165767,-0.009341239929199219
0.008853524923324585,0.0023065689019858837,-0.00721570523455739,0.003028454491868615,-0.0009215901955030859,-0.009401763789355755
0.008529103361070156,0.002201210940256715,-0.00672421557828784,0.0034007388167083263,-0.0009856706019490957,-0.009802698157727718
0.009377548471093178,0.002139933407306671,-0.006549678277224302,0.00324084609746933,-0.0009320058743469417,-0.00978898722678423
0.008676334284245968,0.002274682279676199,-0.006358648184686899,0.0030498693231493235,-0.0010818199953064322,-0.009837322868406773
0.009523686021566391,0.0021528208162635565,-0.007314830087125301,0.003173031145706773,-0.0011003778781741858,-0.009315665811300278
0.009112433530390263,0.0021740831434726715,-0.007083168253302574,0.0032600355334579945,-0.0010910792043432593,-0.009765845723450184
0.008914725854992867,0.0021025449968874454,-0.006318151485174894,0.0033339650835841894,-0.0010903564980253577,-0.00958279799669981
0.008834301494061947,0.0022790308576077223,-0.0062156738713383675,0.003354486310854554,-0.0010781647870317101,-0.009758099913597107
0.009287991560995579,0.0021939086727797985,-0.007308030966669321,0.0035906806588172913,-0.0010493912268429995,-0.010030540637671947
0.00900690071284771,0.0023180083371698856,-0.007427189499139786,0.0037434243131428957,-0.001027634716592729,-0.009199447929859161
0.009094358421862125,0.002228441182523966,-0.006705789361149073,0.0034349067136645317,-0.000965304032433778,-0.009413247928023338
0.009022113867104053,0.0021801148541271687,-0.006369125563651323,0.0034953774884343147,-0.0009612437570467591,-0.009806908667087555
0.01020220760256052,0.002139752497896552,-0.007146626245230436,0.003624630393460393,-0.0009522017790004611,-0.010344834998250008
0.009174509905278683,0.002048774855211377,-0.007666741497814655,0.004232372157275677,-0.0009451831574551761,-0.010404310189187527
0.009247250854969025,0.00218483479693532,-0.006843844428658485,0.0038812102284282446,-0.0009408587357029319,-0.010645751841366291
0.009531249292194843,0.0023585930466651917,-0.007043220102787018,0.0034025886561721563,-0.0009346422157250345,-0.010541670024394989
0.009061907418072224,0.0023349786642938852,-0.007547297514975071,0.00313389184884727,-0.0009299342636950314,-0.009039203636348248
0.009668760932981968,0.002259586937725544,-0.007357848342508078,0.003097969340160489,-0.000880549312569201,-0.009315934963524342
0.009791973978281021,0.00237246579490602,-0.0073611256666481495,0.00337381474673748,-0.0009669649880379438,-0.009507550857961178
0.009791973978281021,0.00237246579490602,-0.0073611256666481495,0.00337381474673748,-0.0009669649880379438,-0.009507550857961178
0.00923038087785244,0.002142597921192646,-0.007665514480322599,0.0036988977808505297,-0.0008908926392905414,-0.010356363840401173
0.009797880426049232,0.0022382151801139116,-0.007723759859800339,0.003549120156094432,-0.0008876691572368145,-0.010023964568972588
0.009981667622923851,0.0020852345041930676,-0.007378957234323025,0.0035778891760855913,-0.0008386059198528528,-0.0105179687961936
0.00948155764490366,0.0022449633106589317,-0.0073921880684792995,0.0036991864908486605,-0.0007942384690977633,-0.010352429933845997
0.009778078645467758,0.0021510254591703415,-0.0076503208838403225,0.003558039665222168,-0.0007180946413427591,-0.010559272952377796
0.010647280141711235,0.0020621498115360737,-0.007687392178922892,0.0034429472871124744,-0.0006524271448142827,-0.010768656618893147
0.01026260294020176,0.002020985586568713,-0.007432013284415007,0.0035995834041386843,-0.0005724267102777958,-0.010219127871096134
0.009990554302930832,0.001786944572813809,-0.007428350858390331,0.003779137507081032,-0.0006019917782396078,-0.010519648902118206
0.009384535253047943,0.0020301949698477983,-0.007506717462092638,0.004266812466084957,-0.0006137736490927637,-0.01035154890269041
0.009270182810723782,0.0019915092270821333,-0.008233007043600082,0.0038741142489016056,-0.0006182790384627879,-0.010313940234482288
0.010373927652835846,0.0021787364967167377,-0.007595159113407135,0.00350554333999753,-0.0006039619911462069,-0.0107059171423316
0.010112515650689602,0.002100339625030756,-0.00734579935669899,0.0036330772563815117,-0.0006564715295098722,-0.011037264950573444
0.010959266684949398,0.002023380482569337,-0.007541479542851448,0.0038442565128207207,-0.0006884263711981475,-0.011418035253882408
0.010367394424974918,0.0019075911259278655,-0.008391233161091805,0.0035376413725316525,-0.0007129429141059518,-0.011509538628160954
0.009937942959368229,0.0018096772255375981,-0.007689125835895538,0.0035039549693465233,-0.0007323550526052713,-0.011183477006852627
0.010227922350168228,0.0018126433715224266,-0.007105268072336912,0.003658454865217209,-0.0009915018454194069,-0.011034009046852589
0.010610527358949184,0.0020352269057184458,-0.007447909563779831,0.003842261154204607,-0.0010483480291441083,-0.011206419207155704
0.010274878703057766,0.0020043267868459225,-0.007937452755868435,0.004380000755190849,-0.0010513864690437913,-0.01119573786854744
0.011237585917115211,0.0019989560823887587,-0.007588229142129421,0.003923103213310242,-0.0013409648090600967,-0.011444360949099064
0.01029575802385807,0.0016897993627935648,-0.008370192721486092,0.003425587434321642,-0.0012926780618727207,-0.011426722630858421
0.010793810710310936,0.001652215258218348,-0.007896405644714832,0.004005334805697203,-0.0013510879362002015,-0.011797992512583733
0.010908846743404865,0.00155599694699049,-0.007843056693673134,0.004415483213961124,-0.0012920420849695802,-0.011635790579020977
0.010176165029406548,0.0015718148788437247,-0.007624147925525904,0.004401873331516981,-0.001243379432708025,-0.011398904025554657
0.010588173754513264,0.0015693522291257977,-0.008287095464766026,0.00434923218563199,-0.0013100389624014497,-0.011495188809931278
0.010495779104530811,0.0014715377474203706,-0.008077097125351429,0.004178856965154409,-0.001236210810020566,-0.011356658302247524
0.010397646576166153,0.0015300362138077617,-0.00752192921936512,0.004387976601719856,-0.0012205980019643903,-0.011760922148823738
0.010763407684862614,0.0014519167598336935,-0.008085101842880249,0.004198542330414057,-0.001336519024334848,-0.011392342858016491
0.01042227540165186,0.0015480610309168696,-0.007819436490535736,0.004337421152740717,-0.001283641206100583,-0.011721357703208923
0.01042227540165186,0.0015480610309168696,-0.007819436490535736,0.004337421152740717,-0.001283641206100583,-0.011721357703208923
0.010828983969986439,0.001472427393309772,-0.00764137227088213,0.004292263183742762,-0.0011990700149908662,-0.011944631114602089
0.011089824140071869,0.001392441801726818,-0.007415271829813719,0.004513824358582497,-0.0010957332560792565,-0.012043816037476063
0.010585768148303032,0.001473939511924982,-0.0083205197006464,0.0043694330379366875,-0.0010314714163541794,-0.012478351593017578
0.010585768148303032,0.001473939511924982,-0.0083205197006464,0.0043694330379366875,-0.0010314714163541794,-0.012478351593017578
0.010388988070189953,0.0016478659817948937,-0.007688731420785189,0.004461926408112049,-0.0009818252874538302,-0.012701688334345818
0.010102135129272938,0.0015450583305209875,-0.00826862920075655,0.004552900325506926,-0.0009145276271738112,-0.0123645830899477
0.010306224226951599,0.0016552838496863842,-0.008467227220535278,0.004502444993704557,-0.0008832878083921969,-0.012049856595695019
0.010644311085343361,0.0017171232029795647,-0.008104347623884678,0.004338134545832872,-0.0008600818691775203,-0.012228238396346569
0.011082388460636139,0.0016012551495805383,-0.008202746510505676,0.004121084697544575,-0.0007707343902438879,-0.012651112861931324
0.011577297002077103,0.0016530243447050452,-0.007798760198056698,0.004013439640402794,-0.0007581941899843514,-0.012967711314558983
0.010466177016496658,0.0016918200999498367,-0.008262790739536285,0.0043423972092568874,-0.0006990846595726907,-0.013107581995427608
0.010674374178051949,0.001753226388245821,-0.008158701471984386,0.004541589878499508,-0.0007081772200763226,-0.012833851389586926
0.01055191084742546,0.0017817828338593245,-0.007976886816322803,0.004611094947904348,-0.0006621320499107242,-0.012922893278300762
0.010676614008843899,0.0016436714213341475,-0.008593893609941006,0.004642270505428314,-0.0006733275367878377,-0.013277853839099407
0.010865326970815659,0.0016677677631378174,-0.00851520337164402,0.004333792719990015,-0.0006983217317610979,-0.013230977579951286
0.010703406296670437,0.0015647211112082005,-0.008072310127317905,0.004893677309155464,-0.0007312913076020777,-0.013309521600604057
0.010480770841240883,0.0013831000542268157,-0.008629978634417057,0.004979913588613272,-0.0011937390081584454,-0.013649464584887028
0.010567722842097282,0.001345155411399901,-0.00845158938318491,0.00478942459449172,-0.0013569723814725876,-0.01384549681097269
0.010533115826547146,0.0014403193490579724,-0.007763084955513477,0.004856978543102741,-0.0014136455720290542,-0.01397837046533823
0.010985546745359898,0.0014766526874154806,-0.00814069714397192,0.004525211174041033,-0.0013152682222425938,-0.013807611539959908
0.010680640116333961,0.0017830082215368748,-0.008662750013172626,0.004529313649982214,-0.0012424063170328736,-0.01394189428538084
0.010932480916380882,0.0016503134975209832,-0.008413588628172874,0.004849334713071585,-0.0011110820341855288,-0.01419726200401783
0.011223157867789268,0.0015252463053911924,-0.007687171455472708,0.005567206535488367,-0.0010709427297115326,-0.014154080301523209
0.0107896002009511,0.0014495590003207326,-0.008465820923447609,0.005439772270619869,-0.001113202190026641,-0.01441698893904686
0.010732530616223812,0.0013288100017234683,-0.008614463731646538,0.005359714385122061,-0.0011295803124085069,-0.014521029777824879
0.010630015283823013,0.001288457540795207,-0.008258187212049961,0.005113358609378338,-0.0011659750016406178,-0.014575838111341
0.010782068595290184,0.0012863039737567306,-0.007767566945403814,0.00476224347949028,-0.001252624555490911,-0.014662636443972588
0.010782068595290184,0.0012863039737567306,-0.007767566945403814,0.00476224347949028,-0.001252624555490911,-0.014662636443972588
0.011290994472801685,0.0012577223824337125,-0.008821438997983932,0.005324662197381258,-0.0015294186305254698,-0.014704033732414246
0.010977745987474918,0.0016819695010781288,-0.008331554010510445,0.004943865351378918,-0.0014382645022124052,-0.014940639957785606
0.010977745987474918,0.0016819695010781288,-0.008331554010510445,0.004943865351378918,-0.0014382645022124052,-0.014940639957785606
0.011224057525396347,0.0015763210831210017,-0.008011163212358952,0.004767507780343294,-0.0014379041967913508,-0.014638031832873821
0.010871325619518757,0.0014024866977706552,-0.008555343374609947,0.005074511747807264,-0.0013552960008382797,-0.014771506190299988
0.011294473893940449,0.0014243689365684986,-0.008419453166425228,0.00519975321367383,-0.0012748751323670149,-0.015015731565654278
0.01140590663999319,0.001325336517766118,-0.00838637538254261,0.005350694991648197,-0.0011209056247025728,-0.015062362886965275
0.011508459225296974,0.0012174921575933695,-0.008224516175687313,0.005142212379723787,-0.001068032463081181,-0.01532458420842886
0.012628717347979546,0.001284237252548337,-0.008446242660284042,0.005101524759083986,-0.0010389218805357814,-0.015488231554627419
0.013179285451769829,0.001267740037292242,-0.008390596136450768,0.005323218181729317,-0.001001747790724039,-0.01581883616745472
0.013701730407774448,0.0014791506109759212,-0.008573734201490879,0.005283169448375702,-0.0009495014091953635,-0.015934109687805176
0.013052312657237053,0.0014239947777241468,-0.008776789531111717,0.005343563389033079,-0.000948689819779247,-0.016179531812667847
0.013634218834340572,0.001327531412243843,-0.008552701212465763,0.005221118219196796,-0.0010364241898059845,-0.016224946826696396
0.013412055559456348,0.0013262033462524414,-0.008531504310667515,0.00573976244777441,-0.0014243234181776643,-0.016264701262116432
0.013269424438476562,0.0012186309322714806,-0.008818269707262516,0.005787254776805639,-0.0015768592711538076,-0.01662307232618332
0.013743652030825615,0.0013247147435322404,-0.008581621572375298,0.005673105828464031,-0.001541307894513011,-0.01646498218178749
0.013611463829874992,0.0012872850056737661,-0.008093532174825668,0.006003993097692728,-0.0013772882521152496,-0.01637062430381775
0.01415349543094635,0.0012671429431065917,-0.008432639762759209,0.005607989616692066,-0.0012869430938735604,-0.016703611239790916
0.013972325250506401,0.0014665574999526143,-0.008411810733377934,0.00536260986700654,-0.0011049304157495499,-0.01662442274391651
0.013933408074080944,0.0015227105468511581,-0.00854096282273531,0.005095956847071648,-0.0010481813224032521,-0.016588103026151657
0.014025053940713406,0.0014300334732979536,-0.008795307017862797,0.005331527907401323,-0.0011032500769942999,-0.016698310151696205
0.013973850756883621,0.00131796405185014,-0.008837860077619553,0.0057658301666378975,-0.0012517571449279785,-0.01700965315103531
0.013960777781903744,0.0012353042839094996,-0.008675326593220234,0.006130171474069357,-0.001398594118654728,-0.01762782223522663
0.013960777781903744,0.0012353042839094996,-0.008675326593220234,0.006130171474069357,-0.001398594118654728,-0.01762782223522663
0.013721427880227566,0.0012093805707991123,-0.009879224002361298,0.005692376755177975,-0.0013557374477386475,-0.017290432006120682
0.014086863026022911,0.0013553912285715342,-0.008472416549921036,0.0057388897985219955,-0.0015580448089167476,-0.01742441952228546
0.013741156086325645,0.0013173221377655864,-0.008478246629238129,0.0054666996002197266,-0.0015911825466901064,-0.017439136281609535
0.014180092141032219,0.001704355818219483,-0.009317222982645035,0.0057315519079566,-0.001713876728899777,-0.017436541616916656
0.013738296926021576,0.001741808489896357,-0.009191984310746193,0.005886693950742483,-0.0017815064638853073,-0.017781108617782593
0.01365698128938675,0.001570135005749762,-0.008518703281879425,0.005850943736732006,-0.001993240788578987,-0.017686061561107635
0.013434499502182007,0.0015665879473090172,-0.008592520840466022,0.005503478460013866,-0.0017742172349244356,-0.01800817809998989
0.013966514728963375,0.0014302768977358937,-0.008969570510089397,0.005532353650778532,-0.0016246644081547856,-0.018145542591810226
0.013574943877756596,0.001253344933502376,-0.008992640301585197,0.005714100319892168,-0.0014296917943283916,-0.018179671838879585
0.01434363704174757,0.0011843838728964329,-0.00819837860763073,0.006095266435295343,-0.0013397192815318704,-0.017949502915143967
0.013895410113036633,0.0012797188246622682,-0.00937118660658598,0.006097142118960619,-0.0012410355266183615,-0.019609881564974785
0.013766247779130936,0.0015469712670892477,-0.008750565350055695,0.005469048395752907,-0.0010983471293002367,-0.018021833151578903
0.013524613343179226,0.001498755649663508,-0.008227539248764515,0.005486477166414261,-0.0010261955903843045,-0.018390346318483353
0.014129784889519215,0.0014249623054638505,-0.009663980454206467,0.005529838614165783,-0.001022646203637123,-0.01824250817298889
0.013979343697428703,0.0015019712736830115,-0.008894527330994606,0.0053416043519973755,-0.0010107394773513079,-0.01823006197810173
0.013990496285259724,0.001391866710036993,-0.008734362199902534,0.006376994773745537,-0.001012186286970973,-0.018333885818719864
0.014144177548587322,0.0013181129470467567,-0.00918707437813282,0.006692290771752596,-0.00111059146001935,-0.01899360679090023
0.013791253790259361,0.0013959475327283144,-0.0091051384806633,0.006131272297352552,-0.0012244712561368942,-0.019192568957805634
0.01411081850528717,0.0015609237598255277,-0.008762562647461891,0.0060358294285833836,-0.0013727147597819567,-0.01929769665002823
0.013587016612291336,0.001620095456019044,-0.009225032292306423,0.005910228937864304,-0.001362329930998385,-0.018990730866789818
0.014743378385901451,0.0018664306262508035,-0.008935651741921902,0.005647979211062193,-0.0016965005779638886,-0.01896149292588234
0.014743378385901451,0.0018664306262508035,-0.008935651741921902,0.005647979211062193,-0.0016965005779638886,-0.01896149292588234
0.014335152693092823,0.0017226075287908316,-0.00913969799876213,0.005483945831656456,-0.0016384782502427697,-0.019411688670516014
0.014120499603450298,0.001664892421104014,-0.010563964955508709,0.0054503255523741245,-0.0016857241280376911,-0.020496608689427376
0.01370902732014656,0.0016747057670727372,-0.00927997101098299,0.005711311008781195,-0.001549153937958181,-0.0202227421104908
0.014121058396995068,0.0015590796247124672,-0.009604140184819698,0.005996258929371834,-0.0015306888381019235,-0.01914733275771141
0.014232853427529335,0.0016070283018052578,-0.010034579783678055,0.006164338439702988,-0.0015639193588867784,-0.019244695082306862
0.0144307566806674,0.001652990118600428,-0.009341518394649029,0.00607716292142868,-0.0015221916837617755,-0.019312499091029167
0.014229120686650276,0.0015635137679055333,-0.008867723867297173,0.005838102661073208,-0.0014242441393435001,-0.019027231261134148
0.014512074179947376,0.001617161906324327,-0.009685883298516273,0.006618706975132227,-0.0014172972878441215,-0.019366076216101646
0.014600827358663082,0.0015274513280019164,-0.0095018669962883,0.00687111122533679,-0.0013228391762822866,-0.01973848044872284
0.014693750999867916,0.0015991826076060534,-0.008916269056499004,0.006124371197074652,-0.0011899630771949887,-0.02006412297487259
0.01468574907630682,0.0014610715443268418,-0.010267605073750019,0.006006516050547361,-0.0010751619702205062,-0.020067257806658745
0.014927434735000134,0.0015018595149740577,-0.009446825832128525,0.006514059379696846,-0.0010804468765854836,-0.019548406824469566
0.01470344141125679,0.0014170059002935886,-0.009402971714735031,0.007059951778501272,-0.001055432017892599,-0.019614163786172867
0.015130357816815376,0.0014788825064897537,-0.009955067187547684,0.006922616623342037,-0.001098231179639697,-0.019858309999108315
0.0148547925055027,0.0014005235861986876,-0.009620735421776772,0.006559800356626511,-0.001194154261611402,-0.019751522690057755
0.015128645114600658,0.0014917333610355854,-0.009542216546833515,0.006248685531318188,-0.0012147111119702458,-0.01991933211684227
0.014507678337395191,0.0014366687973961234,-0.010707324370741844,0.006953974720090628,-0.0015410503838211298,-0.019965795800089836
0.015252703800797462,0.0017019456718116999,-0.009976346045732498,0.007045122794806957,-0.0016132266027852893,-0.0202209260314703
0.014751141890883446,0.001581393531523645,-0.009377963840961456,0.006803114898502827,-0.0017968917964026332,-0.020443379878997803
0.014972745440900326,0.0016373229445889592,-0.009992143139243126,0.006503718439489603,-0.0018256499897688627,-0.01977606676518917
0.014513594098389149,0.0015176549786701798,-0.010855738073587418,0.006471754517406225,-0.0018968080403283238,-0.020289486274123192
0.01503656804561615,0.0013790446100756526,-0.00952642597258091,0.007119463291019201,-0.0018102972535416484,-0.021611232310533524
0.015063595026731491,0.0013223818968981504,-0.010515552014112473,0.006533344276249409,-0.001677740947343409,-0.021698255091905594
0.015130515210330486,0.001284605241380632,-0.009995588101446629,0.006136608775705099,-0.001676017651334405,-0.02063916064798832
0.015599715523421764,0.0013542089145630598,-0.009822332300245762,0.006713657174259424,-0.001774691161699593,-0.020807337015867233
0.015606854110956192,0.0014021815732121468,-0.009958883747458458,0.007091449573636055,-0.0016656025545671582,-0.02077360823750496
0.015861114487051964,0.0013875669101253152,-0.009692518040537834,0.007148948032408953,-0.001702144043520093,-0.0209273062646389
0.015766451135277748,0.001342659816145897,-0.010146763175725937,0.006834426894783974,-0.0016401094617322087,-0.021337278187274933
0.015766451135277748,0.001342659816145897,-0.010146763175725937,0.006834426894783974,-0.0016401094617322087,-0.021337278187274933
0.015731174498796463,0.0013756448170170188,-0.00869468878954649,0.007087387144565582,-0.0014885389246046543,-0.021290738135576248
0.015987614169716835,0.0013190153986215591,-0.010585214011371136,0.007644911762326956,-0.0014773657312616706,-0.020935537293553352
0.015587839297950268,0.0012684741523116827,-0.01032625138759613,0.0072698951698839664,-0.0014522975543513894,-0.02119465172290802
0.016125116497278214,0.0013140125665813684,-0.009522954002022743,0.007182765752077103,-0.0015314972260966897,-0.022103143855929375
0.01580560952425003,0.001175575191155076,-0.009529861621558666,0.007606409955769777,-0.001540608354844153,-0.0228152796626091
0.016629140824079514,0.0012206115061417222,-0.011016326025128365,0.007647381629794836,-0.0016340366564691067,-0.02183878794312477
0.016347428783774376,0.0011618599528446794,-0.010148230008780956,0.00776674784719944,-0.0015677682822570205,-0.021477770060300827
0.016548776999115944,0.0011320010526105762,-0.009355137124657631,0.007680593058466911,-0.0014728092355653644,-0.02171965129673481
0.016445059329271317,0.001303612138144672,-0.010187533684074879,0.007632921449840069,-0.0015624003717675805,-0.02206733450293541
0.015914252027869225,0.0012455948162823915,-0.011030187830328941,0.0077444761991500854,-0.0015888981288298965,-0.022291352972388268
0.016672352328896523,0.0014255085261538625,-0.009488264098763466,0.0075659132562577724,-0.0016476239543408155,-0.022701580077409744
0.016285929828882217,0.0014007335994392633,-0.010164270177483559,0.007337341085076332,-0.0016086803516373038,-0.0225039292126894
0.016710786148905754,0.0014231170061975718,-0.010033312253654003,0.00791135523468256,-0.0016211657784879208,-0.022752799093723297
0.016881482675671577,0.001347679179161787,-0.009998613968491554,0.007737490348517895,-0.0015465428587049246,-0.022819457575678825
0.017083443701267242,0.0012745264684781432,-0.010545149445533752,0.007999589666724205,-0.0015678240451961756,-0.022654207423329353
0.017120474949479103,0.0012021127622574568,-0.009531191550195217,0.007862855680286884,-0.0015643237857148051,-0.02264661155641079
0.016989190131425858,0.0010249522747471929,-0.010109196417033672,0.008374417200684547,-0.0016347559867426753,-0.02292393147945404
0.016934005543589592,0.0007732811500318348,-0.009446296840906143,0.007504969369620085,-0.001763689680956304,-0.023199761286377907
0.016812648624181747,0.0006886889459565282,-0.008941838517785072,0.007687029428780079,-0.0017765930388122797,-0.02268354967236519
0.017333365976810455,0.0006785097066313028,-0.009758004918694496,0.007865666411817074,-0.0018481906736269593,-0.022998591884970665
0.017090613022446632,0.0006453923997469246,-0.009694047272205353,0.008563240990042686,-0.0018041322473436594,-0.023593124002218246
0.01752595230937004,0.0005961025017313659,-0.00938243605196476,0.008084053173661232,-0.0017765092197805643,-0.02334132045507431
0.017450854182243347,0.00044209312181919813,-0.009689443744719028,0.007947024889290333,-0.00168647151440382,-0.02319810725748539
0.01741488091647625,0.0004804351192433387,-0.009912128560245037,0.008414809592068195,-0.0016870730323716998,-0.02338399924337864
0.017936646938323975,0.0004902122891508043,-0.009553573094308376,0.0083684753626585,-0.001712577766738832,-0.023791324347257614
0.017936646938323975,0.0004902122891508043,-0.009553573094308376,0.0083684753626585,-0.001712577766738832,-0.023791324347257614
0.017713315784931183,0.0004764491459354758,-0.009821290150284767,0.008423324674367905,-0.0016980447107926011,-0.023796265944838524
0.018391571938991547,0.00048460953985340893,-0.010158388875424862,0.008388922549784184,-0.0016315735410898924,-0.02373942732810974
0.018113398924469948,0.000472959247417748,-0.009765615686774254,0.008288455195724964,-0.0016216131625697017,-0.024521412327885628
0.018038982525467873,0.0004440578632056713,-0.010109304450452328,0.007687421049922705,-0.0016507721738889813,-0.024584490805864334
0.01867738738656044,0.0005572044174186885,-0.009750047698616982,0.007698003202676773,-0.001589065883308649,-0.024615829810500145
0.018165702000260353,0.0005013885092921555,-0.009464234113693237,0.008487424813210964,-0.0016459933249279857,-0.024210400879383087
0.01808570884168148,0.00045117168338038027,-0.010201757773756981,0.008093445561826229,-0.001694815931841731,-0.024193033576011658
0.018220404163002968,0.00041004453669302166,-0.00968335010111332,0.00808361079543829,-0.0018523429753258824,-0.02444784715771675
0.01898895762860775,0.000375788367819041,-0.009175058454275131,0.008442703634500504,-0.0019040550105273724,-0.025176959112286568
0.018895450979471207,0.00041517268982715905,-0.010077135637402534,0.009043136611580849,-0.001911020022816956,-0.025574585422873497
0.018611643463373184,0.00038637901889160275,-0.009988893754780293,0.008250826969742775,-0.0018825855804607272,-0.02542123757302761
0.01865321956574917,0.00036058598197996616,-0.01034615095704794,0.008143221028149128,-0.001747287344187498,-0.02537042833864689
0.019233334809541702,0.00033801086829043925,-0.009975021705031395,0.008804166689515114,-0.0017473783809691668,-0.02595202438533306
0.019189713522791862,0.00037035622517578304,-0.009551458060741425,0.008535646833479404,-0.001838126452639699,-0.026187293231487274
0.018579423427581787,0.0003504551132209599,-0.009258981794118881,0.008113183081150055,-0.0018706901464611292,-0.026061130687594414
0.018959766253829002,0.00033199446625076234,-0.010405139997601509,0.008310980163514614,-0.001980941742658615,-0.02590464986860752
0.019534192979335785,0.0003597903123591095,-0.011493525467813015,0.00876017939299345,-0.002065766602754593,-0.026552753522992134
0.019480684772133827,0.0003432340163271874,-0.012196159921586514,0.00851650070399046,-0.0022464727517217398,-0.026415234431624413
0.019705064594745636,0.0003133618738502264,-0.010949120856821537,0.009595198556780815,-0.0020999961998313665,-0.026932479813694954
0.019719010218977928,0.0002695739094633609,-0.011617575772106647,0.008974384516477585,-0.001968960277736187,-0.026797214522957802
0.0199019443243742,0.0002533173537813127,-0.011317861266434193,0.008518224582076073,-0.002106316387653351,-0.026484118774533272
0.019955411553382874,0.0002398023207206279,-0.011055107228457928,0.00890065636485815,-0.002010596450418234,-0.026549523696303368
0.01975228451192379,0.00025750353233888745,-0.011224078945815563,0.008912626653909683,-0.0020184579771012068,-0.02677273564040661
0.01977483183145523,0.00025983439991250634,-0.010931634344160557,0.007905637845396996,-0.0019333314849063754,-0.026487551629543304
0.020121345296502113,0.0002480936818756163,-0.012385574169456959,0.008650504983961582,-0.002077290089800954,-0.02700183354318142
0.020121345296502113,0.0002480936818756163,-0.012385574169456959,0.008650504983961582,-0.002077290089800954,-0.02700183354318142
0.019906291738152504,0.00023719815362710506,-0.011479539796710014,0.008459771983325481,-0.0021306953858584166,-0.027938731014728546
0.01953713968396187,0.00022721732966601849,-0.011081059463322163,0.008233784697949886,-0.0020815739408135414,-0.027994563803076744
0.02012706734240055,0.00021804211428388953,-0.011707358062267303,0.00802411325275898,-0.0018436991376802325,-0.02759874425828457
0.020357424393296242,0.0002440211537759751,-0.011270180344581604,0.00831300113350153,-0.0018107850337401032,-0.026781747117638588
0.019935600459575653,0.00023536737717222422,-0.012076657265424728,0.00860421173274517,-0.0016941947396844625,-0.026867512613534927
0.020201850682497025,0.00022689629986416548,-0.011817396618425846,0.008433998562395573,-0.0017451461171731353,-0.0282286349684
0.02006618306040764,0.00021900876890867949,-0.011899515986442566,0.008152352645993233,-0.0018790469039231539,-0.028306489810347557
0.020483385771512985,0.00021165100042708218,-0.012119376100599766,0.008648262359201908,-0.002019212581217289,-0.02847842127084732
0.020507214590907097,0.00020477148063946515,-0.01191940251737833,0.00913150329142809,-0.002261475892737508,-0.02931099571287632
0.020811842754483223,0.00019832515681628138,-0.012005293741822243,0.008664151653647423,-0.002193301683291793,-0.02935916557908058
0.020674604922533035,0.00019227231678087264,-0.011828224174678326,0.009193680249154568,-0.00215697824023664,-0.02823808416724205
0.01999383419752121,0.000186578108696267,-0.01207348145544529,0.008981237187981606,-0.002101918449625373,-0.028138231486082077
0.020297031849622726,0.0001812115660868585,-0.011812577955424786,0.008937369100749493,-0.002257031388580799,-0.028938807547092438
0.020936980843544006,0.00017614485113881528,-0.011691978201270103,0.010072016157209873,-0.002197508467361331,-0.029738036915659904
0.020994851365685463,0.00017135395319201052,-0.01221104059368372,0.010362589731812477,-0.0023260528687387705,-0.029360491782426834
0.021042177453637123,0.00016681670967955142,-0.01207541674375534,0.010062748566269875,-0.0019951032008975744,-0.029305491596460342
0.020673204213380814,0.0001584266865393147,-0.012606590054929256,0.009913654997944832,-0.001813722774386406,-0.02915380522608757
0.018098246306180954,0.00015454071399290115,-0.01202832255512476,0.009690389037132263,-0.0018252895679324865,-0.029677744954824448
0.021703002974390984,0.00015084051119629294,-0.012095537967979908,0.009741568006575108,-0.0020701182074844837,-0.029857918620109558
0.021736636757850647,0.00014731354895047843,-0.011984727345407009,0.009432969614863396,-0.002126716310158372,-0.02957458235323429
0.021214934065937996,9.216641046805307e-05,-0.012574446387588978,0.009268976747989655,-0.002396427793428302,-0.02953781932592392
0.020606890320777893,6.314677011687309e-05,-0.012524798512458801,0.009550455026328564,-0.002289029536768794,-0.02977590821683407
0.02166457660496235,6.0671562096104026e-05,-0.012853901833295822,0.009280027821660042,-0.002385934581980109,-0.02992834709584713
0.0212993286550045,7.79631154728122e-05,-0.012857566587626934,0.009848250076174736,-0.002310633659362793,-0.03092852234840393
0.0212993286550045,7.79631154728122e-05,-0.012857566587626934,0.009848250076174736,-0.002310633659362793,-0.03092852234840393
0.021441910415887833,8.511830674251541e-05,-0.012133905664086342,0.01003994420170784,-0.0021912602242082357,-0.030160799622535706
0.021607618778944016,8.264208736363798e-05,-0.012524320743978024,0.009809866547584534,-0.002172167180106044,-0.030676420778036118
0.021606145426630974,8.018935477593914e-05,-0.012230285443365574,0.009392696432769299,-0.002149261999875307,-0.0296056866645813
0.021175876259803772,-0.00011373849702067673,-0.012952561490237713,0.009258382022380829,-0.002316924976184964,-0.029890093952417374
0.021160569041967392,-0.00010750522051239386,-0.012643423862755299,0.009683194570243359,-0.0023960890248417854,-0.030750948935747147
0.021586552262306213,-9.611625864636153e-05,-0.012456530705094337,0.009111005812883377,-0.0023132802452892065,-0.03052295371890068
0.02203829027712345,-8.684264321345836e-05,-0.012770766392350197,0.009576506912708282,-0.0022593021858483553,-0.031420182436704636
0.022116146981716156,-7.919414929347113e-05,-0.012294752523303032,0.009727982804179192,-0.0022442524787038565,-0.03204265609383583
0.022080423310399055,-7.278691919054836e-05,-0.012796680442988873,0.00930911023169756,-0.0025247239973396063,-0.03142334893345833
0.021753374487161636,-6.736095383530483e-05,-0.012415347620844841,0.009840183891355991,-0.002393416129052639,-0.030548997223377228
0.02214233949780464,-6.26530236331746e-05,-0.01166726928204298,0.010526967234909534,-0.002374399919062853,-0.03129881992936134
0.022443965077400208,-5.858890290255658e-05,-0.012805941514670849,0.010079990141093731,-0.0025052917189896107,-0.03193945810198784
0.02236122265458107,-5.5007309128995985e-05,-0.01348769199103117,0.010597276501357555,-0.0025024074129760265,-0.03153308853507042
0.022211702540516853,-5.1838713261531666e-05,-0.012810960412025452,0.010275580920279026,-0.0023952159099280834,-0.03172915428876877
0.022378742694854736,-4.9014943215297535e-05,-0.01279947068542242,0.010203143581748009,-0.002202495001256466,-0.03191829472780228
0.022791581228375435,-4.648329195333645e-05,-0.012795886024832726,0.01075037382543087,-0.0020936455111950636,-0.03204980865120888
0.02250390686094761,-4.213094507576898e-05,-0.013155032880604267,0.010822600685060024,-0.00203527370467782,-0.03159016743302345
0.022595617920160294,-4.0246777643915266e-05,-0.01231724675744772,0.010807299055159092,-0.002169043757021427,-0.03275258466601372
0.022872766479849815,-3.852398003800772e-05,-0.01345761027187109,0.010615518316626549,-0.0020542661659419537,-0.03263401240110397
0.02292950637638569,-3.6942674341844395e-05,-0.012823558412492275,0.010805082507431507,-0.002167315222322941,-0.03194338455796242
0.022697556763887405,-6.677873898297548e-05,-0.013197245076298714,0.010205039754509926,-0.0021352646872401237,-0.032248470932245255
0.022903593257069588,-6.822330033173785e-05,-0.012876267544925213,0.010303537361323833,-0.0021388493478298187,-0.033049605786800385
0.022903593257069588,-6.822330033173785e-05,-0.012876267544925213,0.010303537361323833,-0.0021388493478298187,-0.033049605786800385
0.022722773253917694,-6.578357715625316e-05,-0.013074650429189205,0.010382480919361115,-0.002317930106073618,-0.03264093026518822
0.023047123104333878,-6.346462032524869e-05,-0.013015796430408955,0.010320929810404778,-0.002605913206934929,-0.0329621285200119
0.02321138046681881,-6.130312249297276e-05,-0.012819541618227959,0.010234351269900799,-0.002628158777952194,-0.03367653861641884
0.0237325057387352,-5.928417886025272e-05,-0.012895854189991951,0.01089872419834137,-0.002612534211948514,-0.03365675359964371
0.023247474804520607,-5.739375774282962e-05,-0.012620626948773861,0.010420885868370533,-0.0026051083113998175,-0.03350406512618065
0.02302604541182518,-5.562030855799094e-05,-0.01338187325745821,0.010588746517896652,-0.0024856713134795427,-0.03354527801275253
0.023366810753941536,-5.395315383793786e-05,-0.012888477183878422,0.010202263481914997,-0.0024695892352610826,-0.03383098170161247
0.024148287251591682,-6.959515303606167e-05,-0.013475633226335049,0.009859146550297737,-0.002275509759783745,-0.03392188251018524
0.023623617365956306,-7.623196870554239e-05,-0.012885276228189468,0.010081307962536812,-0.002319903578609228,-0.03415706008672714
0.023625213652849197,-7.425110379699618e-05,-0.01348644308745861,0.010511134751141071,-0.0023498949594795704,-0.0337161086499691
0.02387266978621483,-7.22654367564246e-05,-0.013328802771866322,0.009824213571846485,-0.002316978294402361,-0.03408927097916603
0.0235049519687891,-7.038162584649399e-05,-0.01337462104856968,0.009950792416930199,-0.0023577238898724318,-0.03427387401461601
0.023900585249066353,-6.859363929834217e-05,-0.013480305671691895,0.010495524853467941,-0.002270328113809228,-0.034482188522815704
0.02330103889107704,-6.689418660243973e-05,-0.013314105570316315,0.010249301791191101,-0.0024106584023684263,-0.03466789424419403
0.02406071126461029,-8.448465814581141e-05,-0.01341122668236494,0.01079152338206768,-0.002669204957783222,-0.03470917418599129
0.02463984675705433,-8.494717621942982e-05,-0.013130683451890945,0.010767845436930656,-0.002787233330309391,-0.03356948494911194
0.024664806202054024,-8.302115747937933e-05,-0.013651076704263687,0.010533586144447327,-0.002783398609608412,-0.035199400037527084
0.02432127483189106,-8.11502177384682e-05,-0.012953550554811954,0.010697576217353344,-0.002934324787929654,-0.03592691943049431
0.023798922076821327,-7.764953625155613e-05,-0.013237051665782928,0.010888162069022655,-0.0025052414275705814,-0.03621327877044678
0.023832222446799278,-7.601016841363162e-05,-0.013815210200846195,0.011366719380021095,-0.0023991321213543415,-0.03397627919912338
0.024963492527604103,-7.443842332577333e-05,-0.013416359201073647,0.010626277886331081,-0.0023684136103838682,-0.034813035279512405
0.024847162887454033,-7.293048111023381e-05,-0.013632593676447868,0.011316436342895031,-0.0023303660564124584,-0.035891447216272354
0.024847162887454033,-7.293048111023381e-05,-0.013632593676447868,0.011316436342895031,-0.0023303660564124584,-0.035891447216272354
0.024343492463231087,-7.148244912968948e-05,-0.013239371590316296,0.011096683330833912,-0.0024243085645139217,-0.03617420792579651
0.0245277788490057,-7.009068940533325e-05,-0.013845518231391907,0.010456920601427555,-0.002341650892049074,-0.03675542771816254
0.02586561068892479,-6.875216786284e-05,-0.013896177522838116,0.01094120554625988,-0.002275774022564292,-0.03626663237810135
0.025109991431236267,-9.492796380072832e-05,-0.013746147975325584,0.010825306177139282,-0.002313419943675399,-0.03465082496404648
0.02512221783399582,-9.405074524693191e-05,-0.013434864580631256,0.010800180025398731,-0.0023396264296025038,-0.035687051713466644
0.02487495169043541,-9.214004239765927e-05,-0.013905251398682594,0.01147601380944252,-0.0027097698766738176,-0.036946892738342285
0.02463182806968689,-9.02914471225813e-05,-0.01392835658043623,0.010648021474480629,-0.002932868665084243,-0.03698039799928665
0.024930840358138084,-8.851548045640811e-05,-0.013764924369752407,0.011520504020154476,-0.002565931063145399,-0.036821749061346054
0.02510186657309532,-8.680796599946916e-05,-0.013946667313575745,0.011974450200796127,-0.0022235664073377848,-0.03652605041861534
0.02518695965409279,-0.00010020629997598007,-0.013726967386901379,0.010714857839047909,-0.002009377349168062,-0.036576125770807266
0.025320209562778473,-0.00010027319513028488,-0.014085488393902779,0.011639139614999294,-0.00205562193877995,-0.03687243536114693
0.025525594130158424,-9.847075853031129e-05,-0.013852005824446678,0.01074425969272852,-0.0026395567692816257,-0.03652491793036461
0.02564944699406624,-9.670748841017485e-05,-0.0141521655023098,0.010649277828633785,-0.0035344348289072514,-0.037060949951410294
0.02539248578250408,-9.500629676040262e-05,-0.013708582147955894,0.011076507158577442,-0.0033634635619819164,-0.036609895527362823
0.02557261474430561,-9.336350194644183e-05,-0.014539179392158985,0.010981108993291855,-0.0029902197420597076,-0.035817310214042664
0.02553238719701767,-0.00010646235750755295,-0.013997294940054417,0.011409450322389603,-0.002710354747250676,-0.03774990513920784
0.02550000511109829,-0.00010527551785344258,-0.014498144388198853,0.011189484037458897,-0.0027550687082111835,-0.03903312608599663
0.025021683424711227,-0.00010355304402764887,-0.013831241056323051,0.011083584278821945,-0.0030569040682166815,-0.037077195942401886
0.025790804997086525,-0.00011145909957122058,-0.014754246920347214,0.01175245177000761,-0.0029662458691745996,-0.035860542207956314
0.02547432668507099,-0.00011451328464318067,-0.014053263701498508,0.011125816032290459,-0.0031038664747029543,-0.037790533155202866
0.025892479345202446,-0.00011104570148745552,-0.01374089252203703,0.011531834490597248,-0.003020963165909052,-0.0392555370926857
0.02410699985921383,-0.00010935904720099643,-0.014494008384644985,0.011022187769412994,-0.0028245379216969013,-0.038779791444540024
0.026339493691921234,-0.00010792607645271346,-0.014289296232163906,0.011608777567744255,-0.002760994015261531,-0.03693939372897148
0.026307547464966774,-0.00020530718029476702,-0.0148427439853549,0.011111079715192318,-0.002898302162066102,-0.037260591983795166
0.026139242574572563,-0.00019766378682106733,-0.014765646308660507,0.01188978087157011,-0.002774558262899518,-0.03807353600859642
0.02587503008544445,-0.00018936319975182414,-0.015200348570942879,0.011820108629763126,-0.002623935230076313,-0.038861483335494995
0.02587994746863842,-0.00020556250819936395,-0.014975030906498432,0.01149777602404356,-0.0027198384050279856,-0.038787029683589935
0.025710653513669968,-0.00020942729315720499,-0.015342053025960922,0.011984470300376415,-0.0031335665844380856,-0.03880751505494118
0.026671716943383217,-0.00020176121324766427,-0.014946450479328632,0.011954746209084988,-0.003331019775941968,-0.03859248384833336
0.0272846519947052,-0.00019449686806183308,-0.015028146095573902,0.011811807751655579,-0.003112687263637781,-0.03944975137710571
0.0272846519947052,-0.00019449686806183308,-0.015028146095573902,0.011811807751655579,-0.003112687263637781,-0.03944975137710571
0.026313288137316704,-0.00018142754561267793,-0.015486541204154491,0.011271304450929165,-0.0029646875336766243,-0.039423711597919464
0.02590089477598667,-0.00017553017823956907,-0.015535213053226471,0.012302741408348083,-0.00307429488748312,-0.03930441290140152
0.02590089477598667,-0.00017553017823956907,-0.015535213053226471,0.012302741408348083,-0.00307429488748312,-0.03930441290140152
0.026827236637473106,-0.0001979450898943469,-0.01496510673314333,0.011893033981323242,-0.0030332619789987803,-0.039572350680828094
0.026979802176356316,-0.00019227919983677566,-0.015703968703746796,0.01173910778015852,-0.0027915139216929674,-0.039495352655649185
0.026500243693590164,-0.00021217018365859985,-0.015266061760485172,0.012640745379030704,-0.002550093224272132,-0.03942161798477173
0.02657710388302803,-0.00020709670206997544,-0.016168741509318352,0.011498281732201576,-0.0025555244646966457,-0.039888009428977966
0.027747206389904022,-0.00020159585983492434,-0.015335741452872753,0.011634889990091324,-0.0024856138043105602,-0.039812829345464706
0.02711513452231884,-0.0002789164427667856,-0.015505274757742882,0.011513726785779,-0.0028708972968161106,-0.04023589566349983
0.026342341676354408,-0.0002983087906613946,-0.01478763110935688,0.012335238978266716,-0.0034130180720239878,-0.04050062969326973
0.026229724287986755,-0.000298775703413412,-0.01552110817283392,0.01221051998436451,-0.0036587342619895935,-0.040480583906173706
0.026714017614722252,-0.0002833255275618285,-0.015449443832039833,0.011466982774436474,-0.0033745476976037025,-0.04065706208348274
0.027449922636151314,-0.00026920303935185075,-0.016078492626547813,0.012063092552125454,-0.0027815569192171097,-0.04061003774404526
0.027616506442427635,-0.00029740820173174143,-0.0161625687032938,0.011915872804820538,-0.0024282659869641066,-0.041178107261657715
0.027559520676732063,-0.00028556931647472084,-0.015176193788647652,0.012858624570071697,-0.0022954221349209547,-0.04108182340860367
0.02762065827846527,-0.0002732074062805623,-0.014342154376208782,0.012995665892958641,-0.002227455610409379,-0.04126441478729248
0.02775566093623638,-0.0002977361436933279,-0.01648310385644436,0.013255846686661243,-0.002494706306606531,-0.04051978513598442
0.027576755732297897,-0.00028759613633155823,-0.016842126846313477,0.012232811190187931,-0.0027288184501230717,-0.04185954108834267
0.02774771675467491,-0.00044307002099230886,-0.01575804315507412,0.013127109967172146,-0.0029480091761797667,-0.04063705727458
0.028541335836052895,-0.00041713760583661497,-0.015612839721143246,0.012648351490497589,-0.0029602060094475746,-0.04043825715780258
0.028464926406741142,-0.00042950353235937655,-0.016710270196199417,0.012596716172993183,-0.0028877751901745796,-0.0402764268219471
0.02854115143418312,-0.00042133015813305974,-0.016063734889030457,0.012304005213081837,-0.0027370606549084187,-0.04296678677201271
0.028250757604837418,-0.0003951732360292226,-0.015589995309710503,0.01262792106717825,-0.0027085489127784967,-0.044140711426734924
0.028566714376211166,-0.0004227796453051269,-0.015963606536388397,0.012583857402205467,-0.003095808671787381,-0.0417141392827034
0.02861177735030651,-0.0004019370535388589,-0.015842774882912636,0.012616246938705444,-0.003168345196172595,-0.04146049544215202
0.028318490833044052,-0.000503081944771111,-0.016794096678495407,0.013107148930430412,-0.003111220896244049,-0.04192261025309563
0.028662443161010742,-0.0005133808008395135,-0.015696240589022636,0.012711855582892895,-0.0029504140838980675,-0.0420851893723011
0.02848808281123638,-0.0004947077832184732,-0.01629463955760002,0.013095620088279247,-0.0028646099381148815,-0.04224378615617752
0.02904411591589451,-0.0005028335144743323,-0.01588384062051773,0.012835662811994553,-0.0028069564141333103,-0.04230437055230141
0.029207589104771614,-0.0004877622122876346,-0.016084320843219757,0.013517281040549278,-0.002901186468079686,-0.04274074733257294
0.029207589104771614,-0.0004877622122876346,-0.016084320843219757,0.013517281040549278,-0.002901186468079686,-0.04274074733257294
0.02870558574795723,-0.0005150192882865667,-0.01661626435816288,0.013104471378028393,-0.003237684490159154,-0.04262121766805649
0.029386015608906746,-0.0005884160054847598,-0.016399137675762177,0.013185085728764534,-0.0032699292059987783,-0.04250127449631691
0.029531210660934448,-0.0006417417898774147,-0.01696152240037918,0.01282535307109356,-0.003208179259672761,-0.04294930025935173
0.0300496444106102,-0.0006709978333674371,-0.01588687300682068,0.013350117020308971,-0.0031248056329786777,-0.043389420956373215
0.02970176562666893,-0.00063507747836411,-0.016367822885513306,0.013275818899273872,-0.003027450293302536,-0.04318151995539665
0.03014775738120079,-0.0006585397641174495,-0.01603241078555584,0.01298786886036396,-0.0029894961044192314,-0.04448466747999191
0.030434617772698402,-0.0008411336457356811,-0.01697203889489174,0.013217845000326633,-0.0028015393763780594,-0.04539123550057411
0.03022949770092964,-0.0008802816737443209,-0.01726025901734829,0.012885570526123047,-0.0028439529705792665,-0.043699897825717926
0.030173787847161293,-0.0008833612082526088,-0.016395553946495056,0.013202193193137646,-0.0028729611076414585,-0.04234141483902931
0.030785804614424706,-0.0008853469043970108,-0.01661015674471855,0.012876949273049831,-0.0028918208554387093,-0.04462602362036705
0.031632404774427414,-0.0010975180193781853,-0.016406472772359848,0.013473509810864925,-0.0029033576138317585,-0.04649273678660393
0.03099438175559044,-0.0010709326015785336,-0.017159366980195045,0.013167615048587322,-0.003200574778020382,-0.04590611532330513
0.027911460027098656,-0.0010451962007209659,-0.016653528437018394,0.013814333826303482,-0.0034003492910414934,-0.04329176992177963
0.030856601893901825,-0.0009580781916156411,-0.016696155071258545,0.013313471339643002,-0.00333303096704185,-0.04467487707734108
0.03157716616988182,-0.0010514651658013463,-0.016476821154356003,0.013684914447367191,-0.0031242400873452425,-0.0455118864774704
0.03153202310204506,-0.0010765714105218649,-0.017313720658421516,0.014079561457037926,-0.003247120650485158,-0.045268625020980835
0.032547060400247574,-0.001488822279497981,-0.01660238392651081,0.013814909383654594,-0.0030111707746982574,-0.04589002951979637
0.032301273196935654,-0.0014241243479773402,-0.016819700598716736,0.013837715610861778,-0.0030715358443558216,-0.046362217515707016
0.030897466465830803,-0.0016246361192315817,-0.0168850589543581,0.014072165824472904,-0.0029620216228067875,-0.0462159626185894
0.03109918162226677,-0.001530550536699593,-0.016803329810500145,0.014203956350684166,-0.00332860485650599,-0.0463557206094265
0.03221827372908592,-0.0014196771662682295,-0.017883336171507835,0.014097778126597404,-0.00338761112652719,-0.046189941465854645
0.032004669308662415,-0.0014135970268398523,-0.016674639657139778,0.013699928298592567,-0.0034721423871815205,-0.04603126272559166
0.032134171575307846,-0.0014443343970924616,-0.017185715958476067,0.014054074883460999,-0.003107484895735979,-0.04471388831734657
0.031991325318813324,-0.0016931525897234678,-0.016808049753308296,0.014570672996342182,-0.003051018575206399,-0.04653361439704895
0.03213910385966301,-0.001749618211761117,-0.01697687618434429,0.01447656936943531,-0.003019643947482109,-0.047417134046554565
0.03242168948054314,-0.002001361455768347,-0.0176199059933424,0.014740814454853535,-0.0032956788782030344,-0.046832792460918427
0.03257754445075989,-0.001816810923628509,-0.01706545613706112,0.014326647855341434,-0.0032785842195153236,-0.04690762609243393
0.03246241435408592,-0.0017632776871323586,-0.017695147544145584,0.013862465508282185,-0.003424385329708457,-0.04683568328619003
0.03246241435408592,-0.0017632776871323586,-0.017695147544145584,0.013862465508282185,-0.003424385329708457,-0.04683568328619003
0.0326562263071537,-0.001814289833419025,-0.01738608628511429,0.01403866708278656,-0.0030998806469142437,-0.04676350951194763
0.032693468034267426,-0.002096436684951186,-0.016936682164669037,0.014210925437510014,-0.0030806041322648525,-0.04670003056526184
0.03272351250052452,-0.0020972180645912886,-0.018003493547439575,0.014534790068864822,-0.003350242041051388,-0.04663439095020294
0.03259582445025444,-0.0021183921489864588,-0.01741948164999485,0.014062299393117428,-0.0032062442041933537,-0.048073239624500275
0.032986175268888474,-0.002045760629698634,-0.018211277201771736,0.01427299901843071,-0.0032224401365965605,-0.048755403608083725
0.03306645527482033,-0.00197748770006001,-0.017938727512955666,0.014004288241267204,-0.0033440652769058943,-0.04649072512984276
0.03258668631315231,-0.0019395758863538504,-0.01764293946325779,0.014521712437272072,-0.0032578487880527973,-0.047022197395563126
0.033872634172439575,-0.0023617157712578773,-0.018694642931222916,0.014450200833380222,-0.0032656549010425806,-0.046686701476573944
0.03443210944533348,-0.002166918246075511,-0.01784594915807247,0.014542178250849247,-0.0035372069105505943,-0.04949618875980377
0.033128660172224045,-0.0025499481707811356,-0.017699681222438812,0.014357172884047031,-0.003587017534300685,-0.04849895462393761
0.03194395825266838,-0.002373303286731243,-0.018195554614067078,0.01480738166719675,-0.0035004050005227327,-0.047352779656648636
0.0333394818007946,-0.0022745465394109488,-0.018268615007400513,0.01503385417163372,-0.0033724806271493435,-0.04857119545340538
0.03440260514616966,-0.0023855487816035748,-0.018881112337112427,0.015818506479263306,-0.0035082241520285606,-0.04888284206390381
0.033950094133615494,-0.0027594040147960186,-0.018808379769325256,0.01533449999988079,-0.003686014097183943,-0.04912784695625305
0.034563098102808,-0.002699865959584713,-0.018002817407250404,0.014937233179807663,-0.0034211354795843363,-0.049219436943531036
0.03357949107885361,-0.002564885187894106,-0.018407706171274185,0.014551901258528233,-0.0033003806602209806,-0.04937274381518364
0.033722151070833206,-0.00246301363222301,-0.01846880093216896,0.014180228114128113,-0.0033425588626414537,-0.0499916635453701
0.03446953371167183,-0.0025643890257924795,-0.018657615408301353,0.01431423518806696,-0.0033640419133007526,-0.05039135366678238
0.034517645835876465,-0.0027729193679988384,-0.018333017826080322,0.014433308504521847,-0.003454817458987236,-0.04973408579826355
0.034525416791439056,-0.0028887928929179907,-0.018360083922743797,0.014776140451431274,-0.0035617866087704897,-0.05035211518406868
0.03488173335790634,-0.0027385419234633446,-0.01885497011244297,0.015678545460104942,-0.0034406029153615236,-0.05226763337850571
0.03464031219482422,-0.002950202440842986,-0.018356794491410255,0.015578215941786766,-0.003504912368953228,-0.051318224519491196
0.034751929342746735,-0.002949823858216405,-0.018254907801747322,0.01609594188630581,-0.00371542782522738,-0.04954836517572403
0.03470950201153755,-0.002988853259012103,-0.018288040533661842,0.01571713387966156,-0.003336385590955615,-0.050286080688238144
0.03483108803629875,-0.0028483544010668993,-0.017834831029176712,0.0161609910428524,-0.0035016434267163277,-0.05252499133348465
0.035045940428972244,-0.0029820362105965614,-0.018889108672738075,0.01557319425046444,-0.003738060360774398,-0.05269157141447067
0.03550182282924652,-0.003016342641785741,-0.019455203786492348,0.015615998767316341,-0.003376616630703211,-0.050296857953071594
0.03550182282924652,-0.003016342641785741,-0.019455203786492348,0.015615998767316341,-0.003376616630703211,-0.050296857953071594
0.035638291388750076,-0.0032067380379885435,-0.01828269474208355,0.015544665977358818,-0.003392188809812069,-0.052124109119176865
0.03495960310101509,-0.0031247891020029783,-0.018546748906373978,0.016355810686945915,-0.003042134689167142,-0.0526137575507164
0.03569851815700531,-0.0028868899680674076,-0.019142668694257736,0.016260812059044838,-0.0030689765699207783,-0.052085768431425095
0.035905592143535614,-0.0029825763776898384,-0.0186885055154562,0.015749376267194748,-0.003421585774049163,-0.053525008261203766
0.03541373834013939,-0.002980743534862995,-0.01909930817782879,0.016274504363536835,-0.003647924168035388,-0.05354810133576393
0.03530552238225937,-0.003014599671587348,-0.018642781302332878,0.015795433893799782,-0.0038904452230781317,-0.05273239314556122
0.03572411090135574,-0.0032108633313328028,-0.018553778529167175,0.016204657033085823,-0.0039599076844751835,-0.05294531211256981
0.035792481154203415,-0.0029373588040471077,-0.01912415400147438,0.015547879040241241,-0.003778994083404541,-0.05280105769634247
0.03642554208636284,-0.0031699074897915125,-0.019145691767334938,0.01609174720942974,-0.003488980233669281,-0.053552139550447464
0.035791028290987015,-0.003378008957952261,-0.019086774438619614,0.01594669744372368,-0.0032447760459035635,-0.05387342721223831
0.03612009435892105,-0.0031555492896586657,-0.01899898797273636,0.01605667918920517,-0.0034193284809589386,-0.05424027889966965
0.03695991635322571,-0.003045337973162532,-0.019069412723183632,0.015740325674414635,-0.0036629713140428066,-0.05278542637825012
0.03672437369823456,-0.003234423231333494,-0.01915874518454075,0.015755150467157364,-0.003845022525638342,-0.054550137370824814
0.03634726628661156,-0.003010023618116975,-0.019273927435278893,0.01631966233253479,-0.0038696592673659325,-0.05491364002227783
0.03670288249850273,-0.0032121252734214067,-0.0191306471824646,0.015809834003448486,-0.0038288147188723087,-0.05409454181790352
0.037883635610342026,-0.003303252626210451,-0.019053315743803978,0.016002755612134933,-0.0035511755850166082,-0.05480774864554405
0.03553088754415512,-0.0037700545508414507,-0.019107915461063385,0.01625358872115612,-0.0031212244648486376,-0.05317214876413345
0.03679012507200241,-0.003825760679319501,-0.019035885110497475,0.016158174723386765,-0.003323178505524993,-0.05431187525391579
0.03707790747284889,-0.003906694240868092,-0.0194864459335804,0.016385089606046677,-0.004073195159435272,-0.05653617903590202
0.0371599979698658,-0.0034666929859668016,-0.019332287833094597,0.0164517629891634,-0.004156820476055145,-0.05590827018022537
0.03824805095791817,-0.003602436976507306,-0.01901412196457386,0.016594672575592995,-0.0036955764517188072,-0.05446333810687065
0.037341222167015076,-0.0033729353453963995,-0.020074352622032166,0.017174551263451576,-0.0032612269278615713,-0.05628756806254387
0.036035120487213135,-0.003529816633090377,-0.01939803548157215,0.016572289168834686,-0.003187095280736685,-0.056414879858493805
0.03673063963651657,-0.0037416797131299973,-0.019131675362586975,0.017052723094820976,-0.0035806770902127028,-0.05669475719332695
0.03673063963651657,-0.0037416797131299973,-0.019131675362586975,0.017052723094820976,-0.0035806770902127028,-0.05669475719332695
0.038108792155981064,-0.0038331535179167986,-0.01997506245970726,0.017015891149640083,-0.0034313679207116365,-0.05689244344830513
0.03713693842291832,-0.0038488307036459446,-0.02008957974612713,0.016869978979229927,-0.003563564969226718,-0.05723845213651657
0.0383015051484108,-0.003819734090939164,-0.01924627646803856,0.016897596418857574,-0.00347886118106544,-0.057349879294633865
0.03836638480424881,-0.0038506442215293646,-0.0197098758071661,0.01664728857576847,-0.003399379551410675,-0.057675860822200775
0.03770512714982033,-0.0037870281375944614,-0.019878901541233063,0.017170649021863937,-0.003941432107239962,-0.056343093514442444
0.03827444836497307,-0.004309182520955801,-0.019985895603895187,0.016806716099381447,-0.004234022926539183,-0.05862537398934364
0.037929411977529526,-0.004156708251684904,-0.019947996363043785,0.016834357753396034,-0.0045226761139929295,-0.058590780943632126
0.03788134828209877,-0.003693060716614127,-0.02054954506456852,0.016920043155550957,-0.004299062769860029,-0.059361062943935394
0.0383257120847702,-0.004122906364500523,-0.020226335152983665,0.016517074778676033,-0.004269891884177923,-0.05674520879983902
0.0381634384393692,-0.004163890611380339,-0.020205054432153702,0.0168137326836586,-0.003930454142391682,-0.057103779166936874
0.037933461368083954,-0.004481709562242031,-0.02022092230618,0.01643793098628521,-0.0035160754341632128,-0.05923795327544212
0.038519784808158875,-0.004245077725499868,-0.020173486322164536,0.01681414060294628,-0.0034857625141739845,-0.060305703431367874
0.03959081694483757,-0.004221194889396429,-0.020220285281538963,0.017020590603351593,-0.003729490330442786,-0.05756673589348793
0.03788381442427635,-0.00399484159424901,-0.020878026261925697,0.01707596331834793,-0.004284230060875416,-0.05798119679093361
0.037853583693504333,-0.004379478748887777,-0.02078252099454403,0.017353001981973648,-0.0043343971483409405,-0.05959261953830719
0.03935423865914345,-0.004621426109224558,-0.02053932100534439,0.017301924526691437,-0.0034810565412044525,-0.05971633270382881
0.03908681496977806,-0.004417812917381525,-0.020873399451375008,0.017575465142726898,-0.0030467237811535597,-0.05902378633618355
0.040008220821619034,-0.004503768403083086,-0.021534524857997894,0.018146874383091927,-0.002874752739444375,-0.059151582419872284
0.040365926921367645,-0.004219673108309507,-0.021580636501312256,0.017536047846078873,-0.0032597926910966635,-0.058835435658693314
0.0383417084813118,-0.004271563142538071,-0.021090421825647354,0.017814015969634056,-0.003642544848844409,-0.05945374816656113
0.03925248235464096,-0.0041488888673484325,-0.02075924724340439,0.017269432544708252,-0.004199317656457424,-0.05901972949504852
0.03924388810992241,-0.004588506184518337,-0.02100798673927784,0.01697535812854767,-0.004188909195363522,-0.060261793434619904
0.039849355816841125,-0.004661018960177898,-0.02101433090865612,0.017005393281579018,-0.003946141805499792,-0.060359153896570206
0.039780162274837494,-0.004235533066093922,-0.02157646045088768,0.017726032063364983,-0.0036099376156926155,-0.06005421653389931
0.03973729535937309,-0.0029703897889703512,-0.021577537059783936,0.018226338550448418,-0.0036057145334780216,-0.060300543904304504
0.04011751711368561,-0.002279444132000208,-0.021170813590288162,0.0184159092605114,-0.003702497808262706,-0.062048111110925674
0.03998678922653198,-0.0018133848207071424,-0.02089911885559559,0.01873910240828991,-0.0037299140822142363,-0.05965183675289154
0.04040981084108353,-0.0019017400918528438,-0.02175614796578884,0.018411749973893166,-0.0037866258062422276,-0.05975733697414398
0.04069947078824043,-0.002812709892168641,-0.022028135135769844,0.019090112298727036,-0.003850719425827265,-0.06073949858546257
0.04058818891644478,-0.00330570456571877,-0.02140592411160469,0.018572531640529633,-0.003890089225023985,-0.06222670152783394
0.04058818891644478,-0.00330570456571877,-0.02140592411160469,0.018572531640529633,-0.003890089225023985,-0.06222670152783394
0.041113078594207764,-0.0031370995566248894,-0.021372206509113312,0.018123960122466087,-0.0038834160659462214,-0.061411432921886444
0.04108100384473801,-0.00292900949716568,-0.02182144857943058,0.019052015617489815,-0.004280655644834042,-0.061857130378484726
0.040013786405324936,-0.002787306671962142,-0.022022169083356857,0.019017936661839485,-0.004161722958087921,-0.062201064079999924
0.04155341535806656,-0.0027976324781775475,-0.021597927436232567,0.018657853826880455,-0.0040135164745152,-0.062388282269239426
0.04193452373147011,-0.0029034533072263002,-0.02129187248647213,0.019039252772927284,-0.003636768553406,-0.06220186501741409
0.04159273952245712,-0.0030749242287129164,-0.021385036408901215,0.01939140260219574,-0.0034579269122332335,-0.06292466819286346
0.0411192812025547,-0.0030611336696892977,-0.02182462438941002,0.019332129508256912,-0.0036043538711965084,-0.06283003091812134
0.042198020964860916,-0.002887711161747575,-0.021888883784413338,0.019789500162005424,-0.004278224427253008,-0.06232529506087303
0.041888002306222916,-0.002711230656132102,-0.02142416313290596,0.01989680901169777,-0.004605650436133146,-0.06407593935728073
0.041932959109544754,-0.00256918603554368,-0.02191767282783985,0.019065363332629204,-0.004249757621437311,-0.06323986500501633
0.04183942824602127,-0.0027703377418220043,-0.02201780304312706,0.019394271075725555,-0.0038891304284334183,-0.06384684890508652
0.041628967970609665,-0.0030624703504145145,-0.021783115342259407,0.0192923191934824,-0.004019494168460369,-0.06466042250394821
0.042128533124923706,-0.003269066335633397,-0.02146068960428238,0.018886731937527657,-0.004106930457055569,-0.062225352972745895
0.04368558153510094,-0.003309291787445545,-0.021896706894040108,0.019145481288433075,-0.0039560217410326,-0.06319540739059448
0.04148152843117714,-0.003343397518619895,-0.022461146116256714,0.019291497766971588,-0.004304916597902775,-0.06629131734371185
0.04081180691719055,-0.0029735213611274958,-0.022814955562353134,0.01876707747578621,-0.004672477021813393,-0.06221894919872284
0.041824840009212494,-0.0030830646865069866,-0.02201688103377819,0.019061904400587082,-0.004278406035155058,-0.06358492374420166
0.042681995779275894,-0.0034270649775862694,-0.022394709289073944,0.01916188932955265,-0.004365148954093456,-0.06495292484760284
0.04247402027249336,-0.0034682373516261578,-0.022495172917842865,0.0186654981225729,-0.004025887697935104,-0.06451227515935898
0.0416366271674633,-0.0034209731966257095,-0.02249729074537754,0.018466638401150703,-0.003978389780968428,-0.06452105939388275
0.04315611720085144,-0.0036522892769426107,-0.022916624322533607,0.018544582650065422,-0.004165795166045427,-0.06493166089057922
0.04299681633710861,-0.0034779992420226336,-0.02272851951420307,0.01890556700527668,-0.004526342265307903,-0.0649569183588028
0.04301127791404724,-0.003961630165576935,-0.023219093680381775,0.018458101898431778,-0.004298289306461811,-0.06534469872713089
0.04343697428703308,-0.004198688548058271,-0.023814145475625992,0.018808677792549133,-0.004432233050465584,-0.06545298546552658
0.04285532236099243,-0.004478964023292065,-0.02377740852534771,0.019278421998023987,-0.004418044351041317,-0.06512613594532013
0.04333598166704178,-0.004192550666630268,-0.023300498723983765,0.01902829110622406,-0.004288265481591225,-0.06563454121351242
0.04289693757891655,-0.003896278329193592,-0.022792330011725426,0.01891946606338024,-0.00410646153613925,-0.06778524070978165
0.04289693757891655,-0.003896278329193592,-0.022792330011725426,0.01891946606338024,-0.00410646153613925,-0.06778524070978165
0.04348951578140259,-0.003892407286912203,-0.023176129907369614,0.019121728837490082,-0.003979548346251249,-0.06598465144634247
0.043111979961395264,-0.003913792781531811,-0.023616092279553413,0.018916578963398933,-0.0039911638014018536,-0.0649133026599884
0.044305283576250076,-0.0038569835014641285,-0.023952119052410126,0.01890772394835949,-0.004466129932552576,-0.06795960664749146
0.04372979328036308,-0.00397994089871645,-0.02401593141257763,0.01908821240067482,-0.004504414275288582,-0.06699322909116745
0.04214472323656082,-0.004006258212029934,-0.023614194244146347,0.01920200325548649,-0.004382803104817867,-0.06657437235116959
0.04290073364973068,-0.0038866016548126936,-0.023611757904291153,0.019287139177322388,-0.004285592585802078,-0.06678780168294907
0.043203048408031464,-0.003756231628358364,-0.02378707192838192,0.019247451797127724,-0.004113718867301941,-0.06658349931240082
0.04468899965286255,-0.004296302329748869,-0.024213258177042007,0.019192339852452278,-0.004330191761255264,-0.06684621423482895
0.04417736828327179,-0.004160005133599043,-0.024137798696756363,0.0194468405097723,-0.004467077553272247,-0.0682106614112854
0.041976798325777054,-0.004470133688300848,-0.02372805029153824,0.02022893913090229,-0.004787325393408537,-0.06821634620428085
0.044013164937496185,-0.004142685793340206,-0.02392609976232052,0.019687626510858536,-0.00479673407971859,-0.06763055175542831
0.04437929391860962,-0.004428801126778126,-0.02428787387907505,0.019486725330352783,-0.004727773834019899,-0.06735354661941528
0.04404984042048454,-0.004560793284326792,-0.024800939485430717,0.019461266696453094,-0.004360210616141558,-0.0674193799495697
0.04419727623462677,-0.004565544426441193,-0.024619197472929955,0.01938404142856598,-0.004219918046146631,-0.06678348779678345
0.044215574860572815,-0.004525734111666679,-0.024715792387723923,0.0200303103774786,-0.00420342804864049,-0.06918380409479141
0.045007575303316116,-0.004814932122826576,-0.024383634328842163,0.020652633160352707,-0.004490867257118225,-0.06727088987827301
0.044522762298583984,-0.0046400404535233974,-0.02449362352490425,0.02056553028523922,-0.004645654000341892,-0.0669996365904808
0.04462960734963417,-0.004920534789562225,-0.024720054119825363,0.01979716494679451,-0.004641805775463581,-0.06996646523475647
0.04548468813300133,-0.004399450030177832,-0.025130875408649445,0.02118583209812641,-0.004381990991532803,-0.06782707571983337
0.045082706958055496,-0.0045199766755104065,-0.024939928203821182,0.021363012492656708,-0.004569580778479576,-0.07003942131996155
0.04603512957692146,-0.004726988263428211,-0.024918900802731514,0.021015243604779243,-0.004216259345412254,-0.07081328332424164
0.04600941762328148,-0.0049738758243620396,-0.024660294875502586,0.020810050889849663,-0.004408662207424641,-0.0707697719335556
0.045728083699941635,-0.004948046058416367,-0.024232177063822746,0.020470408722758293,-0.004434944596141577,-0.07078970223665237
0.046309083700180054,-0.005236627999693155,-0.024786783382296562,0.020140865817666054,-0.004410183522850275,-0.071146659553051
0.04610778018832207,-0.004840985871851444,-0.024711543694138527,0.020561978220939636,-0.0044558243826031685,-0.0712432786822319
0.04587240889668465,-0.004605039022862911,-0.025114145129919052,0.021099567413330078,-0.004612016025930643,-0.07112222909927368
0.04660353437066078,-0.004330712836235762,-0.025297731161117554,0.020791687071323395,-0.004773080814629793,-0.07200821489095688
