davideferrari95/blind_handover_controller/data/Test 204 - [2024-02-08 -- 12-00-06]/joint_states_data.csv
shoulder_pan_joint,shoulder_lift_joint,elbow_joint,wrist_1_joint,wrist_2_joint,wrist_3_joint
0.005423481110483408,0.01434400212019682,-0.011813119053840637,-0.004763205535709858,0.0,0.005717466585338116
0.005023755598813295,0.014237409457564354,-0.012759336270391941,-0.004705960862338543,0.0,0.005744817201048136
0.005023755598813295,0.014237409457564354,-0.012759336270391941,-0.004705960862338543,0.0,0.005744817201048136
0.004542690236121416,0.01401408389210701,-0.012613886967301369,-0.004480205476284027,0.0,0.005428430624306202
0.004542690236121416,0.01401408389210701,-0.012613886967301369,-0.004480205476284027,0.0,0.005428430624306202
0.0045534102246165276,0.01389566995203495,-0.012510322034358978,-0.004691578447818756,0.0,0.005345744080841541
0.004896183963865042,0.014295181259512901,-0.012542380020022392,-0.004806609824299812,0.0,0.005726995412260294
0.004939843900501728,0.01484125666320324,-0.012905854731798172,-0.004883599933236837,0.0,0.005669816862791777
0.00479096220806241,0.014764539897441864,-0.01267777569591999,-0.004753564950078726,0.0,0.005473353434354067
0.0046762144193053246,0.014702839776873589,-0.012203972786664963,-0.004301172681152821,0.0,0.0050828964449465275
0.00474495068192482,0.015020422637462616,-0.01312736701220274,-0.003895927220582962,0.0,0.0054644630290567875
0.004735615104436874,0.014895094558596611,-0.012549051083624363,-0.0042439610697329044,0.0,0.005321471951901913
0.004716269671916962,0.01420844066888094,-0.012775915674865246,-0.004521820694208145,0.0,0.0051551987417042255
0.0049833869561553,0.014638522639870644,-0.012573909945786,-0.004527793265879154,0.0,0.00522595876827836
0.0049833869561553,0.014638522639870644,-0.012573909945786,-0.004527793265879154,0.0,0.00522595876827836
0.004674540366977453,0.014563958160579205,-0.012797047384083271,-0.004317868500947952,0.0,0.00550398975610733
0.004815364722162485,0.014213592745363712,-0.012250146828591824,-0.0043391333892941475,0.0,0.005371752195060253
0.004837682470679283,0.014572685584425926,-0.012996978126466274,-0.004160518292337656,0.0,0.005096822511404753
0.0047513265162706375,0.014415490441024303,-0.012797483243048191,-0.004263134207576513,0.0,0.005315360613167286
0.004729298874735832,0.015094440430402756,-0.013366260565817356,-0.004432979971170425,0.0,0.005411881487816572
0.005315232556313276,0.014639223925769329,-0.013174710795283318,-0.004417299758642912,0.0,0.0054267775267362595
0.005100639536976814,0.014810582622885704,-0.01253988966345787,-0.004121279343962669,0.0,0.005134197883307934
0.004748733248561621,0.014523586258292198,-0.012353140860795975,-0.003947321325540543,0.0,0.005052303429692984
0.004667326807975769,0.014928516000509262,-0.012458384968340397,-0.0043449862860143185,0.0,0.005568866617977619
0.005182282067835331,0.014578969217836857,-0.013401933014392853,-0.004511040169745684,0.0,0.005487530957907438
0.0051155914552509785,0.014815484173595905,-0.012483987025916576,-0.004603192210197449,0.0,0.005343819968402386
0.005026387516409159,0.014752380549907684,-0.012627425603568554,-0.003954176325351,0.0,0.005087594967335463
0.004619678016752005,0.014367795549333096,-0.012725469656288624,-0.004055154975503683,0.0,0.005397787317633629
0.005061037838459015,0.015031361021101475,-0.012702880427241325,-0.004238608758896589,0.0,0.005139179062098265
0.0048765335232019424,0.014338880777359009,-0.013035778887569904,-0.004496579524129629,0.0,0.005239056423306465
0.004915476776659489,0.01484936848282814,-0.013399781659245491,-0.00468523008748889,0.0,0.004584748763591051
0.005926437675952911,0.014438442885875702,-0.012515798211097717,-0.004668341018259525,0.0,0.004860879387706518
0.005453123711049557,0.014955645427107811,-0.012653517536818981,-0.004656091798096895,0.0,0.0056070927530527115
0.004777238238602877,0.014508185908198357,-0.012352803722023964,-0.0046300687827169895,0.0,0.0059102619998157024
0.004777238238602877,0.014508185908198357,-0.012352803722023964,-0.0046300687827169895,0.0,0.0059102619998157024
0.004922635853290558,0.014802958816289902,-0.013319766148924828,-0.004648522008210421,0.0,0.005487392656505108
0.005230361130088568,0.014634384773671627,-0.012362335808575153,-0.004693887196481228,0.0,0.005009313579648733
0.005239475052803755,0.015407963655889034,-0.012946573086082935,-0.004198489710688591,0.0,0.004853794816881418
0.005825323518365622,0.014610291458666325,-0.012399658560752869,-0.00383509392850101,0.0,0.004803862422704697
0.005495082121342421,0.015083719044923782,-0.012414122931659222,-0.004270980134606361,0.0,0.004877223167568445
0.00572234857827425,0.01475216168910265,-0.012756536714732647,-0.004600100684911013,0.0,0.005106255412101746
0.005367256235331297,0.015282834880053997,-0.012438534758985043,-0.004334546159952879,0.0,0.0054464517161250114
0.0052869743667542934,0.014622652903199196,-0.012543467804789543,-0.004348963499069214,0.0,0.005230973940342665
0.005479997955262661,0.01508596632629633,-0.012140137143433094,-0.004142435267567635,0.0,0.0051437485963106155
0.005643902346491814,0.01495847012847662,-0.012774159200489521,-0.004270155448466539,0.0,0.005106387659907341
0.00521115493029356,0.015064425766468048,-0.012464996427297592,-0.004026367794722319,0.0,0.004867297597229481
0.00527766440063715,0.015118329785764217,-0.012402661144733429,-0.003888302482664585,0.0,0.005348370876163244
0.005432839039713144,0.015050866641104221,-0.012363309040665627,-0.004356560297310352,0.0,0.00522376224398613
0.005565904546529055,0.014788058586418629,-0.011896522715687752,-0.004704090300947428,0.0,0.005007836036384106
0.005768530536442995,0.015046967193484306,-0.012327640317380428,-0.004396298434585333,0.0,0.004987160209566355
0.006001689005643129,0.015197912231087685,-0.011943441815674305,-0.004307460971176624,0.0,0.004996021743863821
0.005786522291600704,0.014979468658566475,-0.012168955989181995,-0.00448537478223443,0.0,0.004667150322347879
0.005651326850056648,0.015161841176450253,-0.011556867510080338,-0.004556957632303238,0.0,0.004435901064425707
0.005268515553325415,0.014905712567269802,-0.011352194473147392,-0.004382767714560032,0.0,0.004887694027274847
0.005988807417452335,0.015353905968368053,-0.011754110455513,-0.004531447775661945,0.0,0.005081154406070709
0.006045342888683081,0.015002510510385036,-0.012288875877857208,-0.005045290105044842,0.0,0.004734743852168322
0.005524657666683197,0.014698918908834457,-0.011342882178723812,-0.004944459069520235,0.0,0.005127425771206617
0.005624729208648205,0.015099484473466873,-0.011373085901141167,-0.0045585050247609615,0.0,0.004945184104144573
0.005624729208648205,0.015099484473466873,-0.011373085901141167,-0.0045585050247609615,0.0,0.004945184104144573
0.006164115387946367,0.014547898434102535,-0.012031430378556252,-0.004339402075856924,0.0,0.004887858871370554
0.0060166711919009686,0.014996185898780823,-0.011794130317866802,-0.004162015859037638,0.0,0.0049520218744874
0.006120436359196901,0.014560422860085964,-0.012101516127586365,-0.004425947088748217,0.0,0.004877933766692877
0.005764268804341555,0.015294784680008888,-0.011941411532461643,-0.004553660284727812,0.0,0.004751989617943764
0.005703176371753216,0.015118921175599098,-0.01178043894469738,-0.004236422944813967,0.0,0.004940565675497055
0.006021523382514715,0.01554040051996708,-0.012142714112997055,-0.003945816308259964,0.0,0.004969077650457621
0.00616462854668498,0.015065565705299377,-0.011621790006756783,-0.0034350103233009577,0.0,0.005260821431875229
0.005988805089145899,0.015648243948817253,-0.012283422984182835,-0.003442064393311739,0.0,0.005599717143923044
0.00552708376199007,0.014836601912975311,-0.01231587678194046,-0.003668800462037325,0.0,0.004726142156869173
0.005791292991489172,0.014888947829604149,-0.011651447042822838,-0.004185506142675877,0.0,0.00444563664495945
0.00630748039111495,0.015104582533240318,-0.011620375327765942,-0.004574419464915991,0.0,0.0044972458854317665
0.005683441646397114,0.015217181295156479,-0.011334231123328209,-0.004450477194041014,0.0,0.004577526357024908
0.005796893499791622,0.014973491430282593,-0.012324358336627483,-0.004430566914379597,0.0,0.004613867495208979
0.0058155786246061325,0.015419457107782364,-0.011717543937265873,-0.004599469713866711,0.0,0.0047750212252140045
0.005985789000988007,0.014994312077760696,-0.011804645881056786,-0.004323224537074566,0.0,0.005036256741732359
0.006567877717316151,0.014027855359017849,-0.011738861910998821,-0.003963643219321966,0.0,0.0045326147228479385
0.0063490536995232105,0.014725880697369576,-0.010977894999086857,-0.004499581176787615,0.0,0.004528664518147707
0.006254652980715036,0.015012084506452084,-0.011756922118365765,-0.005215412471443415,0.0,0.004483162425458431
0.006141633726656437,0.015317982994019985,-0.011785295791924,-0.004609385505318642,0.0,0.004264524672180414
0.006431219168007374,0.015354571864008904,-0.01129482313990593,-0.0041472455486655235,0.0,0.005023967009037733
0.0063216956332325935,0.014525783248245716,-0.01080708485096693,-0.004401178564876318,0.0,0.004696703050285578
0.005980463232845068,0.0149155855178833,-0.011536533012986183,-0.0042632147669792175,0.0,0.004301784560084343
0.0060798656195402145,0.01435649860650301,-0.011442123912274837,-0.004506096243858337,0.0,0.00402848282828927
0.006086460314691067,0.01515096053481102,-0.011448314413428307,-0.004711712710559368,0.0,0.004334490280598402
0.0064788260497152805,0.014303777366876602,-0.012011558748781681,-0.004639162216335535,0.0,0.004575518891215324
0.0064788260497152805,0.014303777366876602,-0.012011558748781681,-0.004639162216335535,0.0,0.004575518891215324
0.00660448893904686,0.01532016322016716,-0.011321837082505226,-0.004680408630520105,0.0,0.004545013885945082
0.0064664375968277454,0.014983061701059341,-0.011753719300031662,-0.0047396887093782425,0.0,0.00439426489174366
0.006013430189341307,0.01567462459206581,-0.011332259513437748,-0.004576332401484251,0.0,0.004382906947284937
0.006372402422130108,0.016185499727725983,-0.01129593513906002,-0.004371316637843847,0.0,0.004196871072053909
0.006584499962627888,0.014390125870704651,-0.012383192777633667,-0.004478936083614826,0.0,0.004322240594774485
0.005556464195251465,0.014210413210093975,-0.011288152076303959,-0.005056244321167469,0.0,0.00438650930300355
0.005321699194610119,0.015302242711186409,-0.011723694391548634,-0.005041548982262611,0.0,0.004283503163605928
0.005504167173057795,0.014609203673899174,-0.01127703208476305,-0.004564092960208654,0.0,0.004517809487879276
0.0056917560286819935,0.014853918924927711,-0.011124690063297749,-0.0044456892646849155,0.0,0.004569569136947393
0.0059931171126663685,0.014536416158080101,-0.011642029508948326,-0.004623906221240759,0.0,0.004486871417611837
0.005956956651061773,0.015154451131820679,-0.011119702830910683,-0.005210019648075104,0.0,0.004233458079397678
0.005742221139371395,0.014949984848499298,-0.01196335069835186,-0.005161408334970474,0.0,0.003964095376431942
0.005869327578693628,0.014871470630168915,-0.011648581363260746,-0.005232349503785372,0.0,0.003791168797761202
0.005703140050172806,0.014753170311450958,-0.011651827953755856,-0.005047392565757036,0.0,0.004225573502480984
0.006112685427069664,0.014853640459477901,-0.011857275851070881,-0.0050449371337890625,0.0,0.004202479030936956
0.006181448232382536,0.014660647138953209,-0.01099979504942894,-0.0048259892500936985,0.0,0.0044617983512580395
0.0058986227959394455,0.014567296952009201,-0.012126405723392963,-0.004502294585108757,0.0,0.004137673415243626
0.006225740537047386,0.014488546177744865,-0.011514040641486645,-0.004591015633195639,0.0,0.003965030889958143
0.006051491480320692,0.014416725374758244,-0.011930422857403755,-0.004728796426206827,0.0,0.003964201547205448
0.005996497347950935,0.01480746641755104,-0.0114624984562397,-0.00467699533328414,0.0,0.0038306403439491987
0.006067247129976749,0.014686212874948978,-0.012614679522812366,-0.0046067992225289345,0.0,0.0037040933966636658
0.005993769969791174,0.01442772801965475,-0.011466419324278831,-0.004604741930961609,0.0,0.003699188819155097
0.00626546423882246,0.014232594519853592,-0.0112345265224576,-0.005082855932414532,0.0,0.0037778981495648623
0.0061760032549500465,0.014147873036563396,-0.011959520168602467,-0.005021990742534399,0.0,0.0042890203185379505
0.0061760032549500465,0.014147873036563396,-0.011959520168602467,-0.005021990742534399,0.0,0.0042890203185379505
0.006227117497473955,0.014183579944074154,-0.011407450772821903,-0.005193755030632019,0.0,0.0047287591733038425
0.005895082373172045,0.014227238483726978,-0.012555363588035107,-0.004878046456724405,0.0,0.004742411896586418
0.00589665025472641,0.014307190664112568,-0.011573322117328644,-0.004872787743806839,0.0,0.0038589434698224068
0.006031793542206287,0.014160824008286,-0.011539839208126068,-0.004949639551341534,0.0,0.003563588485121727
0.006297972984611988,0.014192895963788033,-0.011815054342150688,-0.005653101485222578,0.0,0.00326556502841413
0.006211934611201286,0.014079763554036617,-0.011284816078841686,-0.005314764566719532,0.0,0.0034616028424352407
0.006452016532421112,0.01418230775743723,-0.011587117798626423,-0.005434530787169933,0.0,0.0036990458611398935
0.005989172495901585,0.014025591313838959,-0.01170988380908966,-0.0046821837313473225,0.0,0.003901005955412984
0.006358462385833263,0.013417508453130722,-0.011264373548328876,-0.00459694117307663,0.0,0.0035392555873841047
0.006384827196598053,0.014464053325355053,-0.011525039561092854,-0.005180678330361843,0.0,0.00354587915353477
0.00648830970749259,0.013903899118304253,-0.010940217413008213,-0.0057443357072770596,0.0,0.0036017114762216806
0.006247231271117926,0.014098966494202614,-0.01151511911302805,-0.005211542826145887,0.0,0.0036387608852237463
0.006082634441554546,0.013789728283882141,-0.011708971112966537,-0.005157994572073221,0.0,0.0035917062778025866
0.006288006901741028,0.014502603560686111,-0.011221513152122498,-0.004990770015865564,0.0,0.0035771713592112064
0.00711004389449954,0.01372954249382019,-0.011940590105950832,-0.004977300763130188,0.0,0.0035878769122064114
0.006435331888496876,0.014330937527120113,-0.011711637489497662,-0.00542267644777894,0.0,0.0036130771040916443
0.006247222423553467,0.013759525492787361,-0.011563659645617008,-0.005239058285951614,0.0,0.0037511412519961596
0.006547701079398394,0.014236216433346272,-0.01143641211092472,-0.005182575434446335,0.0,0.0038278463762253523
0.007361171767115593,0.013866544701159,-0.010573431849479675,-0.005411554127931595,0.0,0.0038190095219761133
0.006314825266599655,0.013352340087294579,-0.011477804742753506,-0.005658145993947983,0.0,0.003647095523774624
0.006201824173331261,0.014067690819501877,-0.011391750536859035,-0.005737009458243847,0.0,0.0034650948364287615
0.007231053896248341,0.01359650306403637,-0.01241644099354744,-0.005808556452393532,0.0,0.003362754825502634
0.006865188013762236,0.01374788023531437,-0.01026527676731348,-0.005783136934041977,0.0,0.003356693312525749
0.00666941748932004,0.01344318687915802,-0.01098856795579195,-0.005589848849922419,0.0,0.003347981721162796
0.006426113657653332,0.013909216970205307,-0.011208923533558846,-0.005124484188854694,0.0,0.003352680942043662
0.006618059705942869,0.013579574413597584,-0.011602512560784817,-0.005377413239330053,0.0,0.003590528853237629
0.007311020977795124,0.01449703797698021,-0.012033293023705482,-0.005647601559758186,0.0,0.0034022654872387648
0.0068268803879618645,0.014036833308637142,-0.011009595356881618,-0.005640729330480099,0.0,0.0032379254698753357
0.006771909072995186,0.01400649081915617,-0.011967897415161133,-0.005139203742146492,0.0,0.003132621292024851
0.00679746363312006,0.01334171462804079,-0.011671279557049274,-0.004762176424264908,0.0,0.0030125752091407776
0.006933914497494698,0.013766738586127758,-0.010702602565288544,-0.005138888023793697,0.0,0.002955557079985738
0.006933914497494698,0.013766738586127758,-0.010702602565288544,-0.005138888023793697,0.0,0.002955557079985738
0.007155692204833031,0.013257261365652084,-0.011810810305178165,-0.005444129928946495,0.0,0.0028143979143351316
0.006976749747991562,0.013432604260742664,-0.01156754419207573,-0.006305782590061426,0.0,0.003000603523105383
0.00746800284832716,0.013758011162281036,-0.011508057825267315,-0.006034421268850565,0.0,0.003366946941241622
0.007902473211288452,0.013721447438001633,-0.011090564541518688,-0.005729408469051123,0.0,0.0033792899921536446
0.0068911961279809475,0.013876032084226608,-0.010802453383803368,-0.005225737579166889,0.0,0.0034687360748648643
0.007100132293999195,0.012885410338640213,-0.011680526658892632,-0.005802408326417208,0.0,0.0032024579122662544
0.006866770796477795,0.012945238500833511,-0.011864679865539074,-0.006583536975085735,0.0,0.0028283775318413973
0.007148658391088247,0.01280873455107212,-0.011654783971607685,-0.006422464735805988,0.0,0.00261825998313725
0.00715213268995285,0.013675116933882236,-0.01154429093003273,-0.006111205089837313,0.0,0.003069021040573716
0.007060006260871887,0.013096167705953121,-0.010884178802371025,-0.005526648368686438,0.0,0.003148752963170409
0.007017076015472412,0.013820062391459942,-0.011427032761275768,-0.005741448141634464,0.0,0.00312032294459641
0.007415850181132555,0.01358411181718111,-0.010816672816872597,-0.005775488447397947,0.0,0.0029581794515252113
0.007296836003661156,0.013110672123730183,-0.011438780464231968,-0.006143393460661173,0.0,0.0023942135740071535
0.007276228163391352,0.013393840752542019,-0.011215674690902233,-0.0059036919847130775,0.0,0.002664468949660659
0.00793514959514141,0.013399177230894566,-0.01145864836871624,-0.006113516632467508,0.0,0.0030583851039409637
0.007241131272166967,0.013203797861933708,-0.010912700556218624,-0.006011985242366791,0.0,0.0032490668818354607
0.007290457375347614,0.013621415011584759,-0.01045504491776228,-0.005865545477718115,0.0,0.0031037309672683477
0.0073201279155910015,0.013367529958486557,-0.011044308543205261,-0.005991712678223848,0.0,0.0028257451485842466
0.0073201279155910015,0.013367529958486557,-0.011044308543205261,-0.005991712678223848,0.0,0.0028257451485842466
0.007317248731851578,0.014023789204657078,-0.010824753902852535,-0.0059832362458109856,0.0,0.0027598668821156025
0.007656075060367584,0.013810237869620323,-0.010579368099570274,-0.006393707823008299,0.0,0.0027284410316497087
0.007427149452269077,0.014092988334596157,-0.011187168769538403,-0.006800243165344,0.0,0.002693107584491372
0.007039938122034073,0.01338978111743927,-0.011047814972698689,-0.006661979481577873,0.0,0.0027314620092511177
0.00733294477686286,0.013980790972709656,-0.011188702657818794,-0.006260880269110203,0.0,0.002465158002451062
0.007909280247986317,0.013420958071947098,-0.010378903709352016,-0.006359266582876444,0.0,0.0021491895895451307
0.0075853131711483,0.013857848942279816,-0.010337780229747295,-0.006453357171267271,0.0,0.0022724170703440905
0.007104513235390186,0.013443833217024803,-0.011202172376215458,-0.007094104774296284,0.0,0.0028859246522188187
0.007070243824273348,0.01421221625059843,-0.010745188221335411,-0.006623429246246815,0.0,0.003064657561480999
0.007726824376732111,0.013702786527574062,-0.01055836956948042,-0.006425620522350073,0.0,0.002967305015772581
0.007527910638600588,0.014222015626728535,-0.011155465617775917,-0.006768880411982536,0.0,0.002628737362101674
0.007276689633727074,0.013868045061826706,-0.010384229011833668,-0.007318973541259766,0.0,0.002249612705782056
0.007549441885203123,0.014116101898252964,-0.010350879281759262,-0.007089654915034771,0.0,0.0019224974093958735
0.007712491787970066,0.013734318315982819,-0.010762342251837254,-0.006628031842410564,0.0,0.0019437255105003715
0.00745501508936286,0.014164469204843044,-0.010862836614251137,-0.006307677831500769,0.0,0.0021986013744026423
0.007384127471596003,0.013815518468618393,-0.011337170377373695,-0.006915504578500986,0.0,0.0026209044735878706
0.008472602814435959,0.014084220863878727,-0.010972583666443825,-0.006918732542544603,0.0,0.002404377330094576
0.007870285771787167,0.013626642525196075,-0.010578927583992481,-0.0066135660745203495,0.0,0.002348074223846197
0.008014692924916744,0.013508621603250504,-0.011020870879292488,-0.0067303841933608055,0.0,0.002033505355939269
0.007981334812939167,0.013316790573298931,-0.010584566742181778,-0.00733767868950963,0.0,0.001841099001467228
0.008006745018064976,0.013228828087449074,-0.011726119555532932,-0.007484414614737034,0.0,0.001946875941939652
0.007588134612888098,0.012984086759388447,-0.010504260659217834,-0.00687894131988287,0.0,0.0019552609883248806
0.00747162289917469,0.013470269739627838,-0.010854157619178295,-0.007000328507274389,0.0,0.002157248556613922
0.007801989559084177,0.013184772804379463,-0.010647901333868504,-0.007357148919254541,0.0,0.0021732060704380274
0.007560837548226118,0.01370810717344284,-0.010412146337330341,-0.007129578851163387,0.0,0.0021063056774437428
0.007560837548226118,0.01370810717344284,-0.010412146337330341,-0.007129578851163387,0.0,0.0021063056774437428
0.007383000571280718,0.013022334314882755,-0.01118109468370676,-0.00671971682459116,0.0,0.002035937737673521
0.006501107010990381,0.013680581003427505,-0.010938068851828575,-0.0072440579533576965,0.0,0.001989260083064437
0.0086611183360219,0.013094335794448853,-0.01108573004603386,-0.007626223843544722,0.0,0.0017810948193073273
0.00830763764679432,0.013228459283709526,-0.011087766848504543,-0.007549032103270292,0.0,0.0017645772313699126
0.007467164658010006,0.013299588114023209,-0.010714501142501831,-0.007183528039604425,0.0,0.0016363967442885041
0.00780393835157156,0.013014250434935093,-0.011323129758238792,-0.0074376692064106464,0.0,0.0017210767837241292
0.007906400598585606,0.013119437731802464,-0.011037592776119709,-0.00766476197168231,0.0,0.0016168146394193172
0.00807366706430912,0.01276774425059557,-0.010723109357059002,-0.008070163428783417,0.0,0.001727983821183443
0.008259139023721218,0.013415863737463951,-0.01172875426709652,-0.007623107172548771,0.0,0.0016908220713958144
0.00801549106836319,0.012934218160808086,-0.01095640566200018,-0.007787814363837242,0.0,0.0015529345255345106
0.007538634818047285,0.013483241200447083,-0.011072425171732903,-0.007770389784127474,0.0,0.0014496003277599812
0.007732480298727751,0.013048402965068817,-0.011365753598511219,-0.007917914539575577,0.0,0.0013344408944249153
0.007651613559573889,0.013700449839234352,-0.010355272330343723,-0.007733159698545933,0.0,0.0012695729965344071
0.008034312166273594,0.013389136642217636,-0.011262267827987671,-0.008197499439120293,0.0,0.001199336489662528
0.008315809071063995,0.013325932435691357,-0.011887825094163418,-0.007962938398122787,8.011648606043309e-05,0.0012090940726920962
0.008431150577962399,0.013197889551520348,-0.010453282855451107,-0.0074816495180130005,0.0004325550398789346,0.0011886910069733858
0.008008717559278011,0.013458804227411747,-0.0108293192461133,-0.007383055053651333,0.00047733000246807933,0.0013828867813572288
0.007791984360665083,0.013235729187726974,-0.010785271413624287,-0.008185955695807934,0.0004573256301227957,0.001401004265062511
0.008408606983721256,0.012973463162779808,-0.011036360636353493,-0.0078094713389873505,0.0004836452135350555,0.0014317817986011505
0.007648371160030365,0.013356417417526245,-0.011735604144632816,-0.007764122448861599,0.0004569177981466055,0.0014698614832013845
0.008566787466406822,0.013566967099905014,-0.011532780714333057,-0.008856458589434624,0.0004562830727081746,0.0012222363147884607
0.007931713946163654,0.013509044423699379,-0.011345532722771168,-0.0071776751428842545,0.0005368681158870459,0.0011356192408129573
0.007536310236901045,0.013975542038679123,-0.010256987065076828,-0.007040302734822035,0.0005124097806401551,0.0011324689257889986
0.008167773485183716,0.013075792230665684,-0.012058336287736893,-0.007720097433775663,0.0005478660459630191,0.0011170877842232585
0.008167773485183716,0.013075792230665684,-0.012058336287736893,-0.007720097433775663,0.0005478660459630191,0.0011170877842232585
0.008336792699992657,0.013711731880903244,-0.011342355981469154,-0.008380775339901447,0.0005639502196572721,0.0012478060089051723
0.007577531039714813,0.013399751856923103,-0.011361110024154186,-0.008121340535581112,0.0005353136803023517,0.0012491634115576744
0.007439006119966507,0.013450972735881805,-0.010926135815680027,-0.0080313915386796,0.0005601793527603149,0.0012142162304371595
0.008695924654603004,0.013263966888189316,-0.01046836283057928,-0.007926838472485542,0.0006452275556512177,0.0012173946015536785
0.008041370660066605,0.013767130672931671,-0.011305587366223335,-0.008339724503457546,0.0006898306892253458,0.0011535326484590769
0.00772356241941452,0.013202489353716373,-0.010675783269107342,-0.008340504951775074,0.0007155427592806518,0.0010865663643926382
0.007788940332829952,0.012948183342814445,-0.010694725438952446,-0.008701774291694164,0.000711420550942421,0.0010225442238152027
0.008010264486074448,0.01330924965441227,-0.011385316029191017,-0.008758793585002422,0.0006864258321002126,0.0009503053152002394
0.008128516376018524,0.013015013188123703,-0.010855738073587418,-0.009038678370416164,0.0008044685237109661,0.0008027747389860451
0.008293148130178452,0.013284331187605858,-0.010976423509418964,-0.008484949357807636,0.0009056007256731391,0.0008080215193331242
0.008502236567437649,0.013144943863153458,-0.010726138018071651,-0.008028891868889332,0.0008523126598447561,0.0007959140930324793
0.008272611536085606,0.013707727193832397,-0.010094973258674145,-0.008664911612868309,0.0008471335167996585,0.0007302344893105328
0.008171274326741695,0.013149403035640717,-0.01088302955031395,-0.008488485589623451,0.0008940413244999945,0.0007427374366670847
0.00834895670413971,0.013611232861876488,-0.010918048210442066,-0.00833036471158266,0.0009215848403982818,0.0006834083469584584
0.008252299390733242,0.01362966001033783,-0.010792532935738564,-0.00870119035243988,0.0009200891363434494,0.0006578746251761913
0.008207709528505802,0.013530639000236988,-0.011073497124016285,-0.008888769894838333,0.0009023355087265372,0.0006772548076696694
0.008333783596754074,0.013100194744765759,-0.010595793835818768,-0.008416223339736462,0.0009192851139232516,0.0006885863258503377
0.008623526431620121,0.013582718558609486,-0.010219394229352474,-0.008372736163437366,0.0009853345109149814,0.0006421113503165543
0.008373747579753399,0.013154702261090279,-0.010704569518566132,-0.009555486962199211,0.0009577070013619959,0.000661519356071949
0.008546210825443268,0.013498209416866302,-0.010803593322634697,-0.008428827859461308,0.001134246587753296,0.0006034790421836078
0.008600919507443905,0.012912259437143803,-0.011059774085879326,-0.009088109247386456,0.00118266639765352,0.0005672014667652547
0.008314503356814384,0.013567974790930748,-0.010020801797509193,-0.009327935986220837,0.001386860036291182,0.0005928908358328044
0.008118865080177784,0.013433640822768211,-0.010250313207507133,-0.008673695847392082,0.0014553433284163475,0.0005449388991110027
0.008546032942831516,0.013638567179441452,-0.010437317192554474,-0.008653887547552586,0.001501911086961627,0.0005668013473041356
0.008546032942831516,0.013638567179441452,-0.010437317192554474,-0.008653887547552586,0.001501911086961627,0.0005668013473041356
0.008656446821987629,0.013036414049565792,-0.009732730686664581,-0.009317555464804173,0.0013865154469385743,0.0005288968095555902
0.008687883615493774,0.013414092361927032,-0.010567924939095974,-0.00940290093421936,0.0013054183218628168,0.0005397271597757936
0.00896025262773037,0.013328133150935173,-0.010281071998178959,-0.009917412884533405,0.001310107414610684,0.0005169069627299905
0.008662072941660881,0.01325801108032465,-0.010038265958428383,-0.009392149746418,0.0012440134305506945,0.0004832406993955374
0.008983691222965717,0.013225551694631577,-0.010534261353313923,-0.009390688501298428,0.0011912110494449735,0.00045289425179362297
0.008662503212690353,0.013324601575732231,-0.009654137305915356,-0.00945746898651123,0.0011607272317633033,0.0004260860150679946
0.008957555517554283,0.013075149618089199,-0.009824233129620552,-0.009594659321010113,0.0012609048280864954,0.0004022690118290484
0.008933551609516144,0.013256445527076721,-0.010505163110792637,-0.009636367671191692,0.0012892588274553418,0.00038097554352134466
0.008489767089486122,0.013221312314271927,-0.010303175076842308,-0.009434850886464119,0.0013595391064882278,0.000361825485015288
0.009608649648725986,0.01291648019105196,-0.010268503800034523,-0.00975815486162901,0.0013654050417244434,0.0003445061156526208
0.009023904800415039,0.013782867230474949,-0.010391163639724255,-0.009137836284935474,0.0014717492740601301,0.0003287713334430009
0.008985033258795738,0.012845365330576897,-0.00963181909173727,-0.009362258948385715,0.0013967436971142888,0.0003144111833535135
0.008664771914482117,0.013483228161931038,-0.010269509628415108,-0.009665214456617832,0.0014404307585209608,0.00030125337070785463
0.008943508379161358,0.013624267652630806,-0.01030067726969719,-0.009807724505662918,0.0013400973984971642,0.0002891529875341803
0.009254753589630127,0.01353601273149252,-0.010140111669898033,-0.010123801417648792,0.0013003924395889044,0.00027798686642199755
0.008773116394877434,0.013028163462877274,-0.010290655307471752,-0.009776610881090164,0.0011882521212100983,0.0002676516305655241
0.009582390077412128,0.01375421229749918,-0.010083734057843685,-0.009380482137203217,0.00110588688403368,0.00025805720360949636
0.009005891159176826,0.013596989214420319,-0.010437688790261745,-0.008910637348890305,0.0010682456195354462,0.0002491272462066263
0.008878306485712528,0.013577805832028389,-0.010148627683520317,-0.010036461055278778,0.0009448574273847044,0.0002407944994047284
0.009023834951221943,0.013469352386891842,-0.00971230212599039,-0.010162645019590855,0.0009322384721599519,0.000233001250308007
0.00872945599257946,0.013817058876156807,-0.010423692874610424,-0.010143042542040348,0.0008458932861685753,0.0002188362559536472
0.008962285704910755,0.013154740445315838,-0.010273048654198647,-0.010402859188616276,0.0008446701103821397,0.0002123808953911066
0.009322392754256725,0.013570115901529789,-0.009536380879580975,-0.010053416714072227,0.0008507614256814122,0.00020629496430046856
0.009391899220645428,0.013167736120522022,-0.010314292274415493,-0.010640633292496204,0.000938338809646666,0.0002005488204304129
0.009391899220645428,0.013167736120522022,-0.010314292274415493,-0.010640633292496204,0.000938338809646666,0.0002005488204304129
0.008862599730491638,0.013593779876828194,-0.00989384762942791,-0.010265210643410683,0.0009479630389250815,0.00019511357822921127
0.009099911898374557,0.013109790161252022,-0.009688204154372215,-0.010470173321664333,0.0008402832900173962,0.0001899655326269567
0.009188500232994556,0.01350187323987484,-0.010391603223979473,-0.010575026273727417,0.0008414703188464046,0.00018508193898014724
0.009021410718560219,0.01346747949719429,-0.010000974871218204,-0.010127093642950058,0.0008406994747929275,0.00016936099564190954
0.00932967010885477,0.013595301657915115,-0.00951726920902729,-0.010051491670310497,0.0007972349994815886,0.0001547766587464139
0.009117644280195236,0.01359180174767971,-0.009861817583441734,-0.010178249329328537,0.0007792947581037879,0.00015040047583170235
0.008960017003118992,0.013604010455310345,-0.009994209744036198,-0.010276462882757187,0.0007937053451314569,0.00014685012865811586
0.009837551973760128,0.013227052055299282,-0.009658248163759708,-0.010308253578841686,0.0008064729627221823,0.00014350214041769505
0.009596196934580803,0.013442762196063995,-0.010294485837221146,-0.010633090510964394,0.0007748879143036902,9.455924737267196e-05
0.009121752344071865,0.013558512553572655,-0.009974348358809948,-0.010121314786374569,0.0008704146021045744,4.900588101008907e-05
0.009316693060100079,0.013282123021781445,-0.009545013308525085,-0.01068477425724268,0.0008798937778919935,4.496823748922907e-05
0.009335905313491821,0.01350671611726284,-0.009790985845029354,-0.010416870936751366,0.000874158984515816,2.3314461941481568e-05
0.009195264428853989,0.013019529171288013,-0.009628341533243656,-0.010793076828122139,0.0007809610688127577,2.141864570148755e-05
0.009176121093332767,0.013787922449409962,-0.009698638692498207,-0.010633031837642193,0.0007680782000534236,2.7441788006399292e-06
0.00992657896131277,0.013471240177750587,-0.010334203019738197,-0.010562983341515064,0.0007141017122194171,1.791752595181606e-07
0.009190701879560947,0.014010920189321041,-0.009714990854263306,-0.010137920267879963,0.0006566321826539934,1.1698864099685125e-08
0.009506134316325188,0.01336417905986309,-0.00942534301429987,-0.01057499274611473,0.0005735200247727334,7.638523147335263e-10
0.009820020757615566,0.013560947962105274,-0.009690755978226662,-0.0099240867421031,0.0005959635600447655,4.98740944376852e-11
0.009875142015516758,0.01345018669962883,-0.009318605065345764,-0.011084610596299171,0.0005745730013586581,2.1262108556002052e-13
0.009757922030985355,0.013091644272208214,-0.010012340731918812,-0.010987901128828526,0.0005678767338395119,-0.0006032469100318849
0.00948394276201725,0.013360547833144665,-0.009914129041135311,-0.011207293719053268,0.0005575973191298544,-0.0009125580545514822
0.010060017928481102,0.013358897529542446,-0.009575435891747475,-0.011391863226890564,0.0006267726421356201,-0.0009372782660648227
0.010017678141593933,0.013378899544477463,-0.01018220093101263,-0.011252019554376602,0.0006486630300059915,-0.0009340466931462288
0.009705970995128155,0.013759417459368706,-0.009628823027014732,-0.011239977553486824,0.0006510398234240711,-0.0008413151372224092
0.009705970995128155,0.013759417459368706,-0.009628823027014732,-0.011239977553486824,0.0006510398234240711,-0.0008413151372224092
0.010032008402049541,0.01333454716950655,-0.010537245310842991,-0.010694746859371662,0.0006308652809821069,-0.0008746274397708476
0.010235803201794624,0.013461527414619923,-0.010217390023171902,-0.011457112617790699,0.0006524911732412875,-0.0009873895905911922
0.00920371524989605,0.01313620712608099,-0.009480117820203304,-0.011472945101559162,0.0008500194526277483,-0.000999009353108704
0.009595036506652832,0.013250174932181835,-0.010332770645618439,-0.010878810659050941,0.0008815871551632881,-0.0012675656471401453
0.010769006796181202,0.012686045840382576,-0.010153205133974552,-0.012731300666928291,0.0008857341599650681,-0.0013530548894777894
0.009978501126170158,0.013493618927896023,-0.00976637750864029,-0.011486759409308434,0.0008371876319870353,-0.0014946224400773644
0.00981878861784935,0.01346178911626339,-0.009872905910015106,-0.011240165680646896,0.0009246245608665049,-0.0016037177992984653
0.010150737129151821,0.013705744408071041,-0.010172187350690365,-0.01201919000595808,0.0010136686032637954,-0.0014242809265851974
0.00962408073246479,0.013265521265566349,-0.010206811130046844,-0.011859577149152756,0.0009388909093104303,-0.001279155840165913
0.009780199266970158,0.013532251119613647,-0.009899348020553589,-0.012267960235476494,0.000929833622649312,-0.0011797604383900762
0.010087144561111927,0.01343600545078516,-0.010222889482975006,-0.011766432784497738,0.0009122237097471952,-0.0012394001241773367
0.00960421934723854,0.012988818809390068,-0.009824092499911785,-0.011275265365839005,0.000922486768104136,-0.0015934968832880259
0.009770825505256653,0.012924657203257084,-0.010200852528214455,-0.0122926514595747,0.0009199082851409912,-0.0017316739540547132
0.009037535637617111,0.012796672061085701,-0.010080813430249691,-0.012007579207420349,0.0009021190344356,-0.002257470041513443
0.009749941527843475,0.012923365458846092,-0.009993155486881733,-0.012153123505413532,0.0008318694308400154,-0.002060264116153121
0.010280054062604904,0.01246207021176815,-0.009814603254199028,-0.012376110069453716,0.0008286646334454417,-0.0018585359212011099
0.010049437172710896,0.012898820452392101,-0.010148033499717712,-0.01264614425599575,0.0008386499830521643,-0.001756539335474372
0.010235786437988281,0.01276741549372673,-0.009830080904066563,-0.012694098986685276,0.0008467985317111015,-0.0016952196601778269
0.01010590698570013,0.013199197128415108,-0.010507353581488132,-0.012848331592977047,0.000853084318805486,-0.0018376028165221214
0.009887676686048508,0.013028649613261223,-0.009780342690646648,-0.012856305576860905,0.0008937509264796972,-0.0028668949380517006
0.010067330673336983,0.012804022058844566,-0.009142120368778706,-0.01249475497752428,0.0009074399131350219,-0.003479280276224017
0.010394793003797531,0.012656616978347301,-0.010096115991473198,-0.012703003361821175,0.0009220437495969236,-0.0025631070602685213
0.009984049014747143,0.013260395266115665,-0.009345853701233864,-0.012912622652947903,0.001099741435609758,-0.0024281865917146206
0.010767260566353798,0.012817171402275562,-0.00929019320756197,-0.012653475627303123,0.001108903088606894,-0.0025086163077503443
0.010744753293693066,0.013110727071762085,-0.009569283574819565,-0.012629036791622639,0.0010987769346684217,-0.0028958169277757406
0.011630000546574593,0.012809649109840393,-0.009923072531819344,-0.012759548611938953,0.0012820380507037044,-0.0033319180365651846
0.012256898917257786,0.0132859842851758,-0.00969141535460949,-0.01234661228954792,0.0012446235632523894,-0.003612225642427802
0.01124999113380909,0.012750167399644852,-0.009276362136006355,-0.013019795529544353,0.0012227229308336973,-0.003404711838811636
0.01124999113380909,0.012750167399644852,-0.009276362136006355,-0.013019795529544353,0.0012227229308336973,-0.003404711838811636
0.011792303062975407,0.012648268602788448,-0.009359131567180157,-0.01333891786634922,0.0012387302704155445,-0.003218673635274172
0.011792303062975407,0.012648268602788448,-0.009359131567180157,-0.01333891786634922,0.0012387302704155445,-0.003218673635274172
0.011665457859635353,0.013231745921075344,-0.01073156762868166,-0.013155919499695301,0.0011838090140372515,-0.0034636224154382944
0.012319128029048443,0.012966419570147991,-0.009147647768259048,-0.013623313046991825,0.0010918379994109273,-0.0032934455666691065
0.011801478452980518,0.012770168483257294,-0.008467128500342369,-0.01289357990026474,0.0010591578902676702,-0.003549157874658704
0.011878963559865952,0.013647203333675861,-0.009547661058604717,-0.013471920043230057,0.0010326576884835958,-0.0037073828279972076
0.011551142670214176,0.012770815752446651,-0.009848440997302532,-0.013435925357043743,0.0009966513607650995,-0.003992356825619936
0.012023236602544785,0.013250206597149372,-0.008562778122723103,-0.013887993060052395,0.0009581659105606377,-0.003645094344392419
0.01220800168812275,0.01290581002831459,-0.009232094511389732,-0.013623381964862347,0.0009842206491157413,-0.003964540548622608
0.011902950704097748,0.013123796321451664,-0.008914348669350147,-0.01429898664355278,0.0010504941456019878,-0.004148460458964109
0.012699991464614868,0.012988484464585781,-0.009153327904641628,-0.014183871448040009,0.0012613915605470538,-0.003912570886313915
0.012343451380729675,0.012799260206520557,-0.009164013899862766,-0.014173210598528385,0.0015688023995608091,-0.003583640791475773
0.01224968209862709,0.013014622032642365,-0.008980587124824524,-0.013955255970358849,0.0015092713292688131,-0.0034811520017683506
0.012286652810871601,0.012965348549187183,-0.008777924813330173,-0.014210516586899757,0.0014603974996134639,-0.0036615587305277586
0.012743264436721802,0.013461138121783733,-0.008923079818487167,-0.014291149564087391,0.0014477953081950545,-0.0044690025970339775
0.01250055618584156,0.012988575734198093,-0.00976220890879631,-0.014703210443258286,0.0014432366006076336,-0.005614364519715309
0.011888308450579643,0.013014500960707664,-0.008864430710673332,-0.014305544085800648,0.0013298160629346967,-0.005651140585541725
0.012393820099532604,0.012682931497693062,-0.008519032970070839,-0.014381380751729012,0.001260566059499979,-0.005246670916676521
0.01198377925902605,0.0133202550932765,-0.009111740626394749,-0.013924354687333107,0.0012046677293255925,-0.0048020449467003345
0.0121100302785635,0.013425154611468315,-0.009032915346324444,-0.014199867844581604,0.0012449275236576796,-0.004764075390994549
0.012401854619383812,0.012958084233105183,-0.00908985547721386,-0.013955014757812023,0.0011870682938024402,-0.005146584939211607
0.012272600084543228,0.013091428205370903,-0.009442650713026524,-0.014308216981589794,0.0011598265264183283,-0.00536261685192585
0.012004507705569267,0.013196952641010284,-0.008608311414718628,-0.014595556072890759,0.0011588053312152624,-0.005678792484104633
0.01232995092868805,0.012778396718204021,-0.009210271760821342,-0.014620070345699787,0.0012109201634302735,-0.005243511404842138
0.012140961363911629,0.013426476158201694,-0.008773162961006165,-0.014349139295518398,0.0012303708354011178,-0.005434925202280283
0.0125719103962183,0.012985904701054096,-0.008640643209218979,-0.01496114395558834,0.0014469423331320286,-0.005530425813049078
0.0125609515234828,0.0134081756696105,-0.008623399771749973,-0.015207384712994099,0.001480352715589106,-0.005538465920835733
0.012448389083147049,0.013141035102307796,-0.009168485179543495,-0.015218397602438927,0.0014237435534596443,-0.005322595592588186
0.012793788686394691,0.013481823727488518,-0.009782012552022934,-0.015761615708470345,0.001381280948407948,-0.005375032313168049
0.012793788686394691,0.013481823727488518,-0.009782012552022934,-0.015761615708470345,0.001381280948407948,-0.005375032313168049
0.012205580249428749,0.01303719449788332,-0.008586644195020199,-0.014942643232643604,0.0012995991855859756,-0.005598606541752815
0.012615401297807693,0.013333573937416077,-0.009446489624679089,-0.015408655628561974,0.0012311215978115797,-0.005627049133181572
0.012169025838375092,0.013066905550658703,-0.008850760757923126,-0.015176156535744667,0.0010747259948402643,-0.00551587576046586
0.012405692599713802,0.013000103645026684,-0.008679410442709923,-0.01595122180879116,0.001038187532685697,-0.005743079818785191
0.01237656082957983,0.01329005602747202,-0.009341079741716385,-0.015211828052997589,0.0010845107026398182,-0.0058952937833964825
0.012180625461041927,0.013178922235965729,-0.009235147386789322,-0.015884172171354294,0.0010191972833126783,-0.006085177417844534
0.01237410120666027,0.013497102074325085,-0.008578539825975895,-0.015527724288403988,0.0012254284229129553,-0.006077808327972889
0.012470919638872147,0.01275927945971489,-0.008627616800367832,-0.016159463673830032,0.0011944907018914819,-0.0062048169784247875
0.013006704859435558,0.013424593955278397,-0.008933063596487045,-0.01651143468916416,0.0013618842931464314,-0.005987475626170635
0.01224292628467083,0.012906546704471111,-0.008888552896678448,-0.015138255432248116,0.0014445316046476364,-0.005903248209506273
0.012423255480825901,0.013403252698481083,-0.008271491155028343,-0.015326266176998615,0.00142584927380085,-0.005987105891108513
0.012341831810772419,0.013080582953989506,-0.009318683296442032,-0.016044359654188156,0.0015400692354887724,-0.005789401475340128
0.013058261014521122,0.01340500172227621,-0.008612310513854027,-0.016849694773554802,0.0015340311219915748,-0.006325490307062864
0.01280796155333519,0.013193867169320583,-0.008242354728281498,-0.01652420125901699,0.001502681290730834,-0.006179910618811846
0.012730438262224197,0.013030044734477997,-0.009190389886498451,-0.01696770079433918,0.0014963733265176415,-0.006089663133025169
0.012524692341685295,0.013181762769818306,-0.008731810376048088,-0.016296204179525375,0.0014420972438529134,-0.006485615856945515
0.012412927113473415,0.013517634943127632,-0.008125189691781998,-0.016644008457660675,0.0012904531322419643,-0.0067329006269574165
0.012720451690256596,0.013502232730388641,-0.0080897631123662,-0.016139455139636993,0.0013314089737832546,-0.006604546215385199
0.012956463731825352,0.013540739193558693,-0.008338283747434616,-0.017405016347765923,0.0014681508764624596,-0.006538235116750002
0.012955458834767342,0.012700816616415977,-0.008115893229842186,-0.017789632081985474,0.0015879409620538354,-0.0068506523966789246
0.013038493692874908,0.013347283005714417,-0.009108959697186947,-0.017963891848921776,0.001582746161147952,-0.007221447303891182
0.013299192301928997,0.012910787016153336,-0.008412864990532398,-0.01784132793545723,0.0017349879490211606,-0.007042023818939924
0.013808749616146088,0.013305284082889557,-0.008297461085021496,-0.01755264401435852,0.0016040211776271462,-0.007343336474150419
0.013665206730365753,0.013091824017465115,-0.008012158796191216,-0.017995156347751617,0.0015788087621331215,-0.00770455552265048
0.013138821348547935,0.013185734860599041,-0.008808470331132412,-0.017666369676589966,0.0014581582508981228,-0.007189626339823008
0.0139161953702569,0.012995018623769283,-0.008451941423118114,-0.01796167716383934,0.0013933148002251983,-0.007058335933834314
0.0139161953702569,0.012995018623769283,-0.008451941423118114,-0.01796167716383934,0.0013933148002251983,-0.007058335933834314
0.013386343605816364,0.013048551976680756,-0.008207183331251144,-0.01805415190756321,0.0013855175347998738,-0.007053408306092024
0.013803019188344479,0.013576031662523746,-0.009150519967079163,-0.01788998581469059,0.0013926069950684905,-0.007208408787846565
0.01366722583770752,0.012797060422599316,-0.008242648094892502,-0.018169842660427094,0.0013471859274432063,-0.007529780268669128
0.01398109644651413,0.012966073118150234,-0.008054345846176147,-0.017876096069812775,0.0014298236928880215,-0.007552559953182936
0.013785185292363167,0.012428627349436283,-0.008042878471314907,-0.017917508259415627,0.0013942322693765163,-0.007450955919921398
0.013824026100337505,0.013152135536074638,-0.008412298746407032,-0.01842198520898819,0.0015304696280509233,-0.008032088167965412
0.013851595111191273,0.012984727509319782,-0.008240086026489735,-0.01800137385725975,0.0016015685396268964,-0.008261500857770443
0.014352069236338139,0.013304448686540127,-0.008133990690112114,-0.01822284795343876,0.0015642074868083,-0.008127471432089806
0.014402392320334911,0.013341639190912247,-0.008516932837665081,-0.018468134105205536,0.0016990442527458072,-0.008400353603065014
0.01475813239812851,0.013093216344714165,-0.00893357489258051,-0.01850685104727745,0.0017458926886320114,-0.008611714467406273
0.014149741269648075,0.012461869977414608,-0.00818425789475441,-0.01885402388870716,0.0019741631112992764,-0.008823622949421406
0.015059128403663635,0.012402447871863842,-0.007934772409498692,-0.01878250390291214,0.001843103440478444,-0.009355014190077782
0.014819817617535591,0.013363839127123356,-0.008764881640672684,-0.018791543319821358,0.0018877048278227448,-0.009243560023605824
0.01445508562028408,0.01305436808615923,-0.008639821782708168,-0.019512120634317398,0.0018212468130514026,-0.009319194592535496
0.014023065567016602,0.01316419430077076,-0.0077966745011508465,-0.01939471811056137,0.0018469475908204913,-0.009118041023612022
0.015016816556453705,0.012569135054945946,-0.008120698854327202,-0.019209163263440132,0.0016959249041974545,-0.009914763271808624
0.014672677963972092,0.013289333321154118,-0.008590099401772022,-0.019613496959209442,0.0017161441501230001,-0.00942386593669653
0.01516836229711771,0.012928525917232037,-0.008721006102859974,-0.019203506410121918,0.0017052429029718041,-0.009500401094555855
0.014704742468893528,0.013422702439129353,-0.007987662218511105,-0.019135190173983574,0.0016833057161420584,-0.009457806125283241
0.015207190066576004,0.013097369112074375,-0.008399377577006817,-0.019301017746329308,0.0015869797207415104,-0.00984395481646061
0.01500668190419674,0.012827824801206589,-0.008710090070962906,-0.01982651650905609,0.001474705059081316,-0.010220697149634361
0.0154403792694211,0.012608043849468231,-0.008018418215215206,-0.019549695774912834,0.0014849868603050709,-0.010040904395282269
0.016165535897016525,0.013137198984622955,-0.00864766351878643,-0.02024606615304947,0.0016778040444478393,-0.010339201427996159
0.015789158642292023,0.012648903764784336,-0.00856368150562048,-0.020280644297599792,0.0018405037699267268,-0.009865159168839455
0.015730787068605423,0.013120897114276886,-0.0079153161495924,-0.020392578095197678,0.002084858948364854,-0.01022594515234232
0.016213949769735336,0.012879476882517338,-0.008410573936998844,-0.02054152451455593,0.002082409104332328,-0.009854433126747608
0.015528181567788124,0.012995313853025436,-0.00854351744055748,-0.02026773989200592,0.0019457200542092323,-0.009340865537524223
0.015528181567788124,0.012995313853025436,-0.00854351744055748,-0.02026773989200592,0.0019457200542092323,-0.009340865537524223
0.01572960615158081,0.013038878329098225,-0.007913646288216114,-0.02030460350215435,0.0019083427032455802,-0.008827191777527332
0.015826966613531113,0.013104761950671673,-0.008193010464310646,-0.02048986591398716,0.0020647228229790926,-0.010394302196800709
0.016046706587076187,0.01329655572772026,-0.008906321600079536,-0.020666377618908882,0.0018708694260567427,-0.010789087042212486
0.01600145921111107,0.012810451909899712,-0.00863188598304987,-0.02019086293876171,0.0017818454653024673,-0.010671338997781277
0.01642889343202114,0.013131950050592422,-0.008101829327642918,-0.01992158591747284,0.00163271464407444,-0.009683572687208652
0.01650136150419712,0.01277630403637886,-0.008488512597978115,-0.02240748517215252,0.0015065290499478579,-0.009680800139904022
0.016412891447544098,0.0133616141974926,-0.008764663711190224,-0.021444112062454224,0.0014387646224349737,-0.009663508273661137
0.016338244080543518,0.013162011280655861,-0.00837274082005024,-0.02005329728126526,0.0014603686286136508,-0.00973785761743784
0.016145009547472,0.01360293198376894,-0.00838744081556797,-0.02035912498831749,0.0018168909009546041,-0.010441151447594166
0.0165398046374321,0.013073409907519817,-0.00891964416950941,-0.02091396227478981,0.001862498465925455,-0.010218306444585323
0.015726014971733093,0.013233283534646034,-0.008807535283267498,-0.02014341950416565,0.002018702682107687,-0.009654643945395947
0.016387702897191048,0.013264399021863937,-0.008104982785880566,-0.02019430883228779,0.0019733342342078686,-0.009889028035104275
0.016511056572198868,0.013273941352963448,-0.008800634182989597,-0.021161042153835297,0.002045748755335808,-0.010887299664318562
0.016647033393383026,0.013089192099869251,-0.008888378739356995,-0.0218434426933527,0.0019079414196312428,-0.010435361415147781
0.01665389910340309,0.013138783164322376,-0.008212121203541756,-0.021008288487792015,0.0020394688472151756,-0.010273382067680359
0.015009301714599133,0.012917764484882355,-0.00853340607136488,-0.020989082753658295,0.002059752820059657,-0.010214916430413723
0.017238732427358627,0.012381227687001228,-0.008962884545326233,-0.02228143811225891,0.002083127386868,-0.010016613639891148
0.016960185021162033,0.012616463005542755,-0.008112497627735138,-0.02143544889986515,0.0018771529430523515,-0.01074755098670721
0.01696382649242878,0.01314199436455965,-0.008897996507585049,-0.02070794627070427,0.0019079992780461907,-0.0107651986181736
0.01700664684176445,0.012851100414991379,-0.009003537707030773,-0.020889414474368095,0.00186744739767164,-0.010525243356823921
0.017464281991124153,0.013135690242052078,-0.009281309321522713,-0.02097291685640812,0.0017917935037985444,-0.010443273931741714
0.017108554020524025,0.012636984698474407,-0.00861363485455513,-0.02115458808839321,0.0018726799171417952,-0.010754422284662724
0.01735420897603035,0.012402253225445747,-0.0087092574685812,-0.02165645733475685,0.0019279576372355223,-0.010361019521951675
0.017420897260308266,0.012773770838975906,-0.008844763040542603,-0.022051220759749413,0.002153184497728944,-0.010501030832529068
0.0170107651501894,0.012749556452035904,-0.009083578363060951,-0.021528970450162888,0.002258023712784052,-0.010387073270976543
0.017506878823041916,0.012819056399166584,-0.00915298331528902,-0.021289369091391563,0.0021849218755960464,-0.0105272326618433
0.017549648880958557,0.012703710235655308,-0.008853546343743801,-0.021522829309105873,0.002187655307352543,-0.010689563117921352
0.017549648880958557,0.012703710235655308,-0.008853546343743801,-0.021522829309105873,0.002187655307352543,-0.010689563117921352
0.017976608127355576,0.013234402053058147,-0.009527833200991154,-0.02139977738261223,0.0020959987305104733,-0.01112585049122572
0.017736341804265976,0.012311192229390144,-0.009384652599692345,-0.02103862166404724,0.0019805310294032097,-0.010472835972905159
0.017271339893341064,0.012680976651608944,-0.009482039138674736,-0.021544497460126877,0.001984336180612445,-0.009989834390580654
0.01778200827538967,0.012707101181149483,-0.008697382174432278,-0.02181781828403473,0.0020839914213865995,-0.01050424575805664
0.017797034233808517,0.012454738840460777,-0.009777604602277279,-0.022099532186985016,0.0021135604474693537,-0.010594808496534824
0.017959482967853546,0.012890215963125229,-0.008848165161907673,-0.022231895476579666,0.002132992260158062,-0.010699477978050709
0.017839275300502777,0.01241263933479786,-0.00863011833280325,-0.022031418979167938,0.001982701476663351,-0.011054622009396553
0.017530370503664017,0.013038898818194866,-0.00928016472607851,-0.022218652069568634,0.0019646508153527975,-0.011122483760118484
0.01831159181892872,0.012642690911889076,-0.009390585124492645,-0.022924792021512985,0.001765207969583571,-0.011179083958268166
0.01789306104183197,0.012750457040965557,-0.00867240410298109,-0.022687429562211037,0.001831844332627952,-0.011188004165887833
0.01777080073952675,0.012607100419700146,-0.009118696674704552,-0.022214166820049286,0.0017531209159642458,-0.010769084095954895
0.01825488917529583,0.012577821500599384,-0.009495395235717297,-0.022320449352264404,0.0020753033459186554,-0.010742387734353542
0.018163055181503296,0.012755924835801125,-0.009368016384541988,-0.022891219705343246,0.0023764849174767733,-0.01102821808308363
0.018191274255514145,0.01236975658684969,-0.00869028177112341,-0.023250164464116096,0.00236330134794116,-0.011010576039552689
0.01816421002149582,0.013040013611316681,-0.00936208851635456,-0.02328008972108364,0.002471756422892213,-0.010978039354085922
0.01793237403035164,0.012359876185655594,-0.009061245247721672,-0.02294985204935074,0.0022572544403374195,-0.0109562948346138
0.018546616658568382,0.01301418524235487,-0.008488558232784271,-0.022853534668684006,0.002071699360385537,-0.00990841444581747
0.018555935472249985,0.012580911628901958,-0.009177835658192635,-0.023370124399662018,0.0019898703321814537,-0.00996972993016243
0.018418850377202034,0.012812066823244095,-0.008601564913988113,-0.023816026747226715,0.002140989061444998,-0.010195409879088402
0.018731631338596344,0.012319228611886501,-0.009419282898306847,-0.023607464507222176,0.0028345338068902493,-0.010643437504768372
0.018453121185302734,0.012767523527145386,-0.009248979389667511,-0.023850511759519577,0.0027482209261506796,-0.010759064927697182
0.01902771182358265,0.012312982231378555,-0.008677167817950249,-0.024195987731218338,0.0023610293865203857,-0.01032424345612526
0.01956239342689514,0.012498418800532818,-0.008758727461099625,-0.02539353258907795,0.0021875060629099607,-0.010776649229228497
0.019372574985027313,0.012391808442771435,-0.009137418121099472,-0.02440999262034893,0.001984934089705348,-0.010742618702352047
0.019472870975732803,0.012881350703537464,-0.009534930810332298,-0.024042360484600067,0.001985733862966299,-0.010593428276479244
0.019011100754141808,0.012750014662742615,-0.008377325721085072,-0.023356864228844643,0.0021569360978901386,-0.01049882359802723
0.018154621124267578,0.012986577115952969,-0.008934024721384048,-0.0237819142639637,0.002368595916777849,-0.01137456949800253
0.01997818984091282,0.012995675206184387,-0.008967970497906208,-0.02460506185889244,0.0023293248377740383,-0.01127329096198082
0.01997818984091282,0.012995675206184387,-0.008967970497906208,-0.02460506185889244,0.0023293248377740383,-0.01127329096198082
0.019417108967900276,0.012185429222881794,-0.008392737247049809,-0.02447354979813099,0.002178214257583022,-0.01037683617323637
0.01920555904507637,0.012874701991677284,-0.008918466046452522,-0.02541409432888031,0.002193933818489313,-0.01058961171656847
0.019288789480924606,0.012496826238930225,-0.008628660812973976,-0.024833178147673607,0.0024389324244111776,-0.010916379280388355
0.01921986974775791,0.012812372297048569,-0.008653155528008938,-0.02536003850400448,0.0026589201297611,-0.01037415862083435
0.019441552460193634,0.01251740287989378,-0.00923627894371748,-0.025147588923573494,0.0025909258984029293,-0.010614385828375816
0.020273378118872643,0.012584881857037544,-0.008991213515400887,-0.02433040365576744,0.0026790122501552105,-0.011095003224909306
0.02021542377769947,0.012684384360909462,-0.007918109185993671,-0.024159327149391174,0.002540845889598131,-0.011147384531795979
0.019190438091754913,0.012688240967690945,-0.0073551032692193985,-0.025026341900229454,0.0023414245806634426,-0.011423387564718723
0.01958002895116806,0.012851841747760773,-0.008594014681875706,-0.025971075519919395,0.0021007410250604153,-0.011326100677251816
0.01914534717798233,0.012403558939695358,-0.008720370940864086,-0.026419267058372498,0.0019471762934699655,-0.011334879323840141
0.019195735454559326,0.012713436037302017,-0.007998631335794926,-0.026377016678452492,0.0017908510053530335,-0.011981938034296036
0.019922515377402306,0.012352913618087769,-0.007631871849298477,-0.025721922516822815,0.0017824337119236588,-0.011672976426780224
0.020100975409150124,0.012778463773429394,-0.00826211180537939,-0.02552921511232853,0.0019134266767650843,-0.011783658526837826
0.01955278590321541,0.0128333093598485,-0.008276624605059624,-0.025584638118743896,0.0019369336077943444,-0.011553039774298668
0.019949406385421753,0.012547188438475132,-0.008234896697103977,-0.02571914717555046,0.001976638101041317,-0.011678343638777733
0.02029055915772915,0.013206486590206623,-0.00789300911128521,-0.025906048715114594,0.00205186172388494,-0.01180581096559763
0.019728587940335274,0.012451897375285625,-0.008575119078159332,-0.025989966467022896,0.001989236567169428,-0.011373689398169518
0.02007332816720009,0.013121935538947582,-0.008489375934004784,-0.026035580784082413,0.002022126689553261,-0.011434148997068405
0.020175155252218246,0.012844568118453026,-0.007828200235962868,-0.02570630982518196,0.002218712819740176,-0.011506479233503342
0.020025799050927162,0.0134443873539567,-0.00838752556592226,-0.025962894782423973,0.0022015657741576433,-0.011446799151599407
0.019824674353003502,0.012934330850839615,-0.008178520947694778,-0.026293566450476646,0.0022072053980082273,-0.011979818344116211
0.02013883739709854,0.01286305207759142,-0.008127088658511639,-0.026776110753417015,0.002242795657366514,-0.012074967846274376
0.020373381674289703,0.012720190919935703,-0.007620478514581919,-0.02652841992676258,0.0022604065015912056,-0.0121781500056386
0.020584050565958023,0.012717888690531254,-0.007898255251348019,-0.026845434680581093,0.0026347972452640533,-0.012112031690776348
0.020779645070433617,0.01238534040749073,-0.007374632637947798,-0.026705529540777206,0.0025625175330787897,-0.012724616564810276
0.020530181005597115,0.01302305981516838,-0.007224779110401869,-0.026833849027752876,0.002556565450504422,-0.012262499891221523
0.020352017134428024,0.012538714334368706,-0.008243901655077934,-0.027008244767785072,0.002323930850252509,-0.012595176696777344
0.020993733778595924,0.01326090469956398,-0.007772637996822596,-0.027339845895767212,0.0023674278054386377,-0.012236026115715504
0.020993733778595924,0.01326090469956398,-0.007772637996822596,-0.027339845895767212,0.0023674278054386377,-0.012236026115715504
0.020789651200175285,0.012420461513102055,-0.007650513667613268,-0.027493063360452652,0.0024114137049764395,-0.012207059189677238
0.020679956302046776,0.012839527800679207,-0.0078003061935305595,-0.02734624780714512,0.0022954049054533243,-0.012474735267460346
0.020652133971452713,0.012834382243454456,-0.008105520159006119,-0.02702615037560463,0.0024726069532334805,-0.012542163021862507
0.02108079567551613,0.012907075695693493,-0.008427513763308525,-0.027354681864380836,0.0025715497322380543,-0.012608997523784637
0.020901720970869064,0.012492441572248936,-0.00788833387196064,-0.027347950264811516,0.002459611976519227,-0.01251838356256485
0.019214173778891563,0.012216256000101566,-0.008236092515289783,-0.02769758738577366,0.0021918995771557093,-0.012435908429324627
0.021497057750821114,0.012926300056278706,-0.0078066494315862656,-0.028533633798360825,0.0021387161687016487,-0.012640874832868576
0.02116558887064457,0.012715882621705532,-0.007958690635859966,-0.02849787473678589,0.002259175991639495,-0.01309484988451004
0.021300362423062325,0.01301373541355133,-0.007924705743789673,-0.027272259816527367,0.0024698132183402777,-0.012667394243180752
0.02104824222624302,0.012712792493402958,-0.008337295614182949,-0.026313692331314087,0.002441226039081812,-0.01280434150248766
0.021412372589111328,0.012797443196177483,-0.008258073590695858,-0.02736625075340271,0.0024175127036869526,-0.012948415242135525
0.02083367109298706,0.012872545048594475,-0.007757039740681648,-0.028053749352693558,0.002153805922716856,-0.013187786564230919
0.02086862176656723,0.01274732407182455,-0.0076153171248734,-0.0276210755109787,0.0020550403278321028,-0.013379991985857487
0.0214212816208601,0.013080540113151073,-0.008069895207881927,-0.02792626991868019,0.002297789789736271,-0.013414418324828148
0.021963968873023987,0.0127039710059762,-0.007556213065981865,-0.028669575229287148,0.0023997845128178596,-0.013283178210258484
0.021868020296096802,0.013257983140647411,-0.007655607536435127,-0.028117062523961067,0.0028743655420839787,-0.013246611692011356
0.02125999704003334,0.01304693054407835,-0.0077088079415261745,-0.02719259075820446,0.0029773127753287554,-0.013848231174051762
0.021451657637953758,0.013576545752584934,-0.008102952502667904,-0.027134839445352554,0.002601963933557272,-0.013476938009262085
0.022452611476182938,0.012872793711721897,-0.007527980487793684,-0.0281506534665823,0.002370570320636034,-0.012947877869009972
0.021812312304973602,0.012876803055405617,-0.008065582253038883,-0.02884318120777607,0.002134883077815175,-0.013850556686520576
0.021560220047831535,0.012878439389169216,-0.008027705363929272,-0.02884962037205696,0.0022294565569609404,-0.01390318013727665
0.021108273416757584,0.01273384504020214,-0.007787260692566633,-0.029802003875374794,0.002526310971006751,-0.013697435148060322
0.021620042622089386,0.013253290206193924,-0.007374613545835018,-0.029677225276827812,0.0024789595045149326,-0.01383642666041851
0.021665282547473907,0.012773019261658192,-0.007083509117364883,-0.029695583507418633,0.0025998991914093494,-0.013561848551034927
0.021762726828455925,0.013261731714010239,-0.008050632663071156,-0.0294156726449728,0.002655341988429427,-0.013680183328688145
0.022090407088398933,0.013145294971764088,-0.007442121859639883,-0.030298633500933647,0.002545935334637761,-0.014237512834370136
0.022149652242660522,0.012991681694984436,-0.007172925863415003,-0.03009002096951008,0.0024675994645804167,-0.01458354014903307
0.02200034260749817,0.013896905817091465,-0.008394792675971985,-0.030114371329545975,0.0024259453639388084,-0.014796115458011627
0.02200034260749817,0.013896905817091465,-0.008394792675971985,-0.030114371329545975,0.0024259453639388084,-0.014796115458011627
0.02155061811208725,0.012500439770519733,-0.0078219473361969,-0.030179688706994057,0.0026728014927357435,-0.014272982254624367
0.021877456456422806,0.012970790266990662,-0.00737087894231081,-0.0302815530449152,0.0028103466611355543,-0.014191419817507267
0.021724261343479156,0.01320687122642994,-0.008041076362133026,-0.030448470264673233,0.002930540358647704,-0.014480190351605415
0.021861782297492027,0.0127178356051445,-0.00798448920249939,-0.030593616887927055,0.002849780023097992,-0.01460392214357853
0.021542493253946304,0.012953446246683598,-0.00780162587761879,-0.030332518741488457,0.002820904366672039,-0.013986553065478802
0.022005481645464897,0.012712355703115463,-0.007540967781096697,-0.030511151999235153,0.0025252383202314377,-0.014399108476936817
0.02239423431456089,0.013147901743650436,-0.00763638224452734,-0.030815213918685913,0.002411071676760912,-0.014544843696057796
0.022187067195773125,0.012981383129954338,-0.008022480644285679,-0.03117106296122074,0.002561234636232257,-0.014737782999873161
0.022213438525795937,0.013562945649027824,-0.0076643056236207485,-0.031850267201662064,0.0027918315026909113,-0.01496528647840023
0.022245680913329124,0.01271260716021061,-0.008146794512867928,-0.03090088441967964,0.0030964924953877926,-0.014924936927855015
0.02265080437064171,0.01273062452673912,-0.008738989010453224,-0.029970034956932068,0.00321013736538589,-0.014603791758418083
0.022467536851763725,0.013115424662828445,-0.008023104630410671,-0.031556881964206696,0.0029255563858896494,-0.014826890081167221
0.020893549546599388,0.01298927515745163,-0.007680409122258425,-0.03247315436601639,0.002839596476405859,-0.014602262526750565
0.022697556763887405,0.013066761195659637,-0.0073137725703418255,-0.032032087445259094,0.0028302338905632496,-0.01520019955933094
0.022954951971769333,0.012500704266130924,-0.007773732766509056,-0.030760738998651505,0.0027732355520129204,-0.015515127219259739
0.022818617522716522,0.013545085676014423,-0.008073915727436543,-0.03167598694562912,0.002859363565221429,-0.015337837859988213
0.022610586136579514,0.012999286875128746,-0.008305057883262634,-0.03211584314703941,0.0030353672336786985,-0.014725018292665482
0.022573018446564674,0.013438640162348747,-0.007808699272572994,-0.03228273615241051,0.0030591688118875027,-0.015225636772811413
0.022350957617163658,0.013140801340341568,-0.008204801008105278,-0.03253553807735443,0.002951981732621789,-0.015144051983952522
0.02272612974047661,0.013219342567026615,-0.007776766549795866,-0.032163940370082855,0.0026025676634162664,-0.015110239386558533
0.02293320931494236,0.012673314660787582,-0.007588375825434923,-0.030666213482618332,0.0025617063511162996,-0.015117421746253967
0.02293471060693264,0.013056222349405289,-0.008013398386538029,-0.03114328719675541,0.002669756766408682,-0.015491650439798832
0.022644028067588806,0.013262161985039711,-0.007996048778295517,-0.0324435718357563,0.0027540018782019615,-0.015659397467970848
0.022978773340582848,0.01340788695961237,-0.007498493418097496,-0.032817721366882324,0.0028664227575063705,-0.01580919697880745
0.023252781480550766,0.013468591496348381,-0.007490844931453466,-0.032848890870809555,0.0026060782838612795,-0.0155136464163661
0.0230682622641325,0.012867833487689495,-0.008446948602795601,-0.03261134773492813,0.0021015058737248182,-0.015295911580324173
0.022900855168700218,0.012647522613406181,-0.007738645188510418,-0.03240567073225975,0.0019704350270330906,-0.015399569645524025
0.022893058136105537,0.013352258130908012,-0.007585123181343079,-0.03228411078453064,0.0018338169902563095,-0.015462865121662617
0.023109039291739464,0.012630960904061794,-0.008443254046142101,-0.03240266069769859,0.0018337650690227747,-0.01518787257373333
0.023302379995584488,0.012892267666757107,-0.008194790221750736,-0.03227289021015167,0.0020837350748479366,-0.01576227694749832
0.02322533167898655,0.012771403416991234,-0.008134983479976654,-0.0328606553375721,0.0019588610157370567,-0.016053887084126472
0.02322533167898655,0.012771403416991234,-0.008134983479976654,-0.0328606553375721,0.0019588610157370567,-0.016053887084126472
0.02332415245473385,0.013398189097642899,-0.008285349234938622,-0.032170116901397705,0.0020431268494576216,-0.015778135508298874
0.02332415245473385,0.013398189097642899,-0.008285349234938622,-0.032170116901397705,0.0020431268494576216,-0.015778135508298874
0.023756686598062515,0.012980539351701736,-0.007931369356811047,-0.032022614032030106,0.002221485832706094,-0.01588321663439274
0.024586856365203857,0.013556591235101223,-0.00792723335325718,-0.032187484204769135,0.0021716689225286245,-0.01560361310839653
0.0244950782507658,0.0129541652277112,-0.00910697877407074,-0.03239799290895462,0.0021823695860803127,-0.016722742468118668
0.02348518930375576,0.013310269452631474,-0.008385341614484787,-0.03275906667113304,0.002058421727269888,-0.016494842246174812
0.023081758990883827,0.012868973426520824,-0.008286362513899803,-0.03233429417014122,0.002070632064715028,-0.015976984053850174
0.023907341063022614,0.013300815597176552,-0.00867020059376955,-0.03222443908452988,0.0023862160742282867,-0.016090810298919678
0.024736130610108376,0.013115809299051762,-0.00868106447160244,-0.032604169100522995,0.00274475384503603,-0.015933264046907425
0.024272823706269264,0.013065648265182972,-0.008043558336794376,-0.03246016427874565,0.002900932915508747,-0.015922943130135536
0.024264231324195862,0.012763450853526592,-0.007716138381510973,-0.032668501138687134,0.0028121869545429945,-0.015553364530205727
0.024687564000487328,0.0127169881016016,-0.008097978308796883,-0.03271537646651268,0.0027614121790975332,-0.015717340633273125
0.025018885731697083,0.013039662502706051,-0.008409897796809673,-0.03255387768149376,0.0025738149415701628,-0.015863165259361267
0.023928353562951088,0.012978271581232548,-0.00799157377332449,-0.033140648156404495,0.002473161555826664,-0.01544972974807024
0.024303153157234192,0.013355577364563942,-0.007670524064451456,-0.03373771160840988,0.0027390432078391314,-0.015816524624824524
0.02444727160036564,0.012993503361940384,-0.008216808550059795,-0.033916451036930084,0.00294021749868989,-0.015874793753027916
0.02454717643558979,0.013199507258832455,-0.0088721364736557,-0.03279130160808563,0.0025934476871043444,-0.01601482927799225
0.025339428335428238,0.012847664766013622,-0.007840530946850777,-0.03329882398247719,0.0025397867430001497,-0.015582098625600338
0.02524227648973465,0.013165262527763844,-0.006921620573848486,-0.03412880375981331,0.002390857320278883,-0.0162484310567379
0.024548789486289024,0.013189648278057575,-0.008256613276898861,-0.03577204421162605,0.0026788634713739157,-0.01641136035323143
0.025546781718730927,0.01319902203977108,-0.007579022087156773,-0.03524813428521156,0.0027867977041751146,-0.01582164131104946
0.025368180125951767,0.012918544001877308,-0.007508256006985903,-0.03328315168619156,0.002552051329985261,-0.015552484430372715
0.025176336988806725,0.013112245127558708,-0.008353156968951225,-0.034042906016111374,0.0025441297329962254,-0.015869857743382454
0.025347799062728882,0.0129556218162179,-0.007801906671375036,-0.0356597863137722,0.0023424378596246243,-0.01571536250412464
0.025794167071580887,0.013458570465445518,-0.007516060955822468,-0.03565428406000137,0.0022657669615000486,-0.015812838450074196
0.025874851271510124,0.012771370820701122,-0.007836057804524899,-0.035640787333250046,0.0023836789187043905,-0.016260601580142975
0.025874851271510124,0.012771370820701122,-0.007836057804524899,-0.035640787333250046,0.0023836789187043905,-0.016260601580142975
0.025350099429488182,0.01325972005724907,-0.00826784037053585,-0.035730134695768356,0.0026666137855499983,-0.01628855988383293
0.025872470811009407,0.012756749987602234,-0.007854236289858818,-0.036056552082300186,0.0026916046626865864,-0.015851235017180443
0.0262009184807539,0.01330807339400053,-0.008108197711408138,-0.036160994321107864,0.002849764656275511,-0.016344845294952393
0.0260937362909317,0.01319210696965456,-0.00803171843290329,-0.035731203854084015,0.00303362007252872,-0.016562096774578094
0.02579541690647602,0.013187319971621037,-0.008192547596991062,-0.03519991785287857,0.003202733350917697,-0.016568941995501518
0.026155974715948105,0.013056362979114056,-0.007924181409180164,-0.03590112924575806,0.002799968933686614,-0.01674824208021164
0.02648698166012764,0.012708147056400776,-0.007816391065716743,-0.035996753722429276,0.0027161932084709406,-0.016424106433987617
0.026715638116002083,0.013195810839533806,-0.007854911498725414,-0.03595724329352379,0.0026555031072348356,-0.016381237655878067
0.027474984526634216,0.012621067464351654,-0.008238140493631363,-0.03605996444821358,0.0027719801291823387,-0.016466284170746803
0.027557620778679848,0.013390699401497841,-0.0076366001740098,-0.036713436245918274,0.002716394606977701,-0.016463344916701317
0.026505736634135246,0.012790239416062832,-0.007369990460574627,-0.03703046962618828,0.002827311400324106,-0.016128309071063995
0.026265772059559822,0.01367761380970478,-0.008416442200541496,-0.03664134815335274,0.002637724159285426,-0.016664020717144012
0.026714036241173744,0.013179213739931583,-0.007767900824546814,-0.03630809858441353,0.0023918473161756992,-0.017217079177498817
0.027352232486009598,0.013702565804123878,-0.007391261402517557,-0.03811609745025635,0.0024613328278064728,-0.01746196672320366
0.026910271495580673,0.013357524760067463,-0.007994646206498146,-0.038053303956985474,0.0028216110076755285,-0.016905484721064568
0.027371510863304138,0.01379881426692009,-0.00793478824198246,-0.0367375947535038,0.0032406931277364492,-0.016994034871459007
0.0277529489248991,0.013581888750195503,-0.007830876857042313,-0.036990076303482056,0.0030270288698375225,-0.01776733435690403
0.027302902191877365,0.013345940038561821,-0.007362626492977142,-0.03799275681376457,0.0028239586390554905,-0.017977042123675346
0.027222638949751854,0.013452676124870777,-0.007893901318311691,-0.03778224438428879,0.002615694422274828,-0.018138684332370758
0.02641257829964161,0.013532699085772038,-0.008470473811030388,-0.03922031447291374,0.0024905079044401646,-0.017784923315048218
0.027902239933609962,0.013206657022237778,-0.007838130928575993,-0.0366520918905735,0.0028759874403476715,-0.01725621335208416
0.02772592566907406,0.01377853937447071,-0.007852560840547085,-0.03730153664946556,0.003037834307178855,-0.017290571704506874
0.027450259774923325,0.013270426541566849,-0.008105874061584473,-0.03826051205396652,0.00311010773293674,-0.01753469556570053
0.02789643034338951,0.014011810533702374,-0.00800784956663847,-0.03758278489112854,0.0030765756964683533,-0.01787048578262329
0.027758827432990074,0.013436978682875633,-0.007149518001824617,-0.03778720274567604,0.0029251398518681526,-0.018137270584702492
0.027743754908442497,0.013843460939824581,-0.007628917694091797,-0.037614334374666214,0.0028432561084628105,-0.017648696899414062
0.027810802683234215,0.013412275351583958,-0.00785051379352808,-0.03724148869514465,0.003024610225111246,-0.01661829836666584
0.02788032405078411,0.013752817176282406,-0.008097671903669834,-0.037470899522304535,0.002912187250331044,-0.01826540194451809
0.02800571545958519,0.013389401137828827,-0.007769149262458086,-0.03774575516581535,0.0032671813387423754,-0.01858702301979065
0.02800571545958519,0.013389401137828827,-0.007769149262458086,-0.03774575516581535,0.0032671813387423754,-0.01858702301979065
0.02801014482975006,0.014030956663191319,-0.00835280679166317,-0.037312496453523636,0.003353196894749999,-0.01837003417313099
0.028019696474075317,0.013813123106956482,-0.007865708321332932,-0.03728242591023445,0.0032855048775672913,-0.017862515524029732
0.02797704190015793,0.014199083670973778,-0.007494246121495962,-0.037693701684474945,0.003098055487498641,-0.0181068517267704
0.02822454459965229,0.013729656115174294,-0.0075434609316289425,-0.03806658461689949,0.0028338797856122255,-0.01843596249818802
0.02849608287215233,0.013973000459372997,-0.0078462865203619,-0.03772937133908272,0.0027701961807906628,-0.018103323876857758
0.028195131570100784,0.013661498203873634,-0.0072078220546245575,-0.038292497396469116,0.002851685043424368,-0.018490750342607498
0.027913501486182213,0.01361564639955759,-0.007168612442910671,-0.038667816668748856,0.0028251418843865395,-0.01852027326822281
0.02839026413857937,0.013727884739637375,-0.007595454342663288,-0.03925465792417526,0.0026917564682662487,-0.018462760373950005
0.027979400008916855,0.013851148076355457,-0.007914292626082897,-0.03968733176589012,0.0027989556547254324,-0.01855437085032463
0.026985494419932365,0.013935565948486328,-0.0072525301948189735,-0.03991358354687691,0.002858327701687813,-0.0184718556702137
0.028234099969267845,0.014120231382548809,-0.006920110899955034,-0.039938993752002716,0.002619566861540079,-0.018327204510569572
0.028751300647854805,0.014188289642333984,-0.007133718580007553,-0.04069630801677704,0.0026254153344780207,-0.018601957708597183
0.028480734676122665,0.014042089693248272,-0.007878126576542854,-0.04052393510937691,0.00267685460858047,-0.01849450170993805
0.027749016880989075,0.01452446449548006,-0.007381843868643045,-0.04195143282413483,0.0028099638875573874,-0.01848428137600422
0.027829358354210854,0.013751395046710968,-0.0070577459409832954,-0.04236951842904091,0.00288488925434649,-0.018916571512818336
0.027766713872551918,0.014501412399113178,-0.0074262977577745914,-0.04018319770693779,0.0029539053793996572,-0.018902532756328583
0.028213564306497574,0.013769651763141155,-0.007780677173286676,-0.03966325521469116,0.0030861415434628725,-0.01847021095454693
0.028079312294721603,0.013888103887438774,-0.007258170749992132,-0.040532100945711136,0.0032545551657676697,-0.01893993839621544
0.028066111728549004,0.013378729112446308,-0.00705923605710268,-0.04120158031582832,0.0033684284426271915,-0.018836120143532753
0.027967000380158424,0.01379724033176899,-0.007836817763745785,-0.041605398058891296,0.002985411323606968,-0.0195341557264328
0.027979373931884766,0.014472559094429016,-0.007467858958989382,-0.04049590975046158,0.002841366920620203,-0.019134027883410454
0.02789030596613884,0.01387165766209364,-0.007027283776551485,-0.04172620549798012,0.002758809132501483,-0.019012385979294777
0.027284620329737663,0.013926324434578419,-0.007078572642058134,-0.04225676506757736,0.0028833693359047174,-0.01885080151259899
0.028158383443951607,0.013439232483506203,-0.007726219017058611,-0.0418260358273983,0.003004737664014101,-0.01889088749885559
0.02857918292284012,0.01407846249639988,-0.00720814848318696,-0.042177096009254456,0.003093676408752799,-0.019103650003671646
0.02857918292284012,0.01407846249639988,-0.00720814848318696,-0.042177096009254456,0.003093676408752799,-0.019103650003671646
0.027529276907444,0.014065420255064964,-0.007114902604371309,-0.04213821142911911,0.0029483644757419825,-0.01897638477385044
0.027529276907444,0.014065420255064964,-0.007114902604371309,-0.04213821142911911,0.0029483644757419825,-0.01897638477385044
0.027722211554646492,0.013776018284261227,-0.007443081121891737,-0.04224122315645218,0.0028644539415836334,-0.019124289974570274
0.02838398516178131,0.014134337194263935,-0.007113102823495865,-0.041553184390068054,0.002701397053897381,-0.019175106659531593
0.028067197650671005,0.013681385666131973,-0.006737620569765568,-0.04162806272506714,0.002856046659871936,-0.019129902124404907
0.02897198684513569,0.014178025536239147,-0.007823575288057327,-0.041647929698228836,0.0029750666581094265,-0.01911492645740509
0.029361682012677193,0.014129209332168102,-0.00798796210438013,-0.04122015833854675,0.0034194376785308123,-0.018799711018800735
0.029012538492679596,0.013941437005996704,-0.007011429872363806,-0.04067915678024292,0.0032247824128717184,-0.01936853863298893
0.02870039828121662,0.013612622395157814,-0.0071732946671545506,-0.041863348335027695,0.0028874974232167006,-0.01988481916487217
0.02775554172694683,0.013834154233336449,-0.0067273955792188644,-0.042743027210235596,0.002957082586362958,-0.019632959738373756
0.028246745467185974,0.013694574125111103,-0.007383844815194607,-0.04156091809272766,0.0030502474401146173,-0.019049184396862984
0.02946806512773037,0.01406153105199337,-0.007136848289519548,-0.040015820413827896,0.0035529236774891615,-0.01935921050608158
0.029335658997297287,0.01390574499964714,-0.006892576813697815,-0.0408531129360199,0.003848692635074258,-0.01904088631272316
0.029212869703769684,0.013860022649168968,-0.006738262716680765,-0.040629349648952484,0.0035749897360801697,-0.018704773858189583
0.029159950092434883,0.013906199485063553,-0.007337188348174095,-0.042167313396930695,0.003049079794436693,-0.019122866913676262
0.0293949693441391,0.014158819802105427,-0.007195987273007631,-0.041846852749586105,0.0028210270684212446,-0.019734160974621773
0.02922770567238331,0.013853034935891628,-0.006945018656551838,-0.03969275578856468,0.002758679213002324,-0.02004132606089115
0.029403304681181908,0.01337171159684658,-0.0070150489918887615,-0.04117659479379654,0.0031973314471542835,-0.01974615640938282
0.029759997501969337,0.013905484229326248,-0.007797169964760542,-0.0420076809823513,0.003344132797792554,-0.019859295338392258
0.029499361291527748,0.013317320495843887,-0.007828429341316223,-0.04196534305810928,0.0033707625698298216,-0.020117415115237236
0.029604652896523476,0.013796213082969189,-0.007124539464712143,-0.041873082518577576,0.0030998962465673685,-0.020461728796362877
0.029723944142460823,0.014097237028181553,-0.006815008819103241,-0.04292726516723633,0.0032982206903398037,-0.0193004310131073
0.030034009367227554,0.013385617174208164,-0.007151234429329634,-0.04362044110894203,0.003222844796255231,-0.01941218413412571
0.030676433816552162,0.013624267652630806,-0.0069097066298127174,-0.04345690459012985,0.003272018162533641,-0.019459880888462067
0.030861660838127136,0.01325209066271782,-0.006922037806361914,-0.043438419699668884,0.0033282137010246515,-0.019860630854964256
0.030596453696489334,0.013714702799916267,-0.006762956269085407,-0.0432429164648056,0.003209716407582164,-0.020514560863375664
0.03019867278635502,0.013396220281720161,-0.007343038450926542,-0.04413846507668495,0.0032049398869276047,-0.021220738068223
0.031131967902183533,0.013616849668323994,-0.007427441421896219,-0.04439029097557068,0.003240096615627408,-0.021174678578972816
0.03144651651382446,0.013494324870407581,-0.006530744023621082,-0.04440245404839516,0.0034635174088180065,-0.02055843360722065
0.030952831730246544,0.013467059470713139,-0.006540552247315645,-0.0440577007830143,0.0037559836637228727,-0.020736074075102806
0.030952831730246544,0.013467059470713139,-0.006540552247315645,-0.0440577007830143,0.0037559836637228727,-0.020736074075102806
0.032150182873010635,0.01349603570997715,-0.007356882095336914,-0.04430071637034416,0.003719477914273739,-0.020883316174149513
0.03248777613043785,0.013597706332802773,-0.007058289833366871,-0.0446595661342144,0.0035105810966342688,-0.021036572754383087
0.031014664098620415,0.013796730898320675,-0.006695942021906376,-0.044696081429719925,0.0031779096461832523,-0.021420573815703392
0.030550772324204445,0.013429179787635803,-0.007212367374449968,-0.044754669070243835,0.002957517048344016,-0.021498335525393486
0.0321030430495739,0.013885952532291412,-0.007707120385020971,-0.045043569058179855,0.002841979032382369,-0.021561024710536003
0.0324065275490284,0.013397680595517159,-0.007560471072793007,-0.045138634741306305,0.0030115973204374313,-0.021258670836687088
0.032309237867593765,0.013794736936688423,-0.00695811677724123,-0.04741492122411728,0.0032922341488301754,-0.021255455911159515
0.03212079405784607,0.013264859095215797,-0.006843624170869589,-0.046701714396476746,0.0036353766918182373,-0.021009501069784164
0.0323600247502327,0.013580042868852615,-0.007307104766368866,-0.04496051371097565,0.0038355039432644844,-0.021403204649686813
0.032468896359205246,0.013098858296871185,-0.007401986978948116,-0.046168114989995956,0.0038569977041333914,-0.02162177488207817
0.03253341466188431,0.013378228060901165,-0.007136563304811716,-0.046797893941402435,0.0034786032047122717,-0.021745389327406883
0.032611873000860214,0.013309390284121037,-0.006778467912226915,-0.04842842370271683,0.003212166950106621,-0.021333754062652588
0.032755300402641296,0.01370313297957182,-0.006950533017516136,-0.04624896124005318,0.003093378385528922,-0.021562928333878517
0.03243913874030113,0.013340902514755726,-0.007340382318943739,-0.04554514214396477,0.0030877802055329084,-0.021771274507045746
0.03292504698038101,0.014266765676438808,-0.006946962792426348,-0.04702845215797424,0.0030617360025644302,-0.021754741668701172
0.033417366445064545,0.01370399259030819,-0.007199430372565985,-0.04713639244437218,0.0033863664139062166,-0.021798690780997276
0.03355244919657707,0.013431938365101814,-0.007618703413754702,-0.04628763720393181,0.0035424698144197464,-0.02230818010866642
0.03297746181488037,0.013603934086859226,-0.0071773044764995575,-0.04504820331931114,0.0035842745564877987,-0.022020814940333366
0.033508192747831345,0.013633799739181995,-0.007190141826868057,-0.046178292483091354,0.0037258691154420376,-0.022136811167001724
0.0338895320892334,0.012960061430931091,-0.007505455985665321,-0.046945057809352875,0.0034073207061737776,-0.02248559147119522
0.034081265330314636,0.013393528759479523,-0.00801930297166109,-0.047217875719070435,0.0032963634002953768,-0.022417563945055008
0.033687692135572433,0.013275684788823128,-0.007514527998864651,-0.04654749482870102,0.0030359725933521986,-0.022762354463338852
0.033583689481019974,0.013642541132867336,-0.007006055675446987,-0.04612083360552788,0.0031018960289657116,-0.02317180298268795
0.03328561410307884,0.013532232493162155,-0.007322818972170353,-0.04799078032374382,0.0030295855831354856,-0.023159824311733246
0.033635176718235016,0.014105232432484627,-0.00791946705430746,-0.04713129624724388,0.0034438075963407755,-0.02367684803903103
0.03372266888618469,0.013326363638043404,-0.007285885978490114,-0.045540742576122284,0.003840140299871564,-0.02319284901022911
0.03372266888618469,0.013326363638043404,-0.007285885978490114,-0.045540742576122284,0.003840140299871564,-0.02319284901022911
0.03423534706234932,0.013831686228513718,-0.006784026511013508,-0.046956684440374374,0.003991204313933849,-0.02207677997648716
0.03421357274055481,0.013494289480149746,-0.0073096114210784435,-0.048238642513751984,0.003920098766684532,-0.022414160892367363
0.0340956449508667,0.013944939710199833,-0.007899335585534573,-0.04925745353102684,0.0038427303079515696,-0.02361912839114666
0.03432796150445938,0.014108864590525627,-0.0073876711539924145,-0.04771760478615761,0.0034285106230527163,-0.023980751633644104
0.03436674550175667,0.014024832285940647,-0.006850043311715126,-0.048830173909664154,0.0031758637633174658,-0.02395746484398842
0.034394893795251846,0.013491006568074226,-0.00755042489618063,-0.04945686459541321,0.003232451854273677,-0.024253595620393753
0.03387129306793213,0.013710109516978264,-0.007896197028458118,-0.049260277301073074,0.003174216253682971,-0.024647656828165054
0.034801777452230453,0.0138483801856637,-0.007304576225578785,-0.0489979088306427,0.003155370242893696,-0.024134663864970207
0.03538833186030388,0.0139195891097188,-0.006954063195735216,-0.04928617179393768,0.0033707772381603718,-0.02334001287817955
0.034490227699279785,0.013993192464113235,-0.007269912399351597,-0.048789676278829575,0.0036131152883172035,-0.023173684254288673
0.03351164236664772,0.014106511138379574,-0.007444767747074366,-0.049103982746601105,0.0037737498059868813,-0.02358953468501568
0.03476205840706825,0.013938510790467262,-0.007142307702451944,-0.049499835819005966,0.0038196821697056293,-0.02423010766506195
0.034868475049734116,0.013966398313641548,-0.00684621836990118,-0.04994676634669304,0.003367028897628188,-0.02457982487976551
0.034533802419900894,0.014120807871222496,-0.007298604119569063,-0.05005557835102081,0.003316485323011875,-0.024457568302750587
0.034943681210279465,0.013464163988828659,-0.007790183182805777,-0.050792448222637177,0.003307776991277933,-0.0241621695458889
0.03643245995044708,0.014093911275267601,-0.006968656554818153,-0.050893012434244156,0.0031430055387318134,-0.02393553964793682
0.0339362695813179,0.01363162137567997,-0.006790237035602331,-0.051332633942365646,0.003112159203737974,-0.024230992421507835
0.03578117862343788,0.013737037777900696,-0.007516628596931696,-0.051964402198791504,0.00365934194996953,-0.02393544465303421
0.03563949838280678,0.013949684798717499,-0.007432970684021711,-0.05241004005074501,0.0038605197332799435,-0.023744743317365646
0.03591940924525261,0.013675221242010593,-0.00683730561286211,-0.051741261035203934,0.00494983047246933,-0.023969093337655067
0.03517645224928856,0.014139121398329735,-0.007240805309265852,-0.05144229903817177,0.004271187353879213,-0.023956140503287315
0.03559451550245285,0.013872173614799976,-0.007852482609450817,-0.0521528422832489,0.0034955793526023626,-0.02426356077194214
0.03566944599151611,0.014356642961502075,-0.006956641562283039,-0.052903469651937485,0.002991963177919388,-0.02441864274442196
0.03566944599151611,0.014356642961502075,-0.006956641562283039,-0.052903469651937485,0.002991963177919388,-0.02441864274442196
0.03615725412964821,0.013745051808655262,-0.006905694492161274,-0.050559308379888535,0.0028777506668120623,-0.024629026651382446
0.03594488650560379,0.0141324857249856,-0.006740817800164223,-0.05077671632170677,0.003477151971310377,-0.02465130016207695
0.03535670414566994,0.013687415048480034,-0.007278671488165855,-0.05209571495652199,0.004178658593446016,-0.024312699213624
0.036570802330970764,0.014203587546944618,-0.007163542322814465,-0.05352281779050827,0.004364783875644207,-0.026057710871100426
0.037634920328855515,0.013808486051857471,-0.007058118470013142,-0.050905171781778336,0.004161790944635868,-0.02446901984512806
0.03503844887018204,0.01437775231897831,-0.0070139700546860695,-0.050218552350997925,0.003708567935973406,-0.02444647066295147
0.03532801941037178,0.013829294592142105,-0.007465945091098547,-0.05117287114262581,0.0035308641381561756,-0.025130465626716614
0.03687645494937897,0.01406464446336031,-0.007121480535715818,-0.05116225779056549,0.004103970248252153,-0.02519802935421467
0.037044670432806015,0.013910286128520966,-0.007216088939458132,-0.05094834417104721,0.004094965290278196,-0.025349589064717293
0.037615954875946045,0.014332619495689869,-0.00654611038044095,-0.051807574927806854,0.003981675021350384,-0.025561291724443436
0.03744365647435188,0.014003287069499493,-0.006603264715522528,-0.05146330967545509,0.003933654632419348,-0.026050643995404243
0.03651142120361328,0.014322805218398571,-0.006917838007211685,-0.05138486623764038,0.003863326972350478,-0.026100073009729385
0.03635820001363754,0.014194147661328316,-0.006417442113161087,-0.05144647881388664,0.003795148804783821,-0.025808339938521385
0.03790949285030365,0.014796433970332146,-0.006198624614626169,-0.05227016657590866,0.0038983537815511227,-0.025778988376259804
0.03764744848012924,0.014301450923085213,-0.006612585857510567,-0.05405474826693535,0.004306944552809,-0.025704950094223022
0.03736587241292,0.014567023143172264,-0.00735746743157506,-0.052456602454185486,0.004324502311646938,-0.02588779106736183
0.03745649755001068,0.014528297819197178,-0.006756699178367853,-0.052034709602594376,0.004007909446954727,-0.026071475818753242
0.037616852670907974,0.014702001586556435,-0.006816536653786898,-0.05295771360397339,0.0038491764571517706,-0.025827374309301376
0.03770832344889641,0.014455261640250683,-0.007497597020119429,-0.05449609458446503,0.003792093601077795,-0.025898857042193413
0.03766743093729019,0.014924785122275352,-0.007928838953375816,-0.05175572261214256,0.004319736268371344,-0.026539556682109833
0.03763873502612114,0.014258421026170254,-0.007092238869518042,-0.05197351798415184,0.004294360987842083,-0.026730746030807495
0.03786608204245567,0.014709596522152424,-0.0067629883997142315,-0.05324707552790642,0.004352795425802469,-0.025834154337644577
0.037717096507549286,0.015267717652022839,-0.006936472374945879,-0.05401521548628807,0.003743689274415374,-0.025331195443868637
0.038298070430755615,0.014769429340958595,-0.0070197186432778835,-0.05429380387067795,0.0036527139600366354,-0.02594241499900818
0.03818894550204277,0.015061886049807072,-0.00691626314073801,-0.0548061728477478,0.0035693501122295856,-0.026782969012856483
0.0379340685904026,0.014332359656691551,-0.006472887005656958,-0.05514160916209221,0.0038923558313399553,-0.026619642972946167
0.03807530924677849,0.014873238280415535,-0.007072451524436474,-0.05507431551814079,0.004157000686973333,-0.02750256098806858
0.037857335060834885,0.014231078326702118,-0.007754873018711805,-0.055333461612463,0.004283823538571596,-0.027524394914507866
0.037857335060834885,0.014231078326702118,-0.007754873018711805,-0.055333461612463,0.004283823538571596,-0.027524394914507866
0.038015786558389664,0.014820734038949013,-0.006610583979636431,-0.05428695306181908,0.004111363086849451,-0.026767121627926826
0.03819268196821213,0.014239250682294369,-0.006390425842255354,-0.05505179241299629,0.003981112036854029,-0.02598196268081665
0.03817150741815567,0.015417953953146935,-0.006373051553964615,-0.055886391550302505,0.0039178598672151566,-0.02586141973733902
0.03829672187566757,0.01478822622448206,-0.0071905567310750484,-0.0554468035697937,0.0038900054059922695,-0.026697343215346336
0.03865927457809448,0.015071634203195572,-0.0068589793518185616,-0.05544664338231087,0.0041306959465146065,-0.027499783784151077
0.03847074508666992,0.014445994049310684,-0.006591342389583588,-0.05571157485246658,0.004237302578985691,-0.027339553460478783
0.0381043367087841,0.015198790468275547,-0.006529799196869135,-0.0553957037627697,0.004112355876713991,-0.02709316276013851
0.038439732044935226,0.014741637744009495,-0.006896200589835644,-0.05570512264966965,0.003936213906854391,-0.027450287714600563
0.0379154235124588,0.015277850441634655,-0.007355557754635811,-0.05470023676753044,0.004426844418048859,-0.028034910559654236
0.0377841554582119,0.014526622369885445,-0.00680480757728219,-0.056231290102005005,0.004313930869102478,-0.028284484520554543
0.03807538002729416,0.01506778784096241,-0.00635475805029273,-0.05440293624997139,0.004288865718990564,-0.028210386633872986
0.038104407489299774,0.014486821368336678,-0.006564554758369923,-0.05375202000141144,0.003970985766500235,-0.028228430077433586
0.03979829326272011,0.014989097602665424,-0.007085276301950216,-0.05485399812459946,0.0037711593322455883,-0.028117798268795013
0.03880418464541435,0.01454035472124815,-0.007003741804510355,-0.05690021440386772,0.004154355265200138,-0.028236865997314453
0.03774844482541084,0.014762092381715775,-0.006863971706479788,-0.05455446615815163,0.004145272076129913,-0.02837064489722252
0.03888944908976555,0.014831502921879292,-0.006700665224343538,-0.05327562615275383,0.004464441444724798,-0.028294233605265617
0.03847081959247589,0.01501209195703268,-0.007450370118021965,-0.05672673135995865,0.004201785195618868,-0.028613723814487457
0.03968844562768936,0.014885404147207737,-0.007672949694097042,-0.057076700031757355,0.00437953183427453,-0.02857285365462303
0.0391453392803669,0.015172679908573627,-0.006786594167351723,-0.05586136877536774,0.004297638777643442,-0.028476757928729057
0.03855276107788086,0.015152625739574432,-0.006472558248788118,-0.05558432266116142,0.003944478929042816,-0.02871960960328579
0.03959748148918152,0.0149008734151721,-0.007277254480868578,-0.05529088154435158,0.004005604889243841,-0.02884683944284916
0.03987989202141762,0.014927422627806664,-0.006514729931950569,-0.05743277817964554,0.004219336900860071,-0.02893115021288395
0.03895679861307144,0.015342719852924347,-0.007081310730427504,-0.055841442197561264,0.00436459481716156,-0.029936885461211205
0.039452265948057175,0.014707989059388638,-0.006717862095683813,-0.055586688220500946,0.004493470303714275,-0.030308062210679054
0.04003866761922836,0.015347507782280445,-0.007279213517904282,-0.05683928355574608,0.004149256274104118,-0.02912301756441593
0.03960997983813286,0.014828016050159931,-0.007248817011713982,-0.059470124542713165,0.0038923046085983515,-0.028072720393538475
0.0394575372338295,0.015417354181408882,-0.0069212475791573524,-0.05655753239989281,0.0035936101339757442,-0.029331263154745102
0.0394575372338295,0.015417354181408882,-0.0069212475791573524,-0.05655753239989281,0.0035936101339757442,-0.029331263154745102
0.04025028645992279,0.014875593595206738,-0.006732221692800522,-0.05694057047367096,0.0037621036171913147,-0.029848352074623108
0.04045037552714348,0.014859610237181187,-0.007198266685009003,-0.058020129799842834,0.0041535091586411,-0.029280373826622963
0.03872397541999817,0.014434846118092537,-0.007075794972479343,-0.06001775711774826,0.004480097442865372,-0.030047278851270676
0.03982861340045929,0.015307738445699215,-0.006897791288793087,-0.05908336117863655,0.004024901892989874,-0.03067178837954998
0.039950743317604065,0.014692488126456738,-0.007258480880409479,-0.05849803239107132,0.003828541375696659,-0.029038047417998314
0.04121122881770134,0.015071810223162174,-0.007151058875024319,-0.0582219697535038,0.004149110987782478,-0.028405118733644485
0.04070525988936424,0.014863677322864532,-0.007260855287313461,-0.058636631816625595,0.0040644207037985325,-0.029902609065175056
0.04009983688592911,0.015108118765056133,-0.0072705186903476715,-0.05878947675228119,0.0039286199025809765,-0.029833151027560234
0.0392233170568943,0.014826932922005653,-0.007305140607059002,-0.058520205318927765,0.0038105554413050413,-0.029146676883101463
0.04090030491352081,0.015250178053975105,-0.007488391362130642,-0.05816645547747612,0.003724406473338604,-0.029554499313235283
0.040755923837423325,0.014855504035949707,-0.007384750992059708,-0.05800653249025345,0.003986441995948553,-0.02931724674999714
0.040110740810632706,0.015551303513348103,-0.007430225145071745,-0.05779338628053665,0.0041068303398787975,-0.029591234400868416
0.040624264627695084,0.01527697965502739,-0.00682853814214468,-0.057925328612327576,0.004414532799273729,-0.02948286011815071
0.04071404039859772,0.014916809275746346,-0.006976399105042219,-0.05737246945500374,0.004085603170096874,-0.029656434431672096
0.040806401520967484,0.015146932564675808,-0.0073179444298148155,-0.05661279708147049,0.0038468828424811363,-0.02950078248977661
0.041031092405319214,0.015317845158278942,-0.0070599778555333614,-0.05769913271069527,0.0037697141524404287,-0.03018508478999138
0.04036504775285721,0.014935161918401718,-0.006774273235350847,-0.0573725551366806,0.004334740340709686,-0.030108528211712837
0.04073900356888771,0.01504980493336916,-0.0071745081804692745,-0.05576742812991142,0.004593993537127972,-0.029733289033174515
0.04058178886771202,0.01555918250232935,-0.0071333651430904865,-0.05820421129465103,0.004332117736339569,-0.02953106164932251
0.0411946177482605,0.015220643021166325,-0.007221654523164034,-0.05652807280421257,0.004035501275211573,-0.02986602485179901
0.04141733795404434,0.01584562659263611,-0.007008938118815422,-0.056252479553222656,0.0039283339865505695,-0.03029492311179638
0.041471485048532486,0.015563416294753551,-0.008212463930249214,-0.059737227857112885,0.004512603394687176,-0.030925218015909195
0.0413023978471756,0.01499762199819088,-0.007168598473072052,-0.05704980716109276,0.0042568594217300415,-0.03076392412185669
0.04185858741402626,0.015643112361431122,-0.006603878457099199,-0.0580991692841053,0.004038922488689423,-0.031009584665298462
0.04185858741402626,0.015643112361431122,-0.006603878457099199,-0.0580991692841053,0.004038922488689423,-0.031009584665298462
0.04216848686337471,0.015505023300647736,-0.007443068083375692,-0.05870978534221649,0.0041254363022744656,-0.030684305354952812
0.041527215391397476,0.015194208361208439,-0.007188708521425724,-0.057778142392635345,0.004715513903647661,-0.030500058084726334
0.041527215391397476,0.015194208361208439,-0.007188708521425724,-0.057778142392635345,0.004715513903647661,-0.030500058084726334
0.04168760031461716,0.015699908137321472,-0.006559014320373535,-0.05906057357788086,0.004663947969675064,-0.03059276193380356
0.04200633615255356,0.01590338535606861,-0.006381754297763109,-0.061752695590257645,0.004483441822230816,-0.030823159962892532
0.04221676290035248,0.01583048142492771,-0.007331536151468754,-0.06050394847989082,0.004333958961069584,-0.030924450606107712
0.04158982262015343,0.016124730929732323,-0.007539098616689444,-0.05953887104988098,0.004379367921501398,-0.030865386128425598
0.041589222848415375,0.015454133972525597,-0.006631480995565653,-0.06036773696541786,0.004354892298579216,-0.030380206182599068
0.042080577462911606,0.015790561214089394,-0.006409221328794956,-0.06258656084537506,0.004530750680714846,-0.03006662242114544
0.04133939370512962,0.015166197903454304,-0.0070827496238052845,-0.05947456881403923,0.004641572013497353,-0.03153873607516289
0.04181168973445892,0.015701286494731903,-0.00732120405882597,-0.05992382764816284,0.004695134703069925,-0.030828097835183144
