davideferrari95/blind_handover_controller/data/Test 158 - [2024-02-08 -- 11-01-22]/joint_states_data.csv
shoulder_pan_joint,shoulder_lift_joint,elbow_joint,wrist_1_joint,wrist_2_joint,wrist_3_joint
-0.0036433704663068056,-0.012100894004106522,0.0009470352670177817,0.009066564962267876,0.0,-0.003111279336735606
-0.0037713777273893356,-0.011668403632938862,0.0008606360643170774,0.010410105809569359,0.0,-0.003313415916636586
-0.0037713777273893356,-0.011668403632938862,0.0008606360643170774,0.010410105809569359,0.0,-0.003313415916636586
-0.004285738803446293,-0.011976423673331738,0.0008642137981951237,0.01028584036976099,0.0,-0.003159117652103305
-0.004120831377804279,-0.012124297209084034,0.0008399348007515073,0.010634467005729675,0.0,-0.0032342320773750544
-0.003970388323068619,-0.012126359157264233,0.0008537998655810952,0.010620537213981152,0.0,-0.003031301312148571
-0.003910995554178953,-0.012069961987435818,0.0009437325061298907,0.010398856364190578,0.0,-0.002876605372875929
-0.0034421472810208797,-0.011934861540794373,0.0013067828258499503,0.010695656761527061,0.0,-0.002995776478201151
-0.003611061256378889,-0.011970476247370243,0.0012742113322019577,0.010195338167250156,0.0,-0.003200963605195284
-0.0038152721244841814,-0.012079544365406036,0.001310189487412572,0.010549099184572697,0.0,-0.003267425112426281
-0.003276938572525978,-0.01248219609260559,0.0012381845153868198,0.010080162435770035,0.0,-0.0029120799154043198
-0.003171670949086547,-0.0118200508877635,0.0011747345561161637,0.010082747787237167,0.0,-0.0030321048106998205
-0.003404859220609069,-0.012079455889761448,0.0011311752023175359,0.010499930940568447,0.0,-0.0029121413826942444
-0.0036687373649328947,-0.011839642189443111,0.0011206681374460459,0.009920655749738216,0.0,-0.0032402791548520327
-0.0037369797937572002,-0.012114821933209896,0.0011202655732631683,0.010079857893288136,0.0,-0.0033129749353975058
-0.003640140872448683,-0.011412077583372593,0.001098214415833354,0.010316726751625538,0.0,-0.0031310892663896084
-0.0032608737237751484,-0.011242522858083248,0.0014115548692643642,0.009890010580420494,0.0,-0.002998569281771779
-0.003420064924284816,-0.011549193412065506,0.0014597650151699781,0.010687665082514286,0.0,-0.0028764756862074137
-0.0032313389237970114,-0.011294921860098839,0.0014600499998778105,0.0104534812271595,0.0,-0.0030218232423067093
-0.0033900835551321507,-0.011643280275166035,0.0015540884342044592,0.009868506342172623,0.0,-0.0032691447995603085
-0.0033900835551321507,-0.011643280275166035,0.0015540884342044592,0.009868506342172623,0.0,-0.0032691447995603085
-0.00309244473464787,-0.012232131324708462,0.0014649699442088604,0.01039142906665802,0.0,-0.003197326324880123
-0.0032018618658185005,-0.011566218920052052,0.0012995132710784674,0.009911992587149143,0.0,-0.003218791214749217
-0.003271027933806181,-0.01136868167668581,0.0013648401945829391,0.009423281066119671,0.0,-0.0032826042734086514
-0.0032407063990831375,-0.01121697947382927,0.0013239465188235044,0.01002490147948265,0.0,-0.003187296213582158
-0.003293402027338743,-0.011341094970703125,0.001499095233157277,0.010199753567576408,0.0,-0.00317966821603477
-0.0031333942897617817,-0.011416848748922348,0.0015881926519796252,0.010061332955956459,0.0,-0.003371050814166665
-0.0028639130759984255,-0.011012551374733448,0.001578034250997007,0.010581904090940952,0.0,-0.003433713223785162
-0.0030836621299386024,-0.011664452031254768,0.001707248156890273,0.010117351077497005,0.0,-0.0035958033986389637
-0.0031227068975567818,-0.011159561574459076,0.0015940990997478366,0.00985411461442709,0.0,-0.003743808949366212
-0.0032349235843867064,-0.010909074917435646,0.0015759336529299617,0.010096581652760506,0.0,-0.0038406471721827984
-0.0031392492819577456,-0.011803731322288513,0.0015784522984176874,0.010484632104635239,0.0,-0.003831402864307165
-0.0031483673956245184,-0.011259814724326134,0.0014809133717790246,0.01064123772084713,0.0,-0.0033828073646873236
-0.003323066048324108,-0.011266580782830715,0.0014091084012761712,0.01018379908055067,0.0,-0.003459920873865485
-0.003270936431363225,-0.010952248238027096,0.0015252640005201101,0.010467873886227608,0.0,-0.003277181414887309
-0.0033437898382544518,-0.01115315780043602,0.001455910736694932,0.010279500856995583,0.0,-0.003518511075526476
-0.0031670378521084785,-0.010744237340986729,0.0015354255447164178,0.00969892181456089,0.0,-0.003281713230535388
-0.0028949708212167025,-0.010777514427900314,0.0016096057370305061,0.009430808946490288,0.0,-0.0031791464425623417
-0.0030103609897196293,-0.01123987790197134,0.001522015780210495,0.009571787901222706,0.0,-0.00292360782623291
-0.003083384595811367,-0.01061740517616272,0.0016208137385547161,0.009588750079274178,0.0,-0.0032433518208563328
-0.002975480630993843,-0.010749069042503834,0.0016128730494529009,0.010093467310070992,0.0,-0.0037306162994354963
-0.003175608813762665,-0.01087087020277977,0.0015909086214378476,0.010314797051250935,0.0,-0.003467393573373556
-0.0029106284491717815,-0.010570266284048557,0.0016481041675433517,0.00978829525411129,0.0,-0.0031934818252921104
-0.0031001579482108355,-0.011189845390617847,0.0016910979757085443,0.009681059047579765,0.0,-0.002936156466603279
-0.0031001579482108355,-0.011189845390617847,0.0016910979757085443,0.009681059047579765,0.0,-0.002936156466603279
-0.003110848367214203,-0.010877883993089199,0.0017874345649033785,0.009682195261120796,0.0,-0.0031503827776759863
-0.002823739545419812,-0.010663590393960476,0.001666344003751874,0.009344151243567467,0.0,-0.003203443717211485
-0.002729952335357666,-0.011507299728691578,0.0018789330497384071,0.009081883355975151,0.0,-0.0034993633162230253
-0.0028811010997742414,-0.010977772995829582,0.0017608801135793328,0.009846067987382412,0.0,-0.0034880926832556725
-0.0029271303210407495,-0.01107100211083889,0.0019238850800320506,0.009471180848777294,0.0,-0.0034142984077334404
-0.00288063264451921,-0.010600571520626545,0.0017367579275742173,0.009314661845564842,0.0,-0.003568944986909628
-0.0027912058867514133,-0.010144122876226902,0.0017538461834192276,0.009055865928530693,0.0,-0.0036881465930491686
-0.0027663963846862316,-0.010546850971877575,0.0017688521184027195,0.009323690086603165,0.0,-0.0034089519176632166
-0.002752823056653142,-0.010690930299460888,0.001861808355897665,0.009179001674056053,0.0,-0.003262002021074295
-0.0028401880990713835,-0.010561451315879822,0.0018522099126130342,0.009540845640003681,0.0,-0.0033243331126868725
-0.003014814341440797,-0.010945023037493229,0.0020846661645919085,0.009386633522808552,0.0,-0.0033855680376291275
-0.003028081264346838,-0.01074344664812088,0.0018688105046749115,0.009387418627738953,0.0,-0.0035897339694201946
-0.0031443345360457897,-0.011360004544258118,0.001841010176576674,0.01030049193650484,0.0,-0.0033793968614190817
-0.003098799381405115,-0.010632527060806751,0.0018535855924710631,0.00914966780692339,0.0,-0.0035396944731473923
-0.0026267366483807564,-0.010381280444562435,0.0021313296165317297,0.00972166657447815,0.0,-0.00420423224568367
-0.0024562212638556957,-0.01055024191737175,0.0023290831595659256,0.00935498345643282,0.0,-0.003921398892998695
-0.0023988208267837763,-0.01020772848278284,0.0022200332023203373,0.008778145536780357,0.0,-0.0037476494908332825
-0.002678708638995886,-0.0110790329053998,0.0021805705036967993,0.00964409951120615,0.0,-0.003675400046631694
-0.0028173800092190504,-0.010344866663217545,0.002080723876133561,0.009653746150434017,0.0,-0.0036834501661360264
-0.0028125401586294174,-0.010387120768427849,0.002016380662098527,0.009189247153699398,0.0,-0.00374263315461576
-0.0025916548911482096,-0.010869419202208519,0.0021535067353397608,0.009376070462167263,0.0,-0.003847616259008646
-0.0026663970202207565,-0.009853124618530273,0.0024721769150346518,0.00938298087567091,0.0,-0.003937180154025555
-0.002807697979733348,-0.009991491213440895,0.0023623458109796047,0.008847138844430447,0.0,-0.0038774716667830944
-0.003121044486761093,-0.010654397308826447,0.002298492705449462,0.009009629487991333,3.3589165013836464e-06,-0.0037875694688409567
-0.0028198487125337124,-0.010122604668140411,0.0021555640269070864,0.009096586145460606,2.1931325022706005e-07,-0.003730081720277667
-0.0028198487125337124,-0.010122604668140411,0.0021555640269070864,0.009096586145460606,2.1931325022706005e-07,-0.003730081720277667
-0.0026996221859008074,-0.01012759655714035,0.0022207226138561964,0.008620301261544228,1.4319586405520113e-08,-0.0035757645964622498
-0.0023589509073644876,-0.010131090879440308,0.002044585533440113,0.008696983568370342,9.349666596492057e-10,-0.003459425875917077
-0.002405686303973198,-0.009907911531627178,0.002396694850176573,0.009188631549477577,6.104664690420591e-11,-0.0031978930346667767
-0.002394472947344184,-0.009856837801635265,0.002397174946963787,0.008814365603029728,3.985909692583167e-12,-0.0034157896880060434
-0.002345348708331585,-0.01037080679088831,0.0023125610314309597,0.008528035134077072,2.602514286974972e-13,-0.0038113028276711702
-0.0026332654524594545,-0.00984556507319212,0.0021238650660961866,0.008976764976978302,1.6992558347830172e-14,-0.004044287372380495
-0.0025347224436700344,-0.010108471848070621,0.0020982639398425817,0.009115907363593578,1.109492776345505e-15,-0.0039985291659832
-0.002351768547669053,-0.010764911770820618,0.0022479835897684097,0.009163259528577328,7.24419501834422e-17,-0.0039319139905273914
-0.0023815645836293697,-0.010037974454462528,0.0021274012979120016,0.008676793426275253,4.729941578899176e-18,-0.003943302668631077
-0.002542597008869052,-0.010008289478719234,0.0022929080296307802,0.008707857690751553,3.088313713648821e-19,-0.0036264716181904078
-0.002412486122921109,-0.010219414718449116,0.0021814294159412384,0.008757184259593487,2.0164480675824926e-20,-0.00342696369625628
-0.002581892069429159,-0.010103662498295307,0.00208313949406147,0.008882013149559498,1.316596380500679e-21,-0.003415843704715371
-0.002645484870299697,-0.010828953236341476,0.0021340413950383663,0.009463787078857422,8.596434378714482e-23,-0.003405442228540778
-0.0024617586750537157,-0.010117804631590843,0.002059363527223468,0.008451340720057487,5.612856964465588e-24,-0.003521744627505541
-0.0024791748728603125,-0.01050583180040121,0.0020436730701476336,0.008897097781300545,3.6647943440910186e-25,-0.003662021365016699
-0.0023479084484279156,-0.01061361376196146,0.0019858055748045444,0.008203726261854172,2.3928490104677752e-26,-0.004063785541802645
-0.0025863659102469683,-0.010236656293272972,0.0019102483056485653,0.008129321970045567,1.02010911920291e-28,-0.0038564924616366625
-0.002458919072523713,-0.010781200602650642,0.0020615041721612215,0.00825662910938263,6.6605834575219e-30,-0.0035893002059310675
-0.0025572299491614103,-0.010454398579895496,0.0018779460806399584,0.008684768341481686,4.348885231375593e-31,-0.0035864943638443947
-0.0026734790299087763,-0.010947894304990768,0.0020636795088648796,0.00841574277728796,2.8395112234084587e-32,-0.0037421653978526592
-0.002810157835483551,-0.011215557344257832,0.0019299616105854511,0.008076673373579979,1.853997955311566e-33,-0.003911457024514675
-0.0027531476225703955,-0.010257096961140633,0.0020849641878157854,0.008612172678112984,1.2105281002797486e-34,-0.003966907039284706
-0.002856097649782896,-0.01065772119909525,0.001984755974262953,0.008937481790781021,7.903884396276309e-36,-0.004335116129368544
-0.002461910480633378,-0.010248394683003426,0.001983087044209242,0.008160927332937717,5.16067238899187e-37,-0.004104885738343
-0.002328467322513461,-0.01050650142133236,0.0021820231340825558,0.008249725215137005,3.369550516408355e-38,-0.004332237411290407
-0.002314904937520623,-0.01062778476625681,0.002140999538823962,0.008513180539011955,2.2000750227500352e-39,-0.004163727164268494
-0.002314904937520623,-0.01062778476625681,0.002140999538823962,0.008513180539011955,2.2000750227500352e-39,-0.004163727164268494
-0.0026141051203012466,-0.010221478529274464,0.002263131085783243,0.0080080796033144,1.4364850687640132e-40,-0.0035819478798657656
-0.002536575309932232,-0.010659834370017052,0.0021361142862588167,0.008097348734736443,9.378890621726001e-42,-0.003567970125004649
-0.0023913232143968344,-0.010224814526736736,0.0018774674972519279,0.008413620293140411,4.0637655465419695e-44,-0.00421513244509697
-0.0023913232143968344,-0.010224814526736736,0.0018774674972519279,0.008413620293140411,4.0637655465419695e-44,-0.00421513244509697
-0.0022418044973164797,-0.010549390688538551,0.0016278928378596902,0.007842126302421093,2.802596928649634e-45,-0.004144812468439341
-0.002271846402436495,-0.010988239198923111,0.0012080672895535827,0.007493249140679836,0.0,-0.00436424883082509
-0.002144439611583948,-0.009917647577822208,0.0007704200106672943,0.008132482878863811,0.0,-0.004138004034757614
-0.0024471182841807604,-0.010148618370294571,0.000628414039965719,0.008225713856518269,0.0,-0.003559303702786565
-0.0024714155588299036,-0.01054976973682642,0.0005348189151845872,0.008029049262404442,0.0,-0.003967088647186756
-0.0026062531396746635,-0.010662593878805637,0.0002701297344174236,0.007744485978037119,0.00010392414696980268,-0.00413809809833765
-0.0019591425079852343,-0.01018998771905899,0.0003134082944598049,0.007774756755679846,0.00013063824735581875,-0.0039903391152620316
-0.0020494284108281136,-0.010226915590465069,0.0003134018916171044,0.006877071689814329,0.0001408833486493677,-0.004216034431010485
-0.0020053174812346697,-0.010507803410291672,0.00028123342781327665,0.006815714295953512,0.00015823963622096926,-0.004411796573549509
-0.002456079702824354,-0.010266908444464207,0.0002546964096836746,0.007124980445951223,0.0001651022321311757,-0.004078962840139866
-0.0022256008815020323,-0.010195855982601643,0.00023273477563634515,0.00724604818969965,0.0006014268146827817,-0.0038948964793235064
-0.0023175845853984356,-0.010563812218606472,0.00021425973682198673,0.007318911608308554,0.0007501438376493752,-0.0038879294879734516
-0.002069163369014859,-0.010663227178156376,0.00019850328681059182,0.0069703832268714905,0.0008009076118469238,-0.0038793901912868023
-0.002003102796152234,-0.010185236111283302,0.00018490526417735964,0.007125398144125938,0.000969659595284611,-0.004282259847968817
-0.0018158823950216174,-0.010237249545753002,0.00017305172514170408,0.007312136236578226,0.0011391624575480819,-0.004613687749952078
-0.0018296289490535855,-0.009937364608049393,0.0002103603328578174,0.007291771471500397,0.001087052864022553,-0.0045982166193425655
-0.0019576111808419228,-0.01028548926115036,0.00020442863751668483,0.007303993683308363,0.0010236739180982113,-0.004356246441602707
-0.002212603809311986,-0.010151028633117676,0.00019351912487763911,0.0074237072840332985,0.0009481936576776206,-0.004285864531993866
-0.0023644373286515474,-0.010188475251197815,0.00018478902347851545,0.007912841625511646,0.0008664581691846251,-0.0041569797322154045
-0.0022036030422896147,-0.010036428458988667,0.00029203694430179894,0.007375596556812525,0.0008592660306021571,-0.004000120796263218
-0.0019851732067763805,-0.009944978170096874,0.0002757442416623235,0.007168204057961702,0.0008476305520161986,-0.00393096124753356
-0.0018700958462432027,-0.009627374820411205,0.00029385986272245646,0.007909100502729416,0.0007724532042630017,-0.004013414494693279
-0.0019106094259768724,-0.010016522370278835,0.00029454578179866076,0.007840340957045555,0.0007615408976562321,-0.004066134802997112
-0.0019106094259768724,-0.010016522370278835,0.00029454578179866076,0.007840340957045555,0.0007615408976562321,-0.004066134802997112
-0.001895038760267198,-0.009938650764524937,0.0002795215987134725,0.007101441267877817,0.0007086748373694718,-0.003993730526417494
-0.0020277765579521656,-0.009087972342967987,0.0002657668082974851,0.007086009718477726,0.0006560517940670252,-0.004338239785283804
-0.0019742853473871946,-0.009479261003434658,0.0002937908284366131,0.006915153935551643,0.0006381591665558517,-0.004183847922831774
-0.0018214735900983214,-0.009781952016055584,0.00028225057758390903,0.006703105289489031,0.0006155346054583788,-0.00404012855142355
-0.0016599689843133092,-0.009290405549108982,0.0002701690827962011,0.006385974586009979,0.000555442355107516,-0.0042787641286849976
-0.001620646333321929,-0.009330688044428825,0.0002945612941402942,0.006525095086544752,0.000581684522330761,-0.004229628015309572
-0.0016927478136494756,-0.009482047520577908,0.00028435306739993393,0.006724775303155184,0.0005371461156755686,-0.004306826740503311
-0.0016014360589906573,-0.008927198126912117,0.0003607704711612314,0.00667519960552454,0.000529478071257472,-0.004699801094830036
-0.0017938027158379555,-0.009249422699213028,0.00034462715848349035,0.006600810680538416,0.0005223281332291663,-0.0048724208027124405
-0.0016999334329739213,-0.009594453498721123,0.0003766077570617199,0.0068125552497804165,0.0004888935363851488,-0.004749992862343788
-0.001903993310406804,-0.008768538944423199,0.00035866256803274155,0.007225070148706436,0.0004579165542963892,-0.004570316523313522
-0.0019691339693963528,-0.009572231210768223,0.00036942726001143456,0.007429610937833786,0.00040329978219233453,-0.0039012557826936245
-0.0017865707632154226,-0.009003709070384502,0.0003981390327680856,0.006958322133868933,0.00036852105404250324,-0.004302241373807192
-0.0016631991602480412,-0.008894221857190132,0.00037789996713399887,0.006448668427765369,0.0003404974995646626,-0.004551254212856293
-0.0016919003101065755,-0.009422003291547298,0.0003590616979636252,0.006656436715275049,0.0003472489188425243,-0.004442291799932718
-0.0018128138035535812,-0.00911606103181839,0.00046367934555746615,0.006733428221195936,0.0003527234075590968,-0.004578976426273584
-0.0018128138035535812,-0.00911606103181839,0.00046367934555746615,0.006733428221195936,0.0003527234075590968,-0.004578976426273584
-0.0017132738139480352,-0.008948350325226784,0.00046516128350049257,0.0061795334331691265,0.00031360326102003455,-0.004559325519949198
-0.0017319393809884787,-0.009296542033553123,0.00042921010754071176,0.006325434893369675,0.0002963918086607009,-0.004557909443974495
-0.0015946992207318544,-0.008864209055900574,0.00045590856461785734,0.0064292168244719505,0.00032149741309694946,-0.004808117635548115
-0.0015946992207318544,-0.008864209055900574,0.00045590856461785734,0.0064292168244719505,0.00032149741309694946,-0.004808117635548115
-0.0014329443220049143,-0.008871163241565228,0.0004043246153742075,0.006188384257256985,0.0002968625631183386,-0.004341100342571735
-0.0014329443220049143,-0.008871163241565228,0.0004043246153742075,0.006188384257256985,0.0002968625631183386,-0.004341100342571735
-0.0016545765101909637,-0.008495689369738102,0.0004094833566341549,0.006179251242429018,0.00027131178649142385,-0.004736085422337055
-0.0016545765101909637,-0.008495689369738102,0.0004094833566341549,0.006179251242429018,0.00027131178649142385,-0.004736085422337055
-0.0015613274881616235,-0.008861894719302654,0.0004592250916175544,0.006827228236943483,0.0002601076557766646,-0.004731939639896154
-0.0016787059139460325,-0.008690837770700455,0.00047448481200262904,0.0065389834344387054,0.000283050729194656,-0.00454422552138567
-0.0015176766319200397,-0.008231903426349163,0.00046040763845667243,0.006165361497551203,0.00027442927239462733,-0.004403030965477228
-0.0013970214640721679,-0.008287976495921612,0.00048677605809643865,0.005946031771600246,0.0002644885971676558,-0.004172189626842737
-0.0013214930659160018,-0.008811336010694504,0.00045909080654382706,0.0064000822603702545,0.0002553515078034252,-0.004388813860714436
-0.0012793579371646047,-0.008455500937998295,0.0004679678240790963,0.006357753649353981,0.00024683430092409253,-0.004520250018686056
-0.0012615533778443933,-0.00843808427453041,0.00045773934107273817,0.006145256571471691,0.00023433580645360053,-0.00482746958732605
-0.0015915874391794205,-0.008691636845469475,0.0005663929623551667,0.005644041579216719,0.00022275568335317075,-0.004702110309153795
-0.001524713123217225,-0.008199922740459442,0.00061031588120386,0.0051322937943041325,0.0002329803246539086,-0.0048519582487642765
-0.0017117670504376292,-0.008282462134957314,0.0006192246801219881,0.0050681098364293575,0.00024180450418498367,-0.004758779890835285
-0.001517484663054347,-0.00846034474670887,0.0005903508281335235,0.005603298544883728,0.0002326445683138445,-0.004422944970428944
-0.0011548749171197414,-0.00814651045948267,0.0009234324097633362,0.004983354825526476,0.0002493414212949574,-0.003961633890867233
-0.0012168680550530553,-0.008116264827549458,0.0008211660897359252,0.004665298853069544,0.00027240783674642444,-0.004307538736611605
-0.001212234259583056,-0.009109029546380043,0.0008301401976495981,0.004647926893085241,0.0002647904912009835,-0.004563416354358196
-0.0014581972500309348,-0.008049758151173592,0.0007348298677243292,0.004774634726345539,0.00040464664925821126,-0.004780107643455267
-0.0013639782555401325,-0.007985292002558708,0.0006580509361810982,0.005099148023873568,0.0004370991082396358,-0.004763563629239798
-0.0012908645439893007,-0.008329985663294792,0.0005957870744168758,0.0055282264947891235,0.00042104790918529034,-0.00469917943701148
-0.0013241891283541918,-0.00832926295697689,0.0005442906985990703,0.005574510898441076,0.00045236715232022107,-0.004300318658351898
-0.0012811810011044145,-0.008154714480042458,0.0005009939195588231,0.0055540152825415134,0.000482422299683094,-0.004110825713723898
-0.001216605887748301,-0.007931932806968689,0.0005911373882554471,0.0051699611358344555,0.0007254150696098804,-0.004336286801844835
-0.0011086887679994106,-0.007616287562996149,0.000558040919713676,0.005399774760007858,0.0008461179095320404,-0.005114278756082058
-0.0010788135696202517,-0.00789051502943039,0.0004332585376687348,0.0053254771046340466,0.0008883411064743996,-0.0053465343080461025
-0.0010788135696202517,-0.00789051502943039,0.0004332585376687348,0.0053254771046340466,0.0008883411064743996,-0.0053465343080461025
-0.0010611164616420865,-0.007546438369899988,0.00046984615619294345,0.0049974350258708,0.0010051180142909288,-0.00503356521949172
-0.0010417579906061292,-0.007465127855539322,0.00043497871956788003,0.004696558695286512,0.0011357887415215373,-0.004659079015254974
-0.0012178551405668259,-0.007876266725361347,0.0004025868547614664,0.004663454368710518,0.0011037058429792523,-0.00471880566328764
-0.0010520999785512686,-0.007769452873617411,0.0004977303324267268,0.004440179094672203,0.0010732450755313039,-0.00461990712210536
-0.0010255854576826096,-0.008170243352651596,0.0006494750268757343,0.0044848076067864895,0.0011567416368052363,-0.005297505762428045
-0.0009652533917687833,-0.00772344134747982,0.000728953571524471,0.004212907049804926,0.0011262171901762486,-0.005370433442294598
-0.0008849286241456866,-0.008163808844983578,0.0006778322858735919,0.0039049906190484762,0.0011271871626377106,-0.005121265538036823
-0.000770298414863646,-0.0071439011953771114,0.0006907919887453318,0.003766098525375128,0.0011810455471277237,-0.005002858582884073
-0.0007826305227354169,-0.0071918899193406105,0.0006323315319605172,0.004034325946122408,0.001162376836873591,-0.004837521817535162
-0.0007881541969254613,-0.008104135282337666,0.0006282586837187409,0.003944355063140392,0.0010552015155553818,-0.004614748526364565
-0.000777661451138556,-0.007812102325260639,0.000601556443143636,0.0038074760232120752,0.0009618575568310916,-0.00547937722876668
-0.0007331031956709921,-0.0070813498459756374,0.0005963064613752067,0.0038412190042436123,0.0009488202049396932,-0.005447329953312874
-0.0008183530881069601,-0.007233657408505678,0.0005833327886648476,0.004214502405375242,0.0009136058506555855,-0.005278966389596462
-0.0008257105364464223,-0.007012197747826576,0.0006039627478457987,0.0037746052257716656,0.0009467609343118966,-0.0047483923844993114
-0.0008258019806817174,-0.007029149681329727,0.0005598576390184462,0.003411840181797743,0.0010358376894146204,-0.004911970812827349
-0.0007511414005421102,-0.007126165088266134,0.0005142748705111444,0.0032753737177699804,0.0011427939170971513,-0.005307629704475403
-0.0006858399137854576,-0.007012620568275452,0.00047545143752358854,0.0033888693433254957,0.001119429711252451,-0.005389359313994646
-0.0006494232802651823,-0.0073324693366885185,0.0005043250857852399,0.003227932844310999,0.001077525783330202,-0.005339851602911949
-0.0006418786360882223,-0.0071389274671673775,0.00047208700561895967,0.003545291256159544,0.000964252685662359,-0.004987016785889864
-0.0006048257346265018,-0.007001320831477642,0.00046928011579439044,0.0033741912338882685,0.000984499347396195,-0.0050326017662882805
-0.0005443019908852875,-0.007099277339875698,0.00043784192530438304,0.0031060287728905678,0.0009731315658427775,-0.005296499468386173
-0.0005668462836183608,-0.00740685872733593,0.000399177020881325,0.0030016987584531307,0.0009794782381504774,-0.005236972123384476
-0.0005283135105855763,-0.007357371971011162,0.0004389022651594132,0.0028967522084712982,0.0010500808712095022,-0.004942827858030796
-0.0005283135105855763,-0.007357371971011162,0.0004389022651594132,0.0028967522084712982,0.0010500808712095022,-0.004942827858030796
-0.0005487879971042275,-0.0068582589738070965,0.00040680289384908974,0.002808405552059412,0.0010617279913276434,-0.00503793079406023
-0.0005170441581867635,-0.007216889876872301,0.00043873596587218344,0.003010984743013978,0.001037142239511013,-0.0051562306471168995
-0.0004824935458600521,-0.007475376594811678,0.0004124260740354657,0.0028290802147239447,0.0010174406925216317,-0.005339925177395344
-0.00044996305950917304,-0.006890237797051668,0.00044012797297909856,0.0027701205108314753,0.0009978439193218946,-0.005438338033854961
-0.0004091900191269815,-0.0062678237445652485,0.0004167674924246967,0.002632997464388609,0.0010971581796184182,-0.005582701880484819
-0.0003750711621250957,-0.006724213715642691,0.00047588194138370454,0.00252946512773633,0.0011027512373402715,-0.005237557925283909
-0.00034620569203980267,-0.006940597202628851,0.0004404720093589276,0.002846230985596776,0.0010934763122349977,-0.005267483182251453
-0.00032146842568181455,-0.006843160837888718,0.000480408692965284,0.0031357579864561558,0.0011741714552044868,-0.005325992126017809
-0.00035754533018916845,-0.006161686964333057,0.00044212822103872895,0.002872251672670245,0.0011718941386789083,-0.0046224771067500114
-0.00033749552676454186,-0.006312582641839981,0.00047393765999004245,0.002522088587284088,0.0011125284945592284,-0.00543671241030097
-0.000300017767585814,-0.00734159629791975,0.00041409372352063656,0.0018852424109354615,0.0009784105932340026,-0.005812030751258135
-0.0002842260873876512,-0.006729242391884327,0.000443264318164438,0.00194490363355726,0.0008482185658067465,-0.00543168792501092
-0.0002842260873876512,-0.006729242391884327,0.000443264318164438,0.00194490363355726,0.0008482185658067465,-0.00543168792501092
-0.00027001212583854795,-0.006231056526303291,0.0004182474804110825,0.001969234785065055,0.0008187056519091129,-0.00522399228066206
-0.00025715227820910513,-0.006728233769536018,0.00044401688501238823,0.002055801684036851,0.0008274302235804498,-0.004894153214991093
-0.00023478970979340374,-0.006904128938913345,0.00044106278801336884,0.0023035327903926373,0.001098537934012711,-0.005308873485773802
-0.0002250057877972722,-0.006313188932836056,0.0004304921021685004,0.0020945181604474783,0.0010957388440147042,-0.005332381464540958
-0.00021600448235403746,-0.0061193667352199554,0.00039900754927657545,0.0018746134592220187,0.0009989234386011958,-0.005709557794034481
-0.00020769654656760395,-0.006606433540582657,0.00042604695772752166,0.0017848433926701546,0.0009807228343561292,-0.005901864264160395
-0.0002000039239646867,-0.006833401042968035,0.00040546656236983836,0.001687261974439025,0.0009503721375949681,-0.005346868187189102
-0.00019286021415609866,-0.0064904154278337955,0.00038103052065707743,0.0017130032647401094,0.0009479478467255831,-0.005016690585762262
-0.00018621030903887004,-0.006372437812387943,0.0004045050300192088,0.0019527638796716928,0.0009315605275332928,-0.005623222794383764
-0.00018000284035224468,-0.006709753070026636,0.00038838712498545647,0.002075981581583619,0.0009267629939131439,-0.005649352911859751
-0.0001741960149956867,-0.00684962747618556,0.0003685778647195548,0.002110021887347102,0.0009280992671847343,-0.006062565371394157
-0.00016875220171641558,-0.006576416082680225,0.00035062924143858254,0.0018349926685914397,0.0009501971653662622,-0.006141608115285635
-0.00016363862960133702,-0.006357022561132908,0.0003343470161780715,0.0016230400651693344,0.0009441906586289406,-0.005601972807198763
-0.0001588252926012501,-0.006067880429327488,0.00033902510767802596,0.001344048767350614,0.0009302615071646869,-0.005805799271911383
-0.0001315944828093052,-0.006099976599216461,0.00026060990057885647,0.0009881824953481555,0.0009588311659172177,-0.005479693412780762
-0.0001315944828093052,-0.006099976599216461,0.00026060990057885647,0.0009881824953481555,0.0009588311659172177,-0.005479693412780762
8.217777212848887e-05,-0.006090362556278706,0.00016665727889630944,0.0008062196429818869,0.0011020528618246317,-0.0058641438372433186
9.546147339278832e-05,-0.005750769283622503,0.00015672569861635566,0.0008056373917497694,0.0013981820084154606,-0.006162854842841625
9.546147339278832e-05,-0.005750769283622503,0.00015672569861635566,0.0008056373917497694,0.0013981820084154606,-0.006162854842841625
9.241128282155842e-05,-0.005618989001959562,0.0001804558705771342,0.0007762708119116724,0.0013330724323168397,-0.005928256548941135
5.998381311655976e-05,-0.0058289808221161366,0.00018699707288760692,0.0007416812586598098,0.0011755364248529077,-0.005848002154380083
5.766776666860096e-05,-0.006057435180991888,0.00017796615429688245,0.0006809278856962919,0.0011165763717144728,-0.006075732875615358
5.5872456869110465e-05,-0.006234104745090008,0.00016958481865003705,0.0005886327126063406,0.0009697637287899852,-0.005694751627743244
7.809871021891013e-05,-0.005979415960609913,0.00016195492935366929,0.0005960435955785215,0.0009198196930810809,-0.005917451344430447
7.886699313530698e-05,-0.006313308607786894,0.00015498200082220137,0.0006024523172527552,0.0009969212114810944,-0.005756641272455454
7.666850433452055e-05,-0.006632421165704727,0.00014858493523206562,0.000588066061027348,0.0011756959138438106,-0.0057290093973279
7.455208105966449e-05,-0.006174636539071798,0.00014269519306253642,0.0005969346966594458,0.001476880395784974,-0.005790937226265669
7.254894444486126e-05,-0.006368088070303202,0.00013725439202971756,0.0005675475113093853,0.0014314037980511785,-0.006200298201292753
7.065065437927842e-05,-0.005820190068334341,0.0001322136085946113,0.00062848802190274,0.0015155698638409376,-0.006245897617191076
8.91058734850958e-05,-0.005782369524240494,0.0001275298127438873,0.0005668785888701677,0.0013845955254510045,-0.005974148865789175
8.734373841434717e-05,-0.005801097955554724,0.00011909197928616777,0.0005315631278790534,0.001153896446339786,-0.006329101976007223
8.527524914825335e-05,-0.005545463878661394,0.00011527838069014251,0.0004935305914841592,0.0009488646173849702,-0.006243251729756594
0.00010329219367122278,-0.005485870875418186,0.00011170141078764573,0.0004527998389676213,0.0008907887386158109,-0.005702991504222155
0.00010176149953622371,-0.006069717928767204,0.00010833964915946126,0.0004177808004897088,0.0008888913434930146,-0.005522357299923897
0.00019153863831888884,-0.005541960708796978,0.00010517461487324908,0.00038776244036853313,0.0008901788387447596,-0.006023806054145098
0.000227571654249914,-0.005317822098731995,0.00010218913666903973,0.0003617681795731187,0.0009720422676764429,-0.0064197806641459465
0.0002588657371234149,-0.005634455010294914,9.936846618074924e-05,0.00033904064912348986,0.0011284833308309317,-0.006287471856921911
0.000248625292442739,-0.005979504436254501,9.669916471466422e-05,0.0003190029819961637,0.0011497243540361524,-0.00645188195630908
0.0002726273378357291,-0.005443645175546408,9.416985994903371e-05,0.00033820554381236434,0.0015146142104640603,-0.00622694194316864
0.00026556410011835396,-0.005278711672872305,9.17693178053014e-05,0.0003319688839837909,0.0015648175030946732,-0.005864640232175589
0.0002787683333735913,-0.005371796432882547,8.948816685006022e-05,0.0003160681517329067,0.0014515680959448218,-0.0064172265119850636
0.0002787683333735913,-0.005371796432882547,8.948816685006022e-05,0.0003160681517329067,0.0014515680959448218,-0.0064172265119850636
0.00027979674632661045,-0.005572434514760971,8.731757407076657e-05,0.0003010117507074028,0.0014617928536608815,-0.006556218024343252
0.0006131333648227155,-0.0051834722980856895,8.52497250889428e-05,0.0002034998469753191,0.001402899157255888,-0.006432454101741314
0.0005914890207350254,-0.005022336728870869,8.327782416017726e-05,0.0001146450886153616,0.0014187422348186374,-0.006085988134145737
0.0006212394218891859,-0.005669367965310812,8.139490091707557e-05,0.00010308347555110231,0.0013359306612983346,-0.006155057810246944
0.0005665451753884554,-0.005385112017393112,7.959535287227482e-05,9.718799992697313e-05,0.001298314891755581,-0.006136475130915642
0.0005487495800480247,-0.005044959019869566,7.62247436796315e-05,8.769357373239473e-05,0.0011860450031235814,-0.006652664393186569
0.0005487495800480247,-0.005044959019869566,7.62247436796315e-05,8.769357373239473e-05,0.0011860450031235814,-0.006652664393186569
0.0006516322027891874,-0.005328567698597908,7.464426016667858e-05,8.361858635907993e-05,0.0012240513460710645,-0.005961158312857151
0.0006849395576864481,-0.005434166174381971,7.312801608350128e-05,7.990561425685883e-05,0.0012783287093043327,-0.006089936476200819
0.0007011903799138963,-0.005021695513278246,7.167212606873363e-05,7.650849875062704e-05,0.0012346114963293076,-0.006128672976046801
0.0006409425404854119,-0.0054985154420137405,7.027316314633936e-05,7.338861178141087e-05,0.0012659200001507998,-0.0061718616634607315
0.0006637609330937266,-0.005090157501399517,6.892770034028217e-05,3.994867438450456e-05,0.001239242497831583,-0.006523464806377888
0.0007491642027162015,-0.004772307816892862,5.650620732922107e-05,3.4233646147185937e-05,0.0013353057438507676,-0.006749847903847694
0.0008002109243534505,-0.004786141682416201,-3.856810508295894e-05,3.1549701816402376e-05,0.0015945897903293371,-0.006293775048106909
0.0008115139789879322,-0.004945412278175354,-4.120234734728001e-05,4.039873147121398e-06,0.0016740288119763136,-0.006269128527492285
0.0011695745633915067,-0.004834465216845274,-4.032645665574819e-05,2.6377483663964085e-07,0.0015889671631157398,-0.006256077438592911
0.0011462961556389928,-0.004689473193138838,-3.944343188777566e-05,1.7222612669343107e-08,0.0016376012936234474,-0.006083058658987284
0.0011083802673965693,-0.004667719826102257,-3.8597667298745364e-05,1.1245134823312242e-09,0.001539761433377862,-0.006333491764962673
0.0011347157415002584,-0.00466694263741374,-3.778743484872393e-05,7.342269847665506e-11,0.0016459114849567413,-0.006690004840493202
0.0011050525354221463,-0.004513089079409838,-3.701042805914767e-05,4.7939777148009455e-12,0.00158910290338099,-0.006787780672311783
0.0010700983693823218,-0.00463844882324338,-3.6264849768485874e-05,3.130124740131912e-13,0.0016597338253632188,-0.006488093640655279
0.001059976639226079,-0.0051677050068974495,-3.554860450094566e-05,2.0437476919697196e-14,0.001557924086228013,-0.006478091236203909
0.001059976639226079,-0.0051677050068974495,-3.554860450094566e-05,2.0437476919697196e-14,0.001557924086228013,-0.006478091236203909
0.0011599812423810363,-0.004769886843860149,-3.486013156361878e-05,1.3344213166977003e-15,0.00145242630969733,-0.0062608192674815655
0.0011521814158186316,-0.004996840376406908,-3.419790300540626e-05,8.712816476496188e-17,0.0012110586976632476,-0.006472974084317684
0.0011408478021621704,-0.004824650939553976,-3.3560263545950875e-05,-0.00014712783740833402,0.001227248809300363,-0.006238819565623999
0.0013260437408462167,-0.0047080861404538155,-3.294603084214032e-05,-0.0007822817424312234,0.0012146218214184046,-0.006314494181424379
0.0012586405500769615,-0.004364474210888147,-3.2353869755752385e-05,-0.0008994551608338952,0.0013859530445188284,-0.006760008167475462
0.0012268278514966369,-0.004093049094080925,-3.1782594305695966e-05,-0.001478386577218771,0.0013628671877086163,-0.0066773477010428905
0.001328786718659103,-0.0041787466034293175,-3.123116766801104e-05,-0.0017508507007732987,0.001337556866928935,-0.006379094440490007
0.001259880606085062,-0.004135236144065857,-4.543485920294188e-05,-0.002599557628855109,0.0016024443320930004,-0.006382163614034653
0.0015544602647423744,-0.004281025379896164,-4.526743578026071e-05,-0.0030228050891309977,0.0015654723392799497,-0.006871421821415424
0.0017400456126779318,-0.004153883550316095,-4.452884604688734e-05,-0.003388144075870514,0.0018704920075833797,-0.006854410283267498
0.002885033842176199,-0.0036142172757536173,-4.3806503526866436e-05,-0.0037608607672154903,0.0018002900760620832,-0.006816159468144178
0.003133381949737668,-0.0034930494148284197,-4.3107178498758e-05,-0.004305720794945955,0.001847216160967946,-0.006697309669107199
0.0029321631882339716,-0.0035673570819199085,-4.242969589540735e-05,-0.004303783178329468,0.0018371551996096969,-0.0065544405952095985
0.0025505574885755777,-0.004225332755595446,-4.177328446530737e-05,-0.0048990799114108086,0.0018262872472405434,-0.006839130073785782
0.0023138546384871006,-0.0040807053446769714,-5.4662308684783056e-05,-0.0048655252903699875,0.001828994252718985,-0.007228098344057798
0.002607599599286914,-0.0035003821831196547,-5.32272424607072e-05,-0.004332591313868761,0.0016477860044687986,-0.0067757791839540005
0.0028184002730995417,-0.003630592953413725,-5.2451756346272305e-05,-0.004450943320989609,0.0016614431515336037,-0.0064665526151657104
0.003294228808954358,-0.003673572326079011,-5.169854557607323e-05,-0.005224939435720444,0.00188904395326972,-0.006286537740379572
0.003221635241061449,-0.003615397959947586,-5.096661698189564e-05,-0.00536762923002243,0.002131143817678094,-0.006523138377815485
0.0029744526837021112,-0.0038404471706598997,-5.025517020840198e-05,-0.005484139081090689,0.0021170300897210836,-0.007049199193716049
0.0030727824196219444,-0.003743488574400544,-4.9563273933017626e-05,-0.005451249424368143,0.002039484214037657,-0.00706911738961935
0.0033168892841786146,-0.003047366626560688,-4.889022602583282e-05,-0.005537393037229776,0.0018288289429619908,-0.00715803075581789
0.0036161087919026613,-0.0034234013874083757,-4.823516428587027e-05,-0.005513834301382303,0.0016188113950192928,-0.007572926115244627
0.0036161087919026613,-0.0034234013874083757,-4.823516428587027e-05,-0.005513834301382303,0.0016188113950192928,-0.007572926115244627
0.003769590752199292,-0.0035050949081778526,-5.825289917993359e-05,-0.006658466532826424,0.001302987802773714,-0.006568355951458216
0.0038889741990715265,-0.0030426594894379377,-5.795782635686919e-05,-0.007422155700623989,0.0012866241158917546,-0.007127024233341217
0.004035483580082655,-0.003010209184139967,-5.722688001696952e-05,-0.007712810765951872,0.0016472487477585673,-0.007400455418974161
0.004035483580082655,-0.003010209184139967,-5.722688001696952e-05,-0.007712810765951872,0.0016472487477585673,-0.007400455418974161
0.004067568574100733,-0.0027251241263002157,-5.658950249198824e-05,-0.007678165100514889,0.001668802578933537,-0.007152441889047623
0.003953516948968172,-0.0025467299856245518,-0.00011544949666131288,-0.007628144696354866,0.002085027750581503,-0.007299440447241068
0.003959011286497116,-0.0027020853012800217,-0.00011335106682963669,-0.0067404331639409065,0.0020935977809131145,-0.007500906940549612
0.004162351600825787,-0.0029034726321697235,-0.00011057659139623865,-0.006720482837408781,0.002090462250635028,-0.007090025581419468
0.0041972799226641655,-0.0028367165941745043,-0.00010792477405630052,-0.007618962321430445,0.0019608326256275177,-0.0073274350725114346
0.004359629470854998,-0.002870290307328105,-0.00012563032214529812,-0.007777335122227669,0.0019519553752616048,-0.007490491960197687
0.004584279842674732,-0.002906335983425379,-0.00012357068771962076,-0.0074790301732718945,0.0020866086706519127,-0.007576325908303261
0.0048029194585978985,-0.0027575676795095205,-0.00012081686145393178,-0.0075251455418765545,0.0021056467667222023,-0.007932111620903015
0.0047303163446486,-0.002734508365392685,-0.00011817306221928447,-0.008496161550283432,0.002419055672362447,-0.007931085303425789
0.005213454831391573,-0.0025270169135183096,-0.00011564224405447021,-0.008621163666248322,0.0022644337732344866,-0.007758286781609058
0.005283867008984089,-0.002518682973459363,-0.00011321797501295805,-0.008172142319381237,0.0023374019656330347,-0.0078342966735363
0.005548166576772928,-0.0023329711984843016,-0.00012912183592561632,-0.008193114772439003,0.002349770860746503,-0.0077211386524140835
0.0053102062083780766,-0.0024502493906766176,-0.00012676841288339347,-0.008728000335395336,0.0022193007171154022,-0.007893463596701622
0.005451498553156853,-0.002384088234975934,-0.00012427112960722297,-0.00865901354700327,0.0018877837574109435,-0.007529047317802906
0.005695246160030365,-0.002070250455290079,-0.00013595075870398432,-0.009384030476212502,0.0018055819673463702,-0.007958554662764072
0.005846852902323008,-0.0019971420988440514,-0.00013408011000137776,-0.009220325388014317,0.002030838280916214,-0.008019762113690376
0.005946928169578314,-0.0019177291542291641,-0.00013163755647838116,-0.008559814654290676,0.0022751912474632263,-0.00815239455550909
0.005966416094452143,-0.0018903370946645737,-0.000129274238133803,-0.009237765334546566,0.002231321996077895,-0.00785992294549942
0.006261649541556835,-0.0019771228544414043,-0.00023173099907580763,-0.009523851796984673,0.00232926313765347,-0.008097589947283268
0.006294505205005407,-0.0018801320111379027,-0.00025391444796696305,-0.009179936721920967,0.002132224850356579,-0.007656662724912167
0.006012179888784885,-0.0018415700178593397,-0.00025644112611189485,-0.009195915423333645,0.00213919417001307,-0.00749758817255497
0.006460824981331825,-0.0018384270370006561,-0.00024500125437043607,-0.00937298871576786,0.0020272370893508196,-0.007689391262829304
0.006692423485219479,-0.0017240096349269152,-0.00023437017807736993,-0.009483445435762405,0.00202097836881876,-0.008630194701254368
0.00663344468921423,-0.0017455160850659013,-0.00022462030756287277,-0.009193414822220802,0.0022141030058264732,-0.008486972190439701
0.006466323975473642,-0.001584757468663156,-0.00024734274484217167,-0.009904817678034306,0.002350353868678212,-0.008074178360402584
0.006828847341239452,-0.0015663255471736193,-0.00024187185044866055,-0.009314402937889099,0.002770154969766736,-0.00778235262259841
0.00702702347189188,-0.00143310462590307,-0.00023298179439734668,-0.009660518728196621,0.0028793923556804657,-0.008291075006127357
0.0069429571740329266,-0.0014573981752619147,-0.00022467337839771062,-0.009636460803449154,0.002545938827097416,-0.00788626354187727
0.006887887604534626,-0.0013778655556961894,-0.0002474968205206096,-0.009079479612410069,0.002299036830663681,-0.008131359703838825
0.006772100925445557,-0.0014040102250874043,-0.00023966857406776398,-0.009784677065908909,0.002211481798440218,-0.008466186001896858
0.007241060025990009,-0.0013467007083818316,-0.0002319532068213448,-0.009853397496044636,0.002102189464494586,-0.007949535734951496
0.007498960476368666,-0.0012974508572369814,-0.00022471351257991046,-0.009380006231367588,0.0020553921349346638,-0.007668925914913416
0.007498960476368666,-0.0012974508572369814,-0.00022471351257991046,-0.009380006231367588,0.0020553921349346638,-0.007668925914913416
0.006766566541045904,-0.0013057335745543242,-0.000283594272332266,-0.010630321688950062,0.002376168267801404,-0.00877682026475668
0.006766566541045904,-0.0013057335745543242,-0.000283594272332266,-0.010630321688950062,0.002376168267801404,-0.00877682026475668
0.007186085917055607,-0.001273054862394929,-0.000266822287812829,-0.009798597544431686,0.002267543226480484,-0.008465280756354332
0.007506986614316702,-0.0012019594432786107,-0.00028487079543992877,-0.009629983454942703,0.002360951155424118,-0.008181995712220669
0.007511640898883343,-0.0011573570081964135,-0.00028600567020475864,-0.01050608977675438,0.0021970414090901613,-0.008570194244384766
0.008007475174963474,-0.0010641708504408598,-0.00027182555641047657,-0.010800627991557121,0.00209232815541327,-0.009046463295817375
0.007942392490804195,-0.0010355242993682623,-0.0003013253153767437,-0.010279485955834389,0.002096958225592971,-0.008408294059336185
0.008219039998948574,-0.0010134981712326407,-0.00028811549418605864,-0.010577973909676075,0.002032387303188443,-0.008522873744368553
0.007762915454804897,-0.0009976167930290103,-0.00031327761826105416,-0.01031812746077776,0.0019943227525800467,-0.008431155234575272
0.007732456084340811,-0.0009596378658898175,-0.00030166577198542655,-0.01042487844824791,0.0020315006840974092,-0.008312181569635868
0.008576572872698307,-0.000955505296587944,-0.00040396235999651253,-0.010547853074967861,0.0024184228386729956,-0.00833530630916357
0.008066842332482338,-0.0009408746846020222,-0.0004248998302500695,-0.010681094601750374,0.0026252258103340864,-0.008564502000808716
0.0077851442620158195,-0.000941706239245832,-0.00039420233224518597,-0.010263804346323013,0.0026713444385677576,-0.007966579869389534
0.00820433534681797,-0.0009300893289037049,-0.0004212672938592732,-0.010719876736402512,0.002660027937963605,-0.00839357078075409
0.008271549828350544,-0.0008355510653927922,-0.0004012050630990416,-0.011159303598105907,0.0024029482156038284,-0.00857512280344963
0.008361429907381535,-0.0008428737055510283,-0.00048060884000733495,-0.010771926492452621,0.002489625010639429,-0.008485779166221619
0.008636008948087692,-0.0008465660503134131,-0.00045759021304547787,-0.010423931293189526,0.002482426818460226,-0.00804879516363144
0.00820181518793106,-0.0008204733021557331,-0.0005126390606164932,-0.010661046952009201,0.0023388906847685575,-0.008517211303114891
0.00836167111992836,-0.0007218833779916167,-0.0005313560250215232,-0.01059076376259327,0.0023623569868505,-0.008596474304795265
0.00850593764334917,-0.0007449115510098636,-0.0005105368909426033,-0.010959089733660221,0.0022382887545973063,-0.00849947053939104
0.008649498224258423,-0.0007518603815697134,-0.0005351657164283097,-0.010846697725355625,0.002303990302607417,-0.008557597175240517
0.008843864314258099,-0.0006822330178692937,-0.0005011213361285627,-0.010512493550777435,0.0023494826164096594,-0.008693386800587177
0.008882963098585606,-0.0006156819872558117,-0.000591415271628648,-0.01107421051710844,0.002239277819171548,-0.008664594031870365
0.008945980109274387,-0.0006312559125944972,-0.000560060900170356,-0.010821960866451263,0.0023266158532351255,-0.008681404404342175
0.008876624517142773,-0.0005884248530492187,-0.0004746767517644912,-0.010462571866810322,0.002234408864751458,-0.008841441944241524
0.008523457683622837,-0.0005440672975964844,-0.0005224060732871294,-0.010813173837959766,0.002467561513185501,-0.008586226962506771
0.008448322303593159,-0.0005058356910012662,-0.0005617523565888405,-0.010425496846437454,0.0027828726451843977,-0.00878836214542389
0.009675917215645313,-0.0004747287312056869,-0.0006810053600929677,-0.01081856619566679,0.0028566631954163313,-0.009167584590613842
0.009096681140363216,-0.00040251101017929614,-0.0010044558439403772,-0.010964702814817429,0.0027905756141990423,-0.008948436938226223
0.009096681140363216,-0.00040251101017929614,-0.0010044558439403772,-0.010964702814817429,0.0027905756141990423,-0.008948436938226223
0.009158075787127018,-0.0003410929930396378,-0.000890640658326447,-0.01108460407704115,0.0030192940030246973,-0.008767846040427685
0.00901115220040083,-0.0003170549462083727,-0.0008827372803352773,-0.012251484207808971,0.0030602545011788607,-0.00907968357205391
0.00901115220040083,-0.0003170549462083727,-0.0008827372803352773,-0.012251484207808971,0.0030602545011788607,-0.00907968357205391
0.008808435872197151,-0.00029618164990097284,-0.0008910466567613184,-0.011365668848156929,0.0027400993276387453,-0.009015624411404133
0.010006320662796497,-0.000277888699201867,-0.0010028596734628081,-0.011317255906760693,0.0026912582106888294,-0.009026853367686272
0.009495160542428493,-0.00026172370417043567,-0.0010192912304773927,-0.011050622910261154,0.0026257566642016172,-0.009152173064649105
0.009381069801747799,-0.0002473362837918103,-0.0015029610367491841,-0.01156398095190525,0.0027021458372473717,-0.008922142907977104
0.008002865128219128,-0.00023444845282938331,-0.0015326046850532293,-0.012092800810933113,0.002671623369678855,-0.009068070910871029
0.006999465636909008,-0.0002228377416031435,-0.0016029254766181111,-0.011990582570433617,0.0030356338247656822,-0.009115394204854965
0.006804366130381823,-0.00021232244034763426,-0.0016660065157338977,-0.012135956436395645,0.0030473528895527124,-0.00906775239855051
0.00786734651774168,-0.0002027551963692531,-0.0015267555136233568,-0.011518338695168495,0.0031015798449516296,-0.009173782542347908
0.0076104565523564816,-0.00018599325267132372,-0.0015994192799553275,-0.012156500481069088,0.003039694158360362,-0.00938783586025238
0.007482423447072506,-0.00017861083324532956,-0.0018141340697184205,-0.01248945016413927,0.00329154497012496,-0.009399713017046452
0.007466612383723259,-0.0001717919803922996,-0.0018207761459052563,-0.012613282538950443,0.003250979818403721,-0.009343995712697506
0.0076925549656152725,-0.00016547444101888686,-0.0019170930609107018,-0.012927473522722721,0.002811331069096923,-0.008930262178182602
0.008154141716659069,-0.00015960542077664286,-0.0019156021298840642,-0.013460773974657059,0.0025028076488524675,-0.009190470911562443
0.0078066191636025906,-0.00012694252654910088,-0.0021613293793052435,-0.013077039271593094,0.002402455545961857,-0.008836797438561916
0.007324874866753817,5.660974784404971e-05,-0.001990042394027114,-0.013298502191901207,0.0024381326511502266,-0.008936450816690922
0.00775867747142911,0.0002070935006486252,-0.002105528488755226,-0.01307373121380806,0.002412822563201189,-0.00900916289538145
0.007544424384832382,0.0026839333586394787,-0.002292250981554389,-0.014014249667525291,0.002505848417058587,-0.008840503171086311
0.00801038183271885,0.0013338353019207716,-0.0022155065089464188,-0.01373355183750391,0.002632141811773181,-0.009143109433352947
0.008126216009259224,0.00033089605858549476,-0.0021316329948604107,-0.014188515953719616,0.0026506485883146524,-0.009029846638441086
0.008281869813799858,0.00023005629191175103,-0.0021247381810098886,-0.013583747670054436,0.0028454833664000034,-0.00908652599900961
0.008242566138505936,0.00034222431713715196,-0.00237341714091599,-0.013884734362363815,0.0032620106358081102,-0.008993379771709442
0.008222254924476147,0.0004363381885923445,-0.0021314811892807484,-0.01367101538926363,0.003288246225565672,-0.009171015582978725
0.008724423125386238,0.00047375401481986046,-0.0021368039306253195,-0.014291318133473396,0.003125278977677226,-0.009011715650558472
0.00897173024713993,0.00045364504330791533,-0.002303790533915162,-0.014536772854626179,0.002998968819156289,-0.009958668611943722
0.00897173024713993,0.00045364504330791533,-0.002303790533915162,-0.014536772854626179,0.002998968819156289,-0.009958668611943722
0.0085495850071311,0.0004033211444038898,-0.002223197603598237,-0.014996275305747986,0.0029798184987157583,-0.0094370786100626
0.008577780798077583,0.00036267409450374544,-0.0022740752901881933,-0.01457824558019638,0.003116049338132143,-0.009490927681326866
0.008857247419655323,0.000199716494535096,-0.002156483940780163,-0.015097460709512234,0.0030905406456440687,-0.009482868015766144
0.008523505181074142,0.00025899489992298186,-0.0022496692836284637,-0.014469430781900883,0.003419534768909216,-0.009390013292431831
0.008401992730796337,0.0003094101557508111,-0.0020055670756846666,-0.0147766238078475,0.0032713303808122873,-0.009098968468606472
0.008820564486086369,0.00035743805347010493,-0.002102295169606805,-0.014166610315442085,0.002991078421473503,-0.008960251696407795
0.009242783300578594,0.0003425731265451759,-0.0019320840947329998,-0.015058564953505993,0.0028939354233443737,-0.009377635084092617
0.008420702069997787,0.0008760312339290977,-0.0021300322841852903,-0.015126855112612247,0.002658229088410735,-0.00902433693408966
0.008716450072824955,0.000799558823928237,-0.0023324741050601006,-0.015579482540488243,0.0025374870747327805,-0.009049860760569572
0.009179296903312206,0.000696984410751611,-0.0022474077995866537,-0.015526087954640388,0.0026703376788645983,-0.009325429797172546
0.00893447082489729,0.0006840711575932801,-0.0024776540230959654,-0.015577134676277637,0.0031399382278323174,-0.009115324355661869
0.009292390197515488,0.0006662427331320941,-0.0021999808959662914,-0.015548545867204666,0.0032433902379125357,-0.009544840082526207
0.009278381243348122,0.0006301303510554135,-0.00240502436645329,-0.016093531623482704,0.0032952658366411924,-0.009708249010145664
0.009168311953544617,0.0007375262794084847,-0.002287011593580246,-0.01624414138495922,0.0031687510199844837,-0.010036293417215347
0.009578925557434559,0.0007789923110976815,-0.002542597707360983,-0.01634790189564228,0.003067638725042343,-0.010236690752208233
0.009639876894652843,0.0011963382130488753,-0.002284663263708353,-0.01570948213338852,0.00301378290168941,-0.009779443964362144
0.009531374089419842,0.0011855114717036486,-0.0025201046373695135,-0.016235357150435448,0.002965332241728902,-0.009791028685867786
0.010396961122751236,0.0011342809302732348,-0.002374111907556653,-0.01575087383389473,0.0031104472000151873,-0.010000696405768394
0.00985074881464243,0.0010554754408076406,-0.0023389654234051704,-0.016064327210187912,0.002914534881711006,-0.010499213822185993
0.010081428103148937,0.0009567848173901439,-0.002673556562513113,-0.01588946208357811,0.003083188319578767,-0.009669785387814045
0.010873759165406227,0.0008246349170804024,-0.002623227657750249,-0.016228776425123215,0.003222219180315733,-0.009941339492797852
0.01011783815920353,0.0007775583653710783,-0.003028484294191003,-0.016092104837298393,0.0032970125321298838,-0.010204420424997807
0.009839482605457306,0.0008203615434467793,-0.0027808647137135267,-0.015784064307808876,0.0033524513710290194,-0.009448131546378136
0.010464204475283623,0.0011492592748254538,-0.0026830974966287613,-0.01616577059030533,0.0033326218836009502,-0.010075418278574944
0.009955557994544506,0.001553853740915656,-0.0026504574343562126,-0.01605369709432125,0.0029754559509456158,-0.010217702016234398
0.010677252896130085,0.0023310291580855846,-0.002492413390427828,-0.016712969169020653,0.0028237521182745695,-0.010563710704445839
0.011069199070334435,0.0022720089182257652,-0.0028972041327506304,-0.01665624789893627,0.002703297883272171,-0.01095376256853342
0.011069199070334435,0.0022720089182257652,-0.0028972041327506304,-0.01665624789893627,0.002703297883272171,-0.01095376256853342
0.01039894949644804,0.0019630787428468466,-0.0030494891107082367,-0.01691127009689808,0.0026787836104631424,-0.010334168560802937
0.010796444490551949,0.001728344475850463,-0.0029870306607335806,-0.01665385812520981,0.0027832116466015577,-0.009711854159832
0.010855638422071934,0.0015640166820958257,-0.0027751449961215258,-0.016818257048726082,0.002847498282790184,-0.009834567084908485
0.010766824707388878,0.0013808354269713163,-0.0028856194112449884,-0.017453862354159355,0.003241714322939515,-0.010671732015907764
0.011122801341116428,0.0014907894656062126,-0.0029264006298035383,-0.018569841980934143,0.0031941018532961607,-0.01020229421555996
0.011493210680782795,0.002446218626573682,-0.003418926615267992,-0.017220212146639824,0.0035106835421174765,-0.009882507845759392
0.011422445066273212,0.00256896810606122,-0.003767416113987565,-0.017244921997189522,0.00338332774117589,-0.009984560310840607
0.011148550547659397,0.002418517367914319,-0.003838864853605628,-0.01769116334617138,0.003249336499720812,-0.009855319745838642
0.01110369898378849,0.0022980370558798313,-0.0033729716669768095,-0.018476294353604317,0.0031673735938966274,-0.010065947659313679
0.01142837293446064,0.0020414558239281178,-0.0029841605573892593,-0.018280401825904846,0.0030514197424054146,-0.01045280136168003
0.011184068396687508,0.0024647237733006477,-0.0033741756342351437,-0.019204190000891685,0.003245383268222213,-0.010406874120235443
0.011647215113043785,0.003234222996979952,-0.003185955574735999,-0.018781669437885284,0.003086821874603629,-0.010043501853942871
0.011079665273427963,0.003015092108398676,-0.0035223225131630898,-0.018091216683387756,0.0030559024307876825,-0.009853889234364033
0.011663464829325676,0.0030938046984374523,-0.003352795261889696,-0.018506521359086037,0.002894345438107848,-0.010040001943707466
0.011379185132682323,0.003003479214385152,-0.003439594293013215,-0.018511885777115822,0.003029861021786928,-0.01031436026096344
0.011064223945140839,0.0029930868186056614,-0.0030369346495717764,-0.019282439723610878,0.003340723691508174,-0.009946952573955059
0.011961252428591251,0.0029037317726761103,-0.003069227561354637,-0.018916340544819832,0.0035973882768303156,-0.009650936350226402
0.011429800651967525,0.004045617301017046,-0.003378011751919985,-0.019000116735696793,0.0034025751519948244,-0.010071340948343277
0.011186092160642147,0.004154096357524395,-0.003233137307688594,-0.018947701901197433,0.0032148314639925957,-0.010816989466547966
0.011609707958996296,0.004062477964907885,-0.0032344385981559753,-0.019589917734265327,0.0028327142354100943,-0.0102126719430089
0.011415933258831501,0.004065216984599829,-0.003374317893758416,-0.019140375778079033,0.0027235527522861958,-0.010105336084961891
0.011786503717303276,0.004104796331375837,-0.003652636893093586,-0.019061164930462837,0.003233156865462661,-0.010667219758033752
0.011205421760678291,0.004079698584973812,-0.00382982543669641,-0.018529046326875687,0.0037334272637963295,-0.010240452364087105
0.011700772680342197,0.004460506606847048,-0.003478473285213113,-0.018115252256393433,0.0038798770401626825,-0.010612355545163155
0.011270638555288315,0.0048382095992565155,-0.0034750604536384344,-0.018646148964762688,0.003859688062220812,-0.010943257249891758
0.010968168266117573,0.00505101541057229,-0.0035892941523343325,-0.018815619871020317,0.0034722851123660803,-0.010748294182121754
0.010968168266117573,0.00505101541057229,-0.0035892941523343325,-0.018815619871020317,0.0034722851123660803,-0.010748294182121754
0.011632244102656841,0.005172175820916891,-0.004197587259113789,-0.019318560138344765,0.003444170579314232,-0.010766633786261082
0.011316598393023014,0.004474134184420109,-0.004041365347802639,-0.019523773342370987,0.003568247426301241,-0.010741687379777431
0.011492936871945858,0.0046172067523002625,-0.0033860616385936737,-0.018972894176840782,0.0036569421645253897,-0.010913888923823833
0.011715475469827652,0.00488229189068079,-0.0032998514361679554,-0.019302021712064743,0.004168679006397724,-0.010440208949148655
0.011367830447852612,0.005633268039673567,-0.003663156181573868,-0.020517166703939438,0.0041046892292797565,-0.010218551382422447
0.011279297061264515,0.005292022600769997,-0.003971315920352936,-0.020777784287929535,0.003965557087212801,-0.010493524372577667
0.011611507274210453,0.005491755437105894,-0.004287002608180046,-0.019998935982584953,0.0035697976127266884,-0.010753974318504333
0.011532297357916832,0.005833230447024107,-0.003576075192540884,-0.020163049921393394,0.0033484685700386763,-0.010417908430099487
0.011597437784075737,0.006045972462743521,-0.0034280901309102774,-0.019549258053302765,0.003268810221925378,-0.010502108372747898
0.01131322793662548,0.005465262103825808,-0.003577964147552848,-0.019738560542464256,0.0034584621898829937,-0.01081149186939001
0.011802242137491703,0.005967434030026197,-0.0037660368252545595,-0.020490672439336777,0.0037648139987140894,-0.010687713511288166
0.011708627454936504,0.00596284493803978,-0.0038520905654877424,-0.02136252634227276,0.004269980359822512,-0.01084633357822895
0.011922040954232216,0.006788190454244614,-0.003963103983551264,-0.020398439839482307,0.00418029073625803,-0.011114075779914856
0.011648768559098244,0.006655057892203331,-0.004307762254029512,-0.020904233679175377,0.003701084991917014,-0.011192265897989273
0.012018376961350441,0.0065099215134978294,-0.004180603194981813,-0.021409355103969574,0.0034108893014490604,-0.011202026158571243
0.011625216342508793,0.0069898213259875774,-0.00405516754835844,-0.020887186750769615,0.003486815607175231,-0.011532111093401909
0.011743434704840183,0.0072600357234478,-0.003929637372493744,-0.022469080984592438,0.0037000863812863827,-0.011575552634894848
0.01193185057491064,0.00702005997300148,-0.004337062127888203,-0.02098410204052925,0.003820483572781086,-0.011424453929066658
0.012256566435098648,0.007072212640196085,-0.003265886567533016,-0.020939776673913002,0.0038965733256191015,-0.01174012292176485
0.012254060246050358,0.007731192745268345,-0.0026270069647580385,-0.021062465384602547,0.004219578113406897,-0.011208509095013142
0.011763443239033222,0.0077503276988863945,-0.0017925268039107323,-0.021617228165268898,0.004160188138484955,-0.011131287552416325
0.012297105975449085,0.0073936800472438335,-0.001683901995420456,-0.02221689559519291,0.004488105420023203,-0.011077315546572208
0.011853870004415512,0.0074053434655070305,-0.0026432015001773834,-0.02272334136068821,0.004554515238851309,-0.010765221901237965
0.012085268273949623,0.008094064891338348,-0.003682831535115838,-0.02196570672094822,0.004447015933692455,-0.011135374195873737
0.011968150734901428,0.008367969654500484,-0.0029250087682157755,-0.021848473697900772,0.0041100033558905125,-0.010977298952639103
0.011418139562010765,0.007852092385292053,-0.002425285056233406,-0.022172562777996063,0.00386422174051404,-0.011097642593085766
0.011418139562010765,0.007852092385292053,-0.002425285056233406,-0.022172562777996063,0.00386422174051404,-0.011097642593085766
0.012311574071645737,0.008549085818231106,-0.0018656204920262098,-0.02185085415840149,0.004000118933618069,-0.011477665044367313
0.012104871682822704,0.008671088144183159,-0.002471957355737686,-0.02191866748034954,0.00389217515476048,-0.012091421522200108
0.012384794652462006,0.008548835292458534,-0.002534099156036973,-0.022332388907670975,0.003750697709619999,-0.011531122028827667
0.012384794652462006,0.008548835292458534,-0.002534099156036973,-0.022332388907670975,0.003750697709619999,-0.011531122028827667
0.012151828967034817,0.009760060347616673,-0.002719431184232235,-0.02268294058740139,0.0037388091441243887,-0.011540341190993786
0.01205657422542572,0.008590176701545715,-0.0022816976998001337,-0.022366277873516083,0.003695589955896139,-0.011715435422956944
0.011702877469360828,0.008702349849045277,-0.002134353620931506,-0.022458193823695183,0.003467128612101078,-0.011652762070298195
0.012533776462078094,0.009263306856155396,-0.002227888908237219,-0.023157473653554916,0.003447826486080885,-0.012003730982542038
0.01243449654430151,0.009327414445579052,-0.0022338482085615396,-0.023727066814899445,0.0036501577123999596,-0.012223614379763603
0.01274717878550291,0.00890272669494152,-0.0029638917185366154,-0.023833638057112694,0.004009434953331947,-0.011923528276383877
0.012593954801559448,0.008904652670025826,-0.003064033342525363,-0.024173010140657425,0.004585119895637035,-0.011880610138177872
0.012104382738471031,0.009081462398171425,-0.002940012142062187,-0.024385791271924973,0.005112172570079565,-0.011669203639030457
0.012338966131210327,0.008970270864665508,-0.002669005887582898,-0.024817993864417076,0.004662632942199707,-0.011888746172189713
0.012443961575627327,0.009100725874304771,-0.002988581545650959,-0.0252756979316473,0.0044021205976605415,-0.011982325464487076
0.012751860544085503,0.009836376644670963,-0.0030838767997920513,-0.02527368627488613,0.0042016757652163506,-0.011945989914238453
0.012323705479502678,0.009540064260363579,-0.0028499930631369352,-0.024964958429336548,0.004648266360163689,-0.012499824166297913
0.012617453932762146,0.00978930201381445,-0.0030698480550199747,-0.025179622694849968,0.004761397838592529,-0.012285763397812843
0.012607838958501816,0.009348108433187008,-0.00336873228661716,-0.02513544075191021,0.004778457805514336,-0.01314208097755909
0.012507013976573944,0.00972946546971798,-0.0031890757381916046,-0.024733101949095726,0.004574260674417019,-0.011556951329112053
0.012341190129518509,0.009929601103067398,-0.0031359889544546604,-0.024711761623620987,0.0038972243200987577,-0.011679261922836304
0.012907793745398521,0.009472633711993694,-0.0032720104791224003,-0.024735795333981514,0.0035437068436294794,-0.011792111210525036
0.012628240510821342,0.009365284815430641,-0.0029939445666968822,-0.026828864589333534,0.004074794705957174,-0.012010990642011166
0.01266391109675169,0.010246348567306995,-0.003203767351806164,-0.0255007054656744,0.0041978852823376656,-0.011808767914772034
0.012944241985678673,0.009642018936574459,-0.0033347588032484055,-0.025155501440167427,0.004475662484765053,-0.012168395332992077
0.012359274551272392,0.00951750110834837,-0.003536919830366969,-0.0246189646422863,0.004497163463383913,-0.012231090106070042
0.01311567984521389,0.009677990339696407,-0.003334752982482314,-0.024301964789628983,0.004469987936317921,-0.01174203958362341
0.01311567984521389,0.009677990339696407,-0.003334752982482314,-0.024301964789628983,0.004469987936317921,-0.01174203958362341
0.013327942229807377,0.008056164719164371,-0.0033616044092923403,-0.02580394595861435,0.004158335737884045,-0.012052802368998528
0.012808741070330143,0.00859700608998537,-0.003508924040943384,-0.025659112259745598,0.004024176858365536,-0.012553136795759201
0.012808741070330143,0.00859700608998537,-0.003508924040943384,-0.025659112259745598,0.004024176858365536,-0.012553136795759201
0.013314888812601566,0.008916567079722881,-0.0033583506010472775,-0.026017367839813232,0.004719860386103392,-0.012517905794084072
0.01317576039582491,0.00911236833781004,-0.0032810510601848364,-0.026789747178554535,0.005101311951875687,-0.012284432537853718
0.01317576039582491,0.00911236833781004,-0.0032810510601848364,-0.026789747178554535,0.005101311951875687,-0.012284432537853718
0.01333522517234087,0.009655294008553028,-0.003563681384548545,-0.025653325021266937,0.004646824207156897,-0.012528419494628906
0.01333522517234087,0.009655294008553028,-0.003563681384548545,-0.025653325021266937,0.004646824207156897,-0.012528419494628906
0.013967799954116344,0.0097380755469203,-0.003681447356939316,-0.026178870350122452,0.004294929094612598,-0.012451321817934513
0.013795171864330769,0.010443195700645447,-0.0037604623939841986,-0.026901939883828163,0.004087589681148529,-0.01237111072987318
0.01394192036241293,0.009545600973069668,-0.0035724020563066006,-0.02701980248093605,0.0043156384490430355,-0.012339742854237556
0.013563640415668488,0.010137305594980717,-0.0035820368211716413,-0.027755001559853554,0.004701235331594944,-0.012729045003652573
0.01409115456044674,0.01010093092918396,-0.003938108216971159,-0.027571946382522583,0.005389324389398098,-0.012923642992973328
0.013825713656842709,0.00994196254760027,-0.004104426130652428,-0.02764773555099964,0.0047036148607730865,-0.012873751111328602
0.014163444750010967,0.0100593576207757,-0.004272198770195246,-0.028166312724351883,0.004459718242287636,-0.01270737312734127
0.013955104164779186,0.010519638657569885,-0.0041772061958909035,-0.027936317026615143,0.004414527211338282,-0.01250111497938633
0.01454211212694645,0.010478358715772629,-0.004062736872583628,-0.027626002207398415,0.004790551029145718,-0.012484436854720116
0.01439971849322319,0.010810349136590958,-0.004625866189599037,-0.028242338448762894,0.005272809881716967,-0.012906420044600964
0.01377769187092781,0.010222100652754307,-0.004281063098460436,-0.02805170603096485,0.005109522491693497,-0.012995089404284954
0.014742832630872726,0.010969432070851326,-0.0043474179692566395,-0.028098857030272484,0.004938279278576374,-0.013191036880016327
0.014307784847915173,0.010788762010633945,-0.004584146197885275,-0.02828383632004261,0.004828453063964844,-0.013092788867652416
0.014812055975198746,0.010456830263137817,-0.004759930539876223,-0.028528770431876183,0.005080629605799913,-0.01331673376262188
0.014283706434071064,0.011019671335816383,-0.004853150807321072,-0.028716890141367912,0.00511221494525671,-0.01352512463927269
0.01482400018721819,0.010911469347774982,-0.004646164830774069,-0.028015324845910072,0.005220143590122461,-0.013292878866195679
0.014596986584365368,0.011165871284902096,-0.004488679580390453,-0.02812895178794861,0.0051574413664639,-0.013391138054430485
0.0148533396422863,0.01115735899657011,-0.004150021355599165,-0.028404109179973602,0.004660765174776316,-0.013275534845888615
0.014665104448795319,0.011538158170878887,-0.004446928855031729,-0.02887739986181259,0.004492900799959898,-0.013738811947405338
0.015118245966732502,0.011977563612163067,-0.004461010452359915,-0.02970242314040661,0.004846425727009773,-0.013270721770823002
0.014804013073444366,0.011780671775341034,-0.00432419590651989,-0.029630059376358986,0.005022601690143347,-0.0132408756762743
0.014804013073444366,0.011780671775341034,-0.00432419590651989,-0.029630059376358986,0.005022601690143347,-0.0132408756762743
0.01476514432579279,0.01216960046440363,-0.004644493106752634,-0.027685515582561493,0.004753321874886751,-0.013437608256936073
0.01530643180012703,0.011390015482902527,-0.004263336770236492,-0.02897467091679573,0.0046478561125695705,-0.013282149098813534
0.014979105442762375,0.011262098327279091,-0.004424871876835823,-0.028694525361061096,0.0046487231738865376,-0.013419543392956257
0.01599482260644436,0.010980569757521152,-0.004370886832475662,-0.02837158739566803,0.0045348359271883965,-0.013313990086317062
0.01599482260644436,0.010980569757521152,-0.004370886832475662,-0.02837158739566803,0.0045348359271883965,-0.013313990086317062
0.016766361892223358,0.01118743047118187,-0.004544426687061787,-0.029315659776329994,0.005142053123563528,-0.013065246865153313
0.016272414475679398,0.011379830539226532,-0.004536291118711233,-0.029380930587649345,0.005235923919826746,-0.0132276751101017
0.016317736357450485,0.011437829583883286,-0.004672427196055651,-0.028601013123989105,0.005581897683441639,-0.013141362927854061
0.01606239192187786,0.011767784133553505,-0.00415131077170372,-0.02809213474392891,0.005347998812794685,-0.013299581594765186
0.016774240881204605,0.01175812166184187,-0.004198806826025248,-0.028532302007079124,0.004874765407294035,-0.013475293293595314
0.017115162685513496,0.011459596455097198,-0.004206634592264891,-0.029875287786126137,0.004324084613472223,-0.013377697207033634
0.017113499343395233,0.011297761462628841,-0.004371215123683214,-0.029646821320056915,0.00441827904433012,-0.013146228156983852
0.01699608936905861,0.010860497131943703,-0.0042508309707045555,-0.029741277918219566,0.005119295325130224,-0.01314101368188858
0.016750935465097427,0.011741722002625465,-0.00437391921877861,-0.02959509566426277,0.005296365823596716,-0.013037190772593021
0.01677100919187069,0.011568709276616573,-0.004695279058068991,-0.02932768315076828,0.005131211597472429,-0.01337526086717844
0.017118413001298904,0.011393314227461815,-0.003948595840483904,-0.029574450105428696,0.0050157830119132996,-0.013385881669819355
0.017024613916873932,0.011503100395202637,-0.0043813856318593025,-0.030140958726406097,0.005043556913733482,-0.013532266952097416
0.016947396099567413,0.01166236400604248,-0.004506133031100035,-0.031507525593042374,0.005290044937282801,-0.013550479896366596
0.017119064927101135,0.011108869686722755,-0.004316999576985836,-0.030294222757220268,0.005344746168702841,-0.013572662137448788
0.016742656007409096,0.011250009760260582,-0.004060629289597273,-0.030071070417761803,0.005428614094853401,-0.013564135879278183
0.01721336878836155,0.011412451975047588,-0.0042310175485908985,-0.030098551884293556,0.005319463554769754,-0.013467344455420971
0.01709158346056938,0.011238888837397099,-0.004002098459750414,-0.03031468391418457,0.00492507591843605,-0.013122624717652798
0.017182623967528343,0.011542093940079212,-0.0037908777594566345,-0.03090832568705082,0.004725435748696327,-0.013624672777950764
0.016828183084726334,0.011206274852156639,-0.004308612551540136,-0.030720006674528122,0.00476529635488987,-0.013332168571650982
0.016591202467679977,0.01167155522853136,-0.004093842580914497,-0.030745500698685646,0.004643471445888281,-0.013667687773704529
0.01742999069392681,0.011453431099653244,-0.0043685054406523705,-0.030807185918092728,0.004991238471120596,-0.014931912533938885
0.016823699697852135,0.010956689715385437,-0.004112355876713991,-0.031012993305921555,0.005536873824894428,-0.013807269744575024
0.01696077175438404,0.011387879028916359,-0.0044476063922047615,-0.030971961095929146,0.005494426935911179,-0.0132454140111804
0.01696077175438404,0.011387879028916359,-0.0044476063922047615,-0.030971961095929146,0.005494426935911179,-0.0132454140111804
0.017310116440057755,0.011445078067481518,-0.004203752614557743,-0.031300049275159836,0.0056479028426110744,-0.013716151937842369
0.017005162313580513,0.011077183298766613,-0.004097824450582266,-0.031074045225977898,0.005273631773889065,-0.013949111104011536
0.01662304252386093,0.012028960511088371,-0.0038682727608829737,-0.031186353415250778,0.005146519746631384,-0.014101593755185604
0.017478441819548607,0.011790513060986996,-0.0038735424168407917,-0.031112104654312134,0.005060920491814613,-0.014039700850844383
0.017842162400484085,0.011503180488944054,-0.004411634523421526,-0.03202236071228981,0.0052553038112819195,-0.013832975178956985
0.017323441803455353,0.011371052823960781,-0.00454878993332386,-0.0323818102478981,0.005440109875053167,-0.013563398271799088
0.01676587574183941,0.010945773683488369,-0.0048212893307209015,-0.03160349279642105,0.004975126124918461,-0.013991736806929111
0.017420694231987,0.011530144140124321,-0.004369914066046476,-0.03193031996488571,0.0047491081058979034,-0.014415768906474113
0.017505301162600517,0.011566191911697388,-0.004002039786428213,-0.033177584409713745,0.004732288420200348,-0.014736016280949116
0.017455240711569786,0.011293605901300907,-0.004038270562887192,-0.033226072788238525,0.004908191040158272,-0.014698222279548645
0.01762126013636589,0.011532474309206009,-0.004259442910552025,-0.0320294126868248,0.005309015978127718,-0.014417980797588825
0.017224688082933426,0.011746685020625591,-0.004404397681355476,-0.03143986314535141,0.005592620000243187,-0.0139753557741642
0.01788649708032608,0.011511212214827538,-0.004494640976190567,-0.033088311553001404,0.005455337930470705,-0.01419286709278822
0.017780853435397148,0.011400505900382996,-0.0046187653206288815,-0.033359091728925705,0.005517385900020599,-0.014504111371934414
0.017754828557372093,0.011745771393179893,-0.004306691233068705,-0.0337882861495018,0.0053959800861775875,-0.014522808603942394
0.017495859414339066,0.011427090503275394,-0.004451402463018894,-0.03311992064118385,0.0051923212595283985,-0.014640158973634243
0.01762639358639717,0.012044994160532951,-0.004654791671782732,-0.032121770083904266,0.0059037962928414345,-0.014061551541090012
0.017725376412272453,0.011698970571160316,-0.004743202589452267,-0.033142440021038055,0.005602115299552679,-0.013840507715940475
0.0176473967730999,0.011451154947280884,-0.004452091176062822,-0.03444210812449455,0.0058821807615458965,-0.014253420755267143
0.01791253499686718,0.011921574361622334,-0.004946954548358917,-0.034043848514556885,0.005526837892830372,-0.014051225036382675
0.017634958028793335,0.011544086039066315,-0.004943383391946554,-0.03385771065950394,0.0059392983093857765,-0.014278203248977661
0.01789422146975994,0.012109986506402493,-0.004803699441254139,-0.033878475427627563,0.005650581791996956,-0.014685961417853832
0.01797623001039028,0.012176443822681904,-0.004654963966459036,-0.03333713486790657,0.0058096228167414665,-0.014781425707042217
0.017597898840904236,0.012033558450639248,-0.004838923923671246,-0.03334531560540199,0.0052992599084973335,-0.01495326403528452
0.01824984885752201,0.012044866569340229,-0.005265087354928255,-0.033699773252010345,0.005198432132601738,-0.01452577393501997
0.018243126571178436,0.011837261728942394,-0.005228859372437,-0.03395973518490791,0.0053398385643959045,-0.014724154025316238
0.018243126571178436,0.011837261728942394,-0.005228859372437,-0.03395973518490791,0.0053398385643959045,-0.014724154025316238
0.017701108008623123,0.012417016550898552,-0.005322892684489489,-0.03389347717165947,0.005363987758755684,-0.014640673995018005
0.01811416819691658,0.012030256912112236,-0.0045493184588849545,-0.03310934826731682,0.00572892976924777,-0.014798547141253948
0.01827600598335266,0.012455776333808899,-0.004575732164084911,-0.03338669613003731,0.005487609654664993,-0.0147441066801548
0.01814192533493042,0.01230623945593834,-0.005179709754884243,-0.03400669991970062,0.005340497009456158,-0.015055498108267784
0.018617529422044754,0.011948487721383572,-0.0055425637401640415,-0.03383401781320572,0.005136862397193909,-0.01486422773450613
0.018320834264159203,0.012556838802993298,-0.005819135345518589,-0.033399417996406555,0.0053382935002446175,-0.014941196888685226
0.018582256510853767,0.012258904054760933,-0.005574728362262249,-0.033404283225536346,0.005549909546971321,-0.015047290362417698
0.018615776672959328,0.013213400729000568,-0.005037189926952124,-0.03308531269431114,0.005968612153083086,-0.01527741365134716
0.018563637509942055,0.012475683353841305,-0.005509418901056051,-0.03441079333424568,0.005493386182934046,-0.014994821511209011
0.01880159042775631,0.013182970695197582,-0.005384593736380339,-0.03535355255007744,0.0052454667165875435,-0.015258762054145336
0.018802521750330925,0.012682619504630566,-0.005880927201360464,-0.0346146821975708,0.005561430938541889,-0.015273169614374638
0.01849411055445671,0.013113314285874367,-0.005363513249903917,-0.033044882118701935,0.006072154268622398,-0.015359768643975258
0.018904492259025574,0.012665634974837303,-0.0054005347192287445,-0.03461524844169617,0.0057178642600774765,-0.01567140780389309
0.01879078336060047,0.01353540550917387,-0.0050703901797533035,-0.03472362458705902,0.005303908139467239,-0.015424126759171486
0.01932969130575657,0.012919588945806026,-0.005189032759517431,-0.036595072597265244,0.005864777136594057,-0.015102488920092583
0.019701160490512848,0.013823688961565495,-0.005665973294526339,-0.036301374435424805,0.0059096976183354855,-0.016066888347268105
0.01898379810154438,0.013844017870724201,-0.005407554097473621,-0.03460736200213432,0.006159336771816015,-0.015485022217035294
0.01886855438351631,0.01416886318475008,-0.005116835702210665,-0.03607744351029396,0.005995042156428099,-0.014741141349077225
0.018754802644252777,0.013706060126423836,-0.005676289554685354,-0.0372605137526989,0.0058939107693731785,-0.014891933649778366
0.018754534423351288,0.013575548306107521,-0.005448169074952602,-0.03711589425802231,0.005654582288116217,-0.015300892293453217
0.019693534821271896,0.013892998918890953,-0.005810348317027092,-0.036923326551914215,0.005803792737424374,-0.015386980026960373
0.01934061571955681,0.014294621534645557,-0.005559572018682957,-0.03747717663645744,0.005633663386106491,-0.015647627413272858
0.018687337636947632,0.014014425687491894,-0.005613354034721851,-0.03683764860033989,0.005699241533875465,-0.015515766106545925
0.018687337636947632,0.014014425687491894,-0.005613354034721851,-0.03683764860033989,0.005699241533875465,-0.015515766106545925
0.019949045032262802,0.014938275329768658,-0.005298102740198374,-0.037096623331308365,0.0052993446588516235,-0.015768075361847878
0.02009452134370804,0.014172807335853577,-0.0059222690761089325,-0.037514179944992065,0.005277903750538826,-0.015359784476459026
0.01931426301598549,0.01446034386754036,-0.005658051930367947,-0.03778870403766632,0.005376959685236216,-0.015506355091929436
0.020120620727539062,0.01397977489978075,-0.00637018820270896,-0.03737432137131691,0.005500467494130135,-0.015635356307029724
0.019809994846582413,0.014232196845114231,-0.005647778045386076,-0.037525806576013565,0.005756729748100042,-0.015610541217029095
0.019514629617333412,0.013890844769775867,-0.005371537990868092,-0.03757553920149803,0.005921642761677504,-0.015688220039010048
0.019598407670855522,0.014439322054386139,-0.005520231556147337,-0.037805259227752686,0.005708584561944008,-0.015957653522491455
0.019515510648489,0.014512112364172935,-0.006122549530118704,-0.03757438436150551,0.006157783791422844,-0.015680497512221336
0.020261479541659355,0.01468679215759039,-0.006167077925056219,-0.037933457642793655,0.006548526231199503,-0.015195652842521667
0.02025105245411396,0.014795249328017235,-0.0058639319613575935,-0.037911202758550644,0.006631058175116777,-0.015317234210669994
0.020190434530377388,0.015007063746452332,-0.005423060152679682,-0.03795670345425606,0.006508806720376015,-0.015121792443096638
0.020314037799835205,0.014182385988533497,-0.005577665288001299,-0.03826891630887985,0.006302675232291222,-0.015526538714766502
0.02027364820241928,0.014899852685630322,-0.005573826376348734,-0.03818024322390556,0.00604690657928586,-0.015535897575318813
0.020859073847532272,0.014604481868445873,-0.005903627723455429,-0.03821843862533569,0.005736247170716524,-0.016071684658527374
0.020716611295938492,0.014981594868004322,-0.005907912272959948,-0.03876326233148575,0.005592947360128164,-0.015803849324584007
0.02094617672264576,0.014977967366576195,-0.0056348578073084354,-0.03771239146590233,0.005971644073724747,-0.015692641958594322
0.02065744251012802,0.01426730491220951,-0.005568389780819416,-0.03651687502861023,0.0059184543788433075,-0.016028592362999916
0.020458094775676727,0.015143691562116146,-0.006230836268514395,-0.03699643164873123,0.006026327144354582,-0.016291284933686256
0.020424222573637962,0.01480367872864008,-0.0065910909324884415,-0.03816528618335724,0.0063887848518788815,-0.016478514298796654
0.021014582365751266,0.015187417156994343,-0.0057350206188857555,-0.038440585136413574,0.005862603895366192,-0.016430800780653954
0.021125193685293198,0.015032675117254257,-0.005350128747522831,-0.03951288014650345,0.005941517185419798,-0.015673810616135597
0.020715927705168724,0.01567390188574791,-0.005501274950802326,-0.03796835616230965,0.006144810002297163,-0.01581069454550743
0.021009430289268494,0.014873147942125797,-0.006275017745792866,-0.0370379276573658,0.006165892817080021,-0.015549853444099426
0.021436909213662148,0.015447696670889854,-0.0061108870431780815,-0.03833205625414848,0.006524854339659214,-0.015386280603706837
0.021436909213662148,0.015447696670889854,-0.0061108870431780815,-0.03833205625414848,0.006524854339659214,-0.015386280603706837
0.021217241883277893,0.014957859180867672,-0.005627883598208427,-0.03871205449104309,0.006422738078981638,-0.015187707729637623
0.020965255796909332,0.015445258468389511,-0.0054321326315402985,-0.03833519667387009,0.005954030901193619,-0.015751324594020844
0.021318906918168068,0.014868761412799358,-0.005625616759061813,-0.038489799946546555,0.005742213688790798,-0.016093477606773376
0.021618705242872238,0.015329625457525253,-0.005712627898901701,-0.03851969540119171,0.0059402803890407085,-0.015960628166794777
0.021337013691663742,0.015443280339241028,-0.005651144310832024,-0.03821953386068344,0.006249100901186466,-0.016056207939982414
0.021405041217803955,0.015559239313006401,-0.005473777651786804,-0.03848731517791748,0.006095526274293661,-0.017335014417767525
0.021835433319211006,0.015443860553205013,-0.00548953702673316,-0.03818975016474724,0.00594694260507822,-0.015590221621096134
0.022007012739777565,0.01568976789712906,-0.005431927740573883,-0.03827734664082527,0.006372237112373114,-0.015258644707500935
0.02202366292476654,0.016111649572849274,-0.005627290345728397,-0.0387788750231266,0.0063240258023142815,-0.01586686633527279
0.021629871800541878,0.015543658286333084,-0.005716501269489527,-0.03861091285943985,0.006019285414367914,-0.015900805592536926
0.02222459204494953,0.015866747125983238,-0.005578275769948959,-0.03911099210381508,0.0060925777070224285,-0.01626814715564251
0.021839028224349022,0.015428127720952034,-0.005252573173493147,-0.03941766172647476,0.005809519439935684,-0.01621263287961483
0.022124405950307846,0.0161307230591774,-0.00566112482920289,-0.039723966270685196,0.005934692919254303,-0.01614048331975937
0.022753730416297913,0.015849852934479713,-0.0054513257928192616,-0.040604136884212494,0.0061974478885531425,-0.01613433286547661
0.02293405868113041,0.016463520005345345,-0.006332560442388058,-0.04007333517074585,0.006354996468871832,-0.016278252005577087
0.022389832884073257,0.016058148816227913,-0.005345245357602835,-0.0415370874106884,0.006587306968867779,-0.016375670209527016
0.02146407961845398,0.016384337097406387,-0.005444757640361786,-0.039732515811920166,0.006668722257018089,-0.01648719795048237
0.023409323766827583,0.016104228794574738,-0.005500516854226589,-0.03959814831614494,0.006584684830158949,-0.016471361741423607
0.023153208196163177,0.01657726988196373,-0.005617376416921616,-0.040723636746406555,0.006920878309756517,-0.016457052901387215
0.022635390982031822,0.016349179670214653,-0.0060500651597976685,-0.04111950099468231,0.006666131317615509,-0.016355382278561592
0.02317136898636818,0.016726970672607422,-0.005419497843831778,-0.0416240319609642,0.006381306331604719,-0.016375208273530006
0.023028861731290817,0.016744935885071754,-0.005320216529071331,-0.040939826518297195,0.006442138459533453,-0.01712534949183464
0.0232357457280159,0.01689613051712513,-0.005492276977747679,-0.04043892025947571,0.006781355012208223,-0.0169382207095623
0.02317461185157299,0.01694129779934883,-0.006058963015675545,-0.04126874357461929,0.006656174082309008,-0.01662473939359188
0.023292215541005135,0.01692214049398899,-0.005830449517816305,-0.04210387170314789,0.0068011172115802765,-0.016392696648836136
0.02278010919690132,0.01730945147573948,-0.006009935867041349,-0.04201379045844078,0.006744623649865389,-0.01657089777290821
0.02277589961886406,0.017063423991203308,-0.005669394973665476,-0.04195893928408623,0.006822692230343819,-0.01670617237687111
0.023380378261208534,0.017125966027379036,-0.005744995083659887,-0.04223206639289856,0.006907250732183456,-0.01631000265479088
0.023428617045283318,0.01737108640372753,-0.005286718253046274,-0.04216906055808067,0.006985371466726065,-0.016781067475676537
0.023428617045283318,0.01737108640372753,-0.005286718253046274,-0.04216906055808067,0.006985371466726065,-0.016781067475676537
0.023458456620573997,0.01694188453257084,-0.005929841659963131,-0.042093582451343536,0.006711708381772041,-0.016645004972815514
0.02364478074014187,0.01769677922129631,-0.006276325322687626,-0.042137760668992996,0.006479545962065458,-0.016772180795669556
0.02347983419895172,0.017364399507641792,-0.005879659671336412,-0.04296397790312767,0.00639721192419529,-0.01672499068081379
0.023446710780262947,0.017815714702010155,-0.005635629408061504,-0.04266335815191269,0.00620923051610589,-0.016649413853883743
0.023674946278333664,0.017981629818677902,-0.005806555971503258,-0.043226826936006546,0.0062303789891302586,-0.016785556450486183
0.024043019860982895,0.01749093271791935,-0.0062420982867479324,-0.04317048564553261,0.0069350069388747215,-0.0169362910091877
0.023900024592876434,0.018340453505516052,-0.00612359493970871,-0.04359684884548187,0.006725801154971123,-0.017205534502863884
0.023919105529785156,0.01809018850326538,-0.005764316767454147,-0.04351070150732994,0.006560391280800104,-0.017168696969747543
0.024220777675509453,0.018260831013321877,-0.006227653939276934,-0.04355202987790108,0.006595584563910961,-0.017980266362428665
0.02407109923660755,0.018695486709475517,-0.006124693434685469,-0.043587230145931244,0.0070970673114061356,-0.01659875549376011
0.02426926977932453,0.01824234612286091,-0.0065409522503614426,-0.04386843740940094,0.007123094983398914,-0.01672951690852642
0.024576356634497643,0.018657570704817772,-0.00639964547008276,-0.04528766870498657,0.007165742572396994,-0.01768680289387703
0.024546004831790924,0.01843998394906521,-0.005928392522037029,-0.042536016553640366,0.006623188965022564,-0.017357224598526955
0.02491321600973606,0.01931624859571457,-0.006311487872153521,-0.04389459639787674,0.006678603123873472,-0.017657386139035225
0.024559922516345978,0.0195950735360384,-0.0071067227981984615,-0.044444743543863297,0.006926337257027626,-0.017847906798124313
0.0243966244161129,0.018483834341168404,-0.00623910129070282,-0.04533366858959198,0.006842171773314476,-0.017858343198895454
0.02432352863252163,0.019164612516760826,-0.005933236796408892,-0.04338322952389717,0.006465031765401363,-0.01763910800218582
0.024576567113399506,0.019156210124492645,-0.00651655113324523,-0.043263934552669525,0.006526631768792868,-0.017879053950309753
0.024765338748693466,0.0185812059789896,-0.007032475899904966,-0.04499126970767975,0.006763708312064409,-0.018252339214086533
0.02488795295357704,0.0188580472022295,-0.0066833519376814365,-0.04520707204937935,0.0072922068648040295,-0.017931748181581497
0.025310607627034187,0.019468598067760468,-0.0060660396702587605,-0.045510951429605484,0.007100200746208429,-0.017767371609807014
0.024617575109004974,0.019386647269129753,-0.006255021318793297,-0.04549753665924072,0.006691541988402605,-0.01779920421540737
0.024777529761195183,0.019090842455625534,-0.006078324746340513,-0.04561256244778633,0.006606523413211107,-0.01722894050180912
0.024984154850244522,0.019720621407032013,-0.006593863479793072,-0.04592505469918251,0.006802642717957497,-0.017732711508870125
0.02499363385140896,0.01951204612851143,-0.006645591463893652,-0.04589197784662247,0.007114832755178213,-0.01811768114566803
0.02499363385140896,0.01951204612851143,-0.006645591463893652,-0.04589197784662247,0.007114832755178213,-0.01811768114566803
0.024986719712615013,0.02009710483253002,-0.005785865243524313,-0.0462418831884861,0.00702882744371891,-0.018485525622963905
0.024532830342650414,0.020129989832639694,-0.005887928418815136,-0.046326201409101486,0.006876499392092228,-0.018663126975297928
0.025398608297109604,0.020071966573596,-0.006516294088214636,-0.04670565202832222,0.007086444646120071,-0.017750533297657967
0.02599467895925045,0.02007807046175003,-0.006607071962207556,-0.04691687598824501,0.008223007433116436,-0.01775362342596054
0.026016617193818092,0.02015746757388115,-0.006344814319163561,-0.047213271260261536,0.007071191910654306,-0.01780867576599121
0.025821909308433533,0.020420972257852554,-0.006367078050971031,-0.04805731400847435,0.00660044327378273,-0.017451126128435135
0.025821503251791,0.020258693024516106,-0.0067580100148916245,-0.047126103192567825,0.00690359715372324,-0.01789696142077446
0.024406151846051216,0.020414814352989197,-0.006439083721488714,-0.04925086721777916,0.006925135385245085,-0.01808101125061512
0.025100745260715485,0.020493781194090843,-0.006442058365792036,-0.04916006326675415,0.007084617391228676,-0.018835797905921936
0.02628239616751671,0.020416010171175003,-0.006269340869039297,-0.04758882895112038,0.007302447687834501,-0.01862482726573944
0.025948651134967804,0.020648162811994553,-0.006220892071723938,-0.0485348105430603,0.0073975250124931335,-0.017853645607829094
0.0267926175147295,0.020995618775486946,-0.006799785420298576,-0.05103352665901184,0.007132083643227816,-0.018392957746982574
0.02663014829158783,0.020693007856607437,-0.006655970588326454,-0.04852239042520523,0.006703976541757584,-0.018964117392897606
0.02544131688773632,0.02098650485277176,-0.006136222276836634,-0.04889668524265289,0.0065695494413375854,-0.018840527161955833
0.025819163769483566,0.021538622677326202,-0.006304765120148659,-0.05018475651741028,0.006656911224126816,-0.018366148695349693
0.025631286203861237,0.02108166553080082,-0.0069648101925849915,-0.05077531561255455,0.00654244888573885,-0.018123196437954903
0.025723623111844063,0.021542422473430634,-0.0070011005736887455,-0.05020911991596222,0.006486876402050257,-0.01822342723608017
0.026313647627830505,0.0213911272585392,-0.006268258206546307,-0.049985162913799286,0.006677181459963322,-0.018249403685331345
0.026324128732085228,0.02155272290110588,-0.006362701300531626,-0.04984908550977707,0.0072824847884476185,-0.018496474251151085
0.026324128732085228,0.02155272290110588,-0.006362701300531626,-0.04984908550977707,0.0072824847884476185,-0.018496474251151085
0.026400206610560417,0.02158462442457676,-0.0064442274160683155,-0.0498814731836319,0.007338514551520348,-0.018744606524705887
0.026255622506141663,0.02193472348153591,-0.007361617870628834,-0.049790676683187485,0.006945286877453327,-0.01855258271098137
0.026448074728250504,0.02198042720556259,-0.006760967429727316,-0.04951613023877144,0.006970767863094807,-0.0182882659137249
0.02658255212008953,0.02207682467997074,-0.006438540760427713,-0.04982915148139,0.007411746773868799,-0.018276570364832878
0.026226213201880455,0.021960178390145302,-0.006624362897127867,-0.04994198679924011,0.007167639210820198,-0.01823268085718155
0.026100989431142807,0.021458324044942856,-0.0072963545098900795,-0.049246061593294144,0.0071661872789263725,-0.018832137808203697
0.026394005864858627,0.022125761955976486,-0.007120240945369005,-0.049342069774866104,0.007490241434425116,-0.01941991038620472
0.025501642376184464,0.022364754229784012,-0.006558437366038561,-0.04919322207570076,0.007682307623326778,-0.018772514536976814
0.026173245161771774,0.022335508838295937,-0.00659004645422101,-0.04880033805966377,0.007684425450861454,-0.01864580810070038
0.026347264647483826,0.021518593654036522,-0.006644308567047119,-0.04997436702251434,0.007566296029835939,-0.018873615190386772
0.026429329067468643,0.021813878789544106,-0.00702646654099226,-0.05081816762685776,0.007626496721059084,-0.018853118643164635
0.026472797617316246,0.022084860131144524,-0.00682851392775774,-0.04896818473935127,0.007631328888237476,-0.018986230716109276
0.024962585419416428,0.022637981921434402,-0.006454356946051121,-0.05032956227660179,0.007803710177540779,-0.018884753808379173
0.027148721739649773,0.023059559985995293,-0.006620450410991907,-0.05112610384821892,0.007612217217683792,-0.018601074814796448
0.027327554300427437,0.023251092061400414,-0.007627935614436865,-0.05276118218898773,0.007431995123624802,-0.018623484298586845
0.027097437530755997,0.02263619564473629,-0.008461150340735912,-0.050266217440366745,0.007160303182899952,-0.01898930035531521
0.02664761245250702,0.022368017584085464,-0.006785479374229908,-0.05169307440519333,0.007223950233310461,-0.020604237914085388
0.026839841157197952,0.022626856341958046,-0.007053055800497532,-0.05216877534985542,0.007344526704400778,-0.018772410228848457
0.02807529643177986,0.02305193617939949,-0.007638534065335989,-0.051837243139743805,0.0075531029142439365,-0.018297404050827026
0.027341177687048912,0.02287227474153042,-0.0074568986892700195,-0.05217443034052849,0.00799739919602871,-0.01887187361717224
0.02798926644027233,0.022590607404708862,-0.008113961666822433,-0.05252712965011597,0.007579916622489691,-0.01914743147790432
0.026295192539691925,0.022783290594816208,-0.007920259609818459,-0.05268118530511856,0.007300474215298891,-0.019405273720622063
0.027132876217365265,0.02368808537721634,-0.008108488284051418,-0.05299242585897446,0.007810214534401894,-0.019725630059838295
0.027599167078733444,0.022316064685583115,-0.007727293763309717,-0.0535619743168354,0.007688980083912611,-0.01926255412399769
0.02744262106716633,0.023338114842772484,-0.007495353929698467,-0.054332807660102844,0.007989228703081608,-0.018954748287796974
0.027837196364998817,0.02298056334257126,-0.008108427748084068,-0.053468283265829086,0.007852857932448387,-0.018712926656007767
0.028578054159879684,0.022881630808115005,-0.0077460031025111675,-0.054863862693309784,0.008206269703805447,-0.018924657255411148
0.028578605502843857,0.023025983944535255,-0.00750984251499176,-0.05569132789969444,0.0077931564301252365,-0.01893051527440548
0.028300384059548378,0.02305285818874836,-0.007268451154232025,-0.05362348258495331,0.007551630027592182,-0.019106581807136536
0.028300384059548378,0.02305285818874836,-0.007268451154232025,-0.05362348258495331,0.007551630027592182,-0.019106581807136536
0.02767736278474331,0.023634960874915123,-0.007554168812930584,-0.057240430265665054,0.007816755212843418,-0.019002867862582207
0.02767736278474331,0.023634960874915123,-0.007554168812930584,-0.057240430265665054,0.007816755212843418,-0.019002867862582207
0.028637809678912163,0.023261213675141335,-0.007401860784739256,-0.056356705725193024,0.0073880539275705814,-0.019071253016591072
0.029053088277578354,0.02318374440073967,-0.0080557931214571,-0.05371177941560745,0.0070778499357402325,-0.019498668611049652
0.029050344601273537,0.0234408937394619,-0.008460922166705132,-0.054880209267139435,0.007244786247611046,-0.020267732441425323
0.02875285968184471,0.02334757335484028,-0.007744287606328726,-0.05530863627791405,0.007891022600233555,-0.020232882350683212
0.028518542647361755,0.02345292456448078,-0.007449531927704811,-0.05499134585261345,0.0076200831681489944,-0.019199751317501068
0.029194850474596024,0.024054883047938347,-0.007486105430871248,-0.055041953921318054,0.007353090215474367,-0.01878388412296772
0.02828793413937092,0.023952189832925797,-0.008095470257103443,-0.05554245412349701,0.00745818205177784,-0.019291061908006668
0.029624061658978462,0.023742780089378357,-0.007585565093904734,-0.05533340200781822,0.008099913597106934,-0.01956922747194767
0.029763901606202126,0.023933101445436478,-0.007567523512989283,-0.054998911917209625,0.008397264406085014,-0.01975991204380989
0.02968127839267254,0.02390798181295395,-0.007674901746213436,-0.054717157036066055,0.008408821187913418,-0.020019881427288055
0.029675714671611786,0.023970821872353554,-0.008273536339402199,-0.055366817861795425,0.008017884567379951,-0.0209897942841053
0.029391799122095108,0.02381424605846405,-0.007805610541254282,-0.05613347887992859,0.00800879392772913,-0.01927272602915764
0.029729314148426056,0.023611150681972504,-0.0075975763611495495,-0.05659602954983711,0.00784397218376398,-0.019273988902568817
0.029968172311782837,0.023601237684488297,-0.007766263093799353,-0.05650996044278145,0.007999198511242867,-0.019689053297042847
0.0301967803388834,0.023911846801638603,-0.007935991510748863,-0.057560138404369354,0.008277997374534607,-0.01982700265944004
0.0302298441529274,0.023843780159950256,-0.007164403796195984,-0.059276796877384186,0.007728077471256256,-0.019890915602445602
0.03055005520582199,0.02445068396627903,-0.008048095740377903,-0.058107130229473114,0.007994454354047775,-0.0197454821318388
0.030339442193508148,0.023693449795246124,-0.007955199107527733,-0.05670591816306114,0.008117442950606346,-0.01984233222901821
0.030851010233163834,0.023725271224975586,-0.007683758623898029,-0.05754612013697624,0.00785467866808176,-0.020165681838989258
0.03083043545484543,0.02374863065779209,-0.007661053445190191,-0.059860240668058395,0.007959662936627865,-0.020253144204616547
0.030965333804488182,0.023839417845010757,-0.007782055530697107,-0.05770598351955414,0.008135493844747543,-0.019901515915989876
0.031059108674526215,0.024323802441358566,-0.007797716651111841,-0.05765308067202568,0.008080951869487762,-0.020148713141679764
0.03138693422079086,0.02446446381509304,-0.007563907187432051,-0.05940604954957962,0.007898559793829918,-0.020304691046476364
0.0315009243786335,0.02384730614721775,-0.0076970383524894714,-0.05981053411960602,0.008009403012692928,-0.020479848608374596
0.03127342462539673,0.02361852116882801,-0.008547802455723286,-0.05983543395996094,0.008292815648019314,-0.020674889907240868
0.031177133321762085,0.023361170664429665,-0.007772895507514477,-0.0597141869366169,0.008457032032310963,-0.020852891728281975
0.03187408670783043,0.023268811404705048,-0.007405098062008619,-0.05916004255414009,0.00781592633575201,-0.020746910944581032
0.03187408670783043,0.023268811404705048,-0.007405098062008619,-0.05916004255414009,0.00781592633575201,-0.020746910944581032
0.032891083508729935,0.024037756025791168,-0.008155683055520058,-0.05946800485253334,0.007981653325259686,-0.020496485754847527
0.0319204218685627,0.023848826065659523,-0.008096967823803425,-0.05929725617170334,0.00857846811413765,-0.020911358296871185
