davideferrari95/blind_handover_controller/data/Test 76 - [2024-02-07 -- 16-02-33]/joint_states_data.csv
shoulder_pan_joint,shoulder_lift_joint,elbow_joint,wrist_1_joint,wrist_2_joint,wrist_3_joint
0.008184919133782387,0.008001287467777729,-0.00884555745869875,0.0030438073445111513,-0.0,0.007584660314023495
0.008184919133782387,0.008001287467777729,-0.00884555745869875,0.0030438073445111513,-0.0,0.007584660314023495
0.00814712792634964,0.007964416407048702,-0.008957920596003532,0.0029890011064708233,-0.0,0.007840793579816818
0.008766962215304375,0.007872723042964935,-0.008842908777296543,0.0029576595406979322,-0.0,0.008356847800314426
0.008417106233537197,0.008181908167898655,-0.00891435332596302,0.0033269543200731277,-0.0,0.008328106254339218
0.008078022859990597,0.007895691320300102,-0.009204917587339878,0.003747135167941451,-0.0,0.008348959498107433
0.008794068358838558,0.00786819402128458,-0.00907509308308363,0.0034723670687526464,-0.0,0.007799004204571247
0.008794068358838558,0.00786819402128458,-0.00907509308308363,0.0034723670687526464,-0.0,0.007799004204571247
0.008187401108443737,0.008352191187441349,-0.00858315359801054,0.0034259383101016283,-0.0,0.007974161766469479
0.007766917813569307,0.007896317169070244,-0.00876854918897152,0.0033207624219357967,-0.0,0.007818472571671009
0.007982103154063225,0.007659825962036848,-0.008544081822037697,0.003381822956725955,-0.0,0.00789370946586132
0.008640616200864315,0.007708370219916105,-0.008357034996151924,0.0032096197828650475,-0.0,0.008150720037519932
0.00796331837773323,0.007909898646175861,-0.008908925577998161,0.003273607464507222,-0.0,0.008288474753499031
0.00810761284083128,0.007614864967763424,-0.00897250510752201,0.0033049429766833782,-0.0,0.008021954447031021
0.008347722701728344,0.007689520716667175,-0.008744366466999054,0.0030894603114575148,-0.0,0.007627260405570269
0.008301038295030594,0.0073619419708848,-0.008253335021436214,0.0030621420592069626,-0.0,0.008014061488211155
0.008060411550104618,0.007665954530239105,-0.00871232245117426,0.003052853047847748,-0.0,0.00778980553150177
0.008271140977740288,0.007026563864201307,-0.008393052965402603,0.002919359365478158,-0.0,0.007828135043382645
0.00815632101148367,0.006984726060181856,-0.007939079776406288,0.0027747591957449913,-0.0,0.007417477201670408
0.008380924351513386,0.007276949938386679,-0.008670379407703876,0.0028218503575772047,-0.0,0.007519969716668129
0.008420499041676521,0.0076675619930028915,-0.00827079638838768,0.003026836086064577,-0.0,0.007589341606944799
0.007957621477544308,0.00709435623139143,-0.008465669117867947,0.0030865182634443045,-0.0,0.008219391107559204
0.008114427328109741,0.006634215358644724,-0.008467075414955616,0.003019648604094982,-0.0,0.008304325863718987
0.00792202353477478,0.006637809798121452,-0.008584056980907917,0.002801781753078103,-0.0,0.007863794453442097
0.007640690077096224,0.0071441107429564,-0.008193614892661572,0.0026909811422228813,-0.0,0.008005521260201931
0.007689629681408405,0.007239582482725382,-0.008657445199787617,0.00259030400775373,-0.0,0.008073297329246998
0.007794552017003298,0.006686596665531397,-0.009102455340325832,0.0026000123471021652,-0.0,0.0082682054489851
0.008146929554641247,0.007100852206349373,-0.008488659746944904,0.002569576259702444,-0.0,0.00814844947308302
0.008498163893818855,0.007040954660624266,-0.008895264007151127,0.002465226221829653,-0.0,0.007767243776470423
0.008034800179302692,0.006430373527109623,-0.00921847764402628,0.002546629635617137,-0.0,0.008043675683438778
0.007625008467584848,0.006286300718784332,-0.009036886505782604,0.0023710301611572504,-0.0,0.007963812910020351
0.008242693729698658,0.006780373398214579,-0.009217603132128716,0.0022935422603040934,-0.0,0.007751740515232086
0.007978466339409351,0.007107425015419722,-0.00907772034406662,0.002415312686935067,-0.0,0.007488941308110952
0.007265049498528242,0.007297440432012081,-0.008827521465718746,0.002652085153385997,-0.0,0.008140458725392818
0.007265049498528242,0.007297440432012081,-0.008827521465718746,0.002652085153385997,-0.0,0.008140458725392818
0.0074243368580937386,0.006938728969544172,-0.008404127322137356,0.00261203246191144,-0.0,0.007988606579601765
0.008115029893815517,0.0065879300236701965,-0.00916650053113699,0.0027694660238921642,-0.0,0.008224315010011196
0.008603408001363277,0.00688438443467021,-0.009311359375715256,0.002502206014469266,-0.0,0.007795949000865221
0.007926510646939278,0.006853227503597736,-0.008813808672130108,0.002409799722954631,-0.0,0.007848040200769901
0.008127419278025627,0.006823085714131594,-0.009220821782946587,0.0023817892652004957,-0.0,0.007732740603387356
0.008008446544408798,0.006524600088596344,-0.00876614823937416,0.0025394463445991278,-0.0,0.007941467687487602
0.007931544445455074,0.006384145002812147,-0.008385705761611462,0.0024698395282030106,-0.0,0.007818055339157581
0.007486378308385611,0.006873337551951408,-0.008716593496501446,0.0025057480670511723,-0.0,0.007999778725206852
0.00740083958953619,0.006598719395697117,-0.009315138682723045,0.0025450782850384712,-0.0,0.007878091186285019
0.008028833195567131,0.00661541149020195,-0.009312506765127182,0.00239427387714386,-0.0,0.00763390539214015
0.007888929918408394,0.006224219221621752,-0.008422302082180977,0.002331733237951994,-0.0,0.008056282997131348
0.008194765076041222,0.006580587010830641,-0.008782719261944294,0.0022594064939767122,-0.0,0.007744336500763893
0.007995838299393654,0.0067169624380767345,-0.008885613642632961,0.0023453314788639545,-0.0,0.007152828853577375
0.007656289264559746,0.006779121235013008,-0.008228672668337822,0.002191657666116953,-0.0,0.007820384576916695
0.008133787661790848,0.006762373726814985,-0.00833487045019865,0.0023080571554601192,-0.0,0.008074095472693443
0.007794969715178013,0.006290561985224485,-0.009005839936435223,0.0022688633762300014,-0.0,0.007955314591526985
0.007833420298993587,0.006785627454519272,-0.009158939123153687,0.0022452459670603275,-0.0,0.007371943909674883
0.00780089944601059,0.007201225496828556,-0.009294715709984303,0.00242973561398685,-0.0,0.0072129350155591965
0.008010306395590305,0.006990678142756224,-0.008919824846088886,0.002476345282047987,-0.0,0.007667765952646732
0.007662095129489899,0.007009793072938919,-0.008677328005433083,0.0024575775023549795,-0.0,0.007806631736457348
0.008278538472950459,0.00730133755132556,-0.009108137339353561,0.0024852969218045473,-0.0,0.00734893511980772
0.008167740888893604,0.006434259004890919,-0.00905009638518095,0.0023740350734442472,-0.0,0.007201192434877157
0.007622290402650833,0.006494082510471344,-0.008679799735546112,0.0024448116309940815,-0.0,0.007140998728573322
0.007967384532094002,0.0069994619116187096,-0.008995852433145046,0.002339265774935484,-0.0,0.007290279027074575
0.007670134771615267,0.006918327417224646,-0.008756138384342194,0.002478347159922123,-0.0,0.00771774398162961
0.007312439382076263,0.006656964775174856,-0.008590624667704105,0.0026879606302827597,-0.0,0.007656125817447901
0.007323737256228924,0.006588204298168421,-0.00896693766117096,0.0027802076656371355,-0.0,0.007327890023589134
0.007323737256228924,0.006588204298168421,-0.00896693766117096,0.0027802076656371355,-0.0,0.007327890023589134
0.007990562357008457,0.006739331409335136,-0.008737416937947273,0.0026903387624770403,-0.0,0.007337912451475859
0.007861657068133354,0.007392015308141708,-0.008328924886882305,0.0028301135171204805,-0.0,0.007253650575876236
0.008076982572674751,0.007023301906883717,-0.007173227611929178,0.0026203955058008432,-0.0,0.007519567850977182
0.008270256221294403,0.006901226472109556,-0.009684777818620205,0.0024046432226896286,-0.0,0.007409833371639252
0.00857577845454216,0.007483155466616154,-0.009649945423007011,0.0023315302096307278,-0.0,0.007035092916339636
0.008021287620067596,0.007929271087050438,-0.008471449837088585,0.0024579695891588926,-0.0,0.007226517889648676
0.00805541593581438,0.0071340869180858135,-0.0087090153247118,0.00257605011574924,-0.0,0.007776547223329544
0.008370967581868172,0.006372527685016394,-0.008614194579422474,0.002895746845752001,-0.0,0.007668475154787302
0.008117357268929482,0.006471316330134869,-0.008256513625383377,0.00289535871706903,-0.0,0.0074385302141308784
0.007698702160269022,0.006754177622497082,-0.00830194354057312,0.0024910815991461277,-0.0,0.007312909699976444
0.007833659648895264,0.006608556490391493,-0.009339943528175354,0.002243399154394865,-0.0,0.007348425220698118
0.008453444577753544,0.00639661168679595,-0.008998561650514603,0.002084007253870368,-0.0,0.007114131934940815
0.008467729203402996,0.006044758949428797,-0.008893466554582119,0.00223408336751163,-0.0,0.007204886060208082
0.00803864374756813,0.006631945725530386,-0.00893558282405138,0.0026399262715131044,-0.0,0.0071922047063708305
0.008272863924503326,0.007004826329648495,-0.008811858482658863,0.0028122751973569393,-0.0,0.00739843538030982
0.009033437818288803,0.006530234590172768,-0.008338349871337414,0.0027144812047481537,-0.0,0.006966057233512402
0.008253882639110088,0.006304763723164797,-0.008844017051160336,0.002796115819364786,-0.0,0.007024398073554039
0.008252409286797047,0.00669238343834877,-0.009211751632392406,0.0024957656860351562,-0.0,0.00729003269225359
0.008567550219595432,0.006944216787815094,-0.008973626419901848,0.0022846690844744444,-0.0,0.007144158240407705
0.008588261902332306,0.006850284989923239,-0.008647463284432888,0.0021576283033937216,-0.0,0.007236319128423929
0.007943276315927505,0.0064382958225905895,-0.00941326841711998,0.0020891111344099045,-0.0,0.007417294662445784
0.008826148696243763,0.0060465577989816666,-0.00838614720851183,0.0025163372047245502,-0.0,0.007658550050109625
0.008565771393477917,0.006523995194584131,-0.009646357037127018,0.0024646662641316652,-0.0,0.007130081299692392
0.008209957741200924,0.006651654839515686,-0.009315059520304203,0.0024181557819247246,-0.0,0.007491191849112511
0.008495044894516468,0.0067307306453585625,-0.008981364779174328,0.0022672833874821663,-0.0,0.007705156225711107
0.008729440160095692,0.005856522358953953,-0.009139868430793285,0.002053571166470647,-0.0,0.007109492085874081
0.008350926451385021,0.005831924267113209,-0.009077421389520168,0.0021413909271359444,-0.0,0.007189597934484482
0.008350926451385021,0.005831924267113209,-0.009077421389520168,0.0021413909271359444,-0.0,0.007189597934484482
0.008451009169220924,0.0065380604937672615,-0.008558166213333607,0.002586762886494398,-0.0,0.00707140751183033
0.008882923051714897,0.007154396269470453,-0.008999187499284744,0.002745774108916521,-0.0,0.006720573641359806
0.008453266695141792,0.0063608624041080475,-0.00933902058750391,0.003047119826078415,-0.0,0.006846111733466387
0.008175515569746494,0.006270756945014,-0.009304760955274105,0.002750940853729844,-0.0,0.006950018461793661
0.008399716578423977,0.006706875748932362,-0.009284640662372112,0.002460486488416791,-0.0,0.0070503936149179935
0.008186440914869308,0.006570904050022364,-0.009660481475293636,0.0022836022544652224,-0.0,0.006935307756066322
0.008020935580134392,0.006435786373913288,-0.009248370304703712,0.002269317861646414,-0.0,0.007375076413154602
0.008277378045022488,0.00672060064971447,-0.009069585241377354,0.002453678520396352,-0.0,0.0077027990482747555
0.008389799855649471,0.006282925605773926,-0.009485282935202122,0.0026334188878536224,-0.0,0.0069849672727286816
0.008243079297244549,0.006143160164356232,-0.009153975173830986,0.0027736711781471968,-0.0,0.006858893670141697
0.008074577897787094,0.006649496033787727,-0.008933622390031815,0.0026634177193045616,-0.0,0.006737153045833111
0.00840981025248766,0.006609378382563591,-0.009621826931834221,0.0026039439253509045,-0.0,0.006944214925169945
0.008912370540201664,0.006146583240479231,-0.009821411222219467,0.0026364820078015327,-0.0,0.007295235525816679
0.00803852453827858,0.0062844716012477875,-0.008855069987475872,0.0025315270759165287,-0.0,0.006974647752940655
0.008141188882291317,0.0069067287258803844,-0.0091627212241292,0.0025387287605553865,-0.0,0.00727439159527421
0.00810179952532053,0.006762057077139616,-0.008858686313033104,0.0023593204095959663,-0.0,0.00686864135786891
0.008255580440163612,0.006273448932915926,-0.008706539869308472,0.002421475248411298,-0.0,0.0069896443746984005
0.008263932541012764,0.006391039118170738,-0.009397474117577076,0.0022345171310007572,-0.0,0.00677648326382041
0.008115575648844242,0.006503935903310776,-0.009362415410578251,0.002120251301676035,-0.0,0.0068763685412704945
0.007803702726960182,0.006305791437625885,-0.008953431621193886,0.0026082792319357395,-0.0,0.007074926048517227
0.008421311154961586,0.0064491406083106995,-0.009272279217839241,0.0026006109546869993,-0.0,0.006503568030893803
0.008547797799110413,0.006670028902590275,-0.009188789874315262,0.0025912346318364143,-0.0,0.006373923737555742
0.008430947549641132,0.006403007544577122,-0.00869042333215475,0.002595000434666872,-0.0,0.006115374155342579
0.00812189094722271,0.006538404617458582,-0.009185364469885826,0.0025438598822802305,-0.0,0.005932661704719067
0.008664755150675774,0.006795013323426247,-0.009030992165207863,0.0028544003143906593,-0.0,0.0062627047300338745
0.008544953539967537,0.0067986780777573586,-0.008495397865772247,0.002928287023678422,-0.0,0.006675960496068001
0.008544953539967537,0.0067986780777573586,-0.008495397865772247,0.002928287023678422,-0.0,0.006675960496068001
0.008427174761891365,0.006300559267401695,-0.00941069982945919,0.00266635837033391,-0.0,0.006314578466117382
0.00793753657490015,0.006619225721806288,-0.009289493784308434,0.0026689469814300537,-0.0,0.006052884738892317
0.008756651543080807,0.006806658115237951,-0.008959450758993626,0.0026767465751618147,-0.0,0.006482721772044897
0.008461935445666313,0.006705087143927813,-0.008541518822312355,0.0024892541114240885,-0.0,0.006648061331361532
0.008302383124828339,0.0063340687192976475,-0.009374825283885002,0.0025526585523039103,-0.0,0.0063868360593914986
0.008849041536450386,0.0064064329490065575,-0.008877386339008808,0.002619852777570486,-0.0,0.006324648857116699
0.008643927052617073,0.006751767359673977,-0.0087939677760005,0.002793351886793971,-0.0,0.006449774838984013
0.008314109407365322,0.006696601398289204,-0.009013781324028969,0.0027325928676873446,-0.0,0.006339688785374165
0.00882637593895197,0.006430372130125761,-0.00849316269159317,0.002790255704894662,-0.0,0.006397236604243517
0.008368213661015034,0.006199934054166079,-0.008716237731277943,0.0027154842391610146,-0.0,0.006374334450811148
0.008434376679360867,0.006618092767894268,-0.008842001669108868,0.0025736531242728233,-0.0,0.006248593330383301
0.00844425056129694,0.006042583379894495,-0.0086274528875947,0.0024639107286930084,-0.0,0.00635819137096405
0.008699357509613037,0.005913920700550079,-0.008989257737994194,0.0025152908638119698,-0.0,0.006553301587700844
0.009029343724250793,0.00601816875860095,-0.009051674045622349,0.0025092915166169405,-0.0,0.006095724646002054
0.008463457226753235,0.00639791926369071,-0.008807985112071037,0.002835158258676529,-0.0,0.005940674338489771
0.00856192409992218,0.006445177830755711,-0.008439222350716591,0.00269300420768559,7.255096647895698e-07,0.005994511302560568
0.008928045630455017,0.0057827564887702465,-0.008808006532490253,0.0026714573614299297,4.7370594558060475e-08,0.006203664466738701
0.008405465632677078,0.005806421861052513,-0.009210411459207535,0.002793730003759265,3.0929616645636315e-09,0.006076974328607321
0.00835256464779377,0.006316696759313345,-0.008201951161026955,0.0030645220540463924,2.0194829142283766e-10,0.005543009843677282
0.008945103734731674,0.007105811964720488,-0.009257828816771507,0.003018428571522236,8.609373522254493e-13,0.006063804961740971
0.008503371849656105,0.006291994825005531,-0.00862080417573452,0.002849237062036991,5.6213056941461365e-14,0.006047460250556469
0.009653441607952118,0.00618239538744092,-0.008323750458657742,0.00291947228834033,3.6703106509996045e-15,0.006295399274677038
0.009187564253807068,0.006789638660848141,-0.009028949774801731,0.002915786113590002,2.396450495964692e-16,0.0057650404050946236
0.008641966618597507,0.00706495251506567,-0.008963111788034439,0.0029208811465650797,1.5647108940091907e-17,0.005893930327147245
0.008442588150501251,0.006761162541806698,-0.008918598294258118,0.0027744020335376263,1.0216444673120738e-18,0.006189235486090183
0.009000279009342194,0.006354768760502338,-0.00894958432763815,0.003002460580319166,6.670608056886946e-20,0.006171436049044132
0.00920876208692789,0.006282626185566187,-0.009409354068338871,0.003017033450305462,4.355429850312036e-21,0.0063044223934412
0.00920876208692789,0.006282626185566187,-0.009409354068338871,0.003017033450305462,4.355429850312036e-21,0.0063044223934412
0.009357474744319916,0.0066038877703249454,-0.008372162468731403,0.002689780667424202,1.8567881398677414e-23,0.006011053919792175
0.009357474744319916,0.0066038877703249454,-0.008372162468731403,0.002689780667424202,1.8567881398677414e-23,0.006011053919792175
0.00915924459695816,0.006008580327033997,-0.009041288867592812,0.002785351825878024,1.212349936743852e-24,0.005785730667412281
0.008771106600761414,0.006218552589416504,-0.008681143634021282,0.0026583513244986534,7.915778531121578e-26,0.005923726595938206
0.009243595413863659,0.006610080599784851,-0.008285987190902233,0.0025479563046246767,5.168438309895219e-27,0.005965554621070623
0.009165486320853233,0.006421076599508524,-0.00895087793469429,0.0026862542144954205,3.374620707827634e-28,0.005617915187031031
0.008853807114064693,0.006391544360667467,-0.009865419007837772,0.0027790111489593983,2.203386032559845e-29,0.005960320588201284
0.009180109947919846,0.006142508704215288,-0.008467577397823334,0.002554053207859397,1.438653681734094e-30,0.0056333695538342
0.009777066297829151,0.005976282060146332,-0.008629042655229568,0.0025754726957529783,9.393380647145478e-32,0.005751455202698708
0.009270411916077137,0.006493683904409409,-0.009151037782430649,0.002663695253431797,6.13320642760458e-33,0.005883871112018824
0.010003073140978813,0.0069051035679876804,-0.008421730250120163,0.0028983100783079863,4.004545125509267e-34,0.005898732226341963
0.009770354256033897,0.0066513619385659695,-0.007824055850505829,0.0031551080755889416,2.614681701481525e-35,0.006044403184205294
0.009228111244738102,0.005770000629127026,-0.008781280368566513,0.002941146958619356,1.7072003496326446e-36,0.005868623964488506
0.010412114672362804,0.005937933921813965,-0.008796771988272667,0.002825536299496889,1.1146797911326248e-37,0.0060869790613651276
0.00941976998001337,0.007137010805308819,-0.008360018953680992,0.002865114714950323,7.27806256271177e-39,0.005744098220020533
0.009506979025900364,0.006610753946006298,-0.008419477380812168,0.003052090061828494,4.752055326249033e-40,0.005679677240550518
0.009705235250294209,0.00619637593626976,-0.008448844775557518,0.0035337419249117374,3.10275505970801e-41,0.0055417646653950214
0.010049103759229183,0.00592568377032876,-0.00804681796580553,0.0034270614851266146,2.0262775794136855e-42,0.005640583578497171
0.009736823849380016,0.006007992196828127,-0.00777770159766078,0.0030756345950067043,1.317220556465328e-43,0.005709233693778515
0.010898054577410221,0.006734175141900778,-0.008457371965050697,0.0026296048890799284,8.407790785948902e-45,0.0056158397346735
0.009371443651616573,0.006474264897406101,-0.008748332038521767,0.002404408995062113,0.0,0.00535326823592186
0.009390612132847309,0.005952311214059591,-0.008298424072563648,0.0028592024464160204,0.0,0.005329789128154516
0.010448863729834557,0.0061659375205636024,-0.008986133150756359,0.0033567093778401613,0.0,0.004849093034863472
0.009912285022437572,0.006271426100283861,-0.008153925649821758,0.003304024925455451,0.0,0.005854408722370863
0.010956715792417526,0.006255511660128832,-0.00842832587659359,0.003092810744419694,0.0,0.005620021838694811
0.010275107808411121,0.006234786938875914,-0.00941431149840355,0.002911373507231474,0.0,0.005595832131803036
0.010275107808411121,0.006234786938875914,-0.00941431149840355,0.002911373507231474,0.0,0.005595832131803036
0.009670940227806568,0.005734952166676521,-0.009270009584724903,0.002802087226882577,0.0,0.0051423050463199615
0.009942677803337574,0.005805743392556906,-0.008646677248179913,0.002835172927007079,0.0,0.0050551798194646835
0.010803925804793835,0.006055670324712992,-0.009787284769117832,0.0032117078080773354,0.0,0.005399019923061132
0.010074194520711899,0.006249004043638706,-0.009267247281968594,0.0036516098771244287,0.0,0.005510034039616585
0.010634218342602253,0.0065085990354418755,-0.008597987703979015,0.0038378434255719185,0.0,0.005669635254889727
0.010468761436641216,0.005827909801155329,-0.009313791058957577,0.0037750129122287035,0.0,0.005122522823512554
0.010076452046632767,0.005826603155583143,-0.009386888705193996,0.0033337008208036423,0.0,0.004765685647726059
0.010451125912368298,0.006532097700983286,-0.009237135760486126,0.003046600613743067,0.0,0.004747616592794657
0.010440725833177567,0.0064172265119850636,-0.009057327173650265,0.0028499786276370287,0.0,0.004814966581761837
0.010945972055196762,0.005958156194537878,-0.009334229864180088,0.0030731018632650375,0.0,0.005590507294982672
0.010303203016519547,0.0061743538826704025,-0.009161590598523617,0.0032574443612247705,0.0,0.005397648550570011
0.010173642076551914,0.00596816698089242,-0.009170204401016235,0.003122357651591301,0.0,0.004894896876066923
0.010341847315430641,0.006665170658379793,-0.009497493505477905,0.003178816521540284,0.0,0.00473188329488039
0.010463348589837551,0.0063275122083723545,-0.008996951393783092,0.0032385061495006084,0.0,0.0046486989594995975
0.010380052961409092,0.005860714707523584,-0.009140887297689915,0.0031851662788540125,0.0,0.004815628752112389
0.010635437443852425,0.006204232573509216,-0.009744038805365562,0.003370836144313216,0.0,0.004870951175689697
0.010873965919017792,0.0063745020888745785,-0.00932352989912033,0.0032767541706562042,0.0,0.0051695299334824085
0.01021606009453535,0.006477052811533213,-0.008870318531990051,0.0033772883471101522,0.0,0.004977601580321789
0.010799482464790344,0.006232780404388905,-0.010445833206176758,0.003048947313800454,0.0,0.004609411116689444
0.010745139792561531,0.006444536615163088,-0.009878267534077168,0.0030851871706545353,0.0,0.004537849221378565
0.01058845967054367,0.006140598561614752,-0.010288970544934273,0.003374139778316021,0.0,0.0049696448259055614
0.010279080830514431,0.006759842857718468,-0.009765734896063805,0.0035494458861649036,0.0,0.004885589238256216
0.010454246774315834,0.006834112573415041,-0.00922970287501812,0.003644500859081745,0.0,0.0048817419447004795
0.011081703007221222,0.006466081831604242,-0.010470638982951641,0.00407019630074501,0.0,0.004805130418390036
0.0103408582508564,0.006121727637946606,-0.010044636204838753,0.0036626216024160385,0.0,0.004751432687044144
0.010661762207746506,0.006756825838238001,-0.009291236288845539,0.003570903092622757,0.0,0.004709645174443722
0.01093458291143179,0.006926173809915781,-0.01037086546421051,0.0033167668152600527,0.0,0.004681233316659927
0.010508891195058823,0.00643128901720047,-0.009965546429157257,0.0033993851393461227,0.0,0.004697473719716072
0.010452676564455032,0.006298462860286236,-0.009561827406287193,0.003627631114795804,0.0,0.00454059848561883
0.010452676564455032,0.006298462860286236,-0.009561827406287193,0.003627631114795804,0.0,0.00454059848561883
0.010647128336131573,0.006879753433167934,-0.01009688712656498,0.00390790868550539,0.0,0.004341953434050083
0.010397850535809994,0.0068936701864004135,-0.00973901804536581,0.003972144797444344,0.0,0.0042950911447405815
0.010682349093258381,0.006328459829092026,-0.009473107755184174,0.00357804330997169,0.0,0.004227358382195234
0.010366414673626423,0.006276620086282492,-0.01013889629393816,0.004052905365824699,0.0,0.00401959428563714
0.010505852289497852,0.006248625926673412,-0.010474329814314842,0.004054232966154814,0.0,0.004232493694871664
0.01087835244834423,0.006049920804798603,-0.009120872244238853,0.003985691349953413,0.0,0.00459101889282465
0.010871179401874542,0.006231419742107391,-0.009711083956062794,0.003894673427566886,0.0,0.004656957928091288
0.011231538839638233,0.006250446196645498,-0.010577034205198288,0.0038591823540627956,0.0,0.004492214880883694
0.010610707104206085,0.005902557633817196,-0.009650610387325287,0.004260004963725805,0.0,0.004157756455242634
0.010387079790234566,0.006002461537718773,-0.009620807133615017,0.004501226358115673,0.0,0.003861455712467432
0.010978701524436474,0.006476139184087515,-0.009675232693552971,0.004357683472335339,0.0,0.003744330257177353
0.010996435768902302,0.006136426702141762,-0.009722841903567314,0.004082703031599522,0.0,0.0038252321537584066
0.010161363519728184,0.006019603926688433,-0.010318567045032978,0.0036667378153651953,0.0,0.004283146001398563
0.010594126768410206,0.006458202376961708,-0.009985659271478653,0.0035068723373115063,0.0,0.0041801584884524345
0.01054049376398325,0.006096647121012211,-0.009244495071470737,0.0036067974288016558,-4.204116339678876e-05,0.003920743241906166
0.01017193403095007,0.006448706611990929,-0.010074805468320847,0.0037681860849261284,-0.00017379426572006196,0.0042357980273664
0.010963554494082928,0.006323521491140127,-0.01039453037083149,0.0038554179482162,-0.00017571209173183888,0.0041664219461381435
0.010976185090839863,0.006126491818577051,-0.009219653904438019,0.003945651929825544,-0.00016965570102911443,0.003952833823859692
0.010531584732234478,0.0069271475076675415,-0.009589601308107376,0.004098148550838232,-0.00015779431851115078,0.0039054066874086857
0.00999224092811346,0.006888225674629211,-0.009193732403218746,0.004189365077763796,-0.00015244797396007925,0.004334597382694483
0.010229581966996193,0.006187250837683678,-0.009611676447093487,0.004106298554688692,-0.00014745225780643523,0.004249406512826681
0.010414806194603443,0.006319822743535042,-0.009481866843998432,0.0040821498259902,-0.00016391345707233995,0.0036037119571119547
0.010854670777916908,0.0065987734124064445,-0.00953955203294754,0.004261137917637825,-0.000165574747370556,0.0032556678634136915
0.010451536625623703,0.006366093643009663,-0.009760168381035328,0.004826130345463753,-0.00016107250121422112,0.003264149185270071
0.010735764168202877,0.006339601241052151,-0.009692898020148277,0.004586307797580957,-0.00015643448568880558,0.0035631414502859116
0.010171864181756973,0.006316823419183493,-0.009283283725380898,0.004075899254530668,-0.00015203184739220887,0.0032938814256340265
0.010171864181756973,0.006316823419183493,-0.009283283725380898,0.004075899254530668,-0.00015203184739220887,0.0032938814256340265
0.010507123544812202,0.006022244226187468,-0.009671966545283794,0.004240729380398989,-0.00014786841347813606,0.0033887105528265238
0.010178623721003532,0.006310987751930952,-0.009436095133423805,0.004244993906468153,-0.00014392689627129585,0.0036043901927769184
0.010512568056583405,0.006726995576173067,-0.009242075495421886,0.004443133249878883,-0.00014019016816746444,0.0036553721874952316
0.010805499739944935,0.006219811737537384,-0.009672245010733604,0.004498601425439119,-0.00015352226910181344,0.0034323667641729116
0.010993936099112034,0.006288588047027588,-0.00981246680021286,0.004613175522536039,-0.00015509706281591207,0.0034799505956470966
0.01049876119941473,0.005988048855215311,-0.009461626410484314,0.004713534843176603,-0.00015171167615335435,0.003309867810457945
0.01202553603798151,0.006058717146515846,-0.009640349075198174,0.004388912580907345,-0.00014816630573477596,0.0032656483817845583
0.011390258558094501,0.0067555271089077,-0.010129137896001339,0.004059325437992811,-0.00014476310752797872,0.0032602865248918533
0.010754060000181198,0.006267562508583069,-0.008954210206866264,0.003931083716452122,-0.00014151143841445446,0.0029772832058370113
0.010651647113263607,0.0059584155678749084,-0.009787013754248619,0.004018948879092932,-0.0001384024362778291,0.003010386601090431
0.010629185475409031,0.0058878641575574875,-0.010038241744041443,0.003991874400526285,-0.00015348297893069685,0.003178777638822794
0.010794049128890038,0.006476686801761389,-0.009442993439733982,0.0038678012788295746,-0.00015143254131544381,0.003341573989018798
0.011001868173480034,0.006504103075712919,-0.009884023107588291,0.0037762767169624567,-0.00014838836796116084,0.003178336890414357
0.010648343712091446,0.0060598524287343025,-0.009731421247124672,0.003753265831619501,-0.00014539677067659795,0.0033500792924314737
0.011432777158915997,0.006169813219457865,-0.009128639474511147,0.0036212196573615074,-0.00014251898392103612,0.003660631598904729
0.010856627486646175,0.005683538969606161,-0.009566612541675568,0.0035094430204480886,-0.00013975269393995404,0.0033835775684565306
0.011023353785276413,0.006411503069102764,-0.009705433622002602,0.0036112102679908276,-0.00013709157065022737,0.0033724571112543344
0.011004937812685966,0.006737337447702885,-0.009203929454088211,0.004023408982902765,-0.00013453005522023886,0.0030433954671025276
0.01115538738667965,0.0060047670267522335,-0.010038484819233418,0.00480642868205905,-0.00014135235687717795,0.0027338278014212847
0.011182708665728569,0.006401226855814457,-0.009542099200189114,0.004530458245426416,-0.00013726693578064442,0.0029362705536186695
0.010940052568912506,0.00647472869604826,-0.00957517884671688,0.0043435352854430676,-0.00013321767619345337,0.0034207901917397976
0.010961529798805714,0.006546549964696169,-0.01025074627250433,0.00407013762742281,-0.00012938780128024518,0.0035495648626238108
0.01042533852159977,0.006473570596426725,-0.009147790260612965,0.004254820756614208,-0.00012577134475577623,0.0031550992280244827
0.012059064581990242,0.006594597827643156,-0.009579976089298725,0.004604012239724398,-0.00012235155736561865,0.002749901032075286
0.01185742486268282,0.005867671687155962,-0.00988038070499897,0.004763638600707054,-0.00011911263572983444,0.0026585578452795744
0.011614946648478508,0.006510704290121794,-0.009573087096214294,0.004882513079792261,-0.00011604102473938838,0.002789299003779888
0.011852243915200233,0.006574469152837992,-0.009919821284711361,0.004846456926316023,-0.00011312367860227823,0.002870643977075815
0.011852243915200233,0.006574469152837992,-0.009919821284711361,0.004846456926316023,-0.00011312367860227823,0.002870643977075815
0.011650468222796917,0.006214231718331575,-0.00981734786182642,0.004618579056113958,-0.0001103495160350576,0.003018495161086321
0.012028641998767853,0.006397367920726538,-0.009385591372847557,0.004540657624602318,-0.00010770808876259252,0.003145725466310978
0.012012380175292492,0.0068613504990935326,-0.00908238347619772,0.004584718495607376,-0.00010519025090616196,0.0029046477284282446
0.012071463279426098,0.006925956346094608,-0.009777377359569073,0.004260181915014982,-0.0001027874750434421,0.0028107815887778997
0.012020778842270374,0.006206784397363663,-0.009808162227272987,0.004425388295203447,-0.00010049193951999769,0.0026316458825021982
0.011377413757145405,0.0056988997384905815,-0.009293255396187305,0.005061873234808445,-9.829678310779855e-05,0.0025233773048967123
0.011680003255605698,0.005176841747015715,-0.009568199515342712,0.005107330624014139,-9.619540651328862e-05,0.0027361707761883736
0.01203183364123106,0.005995779763907194,-0.009019044227898121,0.0047366018407046795,-0.00011054648348363116,0.0029065904673188925
0.012085174210369587,0.00564742274582386,-0.009523254819214344,0.004813897889107466,-0.00011054013157263398,0.0026329823303967714
0.012308618985116482,0.005867789965122938,-0.009815272875130177,0.004752298817038536,-0.00010846702934941277,0.002618401078507304
0.012015517801046371,0.005787154193967581,-0.009316387586295605,0.0050369808450341225,-0.00010634069622028619,0.0025983916129916906
0.012587341479957104,0.006246454548090696,-0.009348229505121708,0.0056808157823979855,-0.00010428752284497023,0.0024460351560264826
0.012090056203305721,0.005767627153545618,-0.010544631630182266,0.005265240557491779,-0.0001023116274154745,0.0026269375812262297
0.012160822749137878,0.006037736777216196,-0.010222215205430984,0.004719983786344528,-0.00010040913184639066,0.0027429419569671154
0.012265120632946491,0.005629583261907101,-0.009886418469250202,0.004276615101844072,-9.857615805231035e-05,0.0027396483346819878
0.013036766089498997,0.005659747403115034,-0.010357394814491272,0.004721102304756641,-0.0001047505866154097,0.002581525593996048
0.012552311643958092,0.005979995243251324,-0.009800621308386326,0.005138020496815443,-0.0001104196417145431,0.002286344300955534
0.012239393778145313,0.005745985545217991,-0.009923468343913555,0.005070246756076813,-0.00010899938206421211,0.0021403946448117495
0.012485478073358536,0.0056616272777318954,-0.009906752035021782,0.004580835346132517,-0.0001053862288245,0.0019590004812926054
0.012616926804184914,0.005298775155097246,-0.009362135082483292,0.004655457567423582,-0.00010365250636823475,0.0020655537955462933
0.012779307551681995,0.005167100112885237,-0.01059815939515829,0.004562090616673231,-0.00011278956662863493,0.0020811648573726416
0.012768910266458988,0.005712761543691158,-0.010059921070933342,0.004667360335588455,-0.00011444099800428376,0.002099117962643504
0.012822411954402924,0.005755714140832424,-0.009923480451107025,0.004896041005849838,-0.00011287194502074271,0.0019742180593311787
0.012319478206336498,0.0057272715494036674,-0.01037734467536211,0.005175972357392311,-0.00011114427616121247,0.001971640856936574
0.013094519264996052,0.005156634841114283,-0.009983194060623646,0.005444795824587345,-0.00010945557005470619,0.0019099119817838073
0.012403442524373531,0.005278313998132944,-0.010744025930762291,0.005320985801517963,-0.00010781659511849284,0.002111616777256131
0.012403442524373531,0.005278313998132944,-0.010744025930762291,0.005320985801517963,-0.00010781659511849284,0.002111616777256131
0.012757265008985996,0.005567190237343311,-0.010684839449822903,0.004607739858329296,-0.00010622596892062575,0.002144473372027278
0.012546874582767487,0.006049176212400198,-0.009794767946004868,0.0049080862663686275,-0.00010468150867382064,0.002089704619720578
0.012879195623099804,0.00589012959972024,-0.010298981331288815,0.0053406329825520515,-0.00010318133718101308,0.0018173763528466225
0.01299396250396967,0.005669998005032539,-0.010430153459310532,0.005169873591512442,-0.0001017235335893929,0.0017797008622437716
0.013006544671952724,0.005298907868564129,-0.009894954971969128,0.005362440831959248,-0.00010737900447566062,0.0016780899604782462
0.013011452741920948,0.005709388293325901,-0.01104808785021305,0.004746788647025824,-0.00010591017780825496,0.0017145166639238596
0.012666268274188042,0.005699861329048872,-0.010447463020682335,0.004569488111883402,-0.00010354230471421033,0.0016377305146306753
0.013057917356491089,0.006220674607902765,-0.00996312778443098,0.004531959071755409,-0.00010121774539584294,0.001686460105702281
0.01295302901417017,0.005604458972811699,-0.010604782961308956,0.004732841160148382,-0.00011367420665919781,0.0015482958406209946
0.013236642815172672,0.005715395323932171,-0.010072515346109867,0.00510026840493083,-0.00011589872156037018,0.0014206458581611514
0.012928064912557602,0.005541350692510605,-0.010378469713032246,0.005116010084748268,-0.00011376164184184745,0.0012000894639641047
0.01303042285144329,0.005963467061519623,-0.011050846427679062,0.005943859927356243,-0.00011143380834255368,0.0011319044278934598
0.013236855156719685,0.006342386361211538,-0.010349544696509838,0.006420887541025877,-0.00010918203770415857,0.0011646959464997053
0.013323822058737278,0.005961693357676268,-0.010465971194207668,0.006345491390675306,-0.0001236665848409757,0.0011603800812736154
0.013540886342525482,0.006110162939876318,-0.010368251241743565,0.006426466628909111,-0.00012235069880262017,0.0011753280414268374
0.01349121704697609,0.005709478631615639,-0.010193973779678345,0.006252103950828314,-0.00012008936027996242,0.001218622550368309
0.013672797940671444,0.0059606777504086494,-0.01047761831432581,0.005880618933588266,-0.00011784758680732921,0.0012381781125441194
0.014027978293597698,0.006154969800263643,-0.010936726815998554,0.005714050494134426,-0.00012874705134890974,0.0013359102886170149
0.01364707201719284,0.006226596422493458,-0.011641296558082104,0.006015614606440067,-0.00012745616550091654,0.0013316881377249956
0.014004187658429146,0.005634750239551067,-0.011584091931581497,0.005687965080142021,-0.00012530254025477916,0.0012700327206403017
0.013709972612559795,0.0058682081289589405,-0.010306560434401035,0.0059385159984230995,-0.00021885833120904863,0.0011769980192184448
0.013732502236962318,0.006544969975948334,-0.011063726618885994,0.005377456545829773,-0.0002379652432864532,0.0010243516881018877
0.01388107892125845,0.006257163360714912,-0.010809981264173985,0.0052832127548754215,-0.0002279174659634009,0.0009994920110329986
0.014774669893085957,0.005606282502412796,-0.010951895266771317,0.0054060970433056355,-0.00021705249673686922,0.0008896053768694401
0.0138878608122468,0.0053608594462275505,-0.011190740391612053,0.0060422089882195,-0.00020707053772639483,0.0007214847137220204
0.0138878608122468,0.0053608594462275505,-0.011190740391612053,0.0060422089882195,-0.00020707053772639483,0.0007214847137220204
0.014078236185014248,0.005526600405573845,-0.009853417053818703,0.005512447562068701,-0.0002272064157295972,0.0007099750218912959
0.013779996894299984,0.005714190658181906,-0.011114818044006824,0.00597137026488781,-0.00022686395095661283,0.0007306712795980275
0.014400176703929901,0.00602129427716136,-0.011320913210511208,0.005724073853343725,-0.00021829339675605297,0.0007488692062906921
0.013783924281597137,0.005191908683627844,-0.010667959228157997,0.005979102570563555,-0.00020984835282433778,0.0007996988715603948
0.014425001107156277,0.004942738451063633,-0.011210587806999683,0.0061844452284276485,-0.00021848529286216944,0.0008958117687143385
0.013872893527150154,0.005280984099954367,-0.010723141953349113,0.005808878690004349,-0.00022604534751735628,0.0009733799961395562
0.01471366360783577,0.005281582474708557,-0.010604320093989372,0.0058533730916678905,-0.00021918656420893967,0.0011353313457220793
0.01417888980358839,0.005823747254908085,-0.011477089487016201,0.005954621825367212,-0.00021188003302086145,0.001236721291206777
0.014228696934878826,0.005764786619693041,-0.010951877571642399,0.0060575916431844234,-0.00020498919184319675,0.0011813824530690908
0.013825490139424801,0.005594678223133087,-0.011501087807118893,0.006177496165037155,-0.0002195268461946398,0.001029398525133729
0.014826511032879353,0.005192209035158157,-0.011463316157460213,0.005698647815734148,-0.0002194773987866938,0.0008867760770954192
0.014318463392555714,0.005410514306277037,-0.011503179557621479,0.005364977288991213,-0.00021340568491723388,0.0007772495737299323
0.015173176303505898,0.005715064704418182,-0.011455302126705647,0.005572969559580088,-0.0002080086269415915,0.0007391762919723988
0.014637090265750885,0.0060101901181042194,-0.011112968437373638,0.006155035458505154,-0.00024108342768158764,0.0007088725687935948
0.014912765473127365,0.005366641562432051,-0.01141556166112423,0.006347164511680603,-0.00023156781389843673,0.0006478172144852579
0.015790866687893867,0.005335293710231781,-0.011376256123185158,0.006198460701853037,-0.00025294857914559543,0.0005944594158791006
0.015345457941293716,0.005121561698615551,-0.010848544538021088,0.005653902422636747,-0.00025140069192275405,0.0005004840204492211
0.01389810349792242,0.0053626312874257565,-0.01190710999071598,0.0056854127906262875,-0.00024085436598397791,0.0004106106061954051
0.014860332943499088,0.0057030171155929565,-0.011159979738295078,0.005999977234750986,-0.00026642408920452,0.0003735737409442663
0.015269438736140728,0.0053912801668047905,-0.011624027043581009,0.006099849473685026,-0.00024786172434687614,0.00032017650664784014
0.01521695964038372,0.004912855103611946,-0.011165125295519829,0.005951068829745054,-0.00026368311955593526,0.0003279411466792226
0.015588318929076195,0.005346378311514854,-0.011853981763124466,0.005533072166144848,-0.0002620357263367623,0.00033431625342927873
0.015369927510619164,0.005306217819452286,-0.011105022393167019,0.0063638342544436455,-0.0002533339138608426,0.00031646364368498325
0.01529080793261528,0.00588654400780797,-0.010960360988974571,0.0061813765205442905,-0.00035644808667711914,0.0002990452921949327
0.015173555351793766,0.005385722033679485,-0.011338753625750542,0.006044365931302309,-0.00034549031988717616,0.00031818775460124016
0.015173970721662045,0.004996513482183218,-0.01135469414293766,0.005893361289054155,-0.00036916203680448234,0.00031328541808761656
0.015173970721662045,0.004996513482183218,-0.01135469414293766,0.005893361289054155,-0.00036916203680448234,0.00031328541808761656
0.015231682918965816,0.005202408879995346,-0.012273729778826237,0.005677227862179279,-0.0003593818109948188,0.00029912154423072934
0.015123140998184681,0.005069528706371784,-0.011288345791399479,0.006197683978825808,-0.00039025352452881634,0.0003209487476851791
0.015545685775578022,0.005451643839478493,-0.010917454957962036,0.006460624746978283,-0.00040980562334880233,0.00031189346918836236
0.015332483686506748,0.005592732224613428,-0.01124096941202879,0.006329257506877184,-0.00039950196514837444,0.0002992451481986791
0.0155142517760396,0.005028253886848688,-0.010764332488179207,0.006555662490427494,-0.0005306894308887422,0.00028732159989885986
0.015201136469841003,0.005189500283449888,-0.011429782025516033,0.0068698059767484665,-0.0005196062265895307,0.00027629503165371716
0.015929775312542915,0.0049893660470843315,-0.010055514052510262,0.0066850013099610806,-0.0004687206237576902,0.00026608252665027976
0.015550493262708187,0.0048504178412258625,-0.011770865879952908,0.006524409167468548,-0.00042464362923055887,0.0002565985778346658
0.015930039808154106,0.005467955954372883,-0.01175436656922102,0.006473096087574959,-0.0004600548418238759,0.0002477671660017222
0.015651222318410873,0.005322907119989395,-0.01109573058784008,0.006351548247039318,-0.000428248371463269,0.0002395238116150722
0.01580682396888733,0.005125962197780609,-0.011534721590578556,0.0065817879512906075,-0.0003970441466663033,0.0002318110637133941
0.015657057985663414,0.005423196591436863,-0.01156873069703579,0.0065038190223276615,-0.0003997845924459398,0.00022457994055002928
0.015760228037834167,0.005074851680546999,-0.011002185754477978,0.006311869714409113,-0.00040175029425881803,0.000217785855056718
0.015908079221844673,0.005285272374749184,-0.01256420835852623,0.00650680810213089,-0.0003793473297264427,0.0001884574885480106
0.01576079986989498,0.0055621108040213585,-0.011398270726203918,0.006692369468510151,-0.000395587325328961,0.00017991894856095314
0.01602751575410366,0.005636165849864483,-0.01176301296800375,0.006649353541433811,-0.0003861682489514351,0.00017472272156737745
0.015401349402964115,0.005156175699084997,-0.011875580064952374,0.0069234902039170265,-0.000367237429600209,0.00016999414947349578
0.016165906563401222,0.005360866896808147,-0.01143172662705183,0.006920343730598688,-0.00034945813240483403,0.00016552674060221761
0.01579161360859871,0.005634061060845852,-0.011887958273291588,0.006944912485778332,-0.000322277337545529,0.00016128872812259942
0.016272980719804764,0.005287784617394209,-0.011341046541929245,0.0069683268666267395,-0.00029190845089033246,0.00015726230049040169
0.016069762408733368,0.00522071635350585,-0.01198451779782772,0.006751482840627432,-0.0002735346497502178,8.244298078352585e-05
0.016086753457784653,0.005488025024533272,-0.011879593133926392,0.0064781117253005505,-0.00024383702839259058,5.4369062127079815e-05
0.015808794647455215,0.005123822949826717,-0.011866554617881775,0.006700348109006882,-0.0002743744116742164,5.268264067126438e-05
0.016015201807022095,0.004931621253490448,-0.011651908047497272,0.006958859972655773,-0.0002637778234202415,5.117854379932396e-05
0.015944872051477432,0.005689413286745548,-0.012099562212824821,0.00691246148198843,-0.00025166483828797936,2.6552275812719017e-05
0.016261745244264603,0.005365965887904167,-0.011904180981218815,0.006515803746879101,-0.00024046680482570082,2.432120163575746e-05
0.015983305871486664,0.005228817462921143,-0.01153809204697609,0.006123138125985861,-0.00026346248341724277,2.358489109610673e-05
0.01627034693956375,0.005101198796182871,-0.01210531871765852,0.006517578847706318,-0.0002572641533333808,1.5399248241010355e-06
0.01627034693956375,0.005101198796182871,-0.01210531871765852,0.006517578847706318,-0.0002572641533333808,1.5399248241010355e-06
0.01604493148624897,0.00545725179836154,-0.01210640650242567,0.0064161792397499084,-0.00025477641611360013,6.5649414793256256e-09
0.01604493148624897,0.00545725179836154,-0.01210640650242567,0.0064161792397499084,-0.00025477641611360013,6.5649414793256256e-09
0.016092900186777115,0.005370456259697676,-0.01181229017674923,0.006371079012751579,-0.00026109235477633774,4.286437593759018e-10
0.016286473721265793,0.0054357522167265415,-0.011468872427940369,0.00672123534604907,-0.0002529360062908381,2.7987376305382838e-11
0.016464490443468094,0.005570863839238882,-0.011961261741816998,0.006821773014962673,-0.00024441545247100294,1.827375707350032e-12
0.016039062291383743,0.005801637191325426,-0.011814783327281475,0.006511048413813114,-0.000256319617619738,1.1931457883328223e-13
0.016618650406599045,0.00562227051705122,-0.01248390506953001,0.006872384808957577,-0.0002608743670862168,7.790389020727664e-15
0.016842039301991463,0.00573510117828846,-0.012306667864322662,0.006890184246003628,-0.00024777688668109477,-0.0006977399461902678
0.01691865548491478,0.005465332418680191,-0.011946098878979683,0.007259748876094818,-0.00027558859437704086,-0.0007855183212086558
0.016744524240493774,0.005585439037531614,-0.011904232203960419,0.007416131440550089,-0.00026750739198178053,-0.0006965466891415417
0.016063716262578964,0.005548335611820221,-0.011720245704054832,0.007145289331674576,-0.0002552251098677516,-0.0007059380877763033
0.016369445249438286,0.005737894680351019,-0.012374832294881344,0.006943926215171814,-0.000281570537481457,-0.0006455241818912327
0.01634618081152439,0.005635970737785101,-0.011880419217050076,0.00748421112075448,-0.0002718855976127088,-0.0006638880586251616
0.0168311707675457,0.00568429147824645,-0.012323053553700447,0.007844872772693634,-0.0002607897622510791,-0.0006580280605703592
0.01625152863562107,0.006003505550324917,-0.011686121113598347,0.007405237294733524,-0.0002814442850649357,-0.0007468994008377194
0.016421973705291748,0.005489868577569723,-0.01175999641418457,0.007310156710445881,-0.0002749532868620008,-0.0007941864314489067
0.01644239015877247,0.006017413455992937,-0.01228586956858635,0.007451809477061033,-0.00026510609313845634,-0.001294761779718101
0.015949079766869545,0.006007347255945206,-0.011970709078013897,0.007414607796818018,-0.000255707825999707,-0.0013509744312614202
0.0166071355342865,0.006195303983986378,-0.01252210233360529,0.007274103816598654,-0.00031597938505001366,-0.001315169152803719
0.016632571816444397,0.005530663765966892,-0.01199218537658453,0.007063453551381826,-0.00031651221797801554,-0.0014424544060602784
0.017194733023643494,0.005907096900045872,-0.012379273772239685,0.00739948870614171,-0.00029709769296459854,-0.001364807947538793
0.016619453206658363,0.006029084790498018,-0.012280031107366085,0.00770666403695941,-0.0003011980152223259,-0.0012911316007375717
0.016821620985865593,0.00623921537771821,-0.012854850850999355,0.00749439001083374,-0.0002967442269437015,-0.001327072037383914
0.01610402762889862,0.005402515642344952,-0.012241016142070293,0.007794433739036322,-0.0002820331428665668,-0.0013673607027158141
0.016258573159575462,0.005300372373312712,-0.012605930678546429,0.007568058557808399,-0.0002898868406191468,-0.0015611351700499654
0.016323445364832878,0.005588035564869642,-0.012337451800704002,0.00735638290643692,-0.00029647292103618383,-0.0016784463077783585
0.016323445364832878,0.005588035564869642,-0.012337451800704002,0.00735638290643692,-0.00029647292103618383,-0.0016784463077783585
0.016460129991173744,0.006214477121829987,-0.012702152132987976,0.0072668083012104034,-0.00028440883033908904,-0.0018397322855889797
0.01681823469698429,0.006008182652294636,-0.012679642997682095,0.007842562161386013,-0.00027220460469834507,-0.001859058509580791
0.015389194712042809,0.005687364377081394,-0.012237654067575932,0.00761010404676199,-0.0002609333023428917,-0.0019340559374541044
0.017232457175850868,0.0055510783568024635,-0.012910541146993637,0.00732063315808773,-0.0002770156424958259,-0.002142329467460513
0.01662868820130825,0.0061188009567558765,-0.012531044892966747,0.0071127875708043575,-0.0002747838443610817,-0.00218429253436625
0.016705546528100967,0.005787063390016556,-0.013296646997332573,0.00757180480286479,-0.0002652064722497016,-0.002146023092791438
0.016579478979110718,0.006177109200507402,-0.01227905135601759,0.0075524840503931046,-0.000255818129517138,-0.002174975350499153
0.01669003628194332,0.006023647263646126,-0.012724139727652073,0.007202395237982273,-0.000247041491093114,-0.0023999118711799383
0.016938652843236923,0.005769643932580948,-0.012656273320317268,0.006766387727111578,-0.0002519619301892817,-0.002556184772402048
0.016862303018569946,0.0061186859384179115,-0.013302663341164589,0.007017441093921661,-0.00024306692648679018,-0.002489508129656315
0.01725343056023121,0.005759282503277063,-0.013061135075986385,0.0077565694227814674,-0.00023089935712050647,-0.0024070630315691233
0.017036138102412224,0.006069933995604515,-0.013019406236708164,0.0076193856075406075,-0.00021964592451695353,-0.0022316351532936096
0.017523767426609993,0.006106005050241947,-0.01321557816118002,0.007310668006539345,-0.00020942209812346846,-0.0024479874409735203
0.017558487132191658,0.005411861930042505,-0.012387440539896488,0.007604451384395361,-0.00021966823260299861,-0.002759896218776703
0.017446139827370644,0.005404707044363022,-0.013560541905462742,0.007742330431938171,-0.00022856699069961905,-0.002950624329969287
0.017796557396650314,0.005730200558900833,-0.01330444123595953,0.00740782218053937,-0.0002204255579272285,-0.002795454580336809
0.01756804808974266,0.00604336429387331,-0.013438654132187366,0.007292001508176327,-0.00021185407240409404,-0.0027462344150990248
0.017474643886089325,0.005879923701286316,-0.012701276689767838,0.00766873499378562,-0.00022049585822969675,-0.0025274844374507666
0.01768433302640915,0.0053717908449471,-0.012986715883016586,0.0079511608928442,-0.00022805102344136685,-0.002447349950671196
0.01757551170885563,0.005349625367671251,-0.012903238646686077,0.008390882983803749,-0.0002210637176176533,-0.0026539333630353212
0.017957651987671852,0.0055757807567715645,-0.013190007768571377,0.00847894698381424,-0.00021363250561989844,-0.0027300419751554728
0.01765189692378044,0.0058746300637722015,-0.012126307934522629,0.008084426634013653,-0.00023415489704348147,-0.0024889549240469933
0.017508940771222115,0.006201126147061586,-0.013267998583614826,0.008175116032361984,-0.00022851795074529946,-0.002514228457584977
0.01748868077993393,0.005400508176535368,-0.012257887981832027,0.008931169286370277,-0.0002149912470486015,-0.003136263694614172
0.018259800970554352,0.006013360805809498,-0.013253987766802311,0.008333432488143444,-0.00020875759946648031,-0.004051295109093189
0.018045024946331978,0.0062229628674685955,-0.013026876375079155,0.007965616881847382,-0.00022224182612262666,-0.004529616795480251
0.017493871971964836,0.006496920250356197,-0.01377677358686924,0.007565876003354788,-0.00022960331989452243,-0.004326557274907827
0.017493871971964836,0.006496920250356197,-0.01377677358686924,0.007565876003354788,-0.00022960331989452243,-0.004326557274907827
0.018285751342773438,0.006317483261227608,-0.01331319659948349,0.008114535361528397,-0.0002196185669163242,-0.0036980595905333757
0.018311327323317528,0.005550101399421692,-0.013443682342767715,0.008356403559446335,-0.00022993811580818146,-0.0031605155672878027
0.018089594319462776,0.005911523010581732,-0.01355429831892252,0.008129860274493694,-0.00023879109357949346,-0.003404715796932578
0.017995256930589676,0.005865085404366255,-0.013484254479408264,0.007734315004199743,-0.0002298683684784919,-0.0038131647743284702
0.01769902929663658,0.005657029803842306,-0.013114766217768192,0.007938390597701073,-0.0002477290981914848,-0.004404980223625898
0.01821468397974968,0.004960373975336552,-0.012957052327692509,0.00830089021474123,-0.0002465989673510194,-0.0044836425222456455
0.018217526376247406,0.004520419519394636,-0.013469023630023003,0.007895100861787796,-0.00025448741507716477,-0.004104730673134327
0.01784927025437355,0.005162875168025494,-0.012638374231755733,0.008147130720317364,-0.0002608439535833895,-0.0038219771813601255
0.01834561489522457,0.005594504997134209,-0.012985989451408386,0.00843882281333208,-0.0003423137532081455,-0.0037542192731052637
0.018236322328448296,0.005635817535221577,-0.013068778440356255,0.008226637728512287,-0.00039679970359429717,-0.004100881516933441
0.01839231327176094,0.005556812509894371,-0.013864034786820412,0.008235457353293896,-0.0004335749545134604,-0.004535360727459192
0.018085824325680733,0.00508915726095438,-0.013093467801809311,0.008800936862826347,-0.000442862423369661,-0.004464172292500734
0.018320877104997635,0.00490127969533205,-0.013399421237409115,0.008637918159365654,-0.0004426200466696173,-0.004344853572547436
0.01890643872320652,0.005129494704306126,-0.013201010413467884,0.00844092108309269,-0.00046674214536324143,-0.004332135431468487
0.01900785230100155,0.005040779709815979,-0.01356479898095131,0.008926724083721638,-0.0004450197156984359,-0.004290267359465361
0.018514612689614296,0.005354700610041618,-0.013219085521996021,0.008523467928171158,-0.000523009046446532,-0.004237559624016285
0.018764035776257515,0.004999445751309395,-0.013571055606007576,0.00791148655116558,-0.0005555258831009269,-0.00442157918587327
0.01839618943631649,0.004801031667739153,-0.013519080355763435,0.007884922437369823,-0.0005928734317421913,-0.004660641774535179
0.018257858231663704,0.005041429307311773,-0.01336802076548338,0.00890175998210907,-0.0006058464059606194,-0.004828885197639465
0.01916615478694439,0.005066080950200558,-0.013473952189087868,0.008202964439988136,-0.0006110483664087951,-0.004399321973323822
0.01892145350575447,0.005455389618873596,-0.013619552366435528,0.009463333524763584,-0.0006730801542289555,-0.0045109898783266544
0.019047437235713005,0.0051536583341658115,-0.013141273520886898,0.008758828043937683,-0.0006219242350198328,-0.004633116070181131
0.019382359459996223,0.004936155863106251,-0.013731759041547775,0.00842372141778469,-0.0006503170588985085,-0.00462590716779232
0.01934841275215149,0.005022548604756594,-0.013076509349048138,0.008361966349184513,-0.0005864161066710949,-0.00463777594268322
0.019895264878869057,0.0048918044194579124,-0.013365870341658592,0.008928892202675343,-0.000611133233178407,-0.004721608478575945
0.01973797008395195,0.005255776457488537,-0.013010022230446339,0.009166175499558449,-0.0006207854603417218,-0.005002031102776527
0.019228346645832062,0.005602326709777117,-0.0137116564437747,0.008448394015431404,-0.0005885464488528669,-0.004722393583506346
0.019228346645832062,0.005602326709777117,-0.0137116564437747,0.008448394015431404,-0.0005885464488528669,-0.004722393583506346
0.019824301823973656,0.005084811244159937,-0.013607281260192394,0.008404070511460304,-0.0005474991048686206,-0.004916869569569826
0.019562648609280586,0.004764219745993614,-0.013289134949445724,0.008649039082229137,-0.0005285976221784949,-0.004999266006052494
0.0194444227963686,0.005105733871459961,-0.013286602683365345,0.008797737769782543,-0.0005638637230731547,-0.0049779945984482765
0.01976647600531578,0.005132010672241449,-0.01347349677234888,0.009120821952819824,-0.0005788573762401938,-0.005150466691702604
0.020464807748794556,0.005318434443324804,-0.013630721718072891,0.009648898616433144,-0.0005482524866238236,-0.00543993292376399
0.02001124806702137,0.005269053392112255,-0.013201388530433178,0.0088088009506464,-0.0005726235103793442,-0.005168978590518236
0.020033907145261765,0.005672624334692955,-0.013621987774968147,0.008789516054093838,-0.0006984872161410749,-0.00522376736626029
0.020534217357635498,0.005317729897797108,-0.0130399065092206,0.009076202288269997,-0.0007157298969104886,-0.005350642371922731
0.02017924189567566,0.005399308633059263,-0.013899261131882668,0.00890408642590046,-0.0007385602802969515,-0.006133412476629019
0.020236551761627197,0.0054847015999257565,-0.013495635241270065,0.008800080977380276,-0.0007080603973008692,-0.005771566182374954
0.02049088291823864,0.00546787865459919,-0.014106127433478832,0.009953022003173828,-0.0007181659457273781,-0.005754141137003899
0.020341133698821068,0.005678866058588028,-0.013247683644294739,0.009803302586078644,-0.000662870763335377,-0.0054713706485927105
0.020502885803580284,0.005259703379124403,-0.013917895965278149,0.009544514119625092,-0.0006663458188995719,-0.0052835457026958466
0.02045508101582527,0.005262421444058418,-0.013597262091934681,0.00948573648929596,-0.0007035546586848795,-0.005459961481392384
0.020837679505348206,0.005108600948005915,-0.014185781590640545,0.009560873731970787,-0.0007133735925890505,-0.005905597470700741
0.02076706849038601,0.005020188167691231,-0.013629925437271595,0.010313926264643669,-0.0007085494580678642,-0.006077016703784466
0.020846134051680565,0.005611063912510872,-0.014208686538040638,0.01021670550107956,-0.0006838623667135835,-0.006009298842400312
0.02118915691971779,0.005371339153498411,-0.013625605031847954,0.009832133539021015,-0.000766546290833503,-0.006411912385374308
0.021107999607920647,0.005314314737915993,-0.014239338226616383,0.010155404917895794,-0.0007261065184138715,-0.006006770767271519
0.021017329767346382,0.0055527472868561745,-0.0140850730240345,0.010024298913776875,-0.0006418554112315178,-0.006047555711120367
0.021413803100585938,0.005259799305349588,-0.013678382150828838,0.009465782903134823,-0.0006434897077269852,-0.005775747820734978
0.021214919164776802,0.0058236210606992245,-0.014313453808426857,0.010235248133540154,-0.0006032561650499701,-0.006008028984069824
0.02135186828672886,0.005380405578762293,-0.014398978091776371,0.009809618815779686,-0.0005517729441635311,-0.006437772419303656
0.021502317860722542,0.005337143316864967,-0.014991777017712593,0.010013298131525517,-0.0005073831998743117,-0.006529443431645632
0.02179747261106968,0.005542081780731678,-0.014988882467150688,0.009920311160385609,-0.0004695406823884696,-0.006448367610573769
0.021550148725509644,0.006093947682529688,-0.014424368739128113,0.009515625424683094,-0.0004369520174805075,-0.006760865915566683
0.02165352925658226,0.00589404720813036,-0.014276941306889057,0.009217634797096252,-0.0004590391181409359,-0.007029467727988958
0.02145552635192871,0.00564953126013279,-0.014780889265239239,0.009601001627743244,-0.00043799253762699664,-0.00691448338329792
0.02145552635192871,0.00564953126013279,-0.014780889265239239,0.009601001627743244,-0.00043799253762699664,-0.00691448338329792
0.021968601271510124,0.005208412650972605,-0.014363668859004974,0.009847518056631088,-0.0004132913309149444,-0.007114331237971783
0.02201313152909279,0.0058930180966854095,-0.014289838261902332,0.010034210979938507,-0.0003908749495167285,-0.006592314224690199
0.02119404263794422,0.005519197788089514,-0.014358199201524258,0.010654364712536335,-0.000370742374798283,-0.006573815830051899
0.021603675559163094,0.005814616102725267,-0.014649175107479095,0.010540391318500042,-0.00035258091520518064,-0.007145003415644169
0.021960239857435226,0.005248753819614649,-0.01471788715571165,0.010394034907221794,-0.0003361169365234673,-0.0073417071253061295
0.022860951721668243,0.004835094325244427,-0.01528200414031744,0.010746500454843044,-0.0002908924361690879,-0.007046421058475971
0.022576017305254936,0.005203614942729473,-0.014630218967795372,0.010662423446774483,-0.00024769376614131033,-0.00733912130817771
0.022232383489608765,0.005208306945860386,-0.015034830197691917,0.010656321421265602,-0.00023307735682465136,-0.007092022802680731
0.021648038178682327,0.005743319634348154,-0.014133824035525322,0.01035146415233612,-0.00022148534480948,-0.007249676156789064
0.02197844907641411,0.0053423922508955,-0.014739830046892166,0.010474469512701035,-0.00021108530927449465,-0.008094719611108303
0.02328365668654442,0.0052777365781366825,-0.01426252443343401,0.011063232086598873,-0.000201624512556009,-0.007289285771548748
0.022860148921608925,0.005000452045351267,-0.015053076669573784,0.011238522827625275,-0.00019297598919365555,-0.007632737513631582
0.022179674357175827,0.00516472989693284,-0.01418880932033062,0.0103107038885355,-0.00021711448789574206,-0.008240276016294956
0.023067660629749298,0.005551205947995186,-0.01484245341271162,0.01072133332490921,-0.0002129532804246992,-0.007987506687641144
0.023013800382614136,0.0052683670073747635,-0.014680659398436546,0.010283301584422588,-0.00020514971402008086,-0.007595122326165438
0.023172641173005104,0.0052872225642204285,-0.015350209549069405,0.01028415746986866,-0.00019765811157412827,-0.007973943836987019
0.022924866527318954,0.005345160607248545,-0.014742296189069748,0.010515657253563404,-0.00022030752734281123,-0.008027544245123863
0.02227076143026352,0.005544106476008892,-0.01447354443371296,0.010658089071512222,-0.0002077736280625686,-0.008039996027946472
0.022763563320040703,0.005384809337556362,-0.014660370536148548,0.01072757039219141,-0.00020114745711907744,-0.008135567419230938
0.023821432143449783,0.005120966583490372,-0.014442133717238903,0.010066438466310501,-0.00019492382125463337,-0.008274929597973824
0.02354556694626808,0.005176257342100143,-0.015246693044900894,0.010782284662127495,-0.00018907302001025528,-0.008250894024968147
0.023398134857416153,0.004950633272528648,-0.014262189157307148,0.011473555117845535,-0.00019643278210423887,-0.008262555114924908
0.02352289855480194,0.0048732091672718525,-0.015235076658427715,0.010428381152451038,-0.00020297525043133646,-0.008337484672665596
0.023242950439453125,0.00570053793489933,-0.014606431126594543,0.0107582937926054,-0.00019817730935756117,-0.00839908979833126
0.02371012605726719,0.005313316825777292,-0.015356350690126419,0.01079776231199503,-0.0001929183054016903,-0.008698704652488232
0.02375354804098606,0.005518717225641012,-0.014955775812268257,0.010852927342057228,-0.00020038617367390543,-0.008598240092396736
0.023572256788611412,0.005261932499706745,-0.015284542925655842,0.010934123769402504,-0.0002033379569184035,-0.008537957444787025
0.02367331273853779,0.0051489779725670815,-0.014970991760492325,0.010099885053932667,-0.00019529687415342778,-0.008624355308711529
0.02367331273853779,0.0051489779725670815,-0.014970991760492325,0.010099885053932667,-0.00019529687415342778,-0.008624355308711529
0.024045299738645554,0.005450919270515442,-0.01534290798008442,0.010276492685079575,-0.0001872211432782933,-0.008739836513996124
0.02404053881764412,0.005193599499762058,-0.014992784708738327,0.010721859522163868,-0.00020631990628316998,-0.008774342946708202
0.023920021951198578,0.005791598465293646,-0.015424799174070358,0.010283978655934334,-0.0002067958121187985,-0.008720338344573975
0.02410723641514778,0.005845679901540279,-0.015586746856570244,0.010769280605018139,-0.00019969517597928643,-0.008718244731426239
0.02400995045900345,0.005589763633906841,-0.015317239798605442,0.011226803064346313,-0.0002225351199740544,-0.008904173038899899
0.02430889941751957,0.005047667305916548,-0.015330093912780285,0.010647104121744633,-0.00023201896692626178,-0.00878374744206667
0.024419572204351425,0.005392523482441902,-0.015239603817462921,0.010829943232238293,-0.00023866909032221884,-0.00860738754272461
0.02447105012834072,0.0052326214499771595,-0.015805568546056747,0.010745260864496231,-0.00040940273902378976,-0.008987032808363438
0.0243415217846632,0.005019978620111942,-0.015227105468511581,0.01113106682896614,-0.0004575209750328213,-0.008647565729916096
0.024296805262565613,0.00527821434661746,-0.015783870592713356,0.011112401261925697,-0.0004756683483719826,-0.008470187894999981
0.02479304000735283,0.005107717122882605,-0.0150199169293046,0.010925615206360817,-0.0004736300907097757,-0.00883276853710413
0.02437005005776882,0.004684888757765293,-0.015396087430417538,0.011172437109053135,-0.0005013556801714003,-0.00923344399780035
0.02438368834555149,0.004899994470179081,-0.014828618615865707,0.01118486002087593,-0.000702428282238543,-0.009303981438279152
0.024863045662641525,0.005225783679634333,-0.015699829906225204,0.010996795259416103,-0.0007384071359410882,-0.009135792031884193
0.025053897872567177,0.00517583591863513,-0.01568978652358055,0.011262213811278343,-0.0007038103067316115,-0.009643645025789738
0.024966541677713394,0.005310273263603449,-0.01589062437415123,0.010901505127549171,-0.0007022068020887673,-0.009202200919389725
0.024734441190958023,0.005135389976203442,-0.015772756189107895,0.010812776163220406,-0.0006528994417749345,-0.009740978479385376
0.024750374257564545,0.004987429827451706,-0.015664074569940567,0.010437165386974812,-0.0006240547518245876,-0.009813966229557991
0.024994220584630966,0.0048431591130793095,-0.015156205743551254,0.011280078440904617,-0.0006597350584343076,-0.01012959610670805
0.023053759709000587,0.0050814393907785416,-0.015974219888448715,0.011810975149273872,-0.000637112942058593,-0.009807515889406204
0.025444259867072105,0.004985374864190817,-0.01576608046889305,0.01192200742661953,-0.0006616184837184846,-0.009742647409439087
0.025758981704711914,0.004748119972646236,-0.016064617782831192,0.011579353362321854,-0.0006784748984500766,-0.009646622464060783
0.02584593929350376,0.004616756457835436,-0.015467087738215923,0.01114119403064251,-0.000630267197266221,-0.009857399389147758
0.025619380176067352,0.004502084106206894,-0.01628837175667286,0.011526023969054222,-0.0007371896645054221,-0.01052857842296362
0.025473585352301598,0.004845901392400265,-0.01606353186070919,0.011641079559922218,-0.000738901668228209,-0.01061070803552866
0.02430933341383934,0.0052685122936964035,-0.01638900674879551,0.011685721576213837,-0.0006756092770956457,-0.010735047049820423
0.02430933341383934,0.0052685122936964035,-0.01638900674879551,0.011685721576213837,-0.0006756092770956457,-0.010735047049820423
0.024977942928671837,0.005117455963045359,-0.016115108504891396,0.012054471299052238,-0.0006882901070639491,-0.010501504875719547
0.025906819850206375,0.0047841682098805904,-0.015599247999489307,0.011199713684618473,-0.0006310621392913163,-0.010615197010338306
0.025457005947828293,0.004756970796734095,-0.016080161556601524,0.011115374974906445,-0.0006138356984592974,-0.010499168187379837
0.024951331317424774,0.004819415509700775,-0.015779545530676842,0.01140098087489605,-0.0005986822070553899,-0.009778125211596489
0.02629241906106472,0.004695783834904432,-0.016669968143105507,0.011222281493246555,-0.0005548670887947083,-0.009944579564034939
0.026106886565685272,0.004699117038398981,-0.016613511368632317,0.01216897089034319,-0.0005120747955515981,-0.010684004984796047
0.025309553369879723,0.004892442841082811,-0.017076268792152405,0.011342308484017849,-0.00046119149192236364,-0.010548440739512444
0.025575241073966026,0.00480305403470993,-0.016984673216938972,0.011742371134459972,-0.0004960144869983196,-0.010349132120609283
0.025016168132424355,0.004631335381418467,-0.01634770818054676,0.012365341186523438,-0.0004959062207490206,-0.010558030568063259
0.025233950465917587,0.004495309665799141,-0.01673881523311138,0.012729407288134098,-0.0004911977448500693,-0.010660910047590733
0.02568650431931019,0.004634904209524393,-0.016502175480127335,0.01228304672986269,-0.0004577157960738987,-0.010861814953386784
0.025993654504418373,0.0046859015710651875,-0.01707717776298523,0.012092902325093746,-0.0004835376748815179,-0.010880817659199238
0.026026688516139984,0.004747168160974979,-0.017443707212805748,0.012721658684313297,-0.0005251812399365008,-0.010355034843087196
0.026061907410621643,0.004695046227425337,-0.017433062195777893,0.012858766131103039,-0.0005315166781656444,-0.010857705026865005
0.026135381311178207,0.004517851863056421,-0.01759292185306549,0.013235866092145443,-0.00047933420864865184,-0.01098072063177824
0.02587844431400299,0.004569726064801216,-0.016906030476093292,0.013054781593382359,-0.00047394735156558454,-0.010527107864618301
0.02582692913711071,0.0045080650597810745,-0.016462011262774467,0.012916143983602524,-0.0004359910963103175,-0.010466868057847023
0.025743791833519936,0.00446704588830471,-0.017016734927892685,0.012335296720266342,-0.0004659041587729007,-0.010524802841246128
0.025743791833519936,0.00446704588830471,-0.017016734927892685,0.012335296720266342,-0.0004659041587729007,-0.010524802841246128
0.025491490960121155,0.004894005134701729,-0.0173006821423769,0.01219526119530201,-0.00043760231346823275,-0.010849351063370705
0.02596660703420639,0.0049080015160143375,-0.01753930374979973,0.011769748292863369,-0.0004094161849934608,-0.010775563307106495
0.026018798351287842,0.004640287719666958,-0.01521413866430521,0.012474743649363518,-0.00036231716512702405,-0.010434173978865147
0.026332763954997063,0.004729358479380608,-0.01729022152721882,0.012690662406384945,-0.0003426059556659311,-0.01055317372083664
0.026332763954997063,0.004729358479380608,-0.01729022152721882,0.012690662406384945,-0.0003426059556659311,-0.01055317372083664
0.024875616654753685,0.0047753434628248215,-0.018299465999007225,0.012448766268789768,-0.0003591722925193608,-0.01031744759529829
0.026113683357834816,0.0047863745130598545,-0.017344556748867035,0.012408657930791378,-0.00035233315429650247,-0.010609371587634087
0.026072358712553978,0.00474815396592021,-0.016920648515224457,0.012321061454713345,-0.00032157282112166286,-0.01101906131953001
0.026072358712553978,0.00474815396592021,-0.016920648515224457,0.012321061454713345,-0.00032157282112166286,-0.01101906131953001
0.02564050257205963,0.004654956515878439,-0.017713474109768867,0.01280196849256754,-0.0003078244626522064,-0.010627446696162224
0.02647143229842186,0.004556659609079361,-0.017736196517944336,0.01223329734057188,-0.0002952006761915982,-0.01076629851013422
0.02612430974841118,0.004332784563302994,-0.017006177455186844,0.012709379196166992,-0.00025847688084468246,-0.01112627238035202
0.026682382449507713,0.004814162850379944,-0.017794495448470116,0.012442639097571373,-0.00023748537932988256,-0.01142055168747902
0.02733292430639267,0.0050010220147669315,-0.017755020409822464,0.012666087597608566,-0.0002251199184684083,-0.011164129711687565
0.02750399522483349,0.004830683581531048,-0.017502136528491974,0.013224132359027863,-0.00023529767349828035,-0.010919420048594475
0.026352664455771446,0.004666527267545462,-0.018180061131715775,0.012813893146812916,-0.000244098759139888,-0.011138520203530788
0.02636212669312954,0.004674903117120266,-0.017745641991496086,0.013245520181953907,-0.0002347565459785983,-0.011828924529254436
0.027455229312181473,0.00471817422658205,-0.01796000823378563,0.012810640968382359,-0.00022505386732518673,-0.011592631228268147
0.027387477457523346,0.005274389870464802,-0.018013304099440575,0.013251838274300098,-0.00021605330402962863,-0.01152980700135231
0.02695300616323948,0.005100226495414972,-0.017237549647688866,0.013085974380373955,-0.0002377582131884992,-0.011335927993059158
0.027185743674635887,0.004776403307914734,-0.01769166626036167,0.013036733493208885,-0.00023308285744860768,-0.011138619855046272
0.02785586379468441,0.004515648819506168,-0.016864914447069168,0.013105461373925209,-0.00025290806661359966,-0.011317890137434006
0.026988398283720016,0.004758168011903763,-0.01763884723186493,0.013210397213697433,-0.0003297383082099259,-0.011433346197009087
0.026784082874655724,0.0047331624664366245,-0.01779567077755928,0.01319737359881401,-0.00036721493233926594,-0.01105122547596693
0.027456317096948624,0.004801535978913307,-0.018373919650912285,0.01342962309718132,-0.0004040120111312717,-0.010570610873401165
0.027456317096948624,0.004801535978913307,-0.018373919650912285,0.01342962309718132,-0.0004040120111312717,-0.010570610873401165
0.02807481400668621,0.005145734641700983,-0.017691290006041527,0.013477569445967674,-0.00040783194708637893,-0.01035174261778593
0.027681943029165268,0.004491544794291258,-0.017904052510857582,0.01374057773500681,-0.0005993373924866319,-0.010529431514441967
0.027681943029165268,0.004491544794291258,-0.017904052510857582,0.01374057773500681,-0.0005993373924866319,-0.010529431514441967
0.027832074090838432,0.004549521021544933,-0.017783984541893005,0.014182434417307377,-0.0007467461982741952,-0.010714089497923851
0.027939273044466972,0.0049654231406748295,-0.01837490126490593,0.01359274797141552,-0.0007167644216679037,-0.010879604145884514
0.02811390534043312,0.005046765320003033,-0.018250757828354836,0.014153960160911083,-0.000714006251655519,-0.010464946739375591
0.027043350040912628,0.0053252484649419785,-0.017590653151273727,0.013696510344743729,-0.000662751670461148,-0.010773876681923866
0.028524307534098625,0.005406346637755632,-0.01803458482027054,0.014175509102642536,-0.0006424071034416556,-0.011717593297362328
0.028755003586411476,0.004795904271304607,-0.01781836338341236,0.013488261960446835,-0.0006241897935979068,-0.010739578865468502
0.02865617163479328,0.005045782309025526,-0.018052631989121437,0.013968860730528831,-0.0006029379437677562,-0.010533933527767658
0.02876388467848301,0.005396212451159954,-0.018601587042212486,0.013486026786267757,-0.0005593852256424725,-0.010738792829215527
0.028678666800260544,0.005330083891749382,-0.018512913957238197,0.01340180728584528,-0.0005918378592468798,-0.010458442382514477
0.02875208668410778,0.005297352094203234,-0.018407529219985008,0.01331865694373846,-0.0006222599768079817,-0.010511563159525394
0.028922034427523613,0.0050914837047457695,-0.018599983304739,0.014095474034547806,-0.000647449865937233,-0.010898211970925331
0.02950632944703102,0.005143682472407818,-0.017759567126631737,0.013903746381402016,-0.0007339162984862924,-0.01093196403235197
0.02919410914182663,0.005400286987423897,-0.018453111872076988,0.013167982921004295,-0.0008133820374496281,-0.010487612336874008
0.02912251092493534,0.004857395309954882,-0.01872689090669155,0.012763681821525097,-0.0007681087590754032,-0.010841518640518188
0.029423123225569725,0.005452767945826054,-0.01848509907722473,0.012728942558169365,-0.0007807213114574552,-0.01120692677795887
0.029354209080338478,0.005198059603571892,-0.019049353897571564,0.013186992146074772,-0.0007936942856758833,-0.01119409129023552
0.029284240677952766,0.004949342459440231,-0.018780434504151344,0.013350960798561573,-0.0008521339623257518,-0.011132486164569855
0.029630759730935097,0.005078651010990143,-0.017924781888723373,0.014257806353271008,-0.0008737590978853405,-0.010947421193122864
0.029743541032075882,0.004992681555449963,-0.018694303929805756,0.014215887524187565,-0.0008695449214428663,-0.011065107770264149
0.03015950880944729,0.005165018606930971,-0.01894211769104004,0.014600621536374092,-0.0008727713138796389,-0.011631486006081104
0.03014889359474182,0.005460585001856089,-0.01968536339700222,0.01406803261488676,-0.0009239242062903941,-0.01186590176075697
0.03031723015010357,0.004846392199397087,-0.019053179770708084,0.01412266120314598,-0.000888993963599205,-0.01119240652769804
0.03035714291036129,0.004786774516105652,-0.018876871094107628,0.014450224116444588,-0.0008882982074283063,-0.011292816139757633
0.030821196734905243,0.004857390653342009,-0.01895347237586975,0.014143092557787895,-0.000839085434563458,-0.011763811111450195
0.03164326027035713,0.004832972306758165,-0.018764210864901543,0.014421150088310242,-0.0008241542964242399,-0.011543326079845428
0.03219722583889961,0.005243482068181038,-0.019833892583847046,0.01357024721801281,-0.0008116664248518646,-0.012161299586296082
0.03219722583889961,0.005243482068181038,-0.019833892583847046,0.01357024721801281,-0.0008116664248518646,-0.012161299586296082
0.028992487117648125,0.004988202825188637,-0.02009773813188076,0.014292558655142784,-0.0007331719389185309,-0.011495747603476048
0.030507531017065048,0.005062437150627375,-0.019494030624628067,0.014042672701179981,-0.0007470968412235379,-0.011607689782977104
0.03165796399116516,0.004873750731348991,-0.019558805972337723,0.014246220700442791,-0.0007565387641079724,-0.012167567387223244
0.03091290406882763,0.0049417391419410706,-0.01917794905602932,0.013513966463506222,-0.0006950804381631315,-0.012307170778512955
0.031065737828612328,0.004836834967136383,-0.0192303154617548,0.014040866866707802,-0.0006609720876440406,-0.011916963383555412
0.03151736781001091,0.005241319537162781,-0.019293013960123062,0.01394729595631361,-0.0006386192399077117,-0.011587466113269329
0.030617166310548782,0.00486381072551012,-0.01995021104812622,0.014462197199463844,-0.0005555429379455745,-0.012253898195922375
0.030617166310548782,0.00486381072551012,-0.01995021104812622,0.014462197199463844,-0.0005555429379455745,-0.012253898195922375
0.030240491032600403,0.0050376844592392445,-0.0194125697016716,0.01486185286194086,-0.0005653176922351122,-0.012346695177257061
0.031674452126026154,0.004995627794414759,-0.01965516433119774,0.014515378512442112,-0.0005361543735489249,-0.012410211376845837
0.03175879642367363,0.0046507930383086205,-0.01986909657716751,0.015288383699953556,-0.0004952193121425807,-0.011880045756697655
0.03200962021946907,0.005464555695652962,-0.018908502534031868,0.014819378033280373,-0.00045917692477814853,-0.011850438080728054
0.031567927449941635,0.005352115724235773,-0.019223637878894806,0.015722759068012238,-0.00045766166294924915,-0.011944270692765713
0.031440697610378265,0.004818633198738098,-0.019733447581529617,0.015226121060550213,-0.0004559243971016258,-0.012030530720949173
0.03144645690917969,0.004827365279197693,-0.019316069781780243,0.015284392051398754,-0.0004326583002693951,-0.011771468445658684
0.031627412885427475,0.0048613655380904675,-0.019651442766189575,0.014767474494874477,-0.0003916416026186198,-0.011353113688528538
0.030879709869623184,0.005056791007518768,-0.019429249688982964,0.015163527801632881,-0.0003600548370741308,-0.012051773257553577
0.031187819316983223,0.005604552570730448,-0.01893710345029831,0.01466232631355524,-0.00038232238148339093,-0.012555507011711597
0.031048599630594254,0.0053305053152143955,-0.019403807818889618,0.014922602102160454,-0.0003712517209351063,-0.012607821263372898
0.0314408577978611,0.004805701319128275,-0.01938299648463726,0.015301735140383244,-0.00039847224252298474,-0.012885252945125103
0.03149659186601639,0.004912966396659613,-0.01856284588575363,0.01532197929918766,-0.0003812667273450643,-0.012728950940072536
0.03152294084429741,0.005238364450633526,-0.01921265944838524,0.015725450590252876,-0.0004044106462970376,-0.012463517487049103
0.03205299749970436,0.005505857989192009,-0.01911287195980549,0.015819920226931572,-0.00043218457722105086,-0.0125591354444623
0.03149119392037392,0.005279227625578642,-0.019255414605140686,0.015324871055781841,-0.0004494760069064796,-0.012741041369736195
0.03234914317727089,0.005050047766417265,-0.019200308248400688,0.015153302811086178,-0.0004122376849409193,-0.012916038744151592
0.03281817212700844,0.00571830989792943,-0.01882605068385601,0.014623579569160938,-0.0004480344650801271,-0.013339808210730553
0.03281817212700844,0.00571830989792943,-0.01882605068385601,0.014623579569160938,-0.0004480344650801271,-0.013339808210730553
0.03100530616939068,0.005280068144202232,-0.019616901874542236,0.014666706323623657,-0.00041955849155783653,-0.01279777567833662
0.03100530616939068,0.005280068144202232,-0.019616901874542236,0.014666706323623657,-0.00041955849155783653,-0.01279777567833662
0.031681448221206665,0.005018181167542934,-0.019129866734147072,0.015076854266226292,-0.00042032176861539483,-0.012163915671408176
0.032948173582553864,0.005269187968224287,-0.01941574178636074,0.014822875149548054,-0.0004484086821321398,-0.012308596633374691
0.032685451209545135,0.0054929219186306,-0.019483044743537903,0.015406751073896885,-0.0005327575490809977,-0.012298536486923695
0.03281087055802345,0.005346182733774185,-0.01871887780725956,0.015330185182392597,-0.0006304470589384437,-0.012373022735118866
0.03259946405887604,0.005180140491575003,-0.019294165074825287,0.015363005921244621,-0.0006831248756498098,-0.012640878558158875
0.032273851335048676,0.004923458676785231,-0.0198056623339653,0.014682473614811897,-0.0008931548218242824,-0.012867450714111328
0.031931087374687195,0.004898457322269678,-0.0193630401045084,0.014573959633708,-0.0012005828320980072,-0.01279706135392189
0.032266419380903244,0.0049810633063316345,-0.019358230754733086,0.014618533663451672,-0.001094580045901239,-0.013484315946698189
0.03241140395402908,0.004911066498607397,-0.019928472116589546,0.015286863781511784,-0.0010616924846544862,-0.01236726064234972
0.032594963908195496,0.005300546530634165,-0.019181134179234505,0.015433164313435555,-0.001025041681714356,-0.012159413658082485
0.0329442135989666,0.005055932328104973,-0.01960463635623455,0.01543188001960516,-0.0010153987677767873,-0.012778392992913723
0.03251384198665619,0.004808472469449043,-0.01986522041261196,0.015163024887442589,-0.0010766005143523216,-0.012978521175682545
0.03236154466867447,0.004621519707143307,-0.02002382092177868,0.015023949556052685,-0.00132850487716496,-0.013163642026484013
0.03251978009939194,0.004611611366271973,-0.019778503105044365,0.015062768943607807,-0.001483093830756843,-0.013082553632557392
0.03266356140375137,0.0047228350304067135,-0.01989329233765602,0.014645096845924854,-0.0015388643369078636,-0.012854757718741894
0.03245287388563156,0.005079507827758789,-0.019261030480265617,0.015237181447446346,-0.0016757560661062598,-0.012708524242043495
0.0329136848449707,0.005060751922428608,-0.020310407504439354,0.015106165781617165,-0.0015986798098310828,-0.012758861295878887
0.03349578008055687,0.005240793339908123,-0.02029893733561039,0.015308174304664135,-0.0013948490377515554,-0.013297319412231445
0.03346461057662964,0.005058451555669308,-0.02094770409166813,0.01504189521074295,-0.0012494930997490883,-0.013222711160779
0.033492062240839005,0.004744439851492643,-0.02020980976521969,0.01510352548211813,-0.0010186914587393403,-0.013040409423410892
0.03340676426887512,0.005127997137606144,-0.0202547125518322,0.015624664723873138,-0.0009445342002436519,-0.013263234868645668
0.03320412337779999,0.00500468211248517,-0.02014004997909069,0.01507159136235714,-0.000882278720382601,-0.01324774231761694
0.03316735103726387,0.005209546070545912,-0.019991545006632805,0.01528138667345047,-0.0007414144929498434,-0.013207118958234787
0.03401027247309685,0.004690251313149929,-0.020645871758461,0.015160336159169674,-0.0006076354766264558,-0.013254583813250065
0.03400836139917374,0.004479764029383659,-0.020544543862342834,0.015610679984092712,-0.0006108651868999004,-0.013368779793381691
0.03400836139917374,0.004479764029383659,-0.020544543862342834,0.015610679984092712,-0.0006108651868999004,-0.013368779793381691
0.033583104610443115,0.004442289937287569,-0.01979360729455948,0.015570711344480515,-0.0005699090543203056,-0.013617130927741528
0.03368717059493065,0.005068392492830753,-0.020490461960434914,0.015456902794539928,-0.0005583650199696422,-0.013522124849259853
0.03422598913311958,0.004905341658741236,-0.020715245977044106,0.014901133254170418,-0.0005474466597661376,-0.01336625311523676
0.03452935814857483,0.004934521391987801,-0.02114669233560562,0.014986581169068813,-0.0005409139557741582,-0.013082684017717838
0.03458847478032112,0.00482377503067255,-0.020694559440016747,0.015430847182869911,-0.0005329188425093889,-0.013071218505501747
0.03449442982673645,0.004332719370722771,-0.02067575417459011,0.015534249134361744,-0.0005267719971016049,-0.013179733417928219
0.034384142607450485,0.004406783264130354,-0.020301861688494682,0.016365503892302513,-0.0005714691360481083,-0.013512831181287766
0.03450622782111168,0.004220897797495127,-0.020275821909308434,0.015292545780539513,-0.0006046537309885025,-0.013354870490729809
0.035772405564785004,0.004952164366841316,-0.021027058362960815,0.0157694723457098,-0.0006421749712899327,-0.013528937473893166
0.035912659019231796,0.004851195495575666,-0.021565696224570274,0.015564906410872936,-0.0011101302225142717,-0.013553929515182972
0.033588871359825134,0.004409910645335913,-0.020915132015943527,0.015669070184230804,-0.0011286921799182892,-0.013821037486195564
0.034285902976989746,0.004511313978582621,-0.020555127412080765,0.015699420124292374,-0.0010952785378322005,-0.01388612575829029
0.03578496724367142,0.004097206052392721,-0.02089679054915905,0.016849324107170105,-0.0010078235063701868,-0.013716353103518486
0.03533623367547989,0.004009654745459557,-0.02098100818693638,0.01702137105166912,-0.0009352333727292717,-0.013739638030529022
0.036174774169921875,0.003966238349676132,-0.02094002068042755,0.01657283678650856,-0.0008154024835675955,-0.014039957895874977
0.0350566990673542,0.004575754515826702,-0.021017946302890778,0.016496868804097176,-0.0008110547787509859,-0.01394730992615223
0.034884173423051834,0.004778547678142786,-0.021063489839434624,0.015687253326177597,-0.0008061209809966385,-0.013606028631329536
0.03504716604948044,0.004899676889181137,-0.021122245118021965,0.016707470640540123,-0.0007389903184957802,-0.013714268803596497
0.03617386519908905,0.0046756030060350895,-0.0208352729678154,0.016918359324336052,-0.0007507248665206134,-0.013675355352461338
0.0350862555205822,0.004181179217994213,-0.02106095477938652,0.017553940415382385,-0.0006911508389748633,-0.013939013704657555
0.036891527473926544,0.00424065999686718,-0.021374834701418877,0.016908850520849228,-0.0006429172353819013,-0.013875116594135761
0.03584771975874901,0.004942046944051981,-0.020772451534867287,0.017480622977018356,-0.0005859114462509751,-0.013752738013863564
0.03579401597380638,0.004881556145846844,-0.02107979543507099,0.01668233424425125,-0.000611075374763459,-0.014266164973378181
0.03652923181653023,0.004994470160454512,-0.021111339330673218,0.01657778210937977,-0.0006207609549164772,-0.014309840276837349
0.03652923181653023,0.004994470160454512,-0.021111339330673218,0.01657778210937977,-0.0006207609549164772,-0.014309840276837349
0.03589203953742981,0.004782486241310835,-0.020647332072257996,0.016905715689063072,-0.0005933576030656695,-0.013907410204410553
0.0360228531062603,0.0046282559633255005,-0.02103734016418457,0.016644345596432686,-0.0007339384756051004,-0.013775584287941456
0.03624971956014633,0.004273563157767057,-0.02140708453953266,0.017089376226067543,-0.0007614477071911097,-0.014120375737547874
0.03600762039422989,0.004468773491680622,-0.02161676064133644,0.016681361943483353,-0.0007774822297506034,-0.014287395402789116
0.03613567724823952,0.005099824164062738,-0.02080991305410862,0.016784414649009705,-0.0009054890251718462,-0.014089764095842838
0.036362115293741226,0.005261185113340616,-0.02094402350485325,0.016950160264968872,-0.0009843012085184455,-0.01397835835814476
0.037534307688474655,0.004956037737429142,-0.021555962041020393,0.016728850081562996,-0.0009039824944920838,-0.014302541501820087
0.03646910935640335,0.0047323862090706825,-0.022269153967499733,0.017185619100928307,-0.0008987871697172523,-0.014021608978509903
0.0353931300342083,0.004614551551640034,-0.020897841081023216,0.01654042862355709,-0.0008760582422837615,-0.014453093521296978
0.0366964116692543,0.0043650539591908455,-0.02095138654112816,0.016449568793177605,-0.0008042000117711723,-0.014313939958810806
0.036246489733457565,0.004481461830437183,-0.021140025928616524,0.016229452565312386,-0.0007332899258472025,-0.014277967624366283
0.03755008429288864,0.005061529576778412,-0.02080025151371956,0.016134247183799744,-0.000750883249565959,-0.014134449884295464
0.037387069314718246,0.0051498631946742535,-0.02118517830967903,0.015920456498861313,-0.0007191485492512584,-0.014690871350467205
0.03653772920370102,0.004412056412547827,-0.02233373373746872,0.015576562844216824,-0.0006883158930577338,-0.014499685727059841
0.03537847846746445,0.004226441495120525,-0.02245251089334488,0.016473820433020592,-0.0006661696243099868,-0.014381999149918556
0.037787072360515594,0.00459713488817215,-0.021951958537101746,0.01661243848502636,-0.0006453171372413635,-0.01420215331017971
0.03785136342048645,0.0047595081850886345,-0.022201044484972954,0.01773623377084732,-0.000594538461882621,-0.014670517295598984
0.03651409223675728,0.0048309373669326305,-0.023105686530470848,0.017816372215747833,-0.0005739050102420151,-0.016441890969872475
0.03702881559729576,0.004851614590734243,-0.023070603609085083,0.01784401759505272,-0.0005145950708538294,-0.014850111678242683
0.03715552017092705,0.004928182810544968,-0.02326168492436409,0.01784469373524189,-0.0005296103772707283,-0.01455746777355671
0.0371195413172245,0.004311674274504185,-0.021968187764286995,0.01762016862630844,-0.0005259253666736186,-0.015482991933822632
0.037446700036525726,0.004447535146027803,-0.022833453491330147,0.017328089103102684,-0.0005546966567635536,-0.015466352924704552
0.03683459386229515,0.004533015191555023,-0.02321329526603222,0.017178956419229507,-0.0005988480988889933,-0.015056728385388851
0.03713132068514824,0.0047860220074653625,-0.023352347314357758,0.01829889416694641,-0.0006518392474390566,-0.014702124521136284
0.03799452260136604,0.005369347054511309,-0.022699767723679543,0.018039649352431297,-0.0006820425041951239,-0.015052004717290401
0.03779445216059685,0.0047857314348220825,-0.022554712370038033,0.01782395876944065,-0.0007051507709547877,-0.015462102368474007
0.03747602552175522,0.004879616666585207,-0.022910958155989647,0.01797543093562126,-0.0006824567099101841,-0.015514378435909748
0.03741320222616196,0.004835762083530426,-0.02324175089597702,0.017507405951619148,-0.0008412612951360643,-0.015711704269051552
0.03631987050175667,0.004469733685255051,-0.023459751158952713,0.017678510397672653,-0.0008753736619837582,-0.015609242022037506
0.0384569875895977,0.00455047283321619,-0.022888367995619774,0.016861623153090477,-0.0008803578093647957,-0.015297625213861465
0.038658443838357925,0.0047683389857411385,-0.022980092093348503,0.017069967463612556,-0.0008752222056500614,-0.015569396317005157
0.038658443838357925,0.0047683389857411385,-0.022980092093348503,0.017069967463612556,-0.0008752222056500614,-0.015569396317005157
0.038077596575021744,0.005298306234180927,-0.02325262874364853,0.017386743798851967,-0.0007922454387880862,-0.015749461948871613
0.037819184362888336,0.004514885600656271,-0.023688413202762604,0.017383569851517677,-0.0007457257597707212,-0.01612214371562004
0.03824465721845627,0.004487777128815651,-0.023580923676490784,0.018107853829860687,-0.0007341653690673411,-0.01602078415453434
0.03823206573724747,0.00424618786200881,-0.023645417764782906,0.01785278134047985,-0.0007535818149335682,-0.015900613740086555
0.038431573659181595,0.004354600328952074,-0.023180002346634865,0.01787746697664261,-0.0007207384333014488,-0.01531274151057005
0.03836311772465706,0.004713684786111116,-0.02368706837296486,0.018496450036764145,-0.0007359142182394862,-0.015724534168839455
0.03854762762784958,0.005351956468075514,-0.023949552327394485,0.018103862181305885,-0.0008155037648975849,-0.015293515287339687
0.03823159635066986,0.004807987250387669,-0.023859431967139244,0.018416015431284904,-0.0008700789767317474,-0.015358303673565388
0.040051043033599854,0.004563589114695787,-0.024156702682375908,0.018567172810435295,-0.000868204515427351,-0.016067080199718475
0.04003641754388809,0.0044042933732271194,-0.023782122880220413,0.018269995227456093,-0.0008572720107622445,-0.016417793929576874
0.03802771121263504,0.004518095403909683,-0.023440856486558914,0.0188027024269104,-0.0007986610289663076,-0.016478657722473145
0.03847131133079529,0.004557409789413214,-0.0241754949092865,0.01908436231315136,-0.0008918591192923486,-0.016323834657669067
0.038875848054885864,0.004414177965372801,-0.023822061717510223,0.01933007873594761,-0.0009331436594948173,-0.016326194629073143
0.03924757242202759,0.005036008078604937,-0.024293743073940277,0.020162159577012062,-0.0009314276394434273,-0.016031868755817413
0.04126616567373276,0.004956848453730345,-0.024473220109939575,0.020136531442403793,-0.0008503124117851257,-0.01623806543648243
0.03982137516140938,0.004751233849674463,-0.02378479763865471,0.019091935828328133,-0.000859122141264379,-0.01638837531208992
0.03821719065308571,0.004380349535495043,-0.02369677647948265,0.01857546716928482,-0.0008616602863185108,-0.01667967438697815
0.04000074416399002,0.004204970318824053,-0.023950982838869095,0.018602391704916954,-0.0008347630500793457,-0.016700824722647667
0.04010898619890213,0.004682880360633135,-0.02414005994796753,0.019228914752602577,-0.0007759134750813246,-0.017149344086647034
0.040206428617239,0.004931927192956209,-0.02425186149775982,0.019676078110933304,-0.0007230381015688181,-0.016708504408597946
0.04001159593462944,0.00465030875056982,-0.0237780399620533,0.018582744523882866,-0.0006896984996274114,-0.016562730073928833
0.04051058739423752,0.0044102175161242485,-0.023416340351104736,0.018585193902254105,-0.000713757355697453,-0.016436703503131866
0.04004300758242607,0.004385313950479031,-0.023627640679478645,0.018763447180390358,-0.0007354394183494151,-0.01667850650846958
0.04054180160164833,0.004517947789281607,-0.023841239511966705,0.019129380583763123,-0.0007559472578577697,-0.017197459936141968
0.040370404720306396,0.004609894007444382,-0.023804914206266403,0.01935897208750248,-0.001048494828864932,-0.017324764281511307
0.04019983857870102,0.004553279839456081,-0.023989740759134293,0.018671220168471336,-0.0010612435871735215,-0.017355095595121384
0.04145699739456177,0.004726842977106571,-0.024638552218675613,0.017984654754400253,-0.0010399470338597894,-0.01807442121207714
0.04145699739456177,0.004726842977106571,-0.024638552218675613,0.017984654754400253,-0.0010399470338597894,-0.01807442121207714
0.04094599559903145,0.004747713450342417,-0.024146122857928276,0.018382856622338295,-0.0010305807227268815,-0.01704537309706211
0.03945651277899742,0.004847753327339888,-0.024278396740555763,0.018621765077114105,-0.0009283067774958909,-0.0167592354118824
0.04035811498761177,0.004583245608955622,-0.02423742413520813,0.018970446661114693,-0.0008482236880809069,-0.017218537628650665
0.04010585695505142,0.004346571397036314,-0.02400398813188076,0.020730506628751755,-0.0007881141500547528,-0.017745956778526306
0.04123800992965698,0.0044024367816746235,-0.024944022297859192,0.019545502960681915,-0.0007749907090328634,-0.017489833757281303
0.04135144501924515,0.00448754383251071,-0.025162380188703537,0.018998201936483383,-0.0007129642181098461,-0.017372827976942062
0.039588745683431625,0.004621274769306183,-0.024211248382925987,0.01927969790995121,-0.0007207932649180293,-0.017412396147847176
0.03973521292209625,0.00460823206230998,-0.024092279374599457,0.0191491711884737,-0.0006366520537994802,-0.017173832282423973
0.041407130658626556,0.004579655826091766,-0.025365788489580154,0.019293874502182007,-0.0006352632190100849,-0.017683619633316994
0.041750360280275345,0.004577908664941788,-0.025071240961551666,0.019546788185834885,-0.0006621357752010226,-0.017906321212649345
0.04106350243091583,0.0046235909685492516,-0.025035256519913673,0.01957288756966591,-0.0006970521062612534,-0.018026508390903473
0.041122883558273315,0.004624903667718172,-0.024667730554938316,0.019315773621201515,-0.0010752278612926602,-0.01842872053384781
0.04123244807124138,0.00473497761413455,-0.02443254366517067,0.019188186153769493,-0.0011331152636557817,-0.018388599157333374
0.041845474392175674,0.00474834768101573,-0.024894168600440025,0.018908824771642685,-0.0011021558893844485,-0.01789279468357563
0.04107397794723511,0.004869650583714247,-0.02503351680934429,0.01878943108022213,-0.001094830920919776,-0.017536453902721405
0.04118076339364052,0.004349842667579651,-0.02478167973458767,0.019244514405727386,-0.0011347475228831172,-0.01734878681600094
0.04158174991607666,0.005010763183236122,-0.02526342123746872,0.019603446125984192,-0.0009479866712354124,-0.01801263727247715
0.04162793979048729,0.004505455028265715,-0.02498714253306389,0.01989864744246006,-0.0009369648178108037,-0.018440494313836098
0.04185934364795685,0.004558449145406485,-0.02499973587691784,0.01963283307850361,-0.0008509033941663802,-0.018434109166264534
0.04229288920760155,0.004508056212216616,-0.02511896938085556,0.0192834734916687,-0.0008306812378577888,-0.018281374126672745
0.041643790900707245,0.004842482041567564,-0.024949412792921066,0.01971151866018772,-0.0007478169864043593,-0.018428022041916847
0.0422007292509079,0.004347575828433037,-0.024671398103237152,0.01986836828291416,-0.000760162656661123,-0.018774276599287987
0.04185488820075989,0.004500693175941706,-0.024737758561968803,0.019569115713238716,-0.0007785451016388834,-0.01889578066766262
0.04256274551153183,0.004630620591342449,-0.025399161502718925,0.019972799345850945,-0.0008955109515227377,-0.01836427114903927
0.042146626859903336,0.0045395782217383385,-0.02509213052690029,0.02017451822757721,-0.0009377521928399801,-0.017786823213100433
0.042146626859903336,0.0045395782217383385,-0.02509213052690029,0.02017451822757721,-0.0009377521928399801,-0.017786823213100433
0.04227115586400032,0.004396477248519659,-0.025491822510957718,0.02013494074344635,-0.0012247945414856076,-0.017748257145285606
0.04227115586400032,0.004396477248519659,-0.025491822510957718,0.02013494074344635,-0.0012247945414856076,-0.017748257145285606
0.04270654544234276,0.004541571717709303,-0.024722855538129807,0.019883830100297928,-0.0012705011758953333,-0.017973478883504868
0.043147992342710495,0.004605893976986408,-0.0244534183293581,0.019539279863238335,-0.0012248243438079953,-0.01851789280772209
0.0424296036362648,0.004541238769888878,-0.024908365681767464,0.019438359886407852,-0.0012273594038560987,-0.01884288899600506
0.043192051351070404,0.004831880796700716,-0.025172632187604904,0.019857089966535568,-0.0011760847410187125,-0.018659882247447968
0.044258005917072296,0.004704825580120087,-0.025283770635724068,0.020041631534695625,-0.0011154931271448731,-0.019744880497455597
0.04247359186410904,0.004825320094823837,-0.024826450273394585,0.02012629620730877,-0.0010815616697072983,-0.01862812228500843
0.04193622246384621,0.004501900635659695,-0.025441065430641174,0.02051033079624176,-0.0009596948511898518,-0.018039563670754433
0.04356268793344498,0.004501526243984699,-0.026234809309244156,0.02082817815244198,-0.0009219959028996527,-0.01840677298605442
0.04330848157405853,0.004899306688457727,-0.025748146697878838,0.020860379561781883,-0.000916919787414372,-0.018858078867197037
0.044707443565130234,0.0050250752829015255,-0.02540702559053898,0.02124965749680996,-0.0008850318845361471,-0.01914088800549507
0.043341729789972305,0.004561419598758221,-0.024655507877469063,0.021316614001989365,-0.0008346302784048021,-0.01890667900443077
0.042468104511499405,0.004335180390626192,-0.02546645700931549,0.020438874140381813,-0.0009448721539229155,-0.01884535700082779
0.04442857205867767,0.004918673075735569,-0.026401972398161888,0.019310608506202698,-0.0008831589366309345,-0.01894165202975273
0.04419774189591408,0.005054830107837915,-0.025861773639917374,0.019840212538838387,-0.0008817494963295758,-0.0190257728099823
0.04385635629296303,0.005400720983743668,-0.025586102157831192,0.020402127876877785,-0.0008836648776195943,-0.019231107085943222
0.044355813413858414,0.004745213780552149,-0.02637501433491707,0.020539825782179832,-0.0009222805383615196,-0.01943090371787548
0.04435461014509201,0.004607116803526878,-0.025836486369371414,0.02033788152039051,-0.0009283357067033648,-0.01939282938838005
0.044006459414958954,0.0050559439696371555,-0.02631702832877636,0.019843390211462975,-0.0009251523297280073,-0.019148871302604675
0.044394634664058685,0.005131212063133717,-0.025014743208885193,0.020153319463133812,-0.000935445015784353,-0.019484905526041985
0.046127352863550186,0.005035245791077614,-0.025670042261481285,0.020537858828902245,-0.0009592472924850881,-0.01969338394701481
0.04277397319674492,0.005609523970633745,-0.026406526565551758,0.02000737376511097,-0.001017266884446144,-0.01926189661026001
