davideferrari95/blind_handover_controller/data/Test 29 - [2024-02-07 -- 14-39-53]/joint_states_data.csv
shoulder_pan_joint,shoulder_lift_joint,elbow_joint,wrist_1_joint,wrist_2_joint,wrist_3_joint
0.0043683601543307304,-0.0037910882383584976,-0.010929558426141739,0.011987577192485332,-0.0,0.005203078500926495
0.004162082448601723,-0.003424696158617735,-0.010766305960714817,0.012125588953495026,-0.0,0.004985270090401173
0.004162082448601723,-0.003424696158617735,-0.010766305960714817,0.012125588953495026,-0.0,0.004985270090401173
0.004424126818776131,-0.002812208840623498,-0.010922099463641644,0.011815906502306461,-0.0,0.0048117488622665405
0.004524906165897846,-0.00241434876807034,-0.011183349415659904,0.012258709408342838,-0.0,0.0046549332328140736
0.004688007291406393,-0.002551767975091934,-0.010999096557497978,0.011917239055037498,-0.0,0.004713250324130058
0.0045044501312077045,-0.003080091904848814,-0.011511952616274357,0.012060918845236301,-0.0,0.004961993545293808
0.0045733097940683365,-0.003531574970111251,-0.011511021293699741,0.012207530438899994,-0.0,0.005188375245779753
0.004399895202368498,-0.003432390047237277,-0.010490939021110535,0.011910547502338886,-0.0,0.0050081172958016396
0.004439366515725851,-0.003398631699383259,-0.011198056861758232,0.012352732941508293,-0.0,0.004786718636751175
0.004640428815037012,-0.002781754359602928,-0.011606674641370773,0.012027798220515251,-0.0,0.004882873967289925
0.0044421483762562275,-0.0027821636758744717,-0.010333159007132053,0.011985160410404205,-0.0,0.004989016335457563
0.0044421483762562275,-0.0027821636758744717,-0.010333159007132053,0.011985160410404205,-0.0,0.004989016335457563
0.004395377356559038,-0.003056246554479003,-0.010787500999867916,0.012037115171551704,-0.0,0.0050954935140907764
0.004737295210361481,-0.0031068497337400913,-0.010892925783991814,0.011978988535702229,-0.0,0.0052043478935956955
0.004812248051166534,-0.0031749021727591753,-0.010952676646411419,0.012021223083138466,-0.0,0.005218468140810728
0.004855155013501644,-0.003426607931032777,-0.00970989279448986,0.011673009023070335,-0.0,0.005042187869548798
0.004492518957704306,-0.003055131994187832,-0.010564222000539303,0.012294702231884003,-0.0,0.004777812864631414
0.004473424982279539,-0.003041453892365098,-0.011803490109741688,0.011921852827072144,-0.0,0.0046785324811935425
0.0045310924760997295,-0.0029493325855582952,-0.010802146047353745,0.012304474599659443,-0.0,0.0047007836401462555
0.0046639153733849525,-0.0031457289587706327,-0.010328532196581364,0.012647743336856365,-0.0,0.005100588779896498
0.004802024457603693,-0.003305940655991435,-0.010681681334972382,0.01234377734363079,-0.0,0.004996685776859522
0.004533119034022093,-0.0030401714611798525,-0.010742769576609135,0.012974787503480911,-0.0,0.004648738540709019
0.004595087841153145,-0.003037017770111561,-0.011527773924171925,0.012159451842308044,-0.0,0.004398730583488941
0.004720553755760193,-0.002865432994440198,-0.011251498945057392,0.012467998079955578,-0.0,0.004171688575297594
0.004619145300239325,-0.002829917473718524,-0.01119313109666109,0.01267244666814804,-0.0,0.004738509189337492
0.005203234031796455,-0.003028573002666235,-0.011086401529610157,0.012969091534614563,-0.0,0.005148474592715502
0.005283981095999479,-0.0031730628106743097,-0.010601082816720009,0.013583221472799778,-0.0,0.005540377926081419
0.0048856851644814014,-0.0030394066125154495,-0.011003714054822922,0.013368403539061546,-0.0,0.005241043400019407
0.004945598542690277,-0.0029536334332078695,-0.010734031908214092,0.01252815779298544,-0.0,0.005062312353402376
0.004798221867531538,-0.002700160024687648,-0.011026239953935146,0.013047309592366219,-0.0,0.005288431420922279
0.004837507847696543,-0.0029071082826703787,-0.011278784833848476,0.01230457704514265,-0.0,0.005115519743412733
0.00519705330953002,-0.003001159755513072,-0.010657553561031818,0.012905217707157135,-0.0,0.005429702345281839
0.004868241026997566,-0.002652582246810198,-0.010984811000525951,0.012373296543955803,-0.0,0.0053572081960737705
0.0042478106915950775,-0.0027391512412577868,-0.010788856074213982,0.012635434046387672,-0.0,0.0049843075685203075
0.004428277723491192,-0.0027284736279398203,-0.010550848208367825,0.012801708653569221,-0.0,0.004673143848776817
0.004763555247336626,-0.0027159873861819506,-0.01206985767930746,0.012515363283455372,-0.0,0.004285810515284538
0.00469224713742733,-0.0025626386050134897,-0.011336728930473328,0.012650182470679283,-0.0,0.004464020486921072
0.004945960361510515,-0.0028632848989218473,-0.011261051520705223,0.012278534471988678,-0.0,0.004663531668484211
0.005018155090510845,-0.002699651289731264,-0.010902026668190956,0.012666035443544388,-0.0,0.004666527267545462
0.004227878525853157,-0.0026996065862476826,-0.010819043032824993,0.012612973339855671,-0.0,0.0046814922243356705
0.004363958723843098,-0.0028090376872569323,-0.011206326074898243,0.013390467502176762,-0.0,0.004690883215516806
0.004232855513691902,-0.003086690790951252,-0.011215023696422577,0.012993749231100082,-0.0,0.004623600747436285
0.004232855513691902,-0.003086690790951252,-0.011215023696422577,0.012993749231100082,-0.0,0.004623600747436285
0.0042747389525175095,-0.0027704054955393076,-0.010277771390974522,0.013126990757882595,-0.0,0.0044981385581195354
0.004120462574064732,-0.002582644112408161,-0.011853562667965889,0.013278525322675705,-0.0,0.004449863918125629
0.004610056988894939,-0.0025422959588468075,-0.010671946220099926,0.013111965730786324,-0.0,0.004937487654387951
0.004610056988894939,-0.0025422959588468075,-0.010671946220099926,0.013111965730786324,-0.0,0.004937487654387951
0.0046642841771245,-0.0026094065979123116,-0.010999641381204128,0.012811840511858463,-0.0,0.004856726620346308
0.0044451006688177586,-0.0027379528619349003,-0.010778739117085934,0.01386835053563118,-0.0,0.0051909200847148895
0.004462328739464283,-0.0028093624860048294,-0.01123350951820612,0.012598731555044651,-0.0,0.00517592579126358
0.004450900014489889,-0.0026664291508495808,-0.010765361599624157,0.014415505342185497,-0.0,0.00500713475048542
0.004151029046624899,-0.00239704642444849,-0.01031637191772461,0.012686648406088352,-0.0,0.004890033509582281
0.004757398273795843,-0.0027478120755404234,-0.01061419676989317,0.013566428795456886,-0.0,0.004932792857289314
0.004286174196749926,-0.002665858482941985,-0.010604594834148884,0.013793574646115303,-0.0,0.004942663945257664
0.0043608383275568485,-0.0026664212346076965,-0.010762731544673443,0.013546877540647984,-0.0,0.005107634235173464
0.00447312043979764,-0.0025575957261025906,-0.010409165173768997,0.013096441514790058,-0.0,0.004688430577516556
0.004094078671187162,-0.0024626345839351416,-0.011127736419439316,0.013063195161521435,-0.0,0.004639313090592623
0.004452954046428204,-0.002764165634289384,-0.011000129394233227,0.012528386898338795,-0.0,0.005081247538328171
0.004578684456646442,-0.0025156394112855196,-0.010477199219167233,0.013240448199212551,-0.0,0.0052878218702971935
0.004418410360813141,-0.0024147380609065294,-0.010960902087390423,0.012803744524717331,-0.0,0.005024092737585306
0.0045164478942751884,-0.002445949474349618,-0.010779289528727531,0.013205548748373985,-0.0,0.005063358694314957
0.004934228491038084,-0.002540788846090436,-0.010939407162368298,0.01274120807647705,-0.0,0.004644658416509628
0.004385926760733128,-0.0024655854795128107,-0.011231986805796623,0.01282813772559166,-0.0,0.005208627786487341
0.004435309208929539,-0.002799666952341795,-0.010628540068864822,0.012738567776978016,-0.0,0.005183619447052479
0.004360663704574108,-0.002917363541200757,-0.010749480687081814,0.01310710422694683,-0.0,0.004495188593864441
0.004857748281210661,-0.002600847277790308,-0.011005816049873829,0.013416713103652,-0.0,0.004620516672730446
0.004803007002919912,-0.002693137852475047,-0.010855656117200851,0.012966620735824108,-0.0,0.0050704521127045155
0.0049009560607373714,-0.00266139954328537,-0.011223714798688889,0.013208044692873955,-0.0,0.005269698798656464
0.00477308314293623,-0.0027423102874308825,-0.010638843290507793,0.012828647159039974,-0.0,0.004894852172583342
0.0047455052845180035,-0.002602359978482127,-0.010469901375472546,0.01320138294249773,-0.0,0.004856215324252844
0.0047455052845180035,-0.002602359978482127,-0.010469901375472546,0.01320138294249773,-0.0,0.004856215324252844
0.004746200516819954,-0.002931516617536545,-0.011341835372149944,0.012802159413695335,-0.0,0.004901892971247435
0.004905282985419035,-0.0030182369519025087,-0.011095765046775341,0.012882143259048462,-0.0,0.004892474971711636
0.004891578108072281,-0.002950292080640793,-0.011242306791245937,0.013049310073256493,-0.0,0.004993248265236616
0.005142823327332735,-0.0026677625719457865,-0.010770048014819622,0.013167931698262691,-0.0,0.00493532745167613
0.005074531305581331,-0.0026819687336683273,-0.010723704472184181,0.012877995148301125,-0.0,0.004822758957743645
0.004844367038458586,-0.0030824916902929544,-0.011819870211184025,0.013322935439646244,-0.0,0.00488626305013895
0.005258176475763321,-0.0031037747394293547,-0.011698517017066479,0.013186945579946041,-0.0,0.0051524220034480095
0.005212726071476936,-0.002814181847497821,-0.010734536685049534,0.013003870844841003,-0.0,0.005011632107198238
0.00481185270473361,-0.002700790297240019,-0.011813128367066383,0.013374964706599712,-0.0,0.004863065201789141
0.004864637274295092,-0.00274141738191247,-0.010696983896195889,0.012760613113641739,-0.0,0.004905277397483587
0.005070595070719719,-0.0027285227552056313,-0.01127616222947836,0.01264229603111744,-0.0,0.004889996722340584
0.004906347021460533,-0.002785947173833847,-0.011450406163930893,0.012984124943614006,-0.0,0.005363229662179947
0.0051443083211779594,-0.0028249125462025404,-0.011208881624042988,0.012874562293291092,-0.0,0.005216485820710659
0.004967406392097473,-0.002632924821227789,-0.011020771227777004,0.012793609872460365,-0.0,0.004893461707979441
0.004822458140552044,-0.0029052342288196087,-0.011367755010724068,0.012949006631970406,-0.0,0.004923042841255665
0.005211076699197292,-0.0027157568838447332,-0.011468757875263691,0.012356193736195564,-0.0,0.005053146742284298
0.005026168189942837,-0.002697709947824478,-0.011103829368948936,0.012566711753606796,-0.0,0.004968692548573017
0.005003432743251324,-0.0027112795505672693,-0.011224502697587013,0.012173864990472794,-0.0,0.005381299648433924
0.005246865097433329,-0.0027702110819518566,-0.010860002599656582,0.012625479139387608,-0.0,0.005508555099368095
0.00518146762624383,-0.002845781622454524,-0.0110291363671422,0.01255667582154274,-0.0,0.005600573029369116
0.005296305753290653,-0.0027296938933432102,-0.011742101050913334,0.013069922104477882,-0.0,0.00530264712870121
0.005156012251973152,-0.002851821482181549,-0.011106520891189575,0.01289078127592802,-0.0,0.004957119002938271
0.005047815851867199,-0.0028598662465810776,-0.011451545171439648,0.01281894464045763,-0.0,0.005318510811775923
0.005713740363717079,-0.00287372968159616,-0.010843946598470211,0.013086923398077488,-0.0,0.005194769240915775
0.005475793965160847,-0.0027358774095773697,-0.011821498163044453,0.01295299269258976,-0.0,0.004885847680270672
0.005298768635839224,-0.0029306088108569384,-0.011343305930495262,0.01347432006150484,-0.0,0.004741425160318613
0.005298768635839224,-0.0029306088108569384,-0.011343305930495262,0.01347432006150484,-0.0,0.004741425160318613
0.005035899113863707,-0.002895203884691,-0.010241741314530373,0.012792127206921577,-0.0,0.004738052375614643
0.0048035974614322186,-0.002889269730076194,-0.01108580268919468,0.01313040405511856,-0.0,0.004814483225345612
0.005242268089205027,-0.0026606242172420025,-0.011512821540236473,0.01242735143750906,-0.0,0.005599185358732939
0.005192060489207506,-0.0029163225553929806,-0.01090116798877716,0.013098903000354767,-0.0,0.005380923859775066
0.00590664753690362,-0.003054061671718955,-0.011856654658913612,0.01288706436753273,-0.0,0.005038025788962841
0.0053771380335092545,-0.003126031020656228,-0.011223726905882359,0.012904549948871136,-0.0,0.005212530493736267
0.004923111759126186,-0.0032935552299022675,-0.011338000185787678,0.012868769466876984,-0.0,0.005299965851008892
0.004811650607734919,-0.0029211321379989386,-0.011185931973159313,0.012298958376049995,-0.0,0.005524733103811741
0.00525783421471715,-0.0030597152654081583,-0.010777036659419537,0.012903859838843346,-0.0,0.00564745394513011
0.0053530000150203705,-0.003409615019336343,-0.010659554041922092,0.01319944579154253,-0.0,0.005139608401805162
0.005106993019580841,-0.0032087506260722876,-0.010885109193623066,0.012574697844684124,-0.0,0.004960346966981888
0.0049966140650212765,-0.0029190313071012497,-0.011127662844955921,0.01290526706725359,-0.0,0.00503911217674613
0.00532285962253809,-0.0029714656993746758,-0.010947647504508495,0.012893810868263245,-0.0,0.005123988259583712
0.005435837898403406,-0.003374506253749132,-0.011483395472168922,0.013027386739850044,-0.0,0.005803573410958052
0.005616833455860615,-0.0037481761537492275,-0.010550202801823616,0.013292546384036541,-0.0,0.005430097691714764
0.0052627818658947945,-0.0034638203214854,-0.010466618463397026,0.013431129977107048,-0.0,0.005060750059783459
0.005825269501656294,-0.0030214565340429544,-0.011182387359440327,0.013849281705915928,-0.0,0.004874057602137327
0.0054372502490878105,-0.0032879875507205725,-0.010836804285645485,0.013125811703503132,-0.0,0.0047408053651452065
0.005069044418632984,-0.0030605343636125326,-0.010425655171275139,0.013462173752486706,-0.0,0.004790718201547861
0.005753534846007824,-0.003171771764755249,-0.010616731829941273,0.0127192297950387,-0.0,0.005029464606195688
0.006018580868840218,-0.002985845087096095,-0.010637689381837845,0.013007727451622486,-0.0,0.004936345852911472
0.005795299541205168,-0.0028436577413231134,-0.01074051484465599,0.012639288790524006,-0.0,0.004831069614738226
0.006052697543054819,-0.0027774223126471043,-0.01087950263172388,0.013034850358963013,-0.0,0.004647986497730017
0.0055320351384580135,-0.002869483083486557,-0.010215334594249725,0.013101490214467049,-0.0,0.00462266756221652
0.00546395406126976,-0.003139310050755739,-0.010483392514288425,0.013243035413324833,-0.0,0.004867149516940117
0.00573867280036211,-0.0031142127700150013,-0.010693568736314774,0.013780624605715275,-0.0,0.005676524247974157
0.00573867280036211,-0.0031142127700150013,-0.010693568736314774,0.013780624605715275,-0.0,0.005676524247974157
0.005556903313845396,-0.0029305508360266685,-0.009810125455260277,0.013645550236105919,-0.0,0.005388379096984863
0.0056441668421030045,-0.0027487247716635466,-0.010202142409980297,0.01259029284119606,-0.0,0.005296757444739342
0.005554903764277697,-0.0029049438890069723,-0.010284294374287128,0.01221869233995676,-0.0,0.005426203832030296
0.0055436245165765285,-0.0030056822579354048,-0.009859823621809483,0.013389481231570244,-0.0,0.005234936717897654
0.0053813038393855095,-0.002957342891022563,-0.010732738301157951,0.01304649282246828,-0.0,0.005378647707402706
0.005913418717682362,-0.0027060620486736298,-0.011161322705447674,0.013123410753905773,-0.0,0.005566237960010767
0.0055197542533278465,-0.002732131164520979,-0.010077466256916523,0.013199995271861553,-0.0,0.005529017653316259
0.005706149153411388,-0.0028424549382179976,-0.010150338523089886,0.013223061338067055,-0.0,0.005462707951664925
0.0053625856526196,-0.002891531912609935,-0.010393045842647552,0.013367744162678719,-0.0,0.005406339652836323
0.005736344959586859,-0.0029596390668302774,-0.010684647597372532,0.013491793535649776,-0.0,0.005270108114928007
0.005894456058740616,-0.0028341254219412804,-0.009982547722756863,0.012737372890114784,-0.0,0.005657142493873835
0.005837961100041866,-0.002801867900416255,-0.010490695014595985,0.013100664131343365,-0.0,0.005391070153564215
0.005638926289975643,-0.002610966330394149,-0.01093168556690216,0.012831148691475391,-0.0,0.0053961630910634995
0.005295568145811558,-0.002816061954945326,-0.010082247667014599,0.013484825380146503,-0.0,0.005250240676105022
0.005833720788359642,-0.0026677700225263834,-0.010427330620586872,0.013163212686777115,-0.0,0.005610601510852575
0.006363903172314167,-0.002512554172426462,-0.010320575907826424,0.013499460183084011,-0.0,0.005423823371529579
0.005800215993076563,-0.0026601948775351048,-0.010281629860401154,0.012991008348762989,-0.0,0.005714814178645611
0.0057980772107839584,-0.002910331357270479,-0.011553671211004257,0.013204535469412804,-0.0,0.0053642974235117435
0.0057980772107839584,-0.002910331357270479,-0.011553671211004257,0.013204535469412804,-0.0,0.0053642974235117435
0.005595846567302942,-0.0029010206926614046,-0.010577701963484287,0.012653275392949581,-0.0,0.0052462308667600155
0.005935958120971918,-0.0030109549406915903,-0.010480497032403946,0.012735418975353241,-0.0,0.005293676164001226
0.006112679373472929,-0.0030656002927571535,-0.01005532220005989,0.013026176020503044,-0.0,0.0053949495777487755
0.006112679373472929,-0.0030656002927571535,-0.01005532220005989,0.013026176020503044,-0.0,0.0053949495777487755
0.005688713397830725,-0.002984690712764859,-0.010745384730398655,0.013241457752883434,-0.0,0.005177863873541355
0.005679399240761995,-0.0029746501240879297,-0.011196347884833813,0.012757941149175167,-0.0,0.005239131394773722
0.006114069372415543,-0.003244375577196479,-0.010143640451133251,0.013276681303977966,-0.0,0.005456268787384033
0.005975330248475075,-0.002959352219477296,-0.010364100337028503,0.012920987792313099,-0.0,0.006053237710148096
0.006137739401310682,-0.003007277147844434,-0.01132926531136036,0.013212437741458416,-0.0,0.005588586442172527
0.0060602412559092045,-0.0030062494333833456,-0.010618296451866627,0.013133959844708443,-0.0,0.005362005438655615
0.005879228003323078,-0.002898785751312971,-0.010408326052129269,0.012875067070126534,-0.0,0.0055815535597503185
0.0056207915768027306,-0.0028088376857340336,-0.010530870407819748,0.013029716908931732,-0.0,0.005225467961281538
0.0058030192740261555,-0.00300062564201653,-0.010154998861253262,0.01262056827545166,-0.0,0.005618897266685963
0.005952364765107632,-0.003072981256991625,-0.01054258830845356,0.012257533147931099,-0.0,0.005847441032528877
0.005952364765107632,-0.003072981256991625,-0.01054258830845356,0.012257533147931099,-0.0,0.005847441032528877
0.006376130972057581,-0.0026816606987267733,-0.011000535450875759,0.012647380121052265,-0.0,0.005388537421822548
0.00618471996858716,-0.0026411525905132294,-0.01080887857824564,0.013314688578248024,-0.0,0.0056599825620651245
0.0063907490111887455,-0.0022680365946143866,-0.010794227942824364,0.012975596822798252,-0.0,0.006212448235601187
0.006651800591498613,-0.002051187213510275,-0.011013870127499104,0.013146757148206234,-0.0,0.006476199254393578
0.0062237209640443325,-0.0018125037895515561,-0.010360345244407654,0.013739949092268944,-0.0,0.005781827960163355
0.006345756351947784,-0.0015616986202076077,-0.011022109538316727,0.01316642016172409,-0.0,0.005409565754234791
0.005968967452645302,-0.001602344331331551,-0.010654776357114315,0.013475440442562103,-0.0,0.005507425405085087
0.006015705410391092,-0.0019162738462910056,-0.01038333959877491,0.012897335924208164,-0.0,0.006304471753537655
0.006513482891023159,-0.0019825578201562166,-0.011050330474972725,0.013204937800765038,-0.0,0.006320496555417776
0.006130844820290804,-0.0023696976713836193,-0.010783309116959572,0.012799408286809921,-0.0,0.006091827992349863
0.0064015802927315235,-0.0020690932869911194,-0.011069994419813156,0.013311995193362236,-0.0,0.0055741211399436
0.006349449045956135,-0.0018909359350800514,-0.01188328955322504,0.012657827697694302,-0.0,0.0052971141412854195
0.0065755113027989864,-0.0018674784805625677,-0.011569689027965069,0.013261818327009678,-0.0,0.005571992136538029
0.0063655199483036995,-0.002046976238489151,-0.011639748699963093,0.012870410457253456,-0.0,0.006135364528745413
0.006099381484091282,-0.0018616268644109368,-0.011303158476948738,0.012854399159550667,-0.0,0.005801783874630928
0.006900939624756575,-0.0020628939382731915,-0.010404979810118675,0.012601535767316818,-0.0,0.006009954027831554
0.006969808135181665,-0.0018307386199012399,-0.011152148246765137,0.01228303276002407,-0.0,0.005667518824338913
0.006444917060434818,-0.0017928465967997909,-0.010630917735397816,0.01293756254017353,-0.0,0.005776039324700832
0.0062120454385876656,-0.0018211387796327472,-0.010813954286277294,0.012641417793929577,-0.0,0.005609644111245871
0.0062120454385876656,-0.0018211387796327472,-0.010813954286277294,0.012641417793929577,-0.0,0.005609644111245871
0.0068968371488153934,-0.00209821667522192,-0.011681578122079372,0.012657652609050274,-0.0,0.005624265875667334
0.006965470965951681,-0.001874710083939135,-0.010509596206247807,0.012588408775627613,-0.0,0.005549119785428047
0.006302047986537218,-0.0018327292054891586,-0.010983197949826717,0.01276414655148983,-0.0,0.005539443343877792
0.006401192396879196,-0.0018234545132145286,-0.010881379246711731,0.013496965169906616,-0.0,0.005657200701534748
0.006657580845057964,-0.001835077302530408,-0.01079475972801447,0.013436418026685715,-0.0,0.005946937948465347
0.006837638095021248,-0.0018313167383894324,-0.009986638091504574,0.013287615031003952,-0.0,0.006453174166381359
0.007237997371703386,-0.001961385365575552,-0.01170062180608511,0.013228267431259155,-0.0,0.006304491776973009
0.006569509860128164,-0.0020087105222046375,-0.011384048499166965,0.013221440836787224,-0.0,0.006026920862495899
0.0067367092706263065,-0.0020866654813289642,-0.011065914295613766,0.013084623962640762,-0.0,0.006267186254262924
0.006717723794281483,-0.00221870094537735,-0.011637216433882713,0.012410079129040241,-0.0,0.0061091091483831406
0.007283122278749943,-0.0021771774627268314,-0.011359616182744503,0.01312234252691269,-0.0,0.006546481046825647
0.006596499588340521,-0.002083736704662442,-0.010289224795997143,0.012495583854615688,-0.0,0.006659523583948612
0.006505219265818596,-0.0020467990543693304,-0.011005204170942307,0.011686365120112896,-0.0,0.007347926031798124
0.006954530254006386,-0.0019928545225411654,-0.010832094587385654,0.012454519048333168,-0.0,0.00685224449262023
0.007208081893622875,-0.0020359577611088753,-0.010873998515307903,0.012671721167862415,-0.0,0.006502289790660143
0.00693088723346591,-0.0020571781788021326,-0.011090288870036602,0.013491774909198284,-0.0,0.006614645943045616
0.007434797938913107,-0.0020629402715712786,-0.010725697502493858,0.013235625810921192,-0.0,0.006651207804679871
0.006956071127206087,-0.0019967968109995127,-0.011786269955337048,0.013399017974734306,-0.0,0.006397494114935398
0.007145443931221962,-0.0019662301056087017,-0.010494991205632687,0.012695887126028538,-0.0,0.006215611472725868
0.007166269235312939,-0.0019705346785485744,-0.010318116284906864,0.013330222107470036,-0.0,0.006361601408571005
0.007083095144480467,-0.0021709611173719168,-0.011046466417610645,0.013406072743237019,-0.0,0.00618638563901186
0.007147315889596939,-0.002128005027770996,-0.010701526887714863,0.01328632514923811,-0.0,0.006568941753357649
0.00676734559237957,-0.0021053815726190805,-0.010421846993267536,0.013380621559917927,-0.0,0.006468279752880335
0.006740696262568235,-0.0022572882007807493,-0.011023759841918945,0.013093006797134876,-0.0,0.006107456516474485
0.00715289730578661,-0.0021528161596506834,-0.01114702969789505,0.01243087463080883,-0.0,0.006842864211648703
0.00715289730578661,-0.0021528161596506834,-0.01114702969789505,0.01243087463080883,-0.0,0.006842864211648703
0.007475073914974928,-0.002130502834916115,-0.011134998872876167,0.01345598604530096,-0.0,0.006853588856756687
0.007475073914974928,-0.002130502834916115,-0.011134998872876167,0.01345598604530096,-0.0,0.006853588856756687
0.007501385174691677,-0.002106745494529605,-0.010223837569355965,0.012790712527930737,-0.0,0.006800399627536535
0.006923614535480738,-0.002026377012953162,-0.011094392277300358,0.012717067264020443,-0.0,0.0066868397407233715
0.006912219803780317,-0.002190990373492241,-0.010696527548134327,0.012590240687131882,-0.0,0.006587017793208361
0.007403732743114233,-0.0019885224755853415,-0.0106356767937541,0.012853797525167465,-0.0,0.0063911015167832375
0.0072842990048229694,-0.0020891656167805195,-0.011088091880083084,0.012757858261466026,-0.0,0.006904079113155603
0.007184071931988001,-0.0019265743903815746,-0.010447216220200062,0.01291230320930481,-0.0,0.006561987102031708
0.0071679046377539635,-0.0019675008952617645,-0.01072063110768795,0.013133905827999115,-0.0,0.00658098328858614
0.007562321610748768,-0.0018131526885554194,-0.011041395366191864,0.0127276461571455,-0.0,0.006795050110667944
0.00747882854193449,-0.001942171948030591,-0.010864663869142532,0.01285777147859335,-0.0,0.007122518960386515
0.007372506894171238,-0.0020689608063548803,-0.010557470843195915,0.01268797367811203,-0.0,0.00659188162535429
0.0076643493957817554,-0.0020363768562674522,-0.010438102297484875,0.012940392829477787,-0.0,0.006721952930092812
0.008131753653287888,-0.0020298713352531195,-0.011116676032543182,0.012587468139827251,-0.0,0.006832136772572994
0.007739352528005838,-0.0018969322554767132,-0.010488692671060562,0.012708110734820366,-0.0,0.007124186027795076
0.0075305853970348835,-0.0020847152918577194,-0.011028227396309376,0.012648011557757854,-0.0,0.006966230925172567
0.00807506125420332,-0.0021379413083195686,-0.011189102195203304,0.013117917813360691,-0.0,0.006787257734686136
0.0076994579285383224,-0.0021338441874831915,-0.010652103461325169,0.01296913530677557,-0.0,0.0065225875005126
0.007372000254690647,-0.002087231259793043,-0.011373883113265038,0.013303725980222225,-0.0,0.007051824126392603
0.007901477627456188,-0.0020129589829593897,-0.011313745751976967,0.01314991433173418,-0.0,0.006780152674764395
0.007683729287236929,-0.001996150705963373,-0.010826736688613892,0.013158611953258514,-0.0,0.006803194992244244
0.0078018419444561005,-0.0019485421944409609,-0.01144388783723116,0.012721099890768528,-0.0,0.006780851166695356
0.007465353235602379,-0.0018603233620524406,-0.010916652157902718,0.01277915295213461,-0.0,0.007332447916269302
0.008420645259320736,-0.0018509645015001297,-0.011338132433593273,0.01281780656427145,-0.0,0.007365721743553877
0.008736501447856426,-0.0020139343105256557,-0.011758498847484589,0.013039972633123398,-0.0,0.006901784799993038
0.008049864321947098,-0.0019654463976621628,-0.011471863836050034,0.013417324982583523,-0.0,0.006761682685464621
0.007640428841114044,-0.002000662963837385,-0.011435672640800476,0.013124002143740654,-0.0,0.0072813997976481915
0.007707240991294384,-0.001952297636307776,-0.011189044453203678,0.013509809039533138,-0.0,0.007483376190066338
0.00793425552546978,-0.0018133940175175667,-0.01127900741994381,0.012708093039691448,-0.0,0.0068774051032960415
0.00793425552546978,-0.0018133940175175667,-0.01127900741994381,0.012708093039691448,-0.0,0.0068774051032960415
0.007652344647794962,-0.0018060539150610566,-0.010953173972666264,0.01309275347739458,-0.0,0.006711375433951616
0.007512938696891069,-0.0018603982171043754,-0.010839233174920082,0.012997416779398918,-0.0,0.007016789633780718
0.008200496435165405,-0.0020208356436342,-0.010914493352174759,0.013145099394023418,-0.0,0.007048625033348799
0.008200496435165405,-0.0020208356436342,-0.010914493352174759,0.013145099394023418,-0.0,0.007048625033348799
0.008298075757920742,-0.0019884591456502676,-0.01103263907134533,0.013128756545484066,-0.0,0.007154228165745735
0.007886173203587532,-0.002026110654696822,-0.011113419197499752,0.013226572424173355,-0.0,0.007404316682368517
0.008159000426530838,-0.0017953013302758336,-0.010891171172261238,0.013111455366015434,-0.0,0.007508145645260811
0.007521059364080429,-0.0015565411886200309,-0.011143552139401436,0.012677403166890144,-0.0,0.006553123705089092
0.008050522767007351,-0.0015917656710371375,-0.010482171550393105,0.012788437306880951,-0.0,0.007150246296077967
0.00813740398734808,-0.0016312802908942103,-0.0113001624122262,0.012663998641073704,-0.0,0.00713092926889658
0.007924475707113743,-0.0016721521969884634,-0.011258387006819248,0.012638825923204422,-0.0,0.007708731107413769
0.007761846762150526,-0.0018754795892164111,-0.011201201938092709,0.01278308592736721,-0.0,0.007917642593383789
0.008242408744990826,-0.0018847847823053598,-0.011450432240962982,0.012702194042503834,-0.0,0.007721333298832178
0.008327961899340153,-0.0017146875616163015,-0.010637158527970314,0.012937933206558228,-0.0,0.007678384892642498
0.008222498930990696,-0.0017210450023412704,-0.01173632126301527,0.012848516926169395,-0.0,0.007553739007562399
0.007932745851576328,-0.0015867858892306685,-0.01108725555241108,0.014116993173956871,-0.0,0.007694090250879526
0.008338337764143944,-0.0015357567463070154,-0.010820776224136353,0.012829797342419624,-0.0,0.007590794935822487
0.00880644004791975,-0.0015932052629068494,-0.012007232755422592,0.012487076222896576,-0.0,0.007404100149869919
0.007899773307144642,-0.0015519913285970688,-0.011406093835830688,0.012543829157948494,-0.0,0.007221684791147709
0.00816416647285223,-0.0016748635098338127,-0.011388055980205536,0.01325282920151949,-0.0,0.007279724348336458
0.008308623917400837,-0.0015675071626901627,-0.011771232821047306,0.013111264444887638,-0.0,0.007499408442527056
0.007902940735220909,-0.0017728187376633286,-0.011036918498575687,0.013146940618753433,-0.0,0.008059795945882797
0.007902940735220909,-0.0017728187376633286,-0.011036918498575687,0.013146940618753433,-0.0,0.008059795945882797
0.007595861796289682,-0.0016317262779921293,-0.012222482822835445,0.013156699948012829,-0.0,0.007737734355032444
0.008638566359877586,-0.001642244984395802,-0.011376104317605495,0.013265736401081085,-0.0,0.007403990253806114
0.008508976548910141,-0.0015480356523767114,-0.012033273465931416,0.013320471160113811,-0.0,0.00723559083417058
0.008033405989408493,-0.0016132619930431247,-0.012419145554304123,0.013020898215472698,-0.0,0.00746314600110054
0.008643723092973232,-0.0016187302535399795,-0.011911219917237759,0.01267456915229559,-0.0,0.007769333198666573
0.008174074813723564,-0.0017794420709833503,-0.011641193181276321,0.01342298835515976,-0.0,0.007462428417056799
0.008174074813723564,-0.0017794420709833503,-0.011641193181276321,0.01342298835515976,-0.0,0.007462428417056799
0.00785116758197546,-0.0016854471759870648,-0.012048839591443539,0.013054238632321358,-0.0,0.007992485538125038
0.008251999504864216,-0.0019155095797032118,-0.01190109085291624,0.01314788032323122,-0.0,0.008095713332295418
0.008780327625572681,-0.001750121358782053,-0.011523215100169182,0.012655188329517841,-0.0,0.007890744134783745
0.008241042494773865,-0.0017570628551766276,-0.011859089136123657,0.012565351091325283,1.1820001191154006e-06,0.007710856851190329
0.008344967849552631,-0.0017713208217173815,-0.011728414334356785,0.012731904163956642,7.717616057334453e-08,0.0078321797773242
0.008402630686759949,-0.0018524323822930455,-0.011651711538434029,0.012887398712337017,3.2901403823615283e-10,0.007754913531243801
0.008333385922014713,-0.0019881718326359987,-0.012107223272323608,0.012338660657405853,2.148226388443142e-11,0.007856647484004498
0.008936574682593346,-0.0018890394130721688,-0.012392249889671803,0.012773603200912476,1.402638422076663e-12,0.007994391024112701
0.008662117645144463,-0.0016287254402413964,-0.011745800264179707,0.012624679133296013,9.158227968304386e-14,0.007571658119559288
0.00814011413604021,-0.001657682005316019,-0.01276672724634409,0.013261297717690468,5.9796684781737806e-15,0.007370429579168558
0.008361591026186943,-0.001687918440438807,-0.011700443923473358,0.013370643369853497,3.904296461717231e-16,0.008071101270616055
0.009061071090400219,-0.0017737795133143663,-0.012097152881324291,0.013495393097400665,2.5492265530257246e-17,0.00783197209239006
0.00854584388434887,-0.0021893142256885767,-0.012467600405216217,0.013323488645255566,1.664462754746553e-18,0.007836448028683662
0.008266661316156387,-0.0019399552838876843,-0.011958613060414791,0.013028524816036224,1.0867752211784272e-19,0.007462742272764444
0.008688862435519695,-0.0018029599450528622,-0.012198849581182003,0.013033229857683182,7.095864679416012e-21,0.007510772440582514
0.00918700359761715,-0.0015940858284011483,-0.011673671193420887,0.012725070118904114,4.633092430155906e-22,0.007744318805634975
0.009164386428892612,-0.001620438415557146,-0.01252367440611124,0.013141426257789135,3.0250783609533953e-23,0.007636060006916523
0.008836206048727036,-0.001590245752595365,-0.01192346028983593,0.012623867951333523,1.9751601896841372e-24,0.007531302981078625
0.008836206048727036,-0.001590245752595365,-0.01192346028983593,0.012623867951333523,1.9751601896841372e-24,0.007531302981078625
0.008628278970718384,-0.0018887118203565478,-0.012643967755138874,0.012839284725487232,8.420416858125743e-27,0.008130558766424656
0.008628278970718384,-0.0018887118203565478,-0.012643967755138874,0.012839284725487232,8.420416858125743e-27,0.008130558766424656
0.008902703411877155,-0.0016900189220905304,-0.01177230291068554,0.013314678333699703,3.589756170597613e-29,0.008347446098923683
0.008719190955162048,-0.0016845777863636613,-0.012408513575792313,0.013339993543922901,2.3438542972910163e-30,0.00832132063806057
0.008719190955162048,-0.0016845777863636613,-0.012408513575792313,0.013339993543922901,2.3438542972910163e-30,0.00832132063806057
0.008832836523652077,-0.0015768073499202728,-0.01187396515160799,0.013044005259871483,1.5303693950177364e-31,0.007836640812456608
0.008911116980016232,-0.001576345064677298,-0.011632085777819157,0.013063767924904823,9.992217730135867e-33,0.007979020476341248
0.008964363485574722,-0.0015753230545669794,-0.011445523239672184,0.013425974175333977,6.5242039503498975e-34,0.007972747087478638
0.009192878380417824,-0.0015044641913846135,-0.012217001989483833,0.01277150958776474,4.2598388508676073e-35,0.008021920919418335
0.009354728274047375,-0.0016240013064816594,-0.011699714697897434,0.013056163676083088,2.7813703734028978e-36,0.007764833979308605
0.00918867252767086,-0.0015375646762549877,-0.011761988513171673,0.01271531730890274,1.816035950344316e-37,0.008054924197494984
0.0086298119276762,-0.0017802154179662466,-0.01178292278200388,0.01300697773694992,1.185741766232202e-38,0.008334030397236347
0.009150821715593338,-0.001691708224825561,-0.011279023252427578,0.013458296656608582,3.300057883484944e-42,0.008380940183997154
0.009150821715593338,-0.001691708224825561,-0.011279023252427578,0.013458296656608582,3.300057883484944e-42,0.008380940183997154
0.009091440588235855,-0.0017141378484666348,-0.01201816089451313,0.013020316138863564,2.1579996350602183e-43,0.00834203977137804
0.009537545032799244,-0.0017459554364904761,-0.011903956532478333,0.013447553850710392,1.401298464324817e-44,0.008443907834589481
0.009377173148095608,-0.001737325801514089,-0.01200756337493658,0.013486002571880817,1.401298464324817e-45,0.008403380401432514
0.009290075860917568,-0.0017638421850278974,-0.011717168614268303,0.013723071664571762,0.0,0.008631824515759945
0.009406727738678455,-0.0016289087943732738,-0.01107626873999834,0.013590272516012192,0.0,0.00821706373244524
0.009237034246325493,-0.0015644446248188615,-0.011659609153866768,0.013688531704246998,0.0,0.008734533563256264
0.00919387023895979,-0.0015690361615270376,-0.011945919133722782,0.012959770858287811,0.0,0.008610621094703674
0.009398972615599632,-0.0016592767788097262,-0.012034757062792778,0.012932575307786465,0.0,0.0082046864554286
0.009555406868457794,-0.0017082344274967909,-0.011734490282833576,0.012700226157903671,0.0,0.008143801242113113
0.009039281867444515,-0.0019526752876117826,-0.011427597142755985,0.013391035608947277,0.0,0.008291441015899181
0.009039281867444515,-0.0019526752876117826,-0.011427597142755985,0.013391035608947277,0.0,0.008291441015899181
0.009272371418774128,-0.0017178542912006378,-0.012318783439695835,0.013257675804197788,0.0,0.008469723165035248
0.009001842699944973,-0.0017076677177101374,-0.011651739478111267,0.013077540323138237,0.0,0.008559633046388626
0.01005147211253643,-0.0015769939636811614,-0.012275024317204952,0.013248661532998085,0.0,0.008626924827694893
0.009866233915090561,-0.0016008643433451653,-0.011766273528337479,0.013343063183128834,0.0,0.009492584504187107
0.009372998960316181,-0.0016500193160027266,-0.012095080688595772,0.013104560784995556,0.0,0.008638384751975536
0.009372998960316181,-0.0016500193160027266,-0.012095080688595772,0.013104560784995556,0.0,0.008638384751975536
0.010223533026874065,-0.0018077483400702477,-0.011534305289387703,0.013538343831896782,0.0,0.008432380855083466
0.010006623342633247,-0.0016783030005171895,-0.01113122794777155,0.013474415056407452,0.0,0.009036974050104618
0.010024419985711575,-0.001642326358705759,-0.011768408119678497,0.013581323437392712,0.0,0.008403574116528034
0.009968699887394905,-0.0016599383670836687,-0.011586264707148075,0.012814553454518318,0.0,0.008234386332333088
0.009968429803848267,-0.0015483602182939649,-0.012717769481241703,0.013242756947875023,0.0,0.00931541621685028
0.01062899548560381,-0.0015923773171380162,-0.0123456921428442,0.013033093884587288,0.0,0.009227867238223553
0.009894898161292076,-0.0015036646509543061,-0.012253605760633945,0.013699650764465332,0.0,0.00927644781768322
0.009575084783136845,-0.0015777054941281676,-0.011494440957903862,0.013515467755496502,0.0,0.008966834284365177
0.009368736296892166,-0.0016425594221800566,-0.011184007860720158,0.013576657511293888,0.0,0.009018492884933949
0.010172835551202297,-0.001554563525132835,-0.01244337297976017,0.01324547827243805,0.0,0.008425192907452583
0.009830312803387642,-0.001456623082049191,-0.012212401255965233,0.013418307527899742,0.0,0.009516417048871517
0.010587905533611774,-0.0013688014587387443,-0.01197434775531292,0.013226267881691456,0.0,0.009177184663712978
0.010063305497169495,-0.0013942689402028918,-0.011469433084130287,0.013591285794973373,0.0,0.008863013237714767
0.009991724975407124,-0.0012928424403071404,-0.011975734494626522,0.013394718989729881,0.0,0.008901513181626797
0.010401676408946514,-0.0010890145786106586,-0.011607487685978413,0.013852834701538086,0.0,0.009376888163387775
0.009937647730112076,-0.0009285457199439406,-0.012414072640240192,0.013258027844130993,0.0,0.008946194313466549
0.010612424463033676,-0.0008091646013781428,-0.011849256232380867,0.013415004126727581,-0.00019745485042221844,0.008863044902682304
0.011173763312399387,-0.0007170015596784651,-0.011893418617546558,0.0129628237336874,-0.00020802809740416706,0.008997994475066662
0.010051772929728031,-0.0006436962285079062,-0.012513559311628342,0.01359209418296814,-0.0002000671229325235,0.009150523692369461
0.00977521575987339,-0.0006661887746304274,-0.011828131973743439,0.013101419433951378,-0.00019162944226991385,0.009010556153953075
0.010329851880669594,-0.0005428420845419168,-0.011972805485129356,0.013406550511717796,-0.00018380573601461947,0.009145528078079224
0.010447387583553791,-0.00045565198524855077,-0.012048941105604172,0.013296261429786682,-0.00019388004147913307,0.009203596040606499
0.010151917114853859,-0.0004947904963046312,-0.012696129269897938,0.013066345825791359,-0.0002027304144576192,0.008674337528645992
0.01061861589550972,-0.0005267693777568638,-0.01242388691753149,0.013121291063725948,-0.0001964095135917887,0.009231869131326675
0.01061861589550972,-0.0005267693777568638,-0.01242388691753149,0.013121291063725948,-0.0001964095135917887,0.009231869131326675
0.009907771833240986,-0.0005502088461071253,-0.011834432370960712,0.013203363865613937,-0.00018958216242026538,0.008827930316329002
0.01026992592960596,-0.0005191924283280969,-0.012423775158822536,0.013554934412240982,-0.0001831559929996729,0.00896390713751316
0.010511231608688831,-0.0007174157653935254,-0.011613372713327408,0.013452263548970222,-0.00019162298121955246,0.009449074044823647
0.010529751889407635,-0.0007025235099717975,-0.012028491124510765,0.013572534546256065,-0.00019912388233933598,0.009482055902481079
0.00989436823874712,-0.0006551508558914065,-0.01186045166105032,0.012661082670092583,-0.0001938811910804361,0.008847891353070736
0.009984275326132774,-0.0005846826243214309,-0.011888714507222176,0.012829943560063839,-0.00020133740326855332,0.009068113751709461
0.00981458742171526,-0.0005275393486954272,-0.012353483587503433,0.012345658615231514,-0.00020790085545741022,0.009757617488503456
0.010865258984267712,-0.0005594831891357899,-0.01202604454010725,0.012403284199535847,-0.00020285193750169128,0.00968163087964058
0.010466055944561958,-0.0005148141644895077,-0.011933968402445316,0.01280143391340971,-0.00019734456145670265,0.009904087521135807
0.009942831471562386,-0.0005410729208961129,-0.011835655197501183,0.013287856243550777,-0.00023835303727537394,0.00957427080720663
0.01023663580417633,-0.00045456396765075624,-0.01211228035390377,0.013203042559325695,-0.00022952996368985623,0.009609797969460487
0.010303519666194916,-0.0004918710328638554,-0.011659773997962475,0.013436402194201946,-0.0002506975142750889,0.009360523894429207
0.010154133662581444,-0.0005201565800234675,-0.01287807896733284,0.012982422485947609,-0.0002492573403287679,0.009115156717598438
0.010419687256217003,-0.0005337206530384719,-0.012033911421895027,0.013240399770438671,-0.0002388913999311626,0.008996722288429737
0.010221937671303749,-0.0005175871192477643,-0.012127470225095749,0.013079329393804073,-0.00022880983306095004,0.009306719526648521
0.010264418087899685,-0.0007138334913179278,-0.012294330634176731,0.013555902056396008,-0.0002195098204538226,0.00920997653156519
0.010204804129898548,-0.0006425738683901727,-0.01203196868300438,0.012993409298360348,-0.00024370090977754444,0.009178976528346539
0.010950952768325806,-0.0006733729969710112,-0.013045224361121655,0.013002173975110054,-0.00023668093490414321,0.009539753198623657
0.010340538807213306,-0.0006649930728599429,-0.01220922451466322,0.01322449091821909,-0.00022824447660241276,0.010558574460446835
0.009969858452677727,-0.0006295260973274708,-0.013073870912194252,0.0131167471408844,-0.00022027234081178904,0.009121520444750786
0.010221164673566818,-0.0006510439561679959,-0.012307324446737766,0.013015026226639748,-0.00021283072419464588,0.009698029607534409
0.010214210487902164,-0.0005999103304930031,-0.012736091390252113,0.012212726287543774,-0.00020587457402143627,0.009472976438701153
0.010718503966927528,-0.0005983097362332046,-0.012526662088930607,0.013091598637402058,-0.00019935947784688324,0.009569045156240463
0.010494888760149479,-0.0006347215385176241,-0.012792091816663742,0.01232223678380251,-0.0002136857801815495,0.010356348007917404
0.01056100707501173,-0.0006626789690926671,-0.012902090325951576,0.013351417146623135,-0.00021380896214395761,0.010174719616770744
0.01056100707501173,-0.0006626789690926671,-0.012902090325951576,0.013351417146623135,-0.00021380896214395761,0.010174719616770744
0.011253648437559605,-0.0008181413286365569,-0.012629336677491665,0.012651098892092705,-0.00020223630417604,0.010192209854722023
0.011253648437559605,-0.0008181413286365569,-0.012629336677491665,0.012651098892092705,-0.00020223630417604,0.010192209854722023
0.011945027858018875,-0.0007706796750426292,-0.012096092104911804,0.013090339489281178,-0.0001967125863302499,0.009975692257285118
0.012242664583027363,-0.0007886713719926775,-0.012691806070506573,0.01333025936037302,-0.0002156948612537235,0.00987109262496233
0.011618486605584621,-0.000764146214351058,-0.012990842573344707,0.013474851846694946,-0.0002093649236485362,0.010201552882790565
0.011246195062994957,-0.0007128833676688373,-0.013194953091442585,0.012331764213740826,-0.0002002865803660825,0.010347460396587849
0.011914210394024849,-0.0006645685061812401,-0.012952296994626522,0.01240621693432331,-0.00022037807502783835,0.010050969198346138
0.012080851942300797,-0.0006147244712337852,-0.012886114418506622,0.013225642964243889,-0.00021202232164796442,0.010060862638056278
0.012080851942300797,-0.0006147244712337852,-0.012886114418506622,0.013225642964243889,-0.00021202232164796442,0.010060862638056278
0.011706189252436161,-0.0006121944170445204,-0.01212176214903593,0.013007878325879574,-0.00022068026009947062,0.010177364572882652
0.011447709053754807,-0.0005798229831270874,-0.012996559031307697,0.012989124283194542,-0.0002282347995787859,0.009906593710184097
0.012103253044188023,-0.0006356509984470904,-0.013003879226744175,0.013042771257460117,-0.00021379436657298356,0.010184437036514282
0.01208287663757801,-0.0007184321875683963,-0.012567498721182346,0.013337328098714352,-0.00020678009605035186,0.010431540198624134
0.012012493796646595,-0.0006765303551219404,-0.012802349403500557,0.01322388369590044,-0.0002002083492698148,0.010611354373395443
0.011456243693828583,-0.0007014336297288537,-0.01298615988343954,0.01335713267326355,-0.00020763956126756966,0.010850182734429836
0.011903106234967709,-0.0006247113342396915,-0.012296435423195362,0.013186178170144558,-0.00021421296696644276,0.011074632406234741
0.011640407145023346,-0.000651883368846029,-0.01274033822119236,0.013634155504405499,-0.00020883211982436478,0.010416592471301556
0.0118364617228508,-0.0006728269509039819,-0.012201066128909588,0.013122429139912128,-0.0002029984025284648,0.010619040578603745
0.012397237122058868,-0.0006824012380093336,-0.013067369349300861,0.013623282313346863,-0.00019743495795410126,0.010225102305412292
0.011491246521472931,-0.0007285113679245114,-0.012231883592903614,0.01333799958229065,-0.0001921656948979944,0.010092773474752903
0.011650142259895802,-0.0007247116882354021,-0.012615600600838661,0.013556869700551033,-0.00023347603564616293,0.010832728818058968
0.011478325352072716,-0.0006801832932978868,-0.012356785126030445,0.013459642417728901,-0.00022845517378300428,0.010762943886220455
0.011478325352072716,-0.0006801832932978868,-0.012356785126030445,0.013459642417728901,-0.00022845517378300428,0.010762943886220455
0.012082158587872982,-0.0006983050261624157,-0.012351028621196747,0.013700811192393303,-0.00023911790049169213,0.010441350750625134
0.01217196136713028,-0.0006400672718882561,-0.01263085100799799,0.013452055864036083,-0.0002479128888808191,0.01075219176709652
0.011856663040816784,-0.0007062985096126795,-0.01207717601209879,0.013386411592364311,-0.00023826533288229257,0.010963140055537224
0.011995312757790089,-0.0007196132210083306,-0.012682333588600159,0.013281342573463917,-0.00022827518114354461,0.010362647473812103
0.011625095270574093,-0.0006465782062150538,-0.012046421878039837,0.013315628282725811,-0.00025304011069238186,0.010051802732050419
0.012255714274942875,-0.0006696858326904476,-0.012813210487365723,0.013514806516468525,-0.0002454012574162334,0.010194561444222927
0.011668136343359947,-0.0006088445661589503,-0.012081093154847622,0.0130997309461236,-0.00023633785895071924,0.01025213859975338
0.011757785454392433,-0.0006331573240458965,-0.012041598558425903,0.013473695144057274,-0.00022780083236284554,0.01012037880718708
0.012279072776436806,-0.0005888271261937916,-0.012759293429553509,0.013001701794564724,-0.00024709280114620924,0.010381663218140602
0.011723804287612438,-0.0005707899108529091,-0.012221927754580975,0.013251831755042076,-0.0002425129641778767,0.010247905738651752
0.012059039436280727,-0.0006042213062755764,-0.012937119230628014,0.012883034534752369,-0.0002348463167436421,0.01022479310631752
0.011897285468876362,-0.0006269222940318286,-0.01204716321080923,0.013591290451586246,-0.0003019128052983433,0.0103522390127182
0.012286253273487091,-0.000632958544883877,-0.012491801753640175,0.013326066546142101,-0.0003059115551877767,0.010674585588276386
0.01202025730162859,-0.0006059885490685701,-0.012566901743412018,0.013157215900719166,-0.00028793522506020963,0.010830520652234554
0.011833526194095612,-0.0007499268394894898,-0.012716471217572689,0.012979619204998016,-0.0003046051424462348,0.011316495016217232
0.011766194365918636,-0.0007428756798617542,-0.0119929239153862,0.013302243314683437,-0.00028984108939766884,0.01054292544722557
0.011966369114816189,-0.0006956391735002398,-0.012419079430401325,0.013154039159417152,-0.00029755037394352257,0.01074647530913353
0.012322104535996914,-0.0007150741294026375,-0.012065507471561432,0.013394138775765896,-0.00030393709312193096,0.01109334547072649
0.01222033891826868,-0.0007469510892406106,-0.012851577252149582,0.012999230995774269,-0.0002912403433583677,0.009902974590659142
0.012295253574848175,-0.0006827214965596795,-0.012458297424018383,0.01310479175299406,-0.0002979006967507303,0.010348147712647915
0.011671504937112331,-0.0007101137889549136,-0.01210376899689436,0.012458422221243382,-0.000303437962429598,0.010848716832697392
0.011859850026667118,-0.0007208622409962118,-0.012362160719931126,0.013105185702443123,-0.0002923011779785156,0.010806040838360786
0.012002194300293922,-0.000657026597764343,-0.011967380531132221,0.013065881095826626,-0.0002809689613059163,0.01113449689000845
0.011876419186592102,-0.0006788361934013665,-0.01268496923148632,0.013449354097247124,-0.0002704201324377209,0.01129232533276081
0.012854610569775105,-0.0007101961527951062,-0.012044201605021954,0.01322322990745306,-0.00026062989491038024,0.011263630352914333
0.011611497960984707,-0.0007059756317175925,-0.01233641803264618,0.013207895681262016,-0.0002865041606128216,0.011474654078483582
0.011868847534060478,-0.0007293361704796553,-0.012089410796761513,0.013149823062121868,-0.000274533435003832,0.010979538783431053
0.011868847534060478,-0.0007293361704796553,-0.012089410796761513,0.013149823062121868,-0.000274533435003832,0.010979538783431053
0.012817392125725746,-0.0007479479536414146,-0.01239766739308834,0.01319168321788311,-0.000259081571130082,0.011217894032597542
0.01225415337830782,-0.0007056086324155331,-0.012604889459908009,0.013681512326002121,-0.00024499421124346554,0.011067316867411137
0.012440766207873821,-0.0008269893005490303,-0.01182125136256218,0.013196976855397224,-0.000272565521299839,0.010571097023785114
0.012686767615377903,-0.0008394329925067723,-0.01277967356145382,0.013308324851095676,-0.0002647093788255006,0.011462775990366936
0.012788201682269573,-0.0007280629361048341,-0.011832178570330143,0.014321289025247097,-0.00025268024182878435,0.011072410270571709
0.012302223592996597,-0.0007468186086043715,-0.012127386406064034,0.013318458572030067,-0.0002788898127619177,0.010448847897350788
0.013723654672503471,-0.0007310389191843569,-0.01222983282059431,0.012594285421073437,-0.0002694066788535565,0.010648705996572971
0.012671994976699352,-0.0006906200433149934,-0.012156596407294273,0.013526312075555325,-0.00028580630896613,0.01085684821009636
0.012910590507090092,-0.0006531095132231712,-0.012562504038214684,0.013642988167703152,-0.00028317488613538444,0.011254905723035336
0.01270598080009222,-0.0006813461659476161,-0.012321559712290764,0.013577436096966267,-0.0002729993429966271,0.01112582627683878
0.01294549647718668,-0.0006088390364311635,-0.012750521302223206,0.013438800349831581,-0.0002641126047819853,0.011005612090229988
0.012724902480840683,-0.0006335389334708452,-0.012880023568868637,0.013606536202132702,-0.000308079703245312,0.011226878501474857
0.01310129463672638,-0.0006061973981559277,-0.012908031232655048,0.01344724465161562,-0.000288650015136227,0.011634794063866138
0.012707424350082874,-0.0006291327881626785,-0.012641076929867268,0.013292255811393261,-0.0003112219274044037,0.011722909286618233
0.013487180694937706,-0.000582345703151077,-0.012603494338691235,0.0129569536074996,-0.0003060689487028867,0.0117807537317276
0.012868491932749748,-0.0006147404201328754,-0.01222318597137928,0.013273114338517189,-0.0002904210996348411,0.011846011504530907
0.013192904181778431,-0.0005554051604121923,-0.013179190456867218,0.012973153032362461,-0.00027564482297748327,0.01169864647090435
0.013267741538584232,-0.0005840150406584144,-0.011678680777549744,0.013261517509818077,-0.00030010720365680754,0.011723951436579227
0.013253376819193363,-0.0005373818567022681,-0.013401992619037628,0.013145635835826397,-0.00029140966944396496,0.011478394269943237
0.013269136659801006,-0.0004951784503646195,-0.01291845552623272,0.013777765445411205,-0.00027884746668860316,0.01129982527345419
0.013524704612791538,-0.0005237187724560499,-0.012966680340468884,0.013500694185495377,-0.00026704659103415906,0.011701764538884163
0.01317409798502922,-0.0004916956531815231,-0.012908140197396278,0.01424561906605959,-0.00025618719519115984,0.011796115897595882
0.013034651055932045,-0.0004827121156267822,-0.013655860908329487,0.013562912121415138,-0.0002461742842569947,0.011575068347156048
0.013681601732969284,-0.0004364675551187247,-0.013418644666671753,0.013304337859153748,-0.0002369160356465727,0.011358287185430527
0.012918832711875439,-0.00047626730520278215,-0.012640188448131084,0.012714707292616367,-0.0002566149923950434,0.011566488072276115
0.012918832711875439,-0.00047626730520278215,-0.012640188448131084,0.012714707292616367,-0.0002566149923950434,0.011566488072276115
0.01343790628015995,-0.00043862994061782956,-0.013092054054141045,0.01243261992931366,-0.00025153555907309055,0.012162345461547375
0.013370245695114136,-0.00047046912368386984,-0.012525792233645916,0.012468306347727776,-0.00024328941071871668,0.011902203783392906
0.0132808368653059,-0.0004699458077084273,-0.012497165240347385,0.013287088833749294,-0.00023561579291708767,0.011997819878160954
0.0132808368653059,-0.0004699458077084273,-0.012497165240347385,0.013287088833749294,-0.00023561579291708767,0.011997819878160954
0.013392245396971703,-0.0004434725851751864,-0.013041557744145393,0.01326788030564785,-0.00022532575530931354,0.011897677555680275
0.013103803619742393,-0.0004990043817088008,-0.01289066020399332,0.013619148172438145,-0.00021467266196850687,0.011564988642930984
0.013320833444595337,-0.0005090901395305991,-0.013132588937878609,0.013123027980327606,-0.00024307824787683785,0.0115574412047863
0.013667614199221134,-0.0004909331910312176,-0.013360278680920601,0.013260602951049805,-0.00023498805239796638,0.011958880349993706
0.013793379068374634,-0.0005163425230421126,-0.012996187433600426,0.013329624198377132,-0.00024371579638682306,0.012341211549937725
0.013752199709415436,-0.00048484248691238463,-0.01283575315028429,0.013618044555187225,-0.0002511263592168689,0.01186942495405674
0.013598531484603882,-0.0005136894760653377,-0.012557286769151688,0.013797000981867313,-0.0002425752318231389,0.012216135859489441
0.014085850678384304,-0.0004802746116183698,-0.013236626982688904,0.01358586922287941,-0.0002625955385155976,0.012439947575330734
0.013577025383710861,-0.0005580399883911014,-0.012618917971849442,0.013196728192269802,-0.0002571944787632674,0.012924359180033207
0.013330331072211266,-0.00045076661626808345,-0.013354828581213951,0.013489735312759876,-0.00037695738137699664,0.012338785454630852
0.013871713541448116,-0.0004881862842012197,-0.013605832122266293,0.012951478362083435,-0.00035681179724633694,0.012887679971754551
0.013677209615707397,-0.0004505650431383401,-0.013375786133110523,0.013127008453011513,-0.0003927487996406853,0.012631827034056187
0.01439928263425827,-0.0004158953088335693,-0.013430587947368622,0.013125631026923656,-0.00036989350337535143,0.012966134585440159
0.013710773549973965,-0.0003861474397126585,-0.013293885625898838,0.01345834881067276,-0.00034641585079953074,0.012652331963181496
0.013979526236653328,-0.00036037247627973557,-0.012593590654432774,0.013132316060364246,-0.0003255384508520365,0.012335194274783134
0.013869992457330227,-0.0003378284745849669,-0.013107321225106716,0.01363656297326088,-0.00035465043038129807,0.012138699181377888
0.014159012585878372,-0.00031793161178939044,-0.012799934484064579,0.0131295220926404,-0.0003386842436157167,0.01261807419359684
0.014151877723634243,-0.00030025080195628107,-0.013358620926737785,0.013356257230043411,-0.0003215941251255572,0.01275447104126215
0.01444055326282978,-0.00025337704573757946,-0.012970457784831524,0.013518142513930798,-0.0003059823648072779,0.012934577651321888
0.013833345845341682,-0.00022538684424944222,-0.013763935305178165,0.01381080225110054,-0.0003121732734143734,0.01218422967940569
0.01437134575098753,-0.00017664101324044168,-0.013093885965645313,0.014397567138075829,-0.00031733440118841827,0.01216845028102398
0.014220056124031544,-0.00016381412569899112,-0.013357790187001228,0.014113258570432663,-0.0003051216481253505,0.012571007013320923
0.014619956724345684,-0.00015738571528345346,-0.012950727716088295,0.013618001714348793,-0.0002927924506366253,0.01274111494421959
0.01445956714451313,-5.4903332056710497e-05,-0.013261990621685982,0.013233335688710213,-0.00028135397587902844,0.013117095455527306
0.014656253159046173,-5.0565584388095886e-05,-0.013272136449813843,0.013689958490431309,-0.00027649026014842093,0.013121860101819038
0.014656253159046173,-5.0565584388095886e-05,-0.013272136449813843,0.013689958490431309,-0.00027649026014842093,0.013121860101819038
0.014665469527244568,-4.785937562701292e-05,-0.013049503788352013,0.013399619609117508,-0.0002666928630787879,0.013264342211186886
0.014881104230880737,-4.544247713056393e-05,-0.013593903742730618,0.013832558877766132,-0.0002521728747524321,0.013224584981799126
0.01432817243039608,-4.325822737882845e-05,-0.013287852518260479,0.013355598784983158,-0.000280152540653944,0.013101776130497456
0.014993964694440365,-4.127417560084723e-05,-0.013647088780999184,0.013786247000098228,-0.00027171283727511764,0.01274084486067295
0.014562522992491722,-3.946421202272177e-05,-0.012925908900797367,0.013089918531477451,-0.00025904495851136744,0.012497169896960258
0.014731422066688538,-5.294628522278799e-07,-0.013437417335808277,0.013367408886551857,-0.0002828977012541145,0.012754704803228378
0.014306514523923397,-7.10341918619406e-09,-0.013110188767313957,0.013775091618299484,-0.00027542273164726794,0.012980726547539234
0.015092811547219753,-9.530143341152097e-11,-0.013161463662981987,0.012724961154162884,-0.000264189817244187,0.013320108875632286
0.01458720676600933,-1.278590297873472e-12,-0.013286035507917404,0.012582113035023212,-0.00025357576669193804,0.013291051611304283
0.015352518297731876,-1.715391981834801e-14,-0.013852491974830627,0.013012010604143143,-0.0002695126459002495,0.013278241269290447
0.014862525276839733,-2.301417105051904e-16,-0.013412094675004482,0.013372416608035564,-0.0002676147851161659,0.013257843442261219
0.015056620351970196,-3.087644783027207e-18,-0.013537685386836529,0.012805411592125893,-0.0002585355250630528,0.013488063588738441
0.016012653708457947,-5.557651547462353e-22,-0.013640942983329296,0.012901666574180126,-0.00031423894688487053,0.013161217793822289
0.015775244683027267,-7.45629907665271e-24,-0.013276034966111183,0.01309945061802864,-0.00029874450410716236,0.013430612161755562
0.015854960307478905,-1.0003576570284343e-25,-0.013175099156796932,0.012808476574718952,-0.00028046907391399145,0.013196654617786407
0.015842817723751068,-1.3421074892020752e-27,-0.013433676213026047,0.013340785168111324,-0.0002640271559357643,0.013394134119153023
0.015647638589143753,-1.8006084791997432e-29,-0.012856369838118553,0.012810027226805687,-0.0002736991154961288,0.013266805559396744
0.015756674110889435,-2.4157459801347643e-31,-0.013459145091474056,0.01296732947230339,-0.00028187959105707705,0.013512268662452698
0.015388939529657364,-3.241031514442948e-33,-0.013037160038948059,0.012898357585072517,-0.00026928907027468085,0.01255903858691454
0.015584243461489677,-4.3482572056107447e-35,-0.013721025548875332,0.012664957903325558,-0.00027747207786887884,0.012925643473863602
0.015117383562028408,-5.833741825298823e-37,-0.013176596723496914,0.01287398487329483,-0.00028434681007638574,0.013131635263562202
0.015860868617892265,-7.826708746553473e-39,-0.013770769350230694,0.013048327527940273,-0.0002732787106651813,0.013502060435712337
0.01627027429640293,-1.0500489912571584e-40,-0.013227622956037521,0.013603118248283863,-0.00026199471903964877,0.013323972932994366
0.01627027429640293,-1.0500489912571584e-40,-0.013227622956037521,0.013603118248283863,-0.00026199471903964877,0.013323972932994366
0.015910986810922623,-1.8216880036222622e-44,-0.013756126165390015,0.013675529509782791,-0.00027582122129388154,0.013668947853147984
0.015947137027978897,-0.0,-0.01327680516988039,0.013344457373023033,-0.0002661714388523251,0.013559258542954922
0.016177432611584663,0.0,-0.013302816078066826,0.013560366816818714,-0.0002567150513641536,0.013740641064941883
0.015757497400045395,0.0,-0.013433006592094898,0.013068225234746933,-0.00028012736584059894,0.01387146394699812
0.016183508560061455,0.0,-0.01383541151881218,0.012743430212140083,-0.0002684327191673219,0.013664805330336094
0.016183508560061455,0.0,-0.01383541151881218,0.012743430212140083,-0.0002684327191673219,0.013664805330336094
0.016018357127904892,0.0,-0.01390511728823185,0.012921173125505447,-0.0002975143725052476,0.013312767259776592
0.016285862773656845,0.0,-0.01385840680450201,0.013178020715713501,-0.00028768592164851725,0.013559633865952492
0.016017816960811615,0.0,-0.013348279520869255,0.013556926511228085,-0.00031595758628100157,0.013817799277603626
0.016300970688462257,0.0,-0.013873078860342503,0.013464606367051601,-0.0003035253321286291,0.013861386105418205
0.01652498170733452,0.0,-0.013516734354197979,0.013733413070440292,-0.0003203124215360731,0.013863436877727509
0.01629227213561535,0.0,-0.014100353233516216,0.013482249341905117,-0.00031588171259500086,0.014299223199486732
0.016545690596103668,0.0,-0.013325398787856102,0.013621962629258633,-0.0004027597897220403,0.014183109626173973
0.01619856245815754,0.0,-0.013794713653624058,0.013187021017074585,-0.0004551769234240055,0.014135145582258701
0.016583843156695366,0.0,-0.014288283884525299,0.013692508451640606,-0.0005260107573121786,0.014268811792135239
0.01671791635453701,0.0,-0.014066914096474648,0.014592924155294895,-0.0005459702224470675,0.014300769194960594
0.016551483422517776,0.0,-0.014440109021961689,0.014077155850827694,-0.0005238743615336716,0.014481808058917522
0.016590245068073273,0.0,-0.013713492080569267,0.01424754410982132,-0.000708532053977251,0.014143995940685272
0.017054224386811256,0.0,-0.014698561280965805,0.013896194286644459,-0.000734926899895072,0.014260025694966316
0.01642094925045967,0.0,-0.014497804455459118,0.013844282366335392,-0.0007133382023312151,0.014106561429798603
0.017157427966594696,0.0,-0.014892659150063992,0.013500235043466091,-0.0006838393746875226,0.014582633972167969
0.016808273270726204,0.0,-0.014362233690917492,0.013738712295889854,-0.0006958658341318369,0.014417828060686588
0.01678263023495674,0.0,-0.014894723892211914,0.01333219837397337,-0.0007035807357169688,0.014435932040214539
0.01706317812204361,0.0,-0.014746936969459057,0.013232406228780746,-0.0007558748475275934,0.014376175589859486
0.01677924208343029,0.0,-0.015123478136956692,0.013446592725813389,-0.0007911634165793657,0.01451358012855053
0.01677924208343029,0.0,-0.015123478136956692,0.013446592725813389,-0.0007911634165793657,0.01451358012855053
0.017155196517705917,0.0,-0.015130474232137203,0.013658242300152779,-0.0011959958355873823,0.01456987950950861
0.017155196517705917,0.0,-0.015130474232137203,0.013658242300152779,-0.0011959958355873823,0.01456987950950861
0.0171520859003067,0.0,-0.014548247680068016,0.013413084670901299,-0.001280441414564848,0.014381542801856995
0.017290469259023666,0.0,-0.01535178441554308,0.01319923996925354,-0.0013454202562570572,0.014631936326622963
0.01665419340133667,0.0,-0.014698467217385769,0.012601776048541069,-0.0015069488435983658,0.01420495193451643
0.017202608287334442,0.0,-0.015251195058226585,0.013488071970641613,-0.0014453768962994218,0.014470577239990234
0.017611520364880562,0.0,-0.014989014714956284,0.013735984452068806,-0.0013049386907368898,0.01579907163977623
0.016829293221235275,0.0,-0.014514615759253502,0.013862843625247478,-0.0010376519057899714,0.013923297636210918
0.016829293221235275,0.0,-0.014514615759253502,0.013862843625247478,-0.0010376519057899714,0.013923297636210918
0.01718711666762829,0.0,-0.01497505884617567,0.013964513316750526,-0.0009991807164624333,0.01471050176769495
0.0177021287381649,0.0,-0.014733165502548218,0.013605029322206974,-0.0009365745936520398,0.014819017611443996
0.017920486629009247,0.0,-0.015016940422356129,0.013984736986458302,-0.0008762432844378054,0.01478325854986906
0.017653750255703926,0.0,-0.014824490994215012,0.013580742292106152,-0.0007494442979805171,0.014694584533572197
0.017843855544924736,0.0,-0.014671002514660358,0.013623872771859169,-0.0007298640557564795,0.015173681080341339
0.017460372298955917,0.0,-0.014580336399376392,0.013309354893863201,-0.0006907469942234457,0.015098650008440018
0.016962865367531776,0.0,-0.01494569331407547,0.01326356828212738,-0.0006253368337638676,0.015462353825569153
0.018608275800943375,0.0,-0.014736255630850792,0.013548891060054302,-0.0005690021207556129,0.015601401217281818
0.018273696303367615,0.0,-0.014712789095938206,0.013883324339985847,-0.0005218324949964881,0.014932353049516678
0.017811110243201256,0.0,-0.014883327297866344,0.01425275020301342,-0.00048188172513619065,0.014694822020828724
0.017714524641633034,4.0580154745839536e-05,-0.015054827556014061,0.0137691805139184,-0.0004476180183701217,0.015184182673692703
0.018302176147699356,0.00015816446102689952,-0.014650215394794941,0.013324534520506859,-0.00041790615068748593,0.015310877934098244
0.01806095987558365,0.00015433819498866796,-0.014610381796956062,0.014057022519409657,-0.0003918973379768431,0.01556397695094347
0.018403850495815277,0.0001492411392973736,-0.01459950115531683,0.014008088037371635,-0.00040776439709588885,0.015562565065920353
0.018101073801517487,0.00014445041597355157,-0.014974337071180344,0.014160234481096268,-0.0003974003193434328,0.015742946416139603
0.018333574756979942,0.0001399576140101999,-0.014714090153574944,0.013707899488508701,-0.0003773585194721818,0.01524721272289753
0.018769467249512672,0.00016178841178771108,-0.014708349481225014,0.013921397738158703,-0.0003586095117498189,0.01563575305044651
0.017932819202542305,0.00015809937031008303,-0.01471992302685976,0.013844197615981102,-0.0003415946557652205,0.015646565705537796
0.018015356734395027,0.0001536160707473755,-0.015454093925654888,0.014543413184583187,-0.00032611843198537827,0.016266750171780586
0.018015356734395027,0.0001536160707473755,-0.015454093925654888,0.014543413184583187,-0.00032611843198537827,0.016266750171780586
0.018577367067337036,0.0001493670279160142,-0.014998220838606358,0.014112104661762714,-0.0003119838365819305,0.016049642115831375
0.018676964566111565,0.00016923712973948568,-0.015407316386699677,0.01402566209435463,-0.000299024221021682,0.015797089785337448
0.01880539581179619,0.00016512212459929287,-0.014857795089483261,0.01310100220143795,-0.0002870985772460699,0.015594927594065666
0.018577834591269493,0.00018119900778401643,-0.014952397905290127,0.013205103576183319,-0.00027608705568127334,0.015487835742533207
0.018306871876120567,0.0001792801049305126,-0.014586214907467365,0.012859833426773548,-0.00026588994660414755,0.015748683363199234
0.018906965851783752,0.000174958462594077,-0.015355806797742844,0.013644076883792877,-0.00025641906540840864,0.016101015731692314
0.018845312297344208,0.0001708084309939295,-0.014615152962505817,0.013394269160926342,-0.00024760019732639194,0.016350561752915382
0.018343159928917885,0.000166850455570966,-0.015091190114617348,0.013208283111453056,-0.00023936819343362004,0.016103364527225494
0.019147830083966255,0.00025385015760548413,-0.01454189419746399,0.013656028546392918,-0.00023166499158833176,0.01659495010972023
0.01910308189690113,0.0002514590451028198,-0.014917012304067612,0.014119086787104607,-0.000224442730541341,0.01625099964439869
0.018450435250997543,0.0002695200382731855,-0.014939536340534687,0.013756683096289635,-0.00021765727433376014,0.01600576937198639
0.01885795034468174,0.00027135887648910284,-0.015507721342146397,0.013221651315689087,-0.00021126958017703146,0.01607763022184372
0.019013168290257454,0.00025857173022814095,-0.015117309987545013,0.013371828012168407,-0.0002052467898465693,0.016168560832738876
0.019051246345043182,0.00028620471130125225,-0.015053738839924335,0.013452484272420406,-0.000199557573068887,0.016231633722782135
0.0191139318048954,0.00026377549511380494,-0.01523606851696968,0.013837946578860283,-0.00018907581397797912,0.016975384205579758
0.01895967125892639,0.0002769071434158832,-0.015232879668474197,0.014325656928122044,-0.00018423791334498674,0.015515048056840897
0.019699594005942345,0.00027799743111245334,-0.014756618067622185,0.013719487935304642,-0.0001796406286302954,0.016023576259613037
0.019487690180540085,0.00026781484484672546,-0.01504372339695692,0.014103872701525688,-0.00017526741430629045,0.01651790551841259
0.0192099642008543,0.0003867499763146043,-0.015030838549137115,0.013721711933612823,-0.00017123864381574094,0.0167055893689394
0.0196513794362545,0.00040834187529981136,-0.015295236371457577,0.014205103740096092,-0.00012338956003077328,0.01659250445663929
0.019430022686719894,0.00040096137672662735,-0.01498535368591547,0.013931242749094963,-0.00011734958388842642,0.016061069443821907
0.019031526520848274,0.0004142198304180056,-0.015644341707229614,0.014450467191636562,-0.00011418739450164139,0.01619291678071022
0.01957026496529579,0.0004072992014698684,-0.014787700958549976,0.014028279110789299,-0.00011134964734083042,0.016009747982025146
0.019535642117261887,0.0004186000151094049,-0.015101256780326366,0.01446665171533823,-0.00010866011871257797,0.01608985662460327
0.019584720954298973,0.00041218724800273776,-0.014628087170422077,0.014402108266949654,-0.00010609797027427703,0.01583963632583618
0.019584720954298973,0.00041218724800273776,-0.014628087170422077,0.014402108266949654,-0.00010609797027427703,0.01583963632583618
0.020111041143536568,0.000510137586388737,-0.015348420478403568,0.014737342484295368,-0.00010365388152422383,0.016022028401494026
0.019932443276047707,0.0005114411469548941,-0.014834041707217693,0.014224895276129246,-0.00010132020543096587,0.016293365508317947
0.01964394561946392,0.0005505601293407381,-0.015372308902442455,0.014430354349315166,-9.908893844112754e-05,0.016609352082014084
0.019972287118434906,0.0005550944479182363,-0.0146808922290802,0.013925774022936821,-9.695396875031292e-05,0.01650894246995449
0.020371677353978157,0.0005342175718396902,-0.015258287079632282,0.014401388354599476,-9.490905358688906e-05,0.016446715220808983
0.019975760951638222,0.0005602199817076325,-0.01529522705823183,0.014183184131979942,-9.294864139519632e-05,0.016734112054109573
0.020139604806900024,0.0006469179643318057,-0.015402364544570446,0.014543799683451653,-9.106771176448092e-05,0.01681271567940712
0.020800387486815453,0.0006202372023835778,-0.015709176659584045,0.014275545254349709,-8.926112786866724e-05,0.01691453903913498
0.02033013105392456,0.0006532925763167441,-0.01536482386291027,0.014737619087100029,-0.00010386432404629886,0.016768405213952065
0.020071344450116158,0.0006772225606255233,-0.015678804367780685,0.014253064058721066,-0.00010294994717696682,0.01671401783823967
0.020540114492177963,0.0006720130913890898,-0.015725092962384224,0.014333823695778847,-0.00010109234426636249,0.01723542995750904
0.020851636305451393,0.0006397981778718531,-0.015850042924284935,0.013937770389020443,-9.92390196188353e-05,0.01766628958284855
0.020950643345713615,0.00083073292626068,-0.015867512673139572,0.013738160021603107,-9.572107956046239e-05,0.017524823546409607
0.02085551619529724,0.0008404578547924757,-0.015175888314843178,0.014239934273064137,-0.0001086877819034271,0.016992982476949692
0.02065526880323887,0.000792174891103059,-0.016073770821094513,0.013815530575811863,-0.00010778299474623054,0.016646908596158028
0.02036909945309162,0.0010829229140654206,-0.015698108822107315,0.014439502730965614,-0.00010603124246699736,0.016577111557126045
0.02107876166701317,0.0009523006738163531,-0.015615694224834442,0.014023950323462486,-0.0001042802250594832,0.016977742314338684
0.020594289526343346,0.0009429612546227872,-0.015619792975485325,0.014025900512933731,-0.00011626452760538086,0.01728038862347603
0.01989322155714035,0.0009339203243143857,-0.015878872945904732,0.013709821738302708,-0.00011529533367138356,0.01789250783622265
0.020461685955524445,0.0008705510408617556,-0.015723446384072304,0.014396792277693748,-0.00011358424671925604,0.017804548144340515
0.02109702304005623,0.0008776058093644679,-0.01612498052418232,0.014470836147665977,-0.0001582817203598097,0.016865991055965424
0.020991405472159386,0.0008808862767182291,-0.01612868160009384,0.014890092425048351,-0.00015597652236465365,0.017052574083209038
0.020386766642332077,0.0008922826964408159,-0.015442945063114166,0.014687624759972095,-0.00017329744878225029,0.017066674306988716
0.02107890322804451,0.001167417038232088,-0.016119059175252914,0.01481280941516161,-0.0001747655333019793,0.017671866342425346
0.021702313795685768,0.0011676035355776548,-0.015277298167347908,0.014166758395731449,-0.00019068318943027407,0.017582347616553307
0.021702313795685768,0.0011676035355776548,-0.015277298167347908,0.014166758395731449,-0.00019068318943027407,0.017582347616553307
0.021352285519242287,0.0011373867746442556,-0.015817828476428986,0.014081867411732674,-0.0001915429747896269,0.017007987946271896
0.020713021978735924,0.0014323658542707562,-0.015042774379253387,0.014258252456784248,-0.00020941728143952787,0.017121296375989914
0.021427923813462257,0.0014701674226671457,-0.01577833853662014,0.014765968546271324,-0.0002066149318125099,0.017147688195109367
0.021007636561989784,0.0014483024133369327,-0.015865866094827652,0.014807511121034622,-0.0004256668034940958,0.018521001562476158
0.020776910707354546,0.0013875974109396338,-0.01598747819662094,0.015252099372446537,-0.00045422749826684594,0.016939377412199974
0.02106320485472679,0.001412161043845117,-0.01598924957215786,0.01500342134386301,-0.0004778780275955796,0.01677999459207058
0.02159085124731064,0.0013326413463801146,-0.015518653206527233,0.015133187174797058,-0.00045660618343390524,0.0180671326816082
0.021491993218660355,0.0014642226742580533,-0.015445973724126816,0.013991567306220531,-0.0004875271988566965,0.018432240933179855
0.021367257460951805,0.0014053457416594028,-0.015335622243583202,0.014660266228020191,-0.0005044877179898322,0.01812124252319336
0.02136395499110222,0.0017797515029087663,-0.01591973938047886,0.013264592736959457,-0.0005863974220119417,0.01766197755932808
0.021549372002482414,0.0016947138356044888,-0.015464738011360168,0.013279630802571774,-0.0006930531817488372,0.017581919208168983
0.021420326083898544,0.0019412757828831673,-0.01573072373867035,0.013503381982445717,-0.0007221990381367505,0.01779603213071823
0.02131412923336029,0.0017726199002936482,-0.015321948565542698,0.014561299234628677,-0.0007175913196988404,0.018092533573508263
0.02149948664009571,0.0017837750492617488,-0.01578773558139801,0.014312897808849812,-0.0008320935303345323,0.01819092407822609
0.02193722128868103,0.0020550584886223078,-0.015981804579496384,0.014056074433028698,-0.0008363303495571017,0.01821194589138031
0.021250814199447632,0.0018865677993744612,-0.015673348680138588,0.014493531547486782,-0.0008137029362842441,0.017942756414413452
0.02100120671093464,0.002059943974018097,-0.015592839568853378,0.014263030141592026,-0.0007694292580708861,0.018394729122519493
0.02139095775783062,0.0020716844592243433,-0.016051925718784332,0.014524863101541996,-0.0007798654260113835,0.018457481637597084
0.021313399076461792,0.002248808043077588,-0.015369947999715805,0.014141998253762722,-0.0007767010247334838,0.01846197247505188
0.02099929191172123,0.0022559198550879955,-0.016326095908880234,0.014390308409929276,-0.0008028356241993606,0.01878059096634388
0.021705973893404007,0.0022150303702801466,-0.015598447062075138,0.014239009469747543,-0.0008005184936337173,0.018403461202979088
0.021703077480196953,0.0021272061858326197,-0.01584160514175892,0.014687147922813892,-0.000784935022238642,0.01815113238990307
0.020434318110346794,0.0020389361307024956,-0.015226817689836025,0.014470746740698814,-0.0007500963984057307,0.018535416573286057
0.020434318110346794,0.0020389361307024956,-0.015226817689836025,0.014470746740698814,-0.0007500963984057307,0.018535416573286057
0.022276941686868668,0.0021778361406177282,-0.0158636923879385,0.014405453577637672,-0.0007967003039084375,0.018484875559806824
0.022485239431262016,0.002183288335800171,-0.015618798322975636,0.01421024277806282,-0.0008233269327320158,0.018519796431064606
0.022263389080762863,0.002357777440920472,-0.01577034778892994,0.014637302607297897,-0.0008257876615971327,0.01825307495892048
0.021962760016322136,0.0024424113798886538,-0.015638088807463646,0.014105775393545628,-0.0008342117071151733,0.018351446837186813
0.02181038074195385,0.0023832041770219803,-0.015878917649388313,0.014295440167188644,-0.0008416386554017663,0.018866898491978645
0.02221268229186535,0.002403725404292345,-0.015879536047577858,0.014200649224221706,-0.0007834340212866664,0.018761439248919487
0.022142888978123665,0.002426611725240946,-0.015645544975996017,0.015079408884048462,-0.0006721030222252011,0.01881903037428856
0.02208601124584675,0.002322382526472211,-0.016105953603982925,0.014702223241329193,-0.0006930397357791662,0.01898293010890484
0.022819694131612778,0.0024038993287831545,-0.015474408864974976,0.014616677537560463,-0.0006204096134752035,0.018849587067961693
0.022123727947473526,0.0026600253768265247,-0.01631757989525795,0.014116277918219566,-0.0005567966145463288,0.018834346905350685
0.022737879306077957,0.002837791806086898,-0.015227076597511768,0.014974015764892101,-0.0005047146696597338,0.01901564560830593
0.022265439853072166,0.0029003291856497526,-0.01599333994090557,0.014412207528948784,-0.0004987052525393665,0.01891026273369789
0.022459233179688454,0.0027023411821573973,-0.016112355515360832,0.014197037555277348,-0.0004596154612954706,0.01913261227309704
0.022785836830735207,0.0025912951678037643,-0.016922978684306145,0.014948900789022446,-0.0004284786991775036,0.019410390406847
0.022763581946492195,0.0028999182395637035,-0.016234073787927628,0.014399174600839615,-0.00040118760080076754,0.01961502432823181
0.022799629718065262,0.003347138175740838,-0.016964223235845566,0.015467171557247639,-0.00037715863436460495,0.01969281956553459
0.022845525294542313,0.0032416926696896553,-0.01600242219865322,0.014677472412586212,-0.00040315475780516863,0.019815834239125252
0.023525364696979523,0.0030702659860253334,-0.016248779371380806,0.014723438769578934,-0.0003847002808470279,0.019638199359178543
0.023129934445023537,0.0028387741185724735,-0.016055256128311157,0.014229274354875088,-0.0003653734165709466,0.01956818625330925
0.023402482271194458,0.003228959394618869,-0.01679045520722866,0.014054523780941963,-0.00034773556399159133,0.01982690952718258
0.02297755517065525,0.003572783200070262,-0.017174284905195236,0.013633362017571926,-0.0002734745794441551,0.019789600744843483
0.023197950795292854,0.0034281015396118164,-0.01689697429537773,0.014239924028515816,-0.00025070496485568583,0.019763264805078506
0.02328457497060299,0.0030894745141267776,-0.01648869551718235,0.014704888686537743,-0.00023700215388089418,0.019775820896029472
0.02328457497060299,0.0030894745141267776,-0.01648869551718235,0.014704888686537743,-0.00023700215388089418,0.019775820896029472
0.023579290136694908,0.0033343161921948195,-0.015855861827731133,0.015273218974471092,-0.00022511054703500122,0.020108452066779137
0.023806141689419746,0.0032703590113669634,-0.017203638330101967,0.01490002777427435,-0.00021438040130306035,0.019527055323123932
0.02405095286667347,0.0034706280566751957,-0.01753908582031727,0.01452281791716814,-0.0002046294102910906,0.019634921103715897
0.024050481617450714,0.0037109663244336843,-0.017160780727863312,0.013774940744042397,-0.0001957264175871387,0.0196659117937088
0.02381749264895916,0.0033215980511158705,-0.01706039533019066,0.014583595097064972,-0.00021527659555431455,0.020467961207032204
0.023872612044215202,0.003452522214502096,-0.0163500364869833,0.014445248059928417,-0.0002154316898668185,0.020786913111805916
0.023959515616297722,0.003570523578673601,-0.017586886882781982,0.015025737695395947,-0.0002077159151667729,0.020116135478019714
0.024026306346058846,0.003621432464569807,-0.016855141147971153,0.014559844508767128,-0.00020005642727483064,0.01928233914077282
0.024133387953042984,0.003619465744122863,-0.016382653266191483,0.014527306891977787,-0.00019291133503429592,0.01941882073879242
0.024998577311635017,0.0036199400201439857,-0.016923032701015472,0.013879497535526752,-0.00020921669784002006,0.01984858699142933
0.02415618486702442,0.0036300402134656906,-0.016870710998773575,0.01510140672326088,-0.00020952585327904671,0.020657381042838097
0.024116408079862595,0.0036431432235985994,-0.0173217561095953,0.014345628209412098,-0.0002032403281191364,0.02052151784300804
0.02420162409543991,0.003635824890807271,-0.016797274351119995,0.014894278720021248,-0.00021773665503133088,0.02011670172214508
0.024394510313868523,0.0038328382652252913,-0.01687283255159855,0.014548671431839466,-0.00021775254572276026,0.02018372341990471
0.02467915415763855,0.003800982376560569,-0.016968538984656334,0.015085808001458645,-0.00021177814051043242,0.021825045347213745
0.024842388927936554,0.0037387253250926733,-0.016627632081508636,0.014839445240795612,-0.00020637658599298447,0.02193102054297924
0.024984264746308327,0.003785243723541498,-0.016458876430988312,0.014756952412426472,-0.0002192974352510646,0.020132744684815407
0.024737779051065445,0.0038492484018206596,-0.017143741250038147,0.01495302002876997,-0.000248220021603629,0.020075764507055283
0.02483879216015339,0.0038564405404031277,-0.017005538567900658,0.014597758650779724,-0.00023974946816451848,0.020758401602506638
0.025177691131830215,0.0038297271821647882,-0.016844632104039192,0.015016864985227585,-0.00026289356173947453,0.021345123648643494
0.024868134409189224,0.0042811231687664986,-0.017285270616412163,0.014456359669566154,-0.000256741710472852,0.021140925586223602
0.02565908618271351,0.004440790973603725,-0.016354741528630257,0.01468577515333891,-0.0002798608911689371,0.021091561764478683
0.025733085349202156,0.004248848184943199,-0.016773860901594162,0.01446759607642889,-0.00048292381688952446,0.02134460024535656
0.02565494179725647,0.003991647157818079,-0.016446154564619064,0.014335929416120052,-0.0005460273241624236,0.021205859258770943
0.025655269622802734,0.004325369838625193,-0.01691313087940216,0.014136112295091152,-0.0005392509629018605,0.021260621026158333
0.025831039994955063,0.004201782401651144,-0.017232857644557953,0.014522075653076172,-0.000493100902531296,0.021413952112197876
0.025919442996382713,0.003984966315329075,-0.016632452607154846,0.014815084636211395,-0.0004519897047430277,0.021326107904314995
0.025999145582318306,0.003914032131433487,-0.01728631928563118,0.015061458572745323,-0.0004816531727556139,0.021064139902591705
0.025999145582318306,0.003914032131433487,-0.01728631928563118,0.015061458572745323,-0.0004816531727556139,0.021064139902591705
0.02633887529373169,0.004181230906397104,-0.016786277294158936,0.014803461730480194,-0.00045134330866858363,0.021320765838027
0.026203136891126633,0.004014397505670786,-0.01700660213828087,0.014831901527941227,-0.0004506557306740433,0.021230556070804596
0.02628362365067005,0.0038158525712788105,-0.017384884878993034,0.014838147908449173,-0.00044939585495740175,0.021237414330244064
0.026786809787154198,0.004272861406207085,-0.017058115452528,0.014762191101908684,-0.0004487480618990958,0.02155562862753868
0.027635078877210617,0.004564361181110144,-0.01742498017847538,0.014697848819196224,-0.00043199394713155925,0.021766336634755135
0.0274755097925663,0.00436344975605607,-0.016673900187015533,0.014934714883565903,-0.0004691990907303989,0.021470369771122932
0.02632906474173069,0.00435326574370265,-0.017240021377801895,0.015224042348563671,-0.0004989372682757676,0.021528296172618866
0.02613086812198162,0.004284105729311705,-0.017306506633758545,0.015181158669292927,-0.0005286208470351994,0.02114615961909294
0.027302177622914314,0.00404274370521307,-0.016982009634375572,0.014839769341051579,-0.0008348857518285513,0.02144957147538662
0.027704929932951927,0.004095477517694235,-0.017631346359848976,0.014420252293348312,-0.0008869209559634328,0.02185281179845333
0.02672317437827587,0.0042485264129936695,-0.01657840609550476,0.01520520355552435,-0.0008914190111681819,0.021903570741415024
0.027174873277544975,0.004400407429784536,-0.01707979291677475,0.014895099215209484,-0.0007882645004428923,0.021694811061024666
0.02821832150220871,0.004538520704954863,-0.017206242308020592,0.01483448687940836,-0.0007937328773550689,0.02182626724243164
0.027690425515174866,0.004613758064806461,-0.01722622476518154,0.01453375443816185,-0.0007590794702991843,0.02214140072464943
0.0271149929612875,0.004349153023213148,-0.01731531135737896,0.014950407668948174,-0.0006889011128805578,0.021924233064055443
0.02668001689016819,0.004968768451362848,-0.016537567600607872,0.015032225288450718,-0.0007026654202491045,0.02173437923192978
0.027713945135474205,0.004383781459182501,-0.017053324729204178,0.015652725473046303,-0.000634088646620512,0.022001568228006363
0.02771143428981304,0.00459944736212492,-0.017196664586663246,0.015822183340787888,-0.0005988849443383515,0.022711843252182007
0.027877073734998703,0.004696518648415804,-0.01751042902469635,0.015457465313374996,-0.0006201382493600249,0.022135578095912933
0.028090769425034523,0.004093073308467865,-0.016749052330851555,0.01552891731262207,-0.0006025675102137029,0.02137511409819126
0.027736486867070198,0.0025463872589170933,-0.017228152602910995,0.015120360068976879,-0.0006414146046154201,0.020963871851563454
0.028279298916459084,0.0018025515601038933,-0.016979604959487915,0.015441696159541607,-0.0006703438120894134,0.021691426634788513
0.02796381711959839,0.0017151299398392439,-0.01688287779688835,0.01566847786307335,-0.0006276237545534968,0.022439567372202873
0.028178077191114426,0.0015315419295802712,-0.01731281727552414,0.01540620718151331,-0.0006480275769717991,0.02237655222415924
0.028022171929478645,0.0025894141290336847,-0.01695065200328827,0.015860488638281822,-0.0008062304113991559,0.022533392533659935
0.02829843759536743,0.004220996052026749,-0.017316555604338646,0.015876594930887222,-0.0008157346164807677,0.022691868245601654
0.028473127633333206,0.00361193367280066,-0.01720624789595604,0.016097456216812134,-0.0007663639262318611,0.022729795426130295
0.028307560831308365,0.002996730152517557,-0.017547180876135826,0.015266122296452522,-0.0007789055234752595,0.022459084168076515
0.02847941592335701,0.0022866707295179367,-0.01867259293794632,0.01572691649198532,-0.0006993978167884052,0.022242145612835884
0.028574371710419655,0.002204767893999815,-0.017688382416963577,0.014609983190894127,-0.0006731452303938568,0.0215156227350235
0.02802787907421589,0.002416107803583145,-0.017729029059410095,0.014709402807056904,-0.0006512897671200335,0.021756455302238464
0.02802787907421589,0.002416107803583145,-0.017729029059410095,0.014709402807056904,-0.0006512897671200335,0.021756455302238464
0.028159670531749725,0.002963003236800432,-0.017837684601545334,0.015062984079122543,-0.000591660849750042,0.02318139560520649
0.028159670531749725,0.002963003236800432,-0.017837684601545334,0.015062984079122543,-0.000591660849750042,0.02318139560520649
0.029048457741737366,0.0026321723125874996,-0.01837603561580181,0.014774667099118233,-0.0005751359276473522,0.022891327738761902
0.029528174549341202,0.0023390271235257387,-0.0178047064691782,0.014800900593400002,-0.0005224848864600062,0.022980453446507454
0.029049722477793694,0.002176377223804593,-0.01842595264315605,0.014554420486092567,-0.0005347121623344719,0.02302679233253002
0.0281514972448349,0.0022143111564219,-0.01827329210937023,0.014851780608296394,-0.0005094467778690159,0.023172535002231598
0.028441207483410835,0.002532022073864937,-0.01760268397629261,0.015432966873049736,-0.0004723990859929472,0.02326737344264984
0.029076170176267624,0.0024058246053755283,-0.0188419371843338,0.0158807635307312,-0.0004394991265144199,0.023493025451898575
0.029079720377922058,0.0023301406763494015,-0.018708594143390656,0.01541090290993452,-0.00046154300798662007,0.02330118976533413
0.028805699199438095,0.0021870657801628113,-0.01867777295410633,0.014860033057630062,-0.0004402373160701245,0.022914092987775803
0.029624080285429955,0.002260191598907113,-0.018597790971398354,0.015095504932105541,-0.0004152881447225809,0.022940458729863167
0.02944904752075672,0.0021931345108896494,-0.01808701641857624,0.015532158315181732,-0.0003923019103240222,0.022995121777057648
0.029811972752213478,0.002433357061818242,-0.017760349437594414,0.015873625874519348,-0.00036259597982279956,0.023310918360948563
0.028830748051404953,0.0027590550016611814,-0.01783367246389389,0.01545641664415598,-0.00033565459307283163,0.02360558696091175
0.028624894097447395,0.0027412448544055223,-0.017496813088655472,0.015298144891858101,-0.0003663042443804443,0.02333633042871952
0.029549796134233475,0.002531062811613083,-0.01878650300204754,0.015639614313840866,-0.00035575873334892094,0.022933563217520714
0.029808100312948227,0.002728266641497612,-0.01815688982605934,0.015586229041218758,-0.0003600500349421054,0.023159842938184738
0.02971673756837845,0.0027745384722948074,-0.01817641220986843,0.015937574207782745,-0.00034210411831736565,0.024054521694779396
0.029340332373976707,0.0029031874146312475,-0.018310334533452988,0.015865622088313103,-0.0003471978707239032,0.024023083969950676
0.02904392033815384,0.003144466318190098,-0.01809581182897091,0.016043514013290405,-0.00035122307599522173,0.023740801960229874
0.029759900644421577,0.003473779885098338,-0.0181982833892107,0.01612318679690361,-0.00038810892147012055,0.024203037843108177
0.02976551651954651,0.0033094054087996483,-0.01774790696799755,0.015820469707250595,-0.0004028458788525313,0.024146273732185364
0.029512155801057816,0.003502176608890295,-0.018248826265335083,0.015538106672465801,-0.00040878719300962985,0.024077612906694412
0.02952570468187332,0.003646171884611249,-0.018525052815675735,0.015102704986929893,-0.0004107400309294462,0.023878682404756546
0.029799045994877815,0.0036675340961664915,-0.018185587599873543,0.015390223823487759,-0.0004147495492361486,0.02406897209584713
0.030250459909439087,0.00339302746579051,-0.018375353887677193,0.015064697712659836,-0.0004159443487878889,0.024090275168418884
0.029899409040808678,0.003422691021114588,-0.018103456124663353,0.015238603577017784,-0.00044404013897292316,0.02389683574438095
0.029651401564478874,0.0036575323902070522,-0.017999019473791122,0.015060518868267536,-0.0005647782236337662,0.023772357031702995
0.03006458841264248,0.003825850784778595,-0.018650952726602554,0.015805145725607872,-0.000639094621874392,0.023692915216088295
0.03006458841264248,0.003825850784778595,-0.018650952726602554,0.015805145725607872,-0.000639094621874392,0.023692915216088295
0.030042914673686028,0.0037751332856714725,-0.01827400177717209,0.015575669705867767,-0.0006697061471641064,0.023936521261930466
0.029719943180680275,0.004232818726450205,-0.018514065071940422,0.01569771207869053,-0.0006590276025235653,0.024070588871836662
0.02992369420826435,0.003609323175624013,-0.01892498880624771,0.015521989203989506,-0.0006396128446795046,0.023804012686014175
0.030327074229717255,0.003556452225893736,-0.01829509250819683,0.015997394919395447,-0.0007021926576271653,0.023783810436725616
0.03075113706290722,0.0036434356588870287,-0.01823285035789013,0.01637895591557026,-0.0007003399659879506,0.024163009598851204
0.03033573366701603,0.004295404069125652,-0.017936721444129944,0.016869153827428818,-0.0007252604118548334,0.02473660185933113
0.030739765614271164,0.003956187516450882,-0.01868385076522827,0.01608591340482235,-0.0007180608226917684,0.02382712811231613
0.030739765614271164,0.003956187516450882,-0.01868385076522827,0.01608591340482235,-0.0007180608226917684,0.02382712811231613
0.03082483820617199,0.003887349972501397,-0.01842096820473671,0.01571512222290039,-0.0006921368185430765,0.02345561422407627
0.030809059739112854,0.003964331466704607,-0.0177113376557827,0.014726920053362846,-0.0006769076571799815,0.02390611357986927
0.031027058139443398,0.004400642588734627,-0.01840888150036335,0.015232487581670284,-0.0006256675696931779,0.02458539791405201
0.03108413703739643,0.004241539165377617,-0.018288888037204742,0.014973229728639126,-0.0006463114405050874,0.024492301046848297
0.0308285653591156,0.004039635881781578,-0.01805378496646881,0.01551190298050642,-0.0006731950561515987,0.024443192407488823
0.03052450343966484,0.003901317249983549,-0.01805417612195015,0.01566193625330925,-0.0006954839336685836,0.025477048009634018
0.031806234270334244,0.004101923666894436,-0.018686361610889435,0.015612168237566948,-0.0008456730865873396,0.025174414739012718
0.03124966099858284,0.004145831800997257,-0.01851952262222767,0.015998413786292076,-0.0008640394080430269,0.023531535640358925
0.0296817384660244,0.00421493174508214,-0.018070125952363014,0.015882985666394234,-0.0008690625545568764,0.02470075897872448
0.03093915805220604,0.0044244276359677315,-0.01866013929247856,0.015836384147405624,-0.0009452493395656347,0.025217602029442787
0.03144540265202522,0.0040916153229773045,-0.01882815547287464,0.015926314517855644,-0.0009520167368464172,0.025582917034626007
0.0313723124563694,0.003955467604100704,-0.018140289932489395,0.015704505145549774,-0.0009098317241296172,0.02538035623729229
0.03242488577961922,0.004576667677611113,-0.018701249733567238,0.016222238540649414,-0.0008482366683892906,0.024685844779014587
0.03162847086787224,0.004780780524015427,-0.018256518989801407,0.01556821633130312,-0.0007509489078074694,0.024696441367268562
0.03162693604826927,0.004349830560386181,-0.01830432005226612,0.01576448604464531,-0.0007599412347190082,0.024746214970946312
0.03088288940489292,0.004501657094806433,-0.018748030066490173,0.01574980467557907,-0.0006925708730705082,0.025140346959233284
0.030728410929441452,0.004997562617063522,-0.01842760480940342,0.015616991557180882,-0.000614107702858746,0.025114545598626137
0.03208748623728752,0.0044439686462283134,-0.018877970054745674,0.01569032482802868,-0.0005384592805057764,0.02492833323776722
0.030532142147421837,0.004510785918682814,-0.018756238743662834,0.015738215297460556,-0.0005268812528811395,0.025292858481407166
0.03189455717802048,0.004598953295499086,-0.01771887019276619,0.01638968661427498,-0.0005178115097805858,0.025383712723851204
0.03242276608943939,0.005125819239765406,-0.01883670687675476,0.015962081030011177,-0.0004749489016830921,0.0250694677233696
0.03231856971979141,0.005010515917092562,-0.01967545785009861,0.016358135268092155,-0.0005042945267632604,0.02532362751662731
0.03231856971979141,0.005010515917092562,-0.01967545785009861,0.016358135268092155,-0.0005042945267632604,0.02532362751662731
0.032405540347099304,0.004816086031496525,-0.018761735409498215,0.015817608684301376,-0.0004988560685887933,0.025396432727575302
0.032405540347099304,0.004816086031496525,-0.018761735409498215,0.015817608684301376,-0.0004988560685887933,0.025396432727575302
0.03207925707101822,0.004728178959339857,-0.019324379041790962,0.015756120905280113,-0.0005141643341630697,0.025572437793016434
0.03172723203897476,0.004711611662060022,-0.018435141071677208,0.015918584540486336,-0.0005234008422121406,0.025472553446888924
0.03255177661776543,0.00470413314178586,-0.01867387630045414,0.016580889001488686,-0.000515892868861556,0.025865210220217705
0.032505664974451065,0.004640496801584959,-0.018757641315460205,0.01637531816959381,-0.0004734172543976456,0.02579495497047901
0.032383620738983154,0.004663365893065929,-0.018956834450364113,0.016632074490189552,-0.0004979822551831603,0.02624000422656536
0.03252052143216133,0.004663131199777126,-0.01955288089811802,0.01585208810865879,-0.00046938922605477273,0.025967493653297424
0.032756563276052475,0.004514193162322044,-0.018995754420757294,0.015989715233445168,-0.00048328301636502147,0.025971941649913788
0.03400641679763794,0.004885424394160509,-0.01885012909770012,0.015803715214133263,-0.000466315308585763,0.025733953341841698
0.031864892691373825,0.004804293625056744,-0.01881321519613266,0.01578523777425289,-0.0005528628826141357,0.026424158364534378
0.032747041434049606,0.004850834142416716,-0.018608860671520233,0.016045231372117996,-0.0005226831417530775,0.026588615030050278
0.033560965210199356,0.005153891630470753,-0.018973015248775482,0.01623186655342579,-0.0005465595168061554,0.02631979249417782
0.03285564109683037,0.004923568572849035,-0.018942968919873238,0.016036152839660645,-0.0005115782259963453,0.025799037888646126
0.03439315780997276,0.004811151884496212,-0.01930922456085682,0.017024368047714233,-0.0005321114440448582,0.025697439908981323
0.033915579319000244,0.005076355300843716,-0.019383985549211502,0.016934623941779137,-0.0005898499512113631,0.026406561955809593
0.03306572511792183,0.004908035509288311,-0.01897634193301201,0.017462968826293945,-0.0006535611464641988,0.026673566550016403
0.031990356743335724,0.004821521695703268,-0.018870556727051735,0.017168371006846428,-0.0006333693745546043,0.026374192908406258
0.03366260603070259,0.005141319707036018,-0.019327694550156593,0.016615962609648705,-0.0006582461064681411,0.02712320163846016
0.034360408782958984,0.004882914945483208,-0.01900976523756981,0.016751175746321678,-0.0006753557245247066,0.0277832243591547
0.03375887870788574,0.004532153252512217,-0.01909451372921467,0.015644600614905357,-0.0007371196988970041,0.026364630088210106
0.03369789198040962,0.0049977172166109085,-0.01972033642232418,0.015938501805067062,-0.0007976046181283891,0.02627742849290371
0.03333432972431183,0.004861854016780853,-0.019151099026203156,0.015798348933458328,-0.000754175300244242,0.025896701961755753
0.0338410921394825,0.0048288628458976746,-0.01879897713661194,0.01641455665230751,-0.0007682456052862108,0.026066288352012634
0.03365103527903557,0.005083309020847082,-0.01921134442090988,0.016971368342638016,-0.0007629410247318447,0.027486933395266533
0.033887751400470734,0.004874336998909712,-0.019118646159768105,0.017050914466381073,-0.0007101672235876322,0.027489900588989258
0.03360406309366226,0.00494425231590867,-0.018770290538668633,0.01722581870853901,-0.0006927120266482234,0.026663891971111298
0.03377772495150566,0.004758609924465418,-0.019240552559494972,0.01639021933078766,-0.0006399078411050141,0.026741715148091316
0.03352246806025505,0.004854310769587755,-0.01885366253554821,0.01667053997516632,-0.0006446277257055044,0.02680646814405918
0.03352246806025505,0.004854310769587755,-0.01885366253554821,0.01667053997516632,-0.0006446277257055044,0.02680646814405918
0.03402174264192581,0.005249146372079849,-0.019002916291356087,0.016366293653845787,-0.0005982902366667986,0.02677696943283081
0.03388269990682602,0.004638477228581905,-0.01928199827671051,0.01655145175755024,-0.00054003024706617,0.026705950498580933
0.03401109576225281,0.003972753416746855,-0.018708225339651108,0.01689630001783371,-0.0005669267848134041,0.026919011026620865
0.03415676951408386,0.003633252577856183,-0.01878853142261505,0.016646087169647217,-0.0005609093932434916,0.027143128216266632
0.03388240933418274,0.0036788105498999357,-0.018900688737630844,0.01705377735197544,-0.00055127521045506,0.02691718563437462
0.03490792214870453,0.004464568104594946,-0.019099093973636627,0.016870465129613876,-0.0004898709012195468,0.02763560228049755
0.03478178754448891,0.004225676413625479,-0.019176162779331207,0.01711076870560646,-0.0005244565545581281,0.027242442592978477
0.034493789076805115,0.004361307714134455,-0.018609073013067245,0.017227012664079666,-0.0005218078149482608,0.027382709085941315
0.03431906923651695,0.004224513657391071,-0.018911946564912796,0.017201382666826248,-0.0005505436565726995,0.027439100667834282
0.03463231027126312,0.004364887252449989,-0.01952166110277176,0.016566341742873192,-0.0005465968861244619,0.02731931395828724
0.03442969173192978,0.004333373159170151,-0.018591009080410004,0.016841061413288116,-0.0007674939115531743,0.027794865891337395
0.03492354974150658,0.004325006157159805,-0.01879170536994934,0.01655123569071293,-0.0007378892623819411,0.0282807108014822
0.03457450494170189,0.00413086824119091,-0.018975811079144478,0.016449183225631714,-0.0007542786188423634,0.027874361723661423
