davideferrari95/blind_handover_controller/data/Test 149 - [2024-02-07 -- 17-30-24]/joint_states_data.csv
shoulder_pan_joint,shoulder_lift_joint,elbow_joint,wrist_1_joint,wrist_2_joint,wrist_3_joint
0.00940869003534317,-0.0019398638978600502,-0.013303532265126705,0.015279977582395077,0.0,0.009223168715834618
0.009180707857012749,-0.0019142971141263843,-0.013281147927045822,0.01529415138065815,0.0,0.00970169622451067
0.009180707857012749,-0.0019142971141263843,-0.013281147927045822,0.01529415138065815,0.0,0.00970169622451067
0.008711665868759155,-0.001991590019315481,-0.013408059254288673,0.015912305563688278,0.0,0.00979863852262497
0.010289602912962437,-0.0019467095844447613,-0.013165270909667015,0.015579082071781158,0.0,0.00937533937394619
0.00898750126361847,-0.0017961071571335196,-0.012674394063651562,0.015088781714439392,0.0,0.009787415154278278
0.008546195924282074,-0.001796226715669036,-0.01319216750562191,0.015003856271505356,0.0,0.00904079433530569
0.008965261280536652,-0.0018939871806651354,-0.012579654343426228,0.01502148900181055,0.0,0.008979042060673237
0.009130018763244152,-0.0019474797882139683,-0.013211899437010288,0.015108904801309109,0.0,0.009261264465749264
0.0089362021535635,-0.0023662857711315155,-0.012789258733391762,0.014834793284535408,0.0,0.009607376530766487
0.0089362021535635,-0.0023662857711315155,-0.012789258733391762,0.014834793284535408,0.0,0.009607376530766487
0.008974799886345863,-0.0021349673625081778,-0.013369549997150898,0.015242310240864754,0.0,0.008804821409285069
0.00905604101717472,-0.002046677516773343,-0.013074672780930996,0.015190526843070984,0.0,0.008951711468398571
0.00936934258788824,-0.00201336364261806,-0.012769176624715328,0.0149648142978549,0.0,0.009002442471683025
0.00936934258788824,-0.00201336364261806,-0.012769176624715328,0.0149648142978549,0.0,0.009002442471683025
0.009073310531675816,-0.0022144452668726444,-0.012644288130104542,0.015319541096687317,0.0,0.009127738885581493
0.00973154790699482,-0.0022241012193262577,-0.01295741368085146,0.01522363256663084,0.0,0.009099321439862251
0.008578963577747345,-0.002514106221497059,-0.012485150247812271,0.01579233631491661,0.0,0.009067223407328129
0.00898746494203806,-0.0025430519599467516,-0.013127339072525501,0.014910116791725159,0.0,0.008801448158919811
0.00858868658542633,-0.0018765792483463883,-0.013084319420158863,0.014664760790765285,0.0,0.00903247855603695
0.008736693300306797,-0.0018354068743065,-0.012540926225483418,0.01471235416829586,0.0,0.009633173234760761
0.009320306591689587,-0.002046890091150999,-0.012810852378606796,0.014332214370369911,0.0,0.009404664859175682
0.008857850916683674,-0.0021027643233537674,-0.012850062921643257,0.014871080406010151,0.0,0.009462883695960045
0.008937032893300056,-0.002507396275177598,-0.012678580358624458,0.01490283478051424,0.0,0.009298634715378284
0.010085838846862316,-0.00231153448112309,-0.013212951831519604,0.01564451865851879,0.0,0.009379015304148197
0.008952020667493343,-0.002183177275583148,-0.012454226613044739,0.015696506947278976,0.0,0.00920858047902584
0.008279548957943916,-0.002244427101686597,-0.012635552324354649,0.015516748651862144,0.0,0.009024701081216335
0.00895971991121769,-0.00219146441668272,-0.01255856454372406,0.015551147051155567,0.0,0.009000108577311039
0.009073181077837944,-0.0024037747643887997,-0.01286785863339901,0.015436292625963688,0.0,0.00937351118773222
0.008505250327289104,-0.002157942857593298,-0.012608933262526989,0.016215255483984947,0.0,0.009391608648002148
0.008714697323739529,-0.0021900746505707502,-0.012749521061778069,0.015880757942795753,0.0,0.00932246446609497
0.008714697323739529,-0.0021900746505707502,-0.012749521061778069,0.015880757942795753,0.0,0.00932246446609497
0.008448917418718338,-0.0019659840036183596,-0.01240094006061554,0.015021296218037605,0.0,0.009345895610749722
0.008454719558358192,-0.001987914554774761,-0.01286713220179081,0.015592813491821289,0.0,0.009367554448544979
0.008454719558358192,-0.001987914554774761,-0.01286713220179081,0.015592813491821289,0.0,0.009367554448544979
0.009539205580949783,-0.002010380383580923,-0.012628141790628433,0.014757463708519936,0.0,0.009413833729922771
0.008860437199473381,-0.0019498197361826897,-0.014150220900774002,0.015007049776613712,0.0,0.009227069094777107
0.008812887594103813,-0.0018746251007542014,-0.012490501627326012,0.01502904761582613,0.0,0.009439351968467236
0.008812887594103813,-0.0018746251007542014,-0.012490501627326012,0.01502904761582613,0.0,0.009439351968467236
0.008870393969118595,-0.00188319175504148,-0.012289091944694519,0.015085211023688316,0.0,0.00910986214876175
0.008612671867012978,-0.002121661091223359,-0.012307656928896904,0.015372528694570065,0.0,0.008742337115108967
0.008676126599311829,-0.002055143704637885,-0.012721576727926731,0.015005955472588539,0.0,0.009387359023094177
0.008946992456912994,-0.0021899393759667873,-0.01228399109095335,0.014911096543073654,0.0,0.009524098597466946
0.009286215528845787,-0.00208709086291492,-0.01291687972843647,0.014958612620830536,0.0,0.009068764746189117
0.00856492668390274,-0.0019786199554800987,-0.01243883278220892,0.014943411573767662,0.0,0.00859122071415186
0.008803362026810646,-0.0018496348056942225,-0.012994835153222084,0.014775642193853855,0.0,0.008868339471518993
0.008488030172884464,-0.0018997157458215952,-0.012937183491885662,0.014643210917711258,0.0,0.008774222806096077
0.008760270662605762,-0.0022374666295945644,-0.012735392898321152,0.014752162620425224,0.0,0.009035480208694935
0.00869505200535059,-0.0020461652893573046,-0.01257050409913063,0.014846891164779663,0.0,0.009235484525561333
0.009478908032178879,-0.002164604840800166,-0.012944725342094898,0.01475269254297018,0.0,0.00960291363298893
0.00841692928224802,-0.0019243905553594232,-0.01239604689180851,0.014944702386856079,0.0,0.009315398521721363
0.008528714999556541,-0.0014949314063414931,-0.013218405656516552,0.014412030577659607,0.0,0.009442370384931564
0.009516412392258644,-0.001234426163136959,-0.013059195131063461,0.01411089301109314,0.0,0.009500471875071526
0.009516412392258644,-0.001234426163136959,-0.013059195131063461,0.01411089301109314,0.0,0.009500471875071526
0.00897052139043808,-0.001178740756586194,-0.013176467269659042,0.014384930953383446,0.0,0.00929398462176323
0.009085070341825485,-0.0010567272547632456,-0.013425605371594429,0.014002061448991299,0.0,0.008907926268875599
0.008816570043563843,-0.0011754351435229182,-0.013521751388907433,0.014050854369997978,0.0,0.009397649206221104
0.008816570043563843,-0.0011754351435229182,-0.013521751388907433,0.014050854369997978,0.0,0.009397649206221104
0.008989972062408924,-0.0018700488144531846,-0.01361978892236948,0.01444017793983221,0.0,0.008758693933486938
0.008921490050852299,-0.0019201453542336822,-0.013246268033981323,0.014593138359487057,0.0,0.008795956149697304
0.009248451329767704,-0.0017428501741960645,-0.013439717702567577,0.014208921231329441,0.0,0.009047658182680607
0.009248451329767704,-0.0017428501741960645,-0.013439717702567577,0.014208921231329441,0.0,0.009047658182680607
0.009328057058155537,-0.0015588476089760661,-0.013066370971500874,0.014144415967166424,0.0,0.009571135975420475
0.009085179306566715,-0.0012177224270999432,-0.013445797376334667,0.013956057839095592,0.0,0.00900016538798809
0.009299582801759243,-0.0010996765922755003,-0.012760167941451073,0.014359471388161182,0.0,0.00894071627408266
0.00929858349263668,-0.0011769869597628713,-0.012985194101929665,0.014406858943402767,0.0,0.008715668693184853
0.008953941985964775,-0.0013309457572177052,-0.012859045527875423,0.014655753038823605,0.0,0.00936275813728571
0.009056689217686653,-0.0014527924358844757,-0.013608119450509548,0.014231134206056595,0.0,0.009572615846991539
0.009381994605064392,-0.0013891278067603707,-0.013738388195633888,0.014324129559099674,0.0,0.009570818394422531
0.009161758236587048,-0.001564541831612587,-0.014065862633287907,0.014233301393687725,0.0,0.00862565916031599
0.008903850801289082,-0.0014336456079035997,-0.013216567225754261,0.01422022096812725,0.0,0.008736182935535908
0.009259532205760479,-0.001128504634834826,-0.013340502977371216,0.013868416659533978,0.0,0.009282226674258709
0.008994121104478836,-0.0010821875184774399,-0.013021006248891354,0.013508317060768604,0.0,0.00883796438574791
0.009866197593510151,-0.0011484710266813636,-0.013215938583016396,0.01362481340765953,0.0,0.008865783922374249
0.009543920867145061,-0.0011613907990977168,-0.012355547398328781,0.013543522916734219,0.0,0.009378263726830482
0.009172838181257248,-0.0011640158481895924,-0.013474730774760246,0.013823128305375576,0.0,0.009671108797192574
0.008930628187954426,-0.0012255818583071232,-0.013164832256734371,0.013481149449944496,0.0,0.00962027721107006
0.009772524237632751,-0.0013407546794041991,-0.01361181028187275,0.013894733972847462,0.0,0.00897776335477829
0.008608382195234299,-0.0014077462255954742,-0.013136997818946838,0.013532761484384537,0.0,0.008869756944477558
0.008905804716050625,-0.0013527063420042396,-0.012672279961407185,0.014413516968488693,0.0,0.009273696690797806
0.009434978477656841,-0.0012419242411851883,-0.012422689236700535,0.014468740671873093,0.0,0.009023024700582027
0.009195683524012566,-0.0012573886197060347,-0.013674103654921055,0.013810382224619389,0.0,0.00879419781267643
0.009195683524012566,-0.0012573886197060347,-0.013674103654921055,0.013810382224619389,0.0,0.00879419781267643
0.009728171862661839,-0.0012969698291271925,-0.013145013712346554,0.01398508157581091,0.0,0.008782732300460339
0.009107690304517746,-0.0014203473692759871,-0.012701952829957008,0.01358117163181305,0.0,0.008888596668839455
0.00958036445081234,-0.0013282503932714462,-0.012225549668073654,0.014184263534843922,0.0,0.009040983393788338
0.009591121226549149,-0.001289856038056314,-0.01322189997881651,0.013741176575422287,0.0,0.009127913042902946
0.009177321568131447,-0.0012574605643749237,-0.013099625706672668,0.014337622560560703,0.0,0.009107031859457493
0.009177321568131447,-0.0012574605643749237,-0.013099625706672668,0.014337622560560703,0.0,0.009107031859457493
0.009061899967491627,-0.0011900148820132017,-0.013185128569602966,0.013737990520894527,0.0,0.009371653199195862
0.009239012375473976,-0.0011633404064923525,-0.012869122438132763,0.014248895458877087,0.0,0.009361597709357738
0.009411059319972992,-0.0012562329648062587,-0.01227689627557993,0.014074573293328285,0.0,0.009720679372549057
0.009266518987715244,-0.001204053987748921,-0.012588435783982277,0.014628157950937748,0.0,0.00907065812498331
0.009353435598313808,-0.0011592441005632281,-0.012283322401344776,0.014144981279969215,0.0,0.008971155621111393
0.009243368171155453,-0.0011179817374795675,-0.01274130865931511,0.014924809336662292,0.0,0.008681947365403175
0.009804395958781242,-0.001194459619000554,-0.012443726882338524,0.014415130019187927,0.0,0.008625554852187634
0.009784726426005363,-0.0011815327452495694,-0.013203090988099575,0.015049383975565434,0.0,0.009082493372261524
0.00912566389888525,-0.0011841421946883202,-0.012605393305420876,0.01422935165464878,0.0,0.008960787206888199
0.009519921615719795,-0.0012046153424307704,-0.01245840359479189,0.013435466215014458,0.0,0.00927150622010231
0.009619958698749542,-0.0012159429024904966,-0.012159588746726513,0.01347688864916563,0.0,0.009566307067871094
0.008959010243415833,-0.0011971605708822608,-0.012926663272082806,0.013508050702512264,0.0,0.008788572624325752
0.009133572690188885,-0.0011429472360759974,-0.012808779254555702,0.014138826169073582,0.0,0.008638125844299793
0.009267647750675678,-0.0011164296884089708,-0.013208436779677868,0.013831350021064281,0.0,0.00907595083117485
0.00924780685454607,-0.001070499885827303,-0.012467758730053902,0.014249480329453945,0.0,0.008979814127087593
0.009260646998882294,-0.0012031039223074913,-0.012891130521893501,0.013853571377694607,0.0,0.00891161896288395
0.009632853791117668,-0.0011678739683702588,-0.012757931835949421,0.014058195985853672,0.0,0.009121404029428959
0.009286527521908283,-0.0013981605879962444,-0.012729808688163757,0.013973861932754517,0.0,0.008647262118756771
0.009286527521908283,-0.0013981605879962444,-0.012729808688163757,0.013973861932754517,0.0,0.008647262118756771
0.009787228889763355,-0.0013632107293233275,-0.013173328712582588,0.014109818264842033,0.0,0.008742320351302624
0.00920154806226492,-0.0012810449115931988,-0.01235567033290863,0.014136803336441517,0.0,0.009953528642654419
0.009693250060081482,-0.0011788754491135478,-0.012973899953067303,0.01370280608534813,0.0,0.009206322021782398
0.00900299847126007,-0.0012443650048226118,-0.012574535794556141,0.013556718826293945,0.0,0.008867303840816021
0.009873637929558754,-0.0012223852099850774,-0.013359828852117062,0.01377042941749096,0.0,0.008991051465272903
0.009284746833145618,-0.0011908473679795861,-0.012631791643798351,0.01395051646977663,0.0,0.009792161174118519
0.009409885853528976,-0.0012443496380001307,-0.012689254246652126,0.013721469789743423,0.0,0.008896720595657825
0.009409885853528976,-0.0012443496380001307,-0.012689254246652126,0.013721469789743423,0.0,0.008896720595657825
0.009274222888052464,-0.0013477061875164509,-0.012802980840206146,0.013868513517081738,0.0,0.009097923524677753
0.009274222888052464,-0.0013477061875164509,-0.012802980840206146,0.013868513517081738,0.0,0.009097923524677753
0.009568958543241024,-0.0013191425241529942,-0.012537188827991486,0.013229736126959324,0.0,0.00876606535166502
0.009761740453541279,-0.0014397799968719482,-0.013110182248055935,0.013516857288777828,0.0,0.009260645136237144
0.009191869758069515,-0.001375586842186749,-0.012589129619300365,0.013233356177806854,0.0,0.008840419352054596
0.009453171864151955,-0.0013189088786020875,-0.012831175699830055,0.01369372010231018,0.0,0.008795579895377159
0.00959220714867115,-0.0014292552368715405,-0.01245766319334507,0.013181064277887344,0.0,0.009186911396682262
0.009233579970896244,-0.0014093397185206413,-0.012436337769031525,0.013288312591612339,0.0,0.008719822391867638
0.009593421593308449,-0.0013322839513421059,-0.012144867330789566,0.013331562280654907,0.0,0.00886775553226471
0.00921524129807949,-0.0012607094831764698,-0.012740598991513252,0.013232814148068428,0.0,0.009125146083533764
0.009028640575706959,-0.0012191891437396407,-0.012291977182030678,0.013026286847889423,0.0,0.008931981399655342
0.009918090887367725,-0.001264611491933465,-0.013189449906349182,0.013367388397455215,0.0,0.009182141162455082
0.009648198261857033,-0.0013217858504503965,-0.012985603883862495,0.013340366072952747,0.0,0.009078322909772396
0.00935131311416626,-0.0013739577261731029,-0.013085948303341866,0.013620574958622456,0.0,0.00873495452105999
0.009664567187428474,-0.0014924335991963744,-0.012261005118489265,0.0133323660120368,0.0,0.008811543695628643
0.009537900798022747,-0.0014238505391404033,-0.012827436439692974,0.013561955653131008,0.0,0.008503404445946217
0.009739861823618412,-0.001342635601758957,-0.012829039245843887,0.012966408394277096,0.0,0.008679340593516827
0.009611038491129875,-0.0012547990772873163,-0.0123474495485425,0.013585827313363552,0.0,0.00892659556120634
0.009611038491129875,-0.0012547990772873163,-0.0123474495485425,0.013585827313363552,0.0,0.00892659556120634
0.009326931089162827,-0.0013020976912230253,-0.012919355183839798,0.0128739969804883,0.0,0.009137277491390705
0.008907533250749111,-0.0012625426752492785,-0.012283982709050179,0.013221326284110546,0.0,0.009172274731099606
0.009035036899149418,-0.0013639188837260008,-0.012849826365709305,0.013246444053947926,0.0,0.009053584188222885
0.009440316818654537,-0.0013186894357204437,-0.012313704937696457,0.013749268837273121,0.0,0.009109396487474442
0.00939006358385086,-0.0013081134529784322,-0.01256620790809393,0.014026863500475883,0.0,0.008623842149972916
0.009924606420099735,-0.0013711650390177965,-0.013016321696341038,0.014386096969246864,0.0,0.008645477704703808
0.00961095467209816,-0.0013240160187706351,-0.012757139280438423,0.014385536313056946,0.0,0.009424179792404175
0.00962165929377079,-0.001221132348291576,-0.012633192352950573,0.01436444092541933,0.0,0.0090829748660326
0.00968331191688776,-0.0011193532263860106,-0.013006824068725109,0.014127646572887897,0.0,0.0084659643471241
0.00968331191688776,-0.0011193532263860106,-0.013006824068725109,0.014127646572887897,0.0,0.0084659643471241
0.009294873103499413,-0.0010969191789627075,-0.012502833269536495,0.013925906270742416,0.0,0.008875908330082893
0.010332448408007622,-0.0011653633555397391,-0.012949603609740734,0.014056749641895294,0.0,0.00918751023709774
0.009687541984021664,-0.0011593610979616642,-0.013030774891376495,0.013987191952764988,0.0,0.008907930925488472
0.009344153106212616,-0.0014031006721779704,-0.01295402366667986,0.012669244781136513,0.0,0.009430138394236565
0.00952778197824955,-0.001445929752662778,-0.012878886424005032,0.012307127006351948,0.0,0.009042473509907722
0.009298148564994335,-0.0014595594257116318,-0.0133970370516181,0.01298749353736639,0.0,0.008782903663814068
0.009417631663382053,-0.0015622017672285438,-0.012369313277304173,0.0129470219835639,0.0,0.00893997773528099
0.00993836298584938,-0.0014711868716403842,-0.012719548307359219,0.013505510985851288,0.0,0.009193423204123974
0.009779874235391617,-0.0013540752697736025,-0.012241491116583347,0.013423924334347248,0.0,0.009107090532779694
0.009735814295709133,-0.0014002206735312939,-0.0129251005128026,0.013176888227462769,0.0,0.009352895431220531
0.009588614106178284,-0.0013466309756040573,-0.012918413616716862,0.01360365655273199,0.0,0.008847620338201523
0.009324216283857822,-0.0014322748174890876,-0.01303456723690033,0.014022556133568287,0.0,0.008616633713245392
0.009550364688038826,-0.0013798094587400556,-0.013389634899795055,0.013997729867696762,0.0,0.009454355575144291
0.010035659186542034,-0.0015788024757057428,-0.012798295356333256,0.013656056486070156,0.0,0.009065781719982624
0.009449939243495464,-0.001738788210786879,-0.012959536164999008,0.013778752647340298,0.0,0.009033771231770515
0.009449939243495464,-0.001738788210786879,-0.012959536164999008,0.013778752647340298,0.0,0.009033771231770515
0.009622236713767052,-0.0016024514334276319,-0.012301018461585045,0.014029576443135738,0.0,0.008779719471931458
0.010541784577071667,-0.0016248517204076052,-0.012540274299681187,0.014582103118300438,0.0,0.008963760919868946
0.009164129383862019,-0.0014810541179031134,-0.01248123962432146,0.013528956100344658,0.0,0.008527003228664398
0.01107282005250454,-0.001325836288742721,-0.012707596644759178,0.012986964546144009,0.0,0.009284554980695248
0.01107282005250454,-0.001325836288742721,-0.012707596644759178,0.012986964546144009,0.0,0.009284554980695248
0.009422018192708492,-0.0014185638865455985,-0.012859168462455273,0.013209378346800804,0.0,0.009191938675940037
0.00978204607963562,-0.001615933608263731,-0.012974914163351059,0.012826531194150448,0.0,0.009236248210072517
0.00967778917402029,-0.0015252884477376938,-0.01236552931368351,0.013336990028619766,0.0,0.008907764218747616
0.00939903687685728,-0.0014513906789943576,-0.012601442635059357,0.013478883542120457,0.0,0.008863604627549648
0.009678924456238747,-0.0014715944416821003,-0.01225383672863245,0.013748102821409702,0.0,0.009048258885741234
0.010750355198979378,-0.0014967714669182897,-0.012806268408894539,0.01416438166052103,0.0,0.009316765703260899
0.009758193045854568,-0.001482912339270115,-0.012877991423010826,0.013008171692490578,0.0,0.009023601189255714
0.01069062389433384,-0.0014253315748646855,-0.012434645555913448,0.013331691734492779,0.0,0.00917305238544941
0.009772922843694687,-0.001554500893689692,-0.011968985199928284,0.013446980156004429,0.0,0.008957654237747192
0.009591377340257168,-0.0015616832533851266,-0.012218769639730453,0.013326618820428848,0.0,0.009274203330278397
0.010422177612781525,-0.0014791472349315882,-0.012116656638681889,0.01371292769908905,0.0,0.009475787170231342
0.009835278615355492,-0.0013909863773733377,-0.012738898396492004,0.012778053060173988,0.0,0.009441765025258064
0.010375870391726494,-0.0012956747086718678,-0.012868228368461132,0.012932800687849522,0.0,0.009056356735527515
0.010349431075155735,-0.0011755538871511817,-0.012860279530286789,0.012872514314949512,0.0,0.009111478924751282
0.00994009431451559,-0.0010498203337192535,-0.012726947665214539,0.013366163708269596,0.0,0.00955884624272585
0.010105784982442856,-0.0008717046584933996,-0.012348725460469723,0.012953253462910652,0.0,0.009335556998848915
0.010509517975151539,-0.0008099565748125315,-0.012520634569227695,0.012721444480121136,0.0,0.00893065333366394
0.00980894360691309,-0.000821555673610419,-0.011833077296614647,0.012636572122573853,0.0,0.009565908461809158
0.010361199267208576,-0.000855888007208705,-0.01269485242664814,0.012474218383431435,0.0,0.009716160595417023
0.01046769879758358,-0.0010375528363510966,-0.012147448025643826,0.012563185766339302,0.0,0.009347422048449516
0.010605481453239918,-0.0010448506800457835,-0.012481244280934334,0.012286212295293808,0.0,0.009747427888214588
0.011240602470934391,-0.0010215721558779478,-0.012595159932971,0.012500233948230743,0.0,0.009664658457040787
0.011240602470934391,-0.0010215721558779478,-0.012595159932971,0.012500233948230743,0.0,0.009664658457040787
0.011355496942996979,-0.001004458637908101,-0.012259351089596748,0.013036848045885563,0.0,0.009336652234196663
0.009337857365608215,-0.0009871659567579627,-0.01259336993098259,0.012775394134223461,0.0,0.009368568658828735
0.010557268746197224,-0.0009797975653782487,-0.011710189282894135,0.012563005089759827,0.0,0.009121255949139595
0.010295583866536617,-0.000956240575760603,-0.012298757210373878,0.012897659093141556,0.0,0.00913464929908514
0.010680141858756542,-0.0009485817863605917,-0.012631592340767384,0.012926056981086731,0.0,0.00908643938601017
0.010361477732658386,-0.0009301710524596274,-0.012391524389386177,0.012853969819843769,0.0,0.00963351409882307
0.010153128765523434,-0.0009481350425630808,-0.012268153950572014,0.013481371104717255,0.0,0.009642666205763817
0.01018714439123869,-0.0009522569598630071,-0.012077350169420242,0.013329642824828625,9.830564522417262e-07,0.009286654181778431
0.00999828614294529,-0.0008535909582860768,-0.011949409730732441,0.013215728104114532,4.1909244963278525e-09,0.00900620874017477
0.00999828614294529,-0.0008535909582860768,-0.011949409730732441,0.013215728104114532,4.1909244963278525e-09,0.00900620874017477
0.010611489415168762,-0.0009738598600961268,-0.012218696065247059,0.013538829050958157,2.7363741827990395e-10,0.009073249995708466
0.010221973061561584,-0.0009636745671741664,-0.012026256881654263,0.013101277872920036,1.7866569335112104e-11,0.0092154024168849
0.010145043022930622,-0.0009835087694227695,-0.011834604665637016,0.013195577077567577,1.1665592537096758e-12,0.009307114407420158
0.010477345436811447,-0.0009988232050091028,-0.012040439993143082,0.013091814704239368,4.973224777279168e-15,0.009767837822437286
0.009880075231194496,-0.0009828669717535377,-0.012647256255149841,0.013304321095347404,3.247160360303464e-16,0.00924660824239254
0.01044548861682415,-0.0009712799801491201,-0.011687814258038998,0.012187976390123367,2.1201635025191613e-17,0.009290346875786781
0.010229861363768578,-0.0009044988546520472,-0.01207912340760231,0.012177042663097382,1.3843151894410483e-18,0.008936059661209583
0.010348391719162464,-0.0010278121335431933,-0.011932882480323315,0.012225349433720112,9.038589628669862e-20,0.008808214217424393
0.010415695607662201,-0.0010206587612628937,-0.011822409927845001,0.01268080435693264,5.901553199795821e-21,0.008902634494006634
0.010165836662054062,-0.001003861427307129,-0.01239563524723053,0.012310129590332508,3.853292444401135e-22,0.00920667964965105
0.011153878644108772,-0.0010953738819807768,-0.011849699541926384,0.012457750737667084,2.515924655757503e-23,0.00903103593736887
0.010238484479486942,-0.0010649192845448852,-0.012272603809833527,0.012910665944218636,1.6427191172591905e-24,0.0093222139403224
0.009842506609857082,-0.0010375706478953362,-0.011982577852904797,0.012581393122673035,1.072578181050209e-25,0.00933066289871931
0.010444876737892628,-0.0010143184335902333,-0.011933175846934319,0.012923751957714558,7.003169693625886e-27,0.009496868588030338
0.010444876737892628,-0.0010143184335902333,-0.011933175846934319,0.012923751957714558,7.003169693625886e-27,0.009496868588030338
0.010557328350841999,-0.0009247961570508778,-0.011813049204647541,0.012592867948114872,4.572569355500911e-28,0.009138889610767365
0.010229462757706642,-0.0008878344669938087,-0.012758318334817886,0.012479112483561039,1.9493578289177682e-30,0.00943611841648817
0.010229462757706642,-0.0008878344669938087,-0.012758318334817886,0.012479112483561039,1.9493578289177682e-30,0.00943611841648817
0.010521596297621727,-0.0008895016508176923,-0.012130812741816044,0.012855008244514465,1.2727913112836341e-31,0.010038902051746845
0.009786388836801052,-0.0009797557722777128,-0.012343340553343296,0.012988199479877949,8.31041812594725e-33,0.008846570737659931
0.010735398158431053,-0.0010142509127035737,-0.011772924102842808,0.013068543747067451,3.5428613392347893e-35,0.00871129147708416
0.009787552058696747,-0.0009881494333967566,-0.012260784395039082,0.012409191578626633,2.3132355237796724e-36,0.009186288341879845
0.009787552058696747,-0.0009881494333967566,-0.012260784395039082,0.012409191578626633,2.3132355237796724e-36,0.009186288341879845
0.010069727897644043,-0.0008892574696801603,-0.012554936110973358,0.013016034848988056,1.5103773304498952e-37,0.009386008605360985
0.010236278176307678,-0.0008578202105127275,-0.01234473567456007,0.01257032249122858,9.861685586833687e-39,0.00968853197991848
0.01033025048673153,-0.0008598010754212737,-0.01166684553027153,0.012826376594603062,6.438980456557178e-40,0.009557495824992657
0.011119273491203785,-0.0008652415126562119,-0.011920151300728321,0.012268503196537495,4.204175652667316e-41,0.009646703489124775
0.010181128047406673,-0.000860700267367065,-0.01228804886341095,0.012696389108896255,2.7451436916123166e-42,0.009226012974977493
0.01039641909301281,-0.0008955016382969916,-0.012812931090593338,0.012485374696552753,1.1210387714598537e-44,0.009286790154874325
0.009929453022778034,-0.0008999029523693025,-0.011865976266562939,0.012585586868226528,1.401298464324817e-45,0.00926303956657648
0.010936462320387363,-0.0008967243484221399,-0.01149987243115902,0.012445807456970215,0.0,0.009405494667589664
0.011205701157450676,-0.0008011766476556659,-0.011519393883645535,0.013183950446546078,0.0,0.009440960362553596
0.01010097935795784,-0.0008212371030822396,-0.012166826985776424,0.012870922684669495,0.0,0.009577527642250061
0.009938607923686504,-0.0008325199596583843,-0.012788375839591026,0.012805245816707611,0.0,0.009482832625508308
0.010267351754009724,-0.0008415532647632062,-0.01204192265868187,0.01244647242128849,0.0,0.009161427617073059
0.010339607484638691,-0.0008399328216910362,-0.012916671112179756,0.01252296194434166,0.0,0.009200824424624443
0.009926940314471722,-0.0008617983548901975,-0.012416768819093704,0.012929687276482582,0.0,0.009436885826289654
0.010101641528308392,-0.0008668620139360428,-0.012241726741194725,0.012708519585430622,0.0,0.009708423167467117
0.009764269925653934,-0.0007869599503464997,-0.012172535061836243,0.012870118021965027,0.0,0.009681880474090576
0.010697953402996063,-0.0008001226233318448,-0.011958586983382702,0.012537003494799137,0.0,0.009568867273628712
0.010333899408578873,-0.0008084962610155344,-0.012435629032552242,0.013038923032581806,0.0,0.010038824751973152
0.00965744350105524,-0.0008194796973839402,-0.01242743618786335,0.012751246802508831,0.0,0.00989675335586071
0.00965744350105524,-0.0008194796973839402,-0.01242743618786335,0.012751246802508831,0.0,0.00989675335586071
0.010006697848439217,-0.0008698044694028795,-0.012810535728931427,0.013389727100729942,0.0,0.009511412121355534
0.010165536776185036,-0.000874487916007638,-0.012694219127297401,0.013020366430282593,0.0,0.010105468332767487
0.009883897379040718,-0.000880702689755708,-0.012248310260474682,0.012580609880387783,0.0,0.009504438377916813
0.010555352084338665,-0.0011559881968423724,-0.012026119977235794,0.012453233823180199,0.0,0.009501973167061806
0.0101628378033638,-0.0011192505480721593,-0.012320426292717457,0.012299750000238419,0.0,0.009855419397354126
0.010062022134661674,-0.0010849415557458997,-0.01263081468641758,0.012788628228008747,0.0,0.009737849235534668
0.010634898208081722,-0.0009804419241845608,-0.011978493072092533,0.011997227557003498,0.0,0.00949553120881319
0.010102413594722748,-0.0009211791912093759,-0.012462032958865166,0.012287472374737263,0.0,0.009517141617834568
0.009915507398545742,-0.0009146242518909276,-0.012727628462016582,0.01271453034132719,0.0,0.009705092757940292
0.010085194371640682,-0.0009106354555115104,-0.012234946712851524,0.012206412851810455,0.0,0.009897693991661072
0.009890017099678516,-0.0009224023669958115,-0.012136385776102543,0.011336428113281727,0.0,0.010293418541550636
0.010792210698127747,-0.0009326557628810406,-0.012618460692465305,0.011931100860238075,0.0,0.009940137155354023
0.009713450446724892,-0.0010137734934687614,-0.011634879745543003,0.01213052961975336,0.0,0.009890776127576828
0.009752335958182812,-0.0009326700237579644,-0.012174360454082489,0.012345626018941402,0.0,0.009809824638068676
0.010740241035819054,-0.0011109290644526482,-0.011840815655887127,0.012630009092390537,0.0,0.009807043708860874
0.009760471992194653,-0.001075738575309515,-0.011650838889181614,0.012624410912394524,0.0,0.009944570250809193
0.00972833950072527,-0.0010490934364497662,-0.012145052663981915,0.01250061672180891,0.0,0.010285169817507267
0.00972833950072527,-0.0010490934364497662,-0.012145052663981915,0.01250061672180891,0.0,0.010285169817507267
0.009956968016922474,-0.0009032722446136177,-0.012490453198552132,0.012467371299862862,0.0,0.009223838336765766
0.009956968016922474,-0.0009032722446136177,-0.012490453198552132,0.012467371299862862,0.0,0.009223838336765766
0.010011906735599041,-0.0009035160765051842,-0.012317216955125332,0.011983000673353672,0.0,0.009711666032671928
0.009794343262910843,-0.0008998080738820136,-0.012119919992983341,0.012295006774365902,0.0,0.009616238065063953
0.009794343262910843,-0.0008998080738820136,-0.012119919992983341,0.012295006774365902,0.0,0.009616238065063953
0.01021850947290659,-0.0008036248036660254,-0.011754865758121014,0.012301310896873474,0.0,0.00988672487437725
0.00989177729934454,-0.0007667578174732625,-0.012192031368613243,0.01252649538218975,0.0,0.009710858575999737
0.009943096898496151,-0.000783171271905303,-0.011786404065787792,0.012243790552020073,0.0,0.009927600622177124
0.010988937690854073,-0.000798001594375819,-0.012351009994745255,0.012461354956030846,0.0,0.010250401683151722
0.010218562558293343,-0.0008095235680229962,-0.012063569389283657,0.012296882458031178,0.0,0.009401164017617702
0.009763259440660477,-0.0010335207916796207,-0.012134131975471973,0.012405112385749817,0.0,0.00941205583512783
0.010312800295650959,-0.0010195162612944841,-0.012491120025515556,0.012482661753892899,0.0,0.009861360304057598
0.010296978987753391,-0.0010023430222645402,-0.011912933550775051,0.01232290267944336,0.0,0.010227755643427372
0.009712851606309414,-0.000915205106139183,-0.012324280105531216,0.01259547844529152,0.0,0.009931972250342369
0.01078029628843069,-0.0008879530359990895,-0.011936452239751816,0.012105734087526798,0.0,0.009946313686668873
0.010428906418383121,-0.0007897817413322628,-0.012048709206283092,0.011423448100686073,0.0,0.00957021489739418
0.010628532618284225,-0.0008787289261817932,-0.011759241111576557,0.011631143279373646,0.0,0.00986047089099884
0.010343908332288265,-0.000985017977654934,-0.012225155718624592,0.012420760467648506,0.0,0.009879087097942829
0.010410476475954056,-0.0011986220488324761,-0.01182324904948473,0.012248868122696877,0.0,0.010037155821919441
0.01065327413380146,-0.0016051415586844087,-0.012110635638237,0.012671449221670628,0.0,0.010236749425530434
0.010674401186406612,-0.0015955099370330572,-0.011877533048391342,0.012354538775980473,0.0,0.009891670197248459
0.011373944580554962,-0.0014376507606357336,-0.012082241475582123,0.012688228860497475,0.0,0.009814899414777756
0.010526303201913834,-0.0011764951050281525,-0.01275908388197422,0.012585506774485111,0.0,0.009840356186032295
0.010603765025734901,-0.001114977989345789,-0.011489108204841614,0.012670570984482765,-0.00013221739209257066,0.009701617062091827
0.010516379028558731,-0.0009783949935808778,-0.012257889844477177,0.012471496127545834,-0.0001408388197887689,0.01027317438274622
0.010689930059015751,-0.0007359777810052037,-0.011933786794543266,0.012415735051035881,-0.00013737278641201556,0.009961286559700966
0.010689930059015751,-0.0007359777810052037,-0.011933786794543266,0.012415735051035881,-0.00013737278641201556,0.009961286559700966
0.0105751883238554,-0.0008337900508195162,-0.012124297209084034,0.012713039293885231,-0.00013335584662854671,0.009878936223685741
0.010458155535161495,-0.0011196170235052705,-0.012023799121379852,0.012730364687740803,-0.00012589720427058637,0.01019678171724081
0.010923814959824085,-0.001237024669535458,-0.012498206458985806,0.012230847030878067,-0.00012247051927261055,0.009578860364854336
0.010923814959824085,-0.001237024669535458,-0.012498206458985806,0.012230847030878067,-0.00012247051927261055,0.009578860364854336
0.010773655958473682,-0.001081877388060093,-0.011978321708738804,0.01247206050902605,-0.00011922550038434565,0.010023469105362892
0.01057369727641344,-0.0010537017369642854,-0.012462547048926353,0.012673025950789452,-0.00011614812683546916,0.009757342748343945
0.01101573184132576,-0.0009325105929747224,-0.012038514018058777,0.01255003735423088,-0.00011322548380121589,0.009499295614659786
0.009662525728344917,-0.0008251581457443535,-0.01189637091010809,0.012494237162172794,-0.00011044630809919909,0.009970921091735363
0.009857401251792908,-0.0008312148856930435,-0.012381073087453842,0.011857186444103718,-0.00010780044249258935,0.009735331870615482
0.01077926717698574,-0.0008403414976783097,-0.011683531105518341,0.01235152967274189,-0.00010527828271733597,0.009294756688177586
0.010538768954575062,-0.0008473854977637529,-0.012245084159076214,0.01195612270385027,-0.00010287143959430978,0.009574455209076405
0.010273921303451061,-0.000875186116900295,-0.011809995397925377,0.012078970670700073,-0.00010057225154014304,0.00991041399538517
0.010589048266410828,-0.0008783767698332667,-0.012326180003583431,0.012143479660153389,-9.837357356445864e-05,0.010037693195044994
0.010968434624373913,-0.0007850689580664039,-0.01275966502726078,0.012136711739003658,-9.42525002756156e-05,0.010623480193316936
0.01105340477079153,-0.0007967783021740615,-0.01242732722312212,0.011679169721901417,-0.00010140064841834828,0.010348147712647915
0.010042705573141575,-0.0007928719278424978,-0.011783764697611332,0.011986246332526207,-0.0001079429712262936,0.010693010874092579
0.010798289440572262,-0.0007047721301205456,-0.012840823270380497,0.01221547182649374,-0.00010637628292897716,0.009961164556443691
0.010857172310352325,-0.0006096725119277835,-0.011969137005507946,0.011647894978523254,-0.00010435696458443999,0.00994653720408678
0.010072210803627968,-0.0005368778947740793,-0.012226841412484646,0.012029004283249378,-0.00010238078539259732,0.010846158489584923
0.010543360374867916,-0.0004796192515641451,-0.012522022239863873,0.01131183560937643,-0.00010047596879303455,0.010187181644141674
0.010523111559450626,-0.0004898373153991997,-0.012439184822142124,0.011601988226175308,-9.864049206953496e-05,0.009658419527113438
0.0103538753464818,-0.0004739667638204992,-0.012787832878530025,0.011736555956304073,-9.6871008281596e-05,0.010203168727457523
0.01080192532390356,-0.00043605230166576803,-0.01222929172217846,0.011769183911383152,-9.516378486296162e-05,0.009971791878342628
0.010936401784420013,-0.00046790193300694227,-0.012935210019350052,0.012149043381214142,-9.3515744083561e-05,0.010587161406874657
0.011335828341543674,-0.00043794186785817146,-0.012478236109018326,0.011894676834344864,-9.192388824885711e-05,0.010663543827831745
0.010488784871995449,-0.00044775684364140034,-0.01294509507715702,0.012542090378701687,-9.038523421622813e-05,0.009845164604485035
0.010544342920184135,-0.0004391649563331157,-0.012630896642804146,0.012173803523182869,-9.989603859139606e-05,0.010605640709400177
0.010567867197096348,-0.0004141518147662282,-0.013115146197378635,0.01262627262622118,-0.00010178444790653884,0.010397292673587799
0.010635274462401867,-0.00039162582834251225,-0.013135763816535473,0.012042775750160217,-0.00010039123299065977,0.010063918307423592
0.010209983214735985,-0.0003721608954947442,-0.013042260892689228,0.011875634081661701,-9.883130405796692e-05,0.01020311564207077
0.010209983214735985,-0.0003721608954947442,-0.013042260892689228,0.011875634081661701,-9.883130405796692e-05,0.01020311564207077
0.010489411652088165,-0.000293743796646595,-0.013576144352555275,0.012310033664107323,-9.730575402500108e-05,0.010210415348410606
0.010685200802981853,-0.00030890468042343855,-0.01357640977948904,0.012179077602922916,-9.439003770239651e-05,0.010643654502928257
0.010685200802981853,-0.00030890468042343855,-0.01357640977948904,0.012179077602922916,-9.439003770239651e-05,0.010643654502928257
0.011164262890815735,-0.0002940704580396414,-0.012986835092306137,0.012490253895521164,-9.299670637119561e-05,0.010784783400595188
0.010349398478865623,-0.0003198630583938211,-0.013510625809431076,0.012018883600831032,-9.164392395177856e-05,0.010033939965069294
0.010644743219017982,-0.0003093353589065373,-0.012644481845200062,0.012087676674127579,-9.032995149027556e-05,0.010089106857776642
0.011045973747968674,-0.0002949233748950064,-0.013422097079455853,0.011463958770036697,-8.905306458473206e-05,0.010530502535402775
0.010822034440934658,-0.00028173415921628475,-0.012910179793834686,0.011601266451179981,-8.781181531958282e-05,0.010954021476209164
0.010945453308522701,-0.0003066286153625697,-0.013363649137318134,0.011781095527112484,-8.660475577926263e-05,0.010550874285399914
0.010645795613527298,-0.0003956709406338632,-0.013221175409853458,0.01253360416740179,-9.5924231573008e-05,0.010094517841935158
0.010968809016048908,-0.0004435097216628492,-0.01304654125124216,0.012136369943618774,-9.503023466095328e-05,0.010339547879993916
0.010969381779432297,-0.0004631374613381922,-0.012705789878964424,0.012312863022089005,-9.381634299643338e-05,0.010444095358252525
0.010888791643083096,-0.0004521005612332374,-0.013087723404169083,0.011785951443016529,-9.261121158488095e-05,0.010705709457397461
0.010703856125473976,-0.0004799003654625267,-0.012779849581420422,0.011947499588131905,-9.143522038357332e-05,0.010377246886491776
0.01073360349982977,-0.000452076958026737,-0.013633232563734055,0.011752597987651825,-9.0288624051027e-05,0.01049575861543417
0.010903672315180302,-0.0005894803325645626,-0.013135398738086224,0.011545871384441853,-8.91704112291336e-05,0.010778668336570263
0.010778713040053844,-0.0005924528231844306,-0.013051939196884632,0.011972727254033089,-8.807957783574238e-05,0.010370706208050251
0.010610605590045452,-0.0005244510248303413,-0.012687518261373043,0.011581341736018658,-8.634433470433578e-05,0.010400415398180485
0.010918112471699715,-0.00046968969400040805,-0.013144911266863346,0.012307084165513515,-8.414200419792905e-05,0.010343053378164768
0.01094948872923851,-0.0004806765937246382,-0.013217518106102943,0.012141885235905647,-8.255987631855533e-05,0.010556980967521667
0.010987338609993458,-0.00046585663221776485,-0.012693721801042557,0.012088310904800892,-8.10699857538566e-05,0.010165814310312271
0.011464821174740791,-0.0004758596478495747,-0.012929380871355534,0.011935698799788952,-7.963515963638201e-05,0.010580591857433319
0.012038566172122955,-0.00046350917546078563,-0.012181895785033703,0.01214384101331234,-7.825031207175925e-05,0.010801192373037338
0.011568441055715084,-0.0004320204025134444,-0.01309383288025856,0.012587330304086208,-7.691290375078097e-05,0.010405434295535088
0.011206144466996193,-0.00045965862227603793,-0.01227821409702301,0.012571347877383232,-7.562041719211265e-05,0.010689981281757355
0.011206144466996193,-0.00045965862227603793,-0.01227821409702301,0.012571347877383232,-7.562041719211265e-05,0.010689981281757355
0.011566159315407276,-0.0004341516469139606,-0.012868206948041916,0.012256941758096218,-8.169438660843298e-05,0.01086497027426958
0.011618477292358875,-0.0004094862088095397,-0.012505671009421349,0.012851429171860218,-8.730073750484735e-05,0.010863560251891613
0.01096927747130394,-0.00037521315971389413,-0.012560954317450523,0.012301933951675892,-8.635704580228776e-05,0.010817280039191246
0.011892050504684448,-0.00034067072556354105,-0.013079068623483181,0.012256122194230556,-8.502685523126274e-05,0.010593379847705364
0.012160721234977245,-0.0003723316767718643,-0.012269034050405025,0.011776333674788475,-8.371064905077219e-05,0.010498840361833572
0.011769041419029236,-0.00035485284752212465,-0.012612095102667809,0.011956242844462395,-8.243292541010305e-05,0.010700339451432228
0.011429600417613983,-0.0003330566978547722,-0.01234917901456356,0.011644483543932438,-8.119347330648452e-05,0.010794495232403278
0.011502516455948353,-0.0003137079474981874,-0.012850807048380375,0.01200077310204506,-7.999077206477523e-05,0.010902470909059048
0.011891152709722519,-0.00034386228071525693,-0.012423520907759666,0.0120210200548172,-7.88231409387663e-05,0.010774752125144005
0.011958214454352856,-0.00032786247902549803,-0.012616683728992939,0.011998379603028297,-8.894652273738757e-05,0.010974375531077385
0.011752248741686344,-0.0002969749039039016,-0.012575243599712849,0.011850203387439251,-8.809510472929105e-05,0.010604946874082088
0.011503215879201889,-0.00032355074654333293,-0.012787705287337303,0.012371372431516647,-8.688675006851554e-05,0.011094796471297741
0.012153152376413345,-0.00031015006243251264,-0.012363417074084282,0.012760190293192863,-8.570516365580261e-05,0.011099442839622498
0.012006228789687157,-0.00029734772397205234,-0.013127525337040424,0.012223105877637863,-8.455494389636442e-05,0.011006385087966919
0.011653449386358261,-0.00028555444441735744,-0.012428472749888897,0.01230525504797697,-8.343511581188068e-05,0.011154416017234325
0.012206315994262695,-0.00027562957257032394,-0.012939205393195152,0.0122099369764328,-8.234457345679402e-05,0.010635929182171822
0.011916322633624077,-0.00029264012118801475,-0.012378954328596592,0.012521245516836643,-8.128214540192857e-05,0.010761930607259274
0.012489973567426205,-0.0002752099244389683,-0.012369340285658836,0.012222463265061378,-8.024681301321834e-05,0.011198034510016441
0.012685774825513363,-0.0003050349769182503,-0.01243649236857891,0.012593930587172508,-7.923755038063973e-05,0.01079808920621872
0.01215521153062582,-0.00029417933546938,-0.01221776008605957,0.012650065124034882,-8.655789133626968e-05,0.010893769562244415
0.012431066483259201,-0.0002790526195894927,-0.012678869068622589,0.01233881525695324,-8.814748434815556e-05,0.010763337835669518
0.01244598999619484,-0.0003077531873714179,-0.012175047770142555,0.012340006418526173,-8.725227235117927e-05,0.010668165981769562
0.012918378226459026,-0.0002950396738015115,-0.012521850876510143,0.012136914767324924,-8.62187662278302e-05,0.011034653522074223
0.012595990672707558,-0.000281862128758803,-0.012056747451424599,0.012199191376566887,-8.519925904693082e-05,0.011418454349040985
0.012238096445798874,-0.00030779247754253447,-0.012294620275497437,0.011711559258401394,-8.420294034294784e-05,0.01145636010915041
0.012461277656257153,-0.00029566296143457294,-0.012838980183005333,0.011914287693798542,-8.322960638906807e-05,0.01105782762169838
0.012327396310865879,-0.0002840067900251597,-0.012553516775369644,0.01221759058535099,-8.229094237321988e-05,0.011006058193743229
0.012485549785196781,-0.0003701940877363086,-0.012503784149885178,0.012429343536496162,-0.00012135589349782094,0.011540255509316921
0.012824898585677147,-0.00034592323936522007,-0.011907396838068962,0.012609551660716534,-0.00012079422594979405,0.011183294467628002
0.012824898585677147,-0.00034592323936522007,-0.011907396838068962,0.012609551660716534,-0.00012079422594979405,0.011183294467628002
0.013151496648788452,-0.00032127409940585494,-0.012564916163682938,0.012113872915506363,-0.00011780785280279815,0.011212221346795559
0.012308085337281227,-0.00029986450681462884,-0.012419086880981922,0.012364737689495087,-0.00011481337423902005,0.011867049150168896
0.012627438642084599,-0.00028112682048231363,-0.012278739362955093,0.011955942027270794,-0.00011195749539183453,0.011454782448709011
0.012697768397629261,-0.00026459505897946656,-0.012456183321774006,0.012247605249285698,-0.00010923956142505631,0.011323141865432262
0.013250303454697132,-0.0002939233963843435,-0.012058857828378677,0.012091513723134995,-0.00010665050649549812,0.01110110618174076
0.012284479103982449,-0.000269897747784853,-0.012171128764748573,0.012207690626382828,-0.00010182370897382498,0.011209729127585888
0.012923188507556915,-0.0002570505894254893,-0.01271190494298935,0.012218222953379154,-0.00011686900688800961,0.012171088717877865
0.013255002908408642,-0.0002721826604101807,-0.012137750163674355,0.012204215861856937,-0.00011672734399326146,0.011283657513558865
0.013421931304037571,-0.0002736321766860783,-0.012180991470813751,0.012056444771587849,-0.00011440997332101688,0.010262303054332733
0.012839743867516518,-0.000262412620941177,-0.012201081030070782,0.012245952151715755,-0.00011204605107195675,0.010612115263938904
0.013681133277714252,-0.0002519209810998291,-0.011838706210255623,0.012017257511615753,-0.0001097689601010643,0.011177707463502884
0.013165036216378212,-0.00027543495525605977,-0.012773282825946808,0.011702700518071651,-0.00010758210555650294,0.011479778215289116
0.013232857920229435,-0.00026656995760276914,-0.012106980197131634,0.01251507643610239,-0.00010548065620241687,0.011131745763123035
0.013232857920229435,-0.00026656995760276914,-0.012106980197131634,0.01251507643610239,-0.00010548065620241687,0.011131745763123035
0.013094373047351837,-0.0002570700889918953,-0.012786638922989368,0.011679202318191528,-0.00010345966438762844,0.011409226804971695
0.013271055184304714,-0.0002482085255905986,-0.01210132334381342,0.011620030738413334,-0.000116217095637694,0.011097157374024391
0.013158810324966908,-0.00023993685317691416,-0.012022098526358604,0.01180189661681652,-0.0001161036707344465,0.011659719049930573
0.013605564832687378,-0.00023219833383336663,-0.012488934211432934,0.012121227569878101,-0.00011413275933591649,0.011449075303971767
0.013405672274529934,-0.00020621104340534657,-0.01255893986672163,0.011592973954975605,-0.0001101507295970805,0.011669859290122986
0.013405672274529934,-0.00020621104340534657,-0.01255893986672163,0.011592973954975605,-0.0001101507295970805,0.011669859290122986
0.012657023034989834,-0.000188895282917656,-0.01265059132128954,0.011967040598392487,-0.00010642905544955283,0.011515233665704727
0.013374307192862034,-0.0002160679578082636,-0.012171799317002296,0.011467164382338524,-0.0001120226297643967,0.012178262695670128
0.01305844634771347,-0.00020909738668706268,-0.012727521359920502,0.011933272704482079,-0.00011716233711922541,0.011588962748646736
0.01367912907153368,-0.00020132021745666862,-0.012641252018511295,0.01182506699115038,-0.00011573379742912948,0.011627511121332645
0.013220112770795822,-0.00019408472871873528,-0.012197697535157204,0.011654023081064224,-0.00011393205932108685,0.011427534744143486
0.01341201364994049,-0.00020785408560186625,-0.012914396822452545,0.011793485842645168,-0.00011221646855119616,0.011100725270807743
0.01341201364994049,-0.00020785408560186625,-0.012914396822452545,0.011793485842645168,-0.00011221646855119616,0.011100725270807743
0.0131288543343544,-0.00021110304805915803,-0.012465491890907288,0.011570255272090435,-0.00014829824795015156,0.011509973555803299
0.013531039468944073,-0.00020439107902348042,-0.013165732845664024,0.011614715680480003,-0.00014608236961066723,0.011304482817649841
0.013503510504961014,-0.00019193877233192325,-0.012490913271903992,0.01152776274830103,-0.0001373405975755304,0.011550435796380043
0.013512099161744118,-0.00018626377277541906,-0.012735933065414429,0.011605356819927692,-0.00014635278785135597,0.012158958241343498
0.013266394846141338,-0.00018091528909280896,-0.012718859128654003,0.011769037693738937,-0.00015444120799656957,0.011810916475951672
0.01351515855640173,-0.0001758648140821606,-0.013297046534717083,0.011759432032704353,-0.00015092639659997076,0.011454811319708824
0.013483953662216663,-0.0001710888755042106,-0.012467247433960438,0.011587336659431458,-0.000146873586345464,0.011681887321174145
0.013934608548879623,-0.00016656549996696413,-0.012921307235956192,0.0120498426258564,-0.00016367815260309726,0.0115158436819911
0.01341044157743454,-0.00016227543528657407,-0.01244185958057642,0.011953212320804596,-0.00016231040353886783,0.011322302743792534
0.013784383423626423,-0.00015820017142686993,-0.013417043723165989,0.011487811803817749,-0.00015841516142245382,0.011407870799303055
0.013377306051552296,-0.00015432509826496243,-0.012864744290709496,0.011973783373832703,-0.00015454112144652754,0.011385324411094189
0.013742862269282341,-0.0001506351982243359,-0.012812544591724873,0.01169645693153143,-0.00016143088578246534,0.011792791076004505
0.013742862269282341,-0.0001506351982243359,-0.012812544591724873,0.01169645693153143,-0.00016143088578246534,0.011792791076004505
0.014190930873155594,-7.701448339503258e-05,-0.01269849855452776,0.011969835497438908,-0.0001644655130803585,0.011888685636222363
0.014190930873155594,-7.701448339503258e-05,-0.01269849855452776,0.011969835497438908,-0.0001644655130803585,0.011888685636222363
0.014295718632638454,-3.514191848807968e-05,-0.01271642092615366,0.012052441947162151,-0.00021055458637420088,0.011991261504590511
0.014295718632638454,-3.514191848807968e-05,-0.01271642092615366,0.012052441947162151,-0.00021055458637420088,0.011991261504590511
0.014008155092597008,-6.7064946051687e-05,-0.013247453607618809,0.011766430921852589,-0.0002490444458089769,0.012485026381909847
0.013867218047380447,-6.508627848234028e-05,-0.01228164229542017,0.012123867869377136,-0.00023909004812594503,0.01179872453212738
0.013494327664375305,-6.282063259277493e-05,-0.012863917276263237,0.012196657247841358,-0.00022722840367350727,0.01223348081111908
0.013892008922994137,-6.070213930797763e-05,-0.01253102533519268,0.012416256591677666,-0.00025661190738901496,0.012205187231302261
0.013762722723186016,-5.872178735444322e-05,-0.012532449327409267,0.012084588408470154,-0.0002474783977959305,0.011845205910503864
0.014083093032240868,-5.686649092240259e-05,-0.012447423301637173,0.011522446759045124,-0.00023679509467910975,0.01225751917809248
0.014176769182085991,-5.512500138138421e-05,-0.012591073289513588,0.01220284216105938,-0.00022685666044708341,0.012165909633040428
0.013999740593135357,-5.348693593987264e-05,-0.012307627126574516,0.012006339617073536,-0.00023546312877442688,0.012069557793438435
0.014172575436532497,-5.0486414693295956e-05,-0.012396185658872128,0.012727237306535244,-0.00023495966161135584,0.011750441044569016
0.013803561218082905,-4.9108999519376084e-05,-0.011986726894974709,0.012388776987791061,-0.00022657900990452617,0.012579795904457569
0.014006045646965504,-4.7804784117033705e-05,-0.011643549427390099,0.01225051935762167,-0.00021871607168577611,0.011654719710350037
0.014522724784910679,-4.6567980461986735e-05,-0.012375247664749622,0.01216970570385456,-0.00023372552823275328,0.011442792601883411
0.014119001105427742,-4.539360452326946e-05,-0.012407483533024788,0.012658020481467247,-0.00023321840853895992,0.011489620432257652
0.014103271067142487,-4.4276956032263115e-05,-0.012706589885056019,0.011795018799602985,-0.00022634764900431037,0.012190496549010277
0.013849271461367607,-4.321399319451302e-05,-0.012287690304219723,0.01277980487793684,-0.00021998285956215113,0.012311351485550404
0.014824415557086468,-4.220086339046247e-05,-0.013043341226875782,0.012220700271427631,-0.00025757859111763537,0.012269552797079086
0.013782676309347153,-4.1234114178223535e-05,-0.012673080898821354,0.011162800714373589,-0.0002467365120537579,0.012384110130369663
0.013849903829395771,-4.031069693155587e-05,-0.012847905978560448,0.012103592976927757,-0.00023411070287693292,0.011932753026485443
0.01383731048554182,-3.942769762943499e-05,-0.01247047632932663,0.012570029124617577,-0.0002639943268150091,0.011876793578267097
0.01439633034169674,-3.8582631532335654e-05,-0.012323436327278614,0.013005624525249004,-0.00027497849077917635,0.01250297948718071
0.014398375526070595,-3.777293750317767e-05,-0.012970552779734135,0.011939223855733871,-0.00028208293952047825,0.011465795338153839
0.01421729288995266,-3.6996600101701915e-05,-0.012581756338477135,0.011929811909794807,-0.00029015608015470207,0.011471842415630817
0.01421729288995266,-3.6996600101701915e-05,-0.012581756338477135,0.011929811909794807,-0.00029015608015470207,0.011471842415630817
0.013934072107076645,-3.625146928243339e-05,-0.01309871580451727,0.012349322438240051,-0.00029595469823107123,0.011758627369999886
0.014046761207282543,-3.553581336745992e-05,-0.012355257757008076,0.01198518369346857,-0.000444087345385924,0.012401373125612736
0.01379322912544012,-3.484786066110246e-05,-0.012848099693655968,0.012181662023067474,-0.0005295680020935833,0.01231556385755539
0.013767233118414879,-3.3548854844411835e-05,-0.01300058513879776,0.012306286953389645,-0.0005285342922434211,0.012235558591783047
0.013767233118414879,-3.3548854844411835e-05,-0.01300058513879776,0.012306286953389645,-0.0005285342922434211,0.012235558591783047
0.014109076000750065,-3.293501504231244e-05,-0.013164038769900799,0.012424704618752003,-0.0005536769749596715,0.012136896140873432
0.013658100739121437,-3.234324685763568e-05,-0.012321521528065205,0.012436479330062866,-0.0006576534360647202,0.012311657890677452
0.01423817127943039,-3.1772324291523546e-05,-0.012530418112874031,0.012179945595562458,-0.000690503278747201,0.0120546231046319
0.014054443687200546,-2.0946739823557436e-05,-0.012214495800435543,0.011941468343138695,-0.0007100927177816629,0.012406331486999989
0.014636228792369366,-1.5416058886330575e-05,-0.012827371247112751,0.011992791667580605,-0.0006915557896718383,0.012202602811157703
0.01354542002081871,-1.5088211512193084e-05,-0.012734394520521164,0.011581949889659882,-0.0006651335279457271,0.011966889724135399
0.014277433045208454,-1.4838520655757748e-05,-0.012608952820301056,0.011846986599266529,-0.0006043254397809505,0.012163365259766579
0.014174041338264942,-1.4597835615859367e-05,-0.012182354927062988,0.011696083471179008,-0.0006247099372558296,0.012191463261842728
0.013870487920939922,-1.4139173799776472e-05,-0.013081153854727745,0.011923587881028652,-0.0005592949455603957,0.012287251651287079
0.01420415285974741,-1.3920487617724575e-05,-0.012051143683493137,0.011574209667742252,-0.0005003642290830612,0.012238343246281147
0.013975391164422035,-1.370845620840555e-05,-0.0126405730843544,0.012084916234016418,-0.0005339711206033826,0.012212035246193409
0.01404980942606926,-1.3502785805030726e-05,-0.012529436498880386,0.012377554550766945,-0.0004908560076728463,0.012475495226681232
0.013842802494764328,-1.3303207197168376e-05,-0.012734130024909973,0.012241791002452374,-0.00045024629798717797,0.01266589853912592
0.014290248043835163,-1.3109430256008636e-05,-0.0126469936221838,0.012369593605399132,-0.0004155860224273056,0.012611792422831059
0.013811539858579636,-1.2921222150907852e-05,-0.012451713904738426,0.012082332745194435,-0.0004170705215074122,0.012804588302969933
0.014075963757932186,-1.2738341865770053e-05,-0.012655308470129967,0.012213451787829399,-0.00041797588346526027,0.012531418353319168
0.013827362097799778,-1.25605638459092e-05,-0.012076319195330143,0.0117277130484581,-0.0003937168512493372,0.012561138719320297
0.01426825113594532,-1.2387682545522694e-05,-0.013155722059309483,0.011974797584116459,-0.0003706630668602884,0.012774582952260971
0.014015628956258297,-1.221949696628144e-05,-0.012446576729416847,0.01209072582423687,-0.0003500653838273138,0.01237674430012703
0.014243748970329762,-1.2055814295308664e-05,-0.01319203246384859,0.012066577561199665,-0.0003316313959658146,0.012205749750137329
0.014357035979628563,-1.1896463547600433e-05,-0.012651081196963787,0.0117711890488863,-0.0003150423290207982,0.011793142184615135
0.014222847297787666,-1.1741266462195199e-05,-0.01346711814403534,0.011527816765010357,-0.00033167513902299106,0.012279710732400417
0.014218779280781746,-1.1590064787014853e-05,-0.013216746039688587,0.011926724575459957,-0.00032657120027579367,0.012930631637573242
0.014218779280781746,-1.1590064787014853e-05,-0.013216746039688587,0.011926724575459957,-0.00032657120027579367,0.012930631637573242
0.014222287572920322,-1.14427066364442e-05,-0.012855997309088707,0.012112053111195564,-0.00031302039860747755,0.012813164852559566
0.01404497493058443,-1.1299054676783271e-05,-0.013386762700974941,0.012018094770610332,-0.00030001677805557847,0.013179493136703968
0.01398508995771408,-1.1158966117363889e-05,-0.012816929258406162,0.012267029844224453,-0.00028801627922803164,0.012849760241806507
0.014304126612842083,-3.762896085390821e-06,-0.013234516605734825,0.011947405524551868,-0.0002769360435195267,0.012572214007377625
0.014154243282973766,-5.048405782304144e-08,-0.012668403796851635,0.012183602899312973,-0.00023231684463098645,0.012491384521126747
0.014067278243601322,-6.773080429844924e-10,-0.013318278826773167,0.011974393390119076,-0.00021672363800462335,0.012804131954908371
0.014453782700002193,-9.086952544590243e-12,-0.013067465275526047,0.01226077415049076,-0.00020648819918278605,0.01283715944737196
0.014153185300529003,-1.2191305907502392e-13,-0.013533187098801136,0.011984525248408318,-0.00019740832794923335,0.01312724407762289
0.01430030819028616,-1.6356192447195147e-15,-0.013314480893313885,0.011758344247937202,-0.0001891096035251394,0.013210110366344452
0.014477008953690529,-2.9440567752408114e-19,-0.013316896744072437,0.01201358437538147,-0.00020696324645541608,0.012955944053828716
0.014141752384603024,-3.9498278146190545e-21,-0.012907687574625015,0.012105243280529976,-0.00020136559032835066,0.013101496733725071
0.014138154685497284,-5.299198374371114e-23,-0.013441557995975018,0.012278757058084011,-0.00019425887148827314,0.01293601468205452
0.01435645017772913,-7.109551222850675e-25,-0.013114098459482193,0.011725319549441338,-0.00018752120377030224,0.01308770477771759
0.014147162437438965,-9.538369887035957e-27,-0.014091849327087402,0.01206208486109972,-0.00018122763140127063,0.0130752669647336
0.014348532073199749,-1.2796940219390638e-28,-0.012811670079827309,0.011819222941994667,-0.00017534232756588608,0.0141040850430727
0.013976282440125942,-1.716872693952251e-30,-0.013048967346549034,0.011971198953688145,-0.00019438717572484165,0.013330497778952122
0.014195946976542473,-2.3034039556393196e-32,-0.01305739488452673,0.011520416475832462,-0.0001918457419378683,0.012646886520087719
0.013955015689134598,-3.0903103634644833e-34,-0.013829939067363739,0.011607696302235126,-0.00018639006884768605,0.013305971398949623
0.013955015689134598,-3.0903103634644833e-34,-0.013829939067363739,0.011607696302235126,-0.00018639006884768605,0.013305971398949623
0.0143148647621274,-4.1460454875782404e-36,-0.012896928004920483,0.01217338815331459,-0.00018104768241755664,0.013126603327691555
0.014187517575919628,-5.56244920946289e-38,-0.013143756426870823,0.011428210884332657,-0.00018833256035577506,0.01339385099709034
0.0142924003303051,-7.462741088623603e-40,-0.012722003273665905,0.011966538615524769,-0.00019483010692056268,0.013240745291113853
0.01392301730811596,-1.0012277527600818e-41,-0.013069906271994114,0.011890246532857418,-0.00019043427892029285,0.012919972650706768
0.014225911349058151,-1.3452465257518244e-43,-0.013003354892134666,0.012022189795970917,-0.0001855752052506432,0.012957117520272732
0.013784789480268955,-1.401298464324817e-45,-0.013072725385427475,0.012138442136347294,-0.00018091514357365668,0.013065461069345474
0.014487627893686295,-0.0,-0.01353549212217331,0.012068505398929119,-0.00017689786909613758,0.013423169031739235
0.014568774029612541,0.0,-0.012551061809062958,0.01280596386641264,-0.00019703531870618463,0.013600644655525684
0.014101341366767883,0.0,-0.012536438181996346,0.012520341202616692,-0.00018289039144292474,0.01340110506862402
0.014101341366767883,0.0,-0.012536438181996346,0.012520341202616692,-0.00018289039144292474,0.01340110506862402
0.014162756502628326,0.0,-0.013187109492719173,0.012110384181141853,-0.00017575359379407018,0.013504819013178349
0.013794698752462864,0.0,-0.012919601052999496,0.012015613727271557,-0.00020068083540536463,0.012935739941895008
0.014186030253767967,0.0,-0.013094629161059856,0.012337679043412209,-0.0001954719627974555,0.01335679180920124
0.014362439513206482,0.0,-0.01260447595268488,0.013267829082906246,-0.0001824036007747054,0.01335754245519638
0.013748611323535442,0.0,-0.012945090420544147,0.01223528292030096,-0.00017644332547206432,0.013471469283103943
0.014517697505652905,0.0,-0.012626503594219685,0.011981225572526455,-0.00019741652067750692,0.013249321840703487
0.014043398201465607,0.0,-0.013202856294810772,0.012028031051158905,-0.00019309710478410125,0.01313854195177555
0.014132782816886902,0.0,-0.012523732148110867,0.011339581571519375,-0.0001874639856396243,0.01306426152586937
0.01368493027985096,0.0,-0.01315346360206604,0.011678434908390045,-0.00020631248480640352,0.013239250518381596
0.014610745944082737,0.0,-0.012684362940490246,0.011500174179673195,-0.00020210376533214003,0.013385480269789696
0.014063646085560322,0.0,-0.012856455519795418,0.012105807662010193,-0.0002468668681103736,0.013698778115212917
0.0149619672447443,0.0,-0.012915587984025478,0.012052939273416996,-0.00027891265926882625,0.01356467790901661
0.014230357483029366,0.0,-0.012470090761780739,0.011814870871603489,-0.0003115199215244502,0.013648268766701221
0.014230357483029366,0.0,-0.012470090761780739,0.011814870871603489,-0.0003115199215244502,0.013648268766701221
0.014334123581647873,0.0,-0.013085206039249897,0.01237659901380539,-0.0003006587503477931,0.013343813829123974
0.014108460396528244,0.0,-0.012402321211993694,0.01321156695485115,-0.00032025930704548955,0.013575169257819653
0.014699362218379974,0.0,-0.01318490132689476,0.012102856300771236,-0.00031525210943073034,0.01362695824354887
0.013746562413871288,0.0,-0.012545956298708916,0.011343124322593212,-0.00030091151711530983,0.013557580299675465
0.014712855219841003,0.0,-0.013300489634275436,0.01144341193139553,-0.00031753891380503774,0.013341882266104221
0.01424043346196413,0.0,-0.012964350171387196,0.011966915801167488,-0.00031325416057370603,0.013617503456771374
0.015410255640745163,0.0,-0.01294378750026226,0.011586891487240791,-0.00030078866984695196,0.013606005348265171
0.015249556861817837,0.0,-0.013012876734137535,0.012425841763615608,-0.00028963445220142603,0.013538152910768986
0.015681667253375053,0.0,-0.012632908299565315,0.012076904997229576,-0.0003911186067853123,0.013327499851584435
0.015329052694141865,0.0,-0.01334610115736723,0.011617688462138176,-0.00042147934436798096,0.013202114030718803
0.015577999874949455,0.0,-0.01257310900837183,0.011941076256334782,-0.000406985345762223,0.01332932896912098
0.01539425365626812,0.0,-0.01308723259717226,0.011884895153343678,-0.00043413526145741343,0.013257987797260284
0.015451841056346893,0.0,-0.012698778882622719,0.012515174224972725,-0.0004131795431021601,0.01347037311643362
0.017412997782230377,0.0,-0.013356676325201988,0.012093023397028446,-0.00043614901369437575,0.013305624015629292
0.015239829197525978,0.0,-0.012860612012445927,0.01224009320139885,-0.0004759815346915275,0.012811025604605675
0.015605260618031025,0.0,-0.013112522661685944,0.012141426093876362,-0.0005004787817597389,0.013682476244866848
0.01592421345412731,0.0,-0.01271508913487196,0.012415299192070961,-0.0005332580185495317,0.013767903670668602
0.015412887558341026,0.0,-0.012971188873052597,0.012274662032723427,-0.0004952701274305582,0.014229499734938145
0.01579262688755989,0.0,-0.012509947642683983,0.012534953653812408,-0.0005098007968626916,0.014098920859396458
0.015696190297603607,0.0,-0.012918191030621529,0.012207918800413609,-0.00048756576143205166,0.014076908119022846
0.016587665304541588,0.0,-0.012562474235892296,0.012292640283703804,-0.0005011967150494456,0.014067977666854858
0.01598723605275154,0.0001151854230556637,-0.012926524505019188,0.012106414884328842,-0.00048248787061311305,0.01428535208106041
0.016152402386069298,0.0001493406161898747,-0.012965795584022999,0.011980894953012466,-0.0005238557350821793,0.014323296025395393
0.016044406220316887,0.00014503728016279638,-0.012685642577707767,0.012476720847189426,-0.0004923893720842898,0.014286945573985577
0.015937363728880882,0.00014051493781153113,-0.012725451961159706,0.012046254239976406,-0.0005279339384287596,0.013992168009281158
0.016208050772547722,0.00013626042346004397,-0.012408571317791939,0.012411382049322128,-0.0004858923493884504,0.0144601846113801
0.016208050772547722,0.00013626042346004397,-0.012408571317791939,0.012411382049322128,-0.0004858923493884504,0.0144601846113801
0.015819407999515533,0.0001322555326623842,-0.01278544683009386,0.012011540122330189,-0.0005151330842636526,0.014520931988954544
0.016037797555327415,0.0001498552446719259,-0.012895477935671806,0.012140290811657906,-0.0005097660468891263,0.014135107398033142
0.016037797555327415,0.0001498552446719259,-0.012895477935671806,0.012140290811657906,-0.0005097660468891263,0.014135107398033142
0.016777461394667625,0.00014584646851290017,-0.012475021183490753,0.011924037709832191,-0.0005967029719613492,0.01431360561400652
0.01621231995522976,0.00014201163139659911,-0.013369343243539333,0.011672317050397396,-0.0005442473338916898,0.014678452163934708
0.016360081732273102,0.00016050756676122546,-0.01294031459838152,0.011400964111089706,-0.0005576359108090401,0.014944777823984623
0.016176363453269005,0.0001573888148413971,-0.013347684405744076,0.011903194710612297,-0.0005252318223938346,0.01447642594575882
0.015967557206749916,0.00015356435324065387,-0.013184864073991776,0.012327800504863262,-0.00047993799671530724,0.01458391547203064
0.016670677810907364,0.00014991055650170892,-0.012599821202456951,0.012226947583258152,-0.0005090576596558094,0.01446345541626215
0.016121510416269302,0.00016489245172124356,-0.012937840074300766,0.012656738981604576,-0.00047510256990790367,0.014422024600207806
0.016630122438073158,0.0001635102235013619,-0.012537730857729912,0.011935736984014511,-0.00044203587458468974,0.014147177338600159
0.016446582973003387,0.0001599105162313208,-0.01324219536036253,0.01212017796933651,-0.00041305398917756975,0.014479360543191433
0.01651458628475666,0.0002345402754144743,-0.013439358212053776,0.011869107373058796,-0.00038779983879067004,0.014446563087403774
0.01651458628475666,0.0002345402754144743,-0.013439358212053776,0.011869107373058796,-0.00038779983879067004,0.014446563087403774
0.01641150191426277,0.00022296850511338562,-0.013495838269591331,0.011684559285640717,-0.0003735149512067437,0.014855549670755863
0.016275230795145035,0.00024988874793052673,-0.013296421617269516,0.012697718106210232,-0.0003554515715222806,0.014763853512704372
0.016836723312735558,0.00024336919886991382,-0.014288877137005329,0.012757155112922192,-0.0003387485630810261,0.014790627174079418
0.016632771119475365,0.0002329339913558215,-0.013467187061905861,0.012634982354938984,-0.0003066842909902334,0.01462774071842432
0.01679685339331627,0.0002477170783095062,-0.013168608769774437,0.012353274039924145,-0.0002732307184487581,0.014409647323191166
0.01688743382692337,0.0002500015834812075,-0.013296913355588913,0.012276923283934593,-0.0002566670300439,0.014617654494941235
0.01655217632651329,0.00024061537988018245,-0.013139366172254086,0.012306748889386654,-0.0002427520084893331,0.014996057376265526
0.01655643992125988,0.00023176521062850952,-0.013533844612538815,0.011991757899522781,-0.0002303189830854535,0.014844964258372784
0.016388732939958572,0.0002541827270761132,-0.013083220459520817,0.012426246888935566,-0.0002191009552916512,0.01564626395702362
0.016388732939958572,0.0002541827270761132,-0.013083220459520817,0.012426246888935566,-0.0002191009552916512,0.01564626395702362
0.017021821811795235,0.00023854670871514827,-0.013131762854754925,0.012310384772717953,-0.00023818884801585227,0.014521488919854164
0.017021821811795235,0.00023854670871514827,-0.013131762854754925,0.012310384772717953,-0.00023818884801585227,0.014521488919854164
0.01707741618156433,0.00032363380887545645,-0.013382257893681526,0.012671483680605888,-0.00022931287821847945,0.01463394146412611
0.017108947038650513,0.00030563530162908137,-0.013047722168266773,0.012050417251884937,-0.00022004787751939148,0.014736938290297985
0.016350673511624336,0.00032368715619668365,-0.01335868425667286,0.011989752762019634,-0.00021143541380297393,0.014446709305047989
0.016909519210457802,0.0003226816188544035,-0.013317232020199299,0.012225275859236717,-0.0002034676435869187,0.014694449491798878
0.016810113564133644,0.00030471704667434096,-0.013816560618579388,0.012194192968308926,-0.00019607845752034336,0.014838557690382004
0.01782764494419098,0.0003345416043885052,-0.013408240862190723,0.011960589326918125,-0.00018920715956483036,0.015216102823615074
0.01727154292166233,0.00031942344503477216,-0.01293878722935915,0.011789444833993912,-0.00018280114454682916,0.015320269390940666
0.016398953273892403,0.0003456881968304515,-0.013594698160886765,0.011847944930195808,-0.00017681496683508158,0.015026863664388657
0.017399515956640244,0.0003318500821478665,-0.013216403312981129,0.011650116182863712,-0.00017120843403972685,0.0148207638412714
0.016869934275746346,0.0004224486474413425,-0.01288604736328125,0.011667786166071892,-0.00018602528143674135,0.015248815529048443
0.016869934275746346,0.0004224486474413425,-0.01288604736328125,0.011667786166071892,-0.00018602528143674135,0.015248815529048443
0.01717505417764187,0.0004623143177013844,-0.013927021063864231,0.011899217963218689,-0.00018227494729217142,0.01562543958425522
0.01701141893863678,0.0004893441218882799,-0.012824627570807934,0.01189216785132885,-0.00017725308134686202,0.015160251408815384
0.017231525853276253,0.00048882543342188,-0.013320118188858032,0.012673781253397465,-0.0001678163680480793,0.014982152730226517
0.016965139657258987,0.0005808829446323216,-0.012517918832600117,0.012146343477070332,-0.0001634619984542951,0.015189388766884804
0.01739341951906681,0.0006681752274744213,-0.01290204282850027,0.01206433679908514,-0.00015932778478600085,0.014870183542370796
0.01713298261165619,0.0006948921945877373,-0.01342854555696249,0.011950263753533363,-0.00015539739979431033,0.015018749050796032
0.017213348299264908,0.0006358599639497697,-0.013672448694705963,0.011794071644544601,-0.000151656407979317,0.015343569219112396
0.017211660742759705,0.0006589848781004548,-0.012944015674293041,0.013767632655799389,-0.00014809136337134987,0.015244792215526104
0.017682431265711784,0.0007734787650406361,-0.0130225894972682,0.012035200372338295,-0.00014469002780970186,0.015801871195435524
0.01787334680557251,0.0008258420275524259,-0.012853601947426796,0.012008735910058022,-0.00014144156011752784,0.015665162354707718
0.017252633348107338,0.000755271059460938,-0.013540099374949932,0.012184875085949898,-0.0001383355411235243,0.015688594430685043
0.01782921329140663,0.000771881896071136,-0.01287367008626461,0.012259121984243393,-0.00013536321057472378,0.015545004978775978
0.017603229731321335,0.0007830967660993338,-0.013645123690366745,0.012380382977426052,-0.000132515822770074,0.015661489218473434
0.017831534147262573,0.0008404380059801042,-0.013345777057111263,0.012416631914675236,-0.00012978582526557148,0.015335395000874996
0.017706509679555893,0.000851463177241385,-0.01369392592459917,0.01269316952675581,-0.00012716595665551722,0.015805033966898918
0.017320318147540092,0.0008582701557315886,-0.013273627497255802,0.012601247988641262,-0.00012464979954529554,0.01574014127254486
0.01807677187025547,0.0008383988752029836,-0.013412072323262691,0.012951824814081192,-0.0001308226492255926,0.015358488075435162
0.018160438165068626,0.000788135570473969,-0.013467524200677872,0.012627663090825081,-0.0001364550116704777,0.015486561693251133
0.01760847680270672,0.0009374830406159163,-0.012931130826473236,0.012807426042854786,-0.00013443698117043823,0.016226906329393387
0.017989477142691612,0.0009335806826129556,-0.013341013342142105,0.012891058810055256,-0.00013200670946389437,0.015120171010494232
0.017989477142691612,0.0009335806826129556,-0.013341013342142105,0.012891058810055256,-0.00013200670946389437,0.015120171010494232
0.01779046095907688,0.0009569294634275138,-0.013161545619368553,0.012384171597659588,-0.00012963218614459038,0.014946699142456055
0.017997898161411285,0.0010259058326482773,-0.013777841813862324,0.012371431104838848,-0.00012733967741951346,0.01565081812441349
0.018383147194981575,0.001073912950232625,-0.012731635011732578,0.012173788622021675,-0.00012512669491115957,0.01588863506913185
0.01768527552485466,0.0010500875068828464,-0.013471434824168682,0.012960443273186684,-0.00012298920773901045,0.016054995357990265
0.018274640664458275,0.0010285412427037954,-0.012564845383167267,0.01216910406947136,-0.00012092363613191992,0.015535411424934864
0.01805746927857399,0.0010259291157126427,-0.013356873765587807,0.012121148407459259,-0.00011892616748809814,0.01572129689157009
0.01835228130221367,0.000989965396001935,-0.013237486593425274,0.011905387043952942,-0.000115123089926783,0.015742452815175056
0.01839045062661171,0.0009776114020496607,-0.013358468189835548,0.012331762351095676,-0.00011331125278957188,0.015347843989729881
0.0180534515529871,0.0010679529514163733,-0.01328505389392376,0.012045105919241905,-0.00011155568063259125,0.01524458546191454
0.0178652573376894,0.0010795564157888293,-0.0134758735075593,0.012390954419970512,-0.00010985364497173578,0.015935342758893967
0.01797661744058132,0.0010642459383234382,-0.012920294888317585,0.012356538325548172,-0.00010820268653333187,0.015935005620121956
0.018609950318932533,0.0013419443275779486,-0.012973072938621044,0.012169825844466686,-0.00010660070984158665,0.016648586839437485
0.018313061445951462,0.0013213579077273607,-0.012169428169727325,0.012235058471560478,-0.00010504543752176687,0.016266895458102226
0.018060358241200447,0.0012864582240581512,-0.01284570712596178,0.011654178611934185,-0.00010353489051340148,0.016288870945572853
0.018649911507964134,0.0014392116572707891,-0.01280512660741806,0.01197639387100935,-8.428136061411351e-05,0.01591784693300724
0.018509894609451294,0.0014998376136645675,-0.013572926633059978,0.011726022697985172,-8.036089275265113e-05,0.015269747003912926
0.018452372401952744,0.0016241779085248709,-0.013130217790603638,0.011957267299294472,-7.879597251303494e-05,0.015433765016496181
0.018628878518939018,0.0016690108459442854,-0.012852299027144909,0.012113722041249275,-7.742987509118393e-05,0.015750454738736153
0.018378272652626038,0.0018756820354610682,-0.012820456176996231,0.012280773371458054,-7.611941691720858e-05,0.016323918476700783
0.018277792260050774,0.0018839150434359908,-0.012465575709939003,0.012829379178583622,-7.485319656552747e-05,0.016244200989603996
0.018422093242406845,0.0016813918482512236,-0.012696747668087482,0.012084739282727242,-8.642828470328823e-05,0.015987878665328026
0.019170822575688362,0.0015204481314867735,-0.012232692912220955,0.012510349974036217,-8.680596511112526e-05,0.01577298529446125
0.019469060003757477,0.0015624187653884292,-0.01305502001196146,0.012135179713368416,-8.554619853384793e-05,0.016435274854302406
0.019235044717788696,0.0015573668060824275,-0.013087732717394829,0.012549534440040588,-8.421957318205386e-05,0.015965454280376434
0.018674248829483986,0.0016203605337068439,-0.013623562641441822,0.01254260167479515,-8.973402145784348e-05,0.016843177378177643
0.018674248829483986,0.0016203605337068439,-0.013623562641441822,0.01254260167479515,-8.973402145784348e-05,0.016843177378177643
0.018594184890389442,0.0019181242678314447,-0.012732047587633133,0.01240573637187481,-9.482656605541706e-05,0.016557682305574417
0.018733499571681023,0.001988961361348629,-0.013021441176533699,0.012800564058125019,-9.383501310367137e-05,0.01626267470419407
0.018787449225783348,0.0023026415146887302,-0.012953884899616241,0.01234747190028429,-9.248499554814771e-05,0.016967471688985825
0.019288571551442146,0.002013278193771839,-0.01262452732771635,0.012547247111797333,-0.00010330722579965368,0.015566282905638218
0.01915275864303112,0.001852968242019415,-0.01313209068030119,0.012039396911859512,-0.00010262809519190341,0.015160322189331055
0.01853332668542862,0.0017845184775069356,-0.0129473265260458,0.012434487231075764,-0.00010123692482011393,0.015838762745261192
0.019509654492139816,0.0017577033722773194,-0.01381548959761858,0.012239892967045307,-0.00017576589016243815,0.01632285863161087
0.019472485408186913,0.0017764609074220061,-0.013056807219982147,0.012040896341204643,-0.0002375956391915679,0.016337256878614426
0.01934112049639225,0.0021543162874877453,-0.013172578997910023,0.01220835093408823,-0.00021918905258644372,0.016669295728206635
0.020007876679301262,0.0023684680927544832,-0.013552696444094181,0.012485857121646404,-0.0002294466830790043,0.01657715253531933
0.01810864917933941,0.002081760438159108,-0.013117636553943157,0.011963192373514175,-0.00023829820565879345,0.016634836792945862
0.019053196534514427,0.002168311970308423,-0.013442873023450375,0.01225354801863432,-0.0002294141158927232,0.016337698325514793
0.019511697813868523,0.0021103646140545607,-0.013708175159990788,0.01230507344007492,-0.00023809111735317856,0.01645997352898121
0.01928669586777687,0.0020370413549244404,-0.01362477894872427,0.012285980395972729,-0.0002455509966239333,0.01672026701271534
0.019960490986704826,0.0020827006082981825,-0.014074291102588177,0.01287566777318716,-0.00023739170865155756,0.0166641678661108
0.020184215158224106,0.002094220370054245,-0.013675225898623466,0.012303298339247704,-0.00025718953111208975,0.016542961820960045
0.0191710963845253,0.0023821890354156494,-0.013555273413658142,0.012979360297322273,-0.0002520839043427259,0.016152000054717064
0.019737323746085167,0.002614722354337573,-0.013073163107037544,0.012336969375610352,-0.00024380222021136433,0.016579987481236458
0.019655508920550346,0.002437199931591749,-0.013835722580552101,0.012203478254377842,-0.00031315916567109525,0.01651584357023239
0.019513489678502083,0.0021989920642226934,-0.013748794794082642,0.012466625310480595,-0.00031659126398153603,0.016422009095549583
0.01991875283420086,0.0020854610484093428,-0.014869796112179756,0.01219764444977045,-0.0003487375215627253,0.016415473073720932
0.019686458632349968,0.002011231379583478,-0.014037614688277245,0.012803547084331512,-0.0003342702111694962,0.016477495431900024
0.019501114264130592,0.001966088777408004,-0.014030111022293568,0.012671739794313908,-0.00034080009208992124,0.016718871891498566
0.019726693630218506,0.002436666749417782,-0.013725833036005497,0.012669425457715988,-0.00034573511220514774,0.016765905544161797
0.019726693630218506,0.002436666749417782,-0.013725833036005497,0.012669425457715988,-0.00034573511220514774,0.016765905544161797
0.02035868912935257,0.0028057016897946596,-0.01476017665117979,0.013004102744162083,-0.00036391010507941246,0.017153967171907425
0.019739830866456032,0.002682154532521963,-0.013253987766802311,0.012421946972608566,-0.0003568555985111743,0.016779335215687752
0.01969240978360176,0.0023744443897157907,-0.013731175102293491,0.011844172142446041,-0.0003406844334676862,0.016770673915743828
0.020033158361911774,0.002218292560428381,-0.013391101732850075,0.01167608518153429,-0.00032533358898945153,0.016530834138393402
0.020001690834760666,0.002156038535758853,-0.0142527986317873,0.012132606469094753,-0.00041474727913737297,0.01653250865638256
0.019844064489006996,0.0024626855738461018,-0.01405492052435875,0.01183807011693716,-0.0003941092290915549,0.016817087307572365
0.019928978756070137,0.0024722495581954718,-0.0146858599036932,0.012443238869309425,-0.00042597478022798896,0.01784260757267475
0.019432848319411278,0.002568596974015236,-0.014091189950704575,0.012836560606956482,-0.000375334988348186,0.01615574024617672
0.020023997873067856,0.002399950288236141,-0.013522990047931671,0.013072873465716839,-0.0004053710144944489,0.01677514612674713
0.02008211426436901,0.002397160977125168,-0.014070836827158928,0.012602279894053936,-0.00038419096381403506,0.017154594883322716
0.019955093041062355,0.0026579995173960924,-0.013645235449075699,0.012447175569832325,-0.0004104944528080523,0.017111582681536674
0.019787194207310677,0.0025677073281258345,-0.014229393564164639,0.012114197015762329,-0.0003913340624421835,0.017015723511576653
0.01995103433728218,0.002980740973725915,-0.014326559379696846,0.012563440948724747,-0.00037233493640087545,0.01662798598408699
0.019910380244255066,0.002762989141047001,-0.014171957969665527,0.012342767789959908,-0.0004185876459814608,0.0172099806368351
0.01992974802851677,0.0025987301487475634,-0.013889309950172901,0.012945172376930714,-0.00045989779755473137,0.017477968707680702
0.019988475367426872,0.0026712024118751287,-0.014341305941343307,0.012474935501813889,-0.0004284388560336083,0.017514649778604507
0.019863316789269447,0.0028090740088373423,-0.014191804453730583,0.012146884575486183,-0.00045438369852490723,0.01731899194419384
0.0196548942476511,0.0029130808543413877,-0.01398473884910345,0.012574178166687489,-0.0004310924850869924,0.017090316861867905
0.0196548942476511,0.0029130808543413877,-0.01398473884910345,0.012574178166687489,-0.0004310924850869924,0.017090316861867905
0.01999404840171337,0.0029546725563704967,-0.014255469664931297,0.012864997610449791,-0.000431923836003989,0.017366446554660797
0.01956411451101303,0.002747346879914403,-0.014123049564659595,0.012608584947884083,-0.00041130208410322666,0.017505096271634102
0.020452838391065598,0.0026784685906022787,-0.013894550502300262,0.012685020454227924,-0.0004987901193089783,0.017583157867193222
0.020452838391065598,0.0026784685906022787,-0.013894550502300262,0.012685020454227924,-0.0004987901193089783,0.017583157867193222
0.019907234236598015,0.0030883303843438625,-0.013557560741901398,0.012662790715694427,-0.0004951889859512448,0.01744396612048149
0.019907234236598015,0.0030883303843438625,-0.013557560741901398,0.012662790715694427,-0.0004951889859512448,0.01744396612048149
0.019758183509111404,0.0029186266474425793,-0.01369538251310587,0.012939227744936943,-0.0004900237545371056,0.017282851040363312
0.01945953071117401,0.002737626666203141,-0.014125623740255833,0.013081664219498634,-0.0005113375373184681,0.017548942938447
0.01945953071117401,0.002737626666203141,-0.014125623740255833,0.013081664219498634,-0.0005113375373184681,0.017548942938447
0.02013147622346878,0.0028816182166337967,-0.013891510665416718,0.01278282143175602,-0.00045449877507053316,0.01731042191386223
0.02013147622346878,0.0028816182166337967,-0.013891510665416718,0.01278282143175602,-0.00045449877507053316,0.01731042191386223
0.020120074972510338,0.0028809383511543274,-0.013575407676398754,0.01226046308875084,-0.0004620713589247316,0.01746375486254692
0.01934674195945263,0.0026538451202213764,-0.014300458133220673,0.01269871648401022,-0.000450573192210868,0.017469193786382675
0.020401066169142723,0.002739366376772523,-0.013607560656964779,0.012389902956783772,-0.0004116046766284853,0.017426257953047752
0.020402202382683754,0.0027980597224086523,-0.013271701522171497,0.012894833460450172,-0.0004172783228568733,0.01938055269420147
0.019966617226600647,0.002855250146239996,-0.014094957150518894,0.013021637685596943,-0.00043508323142305017,0.017711680382490158
0.020589087158441544,0.0030870563350617886,-0.013616994954645634,0.01356514636427164,-0.0004208048922009766,0.017076358199119568
0.019646406173706055,0.003081361297518015,-0.013863957487046719,0.012784269638359547,-0.00039535429095849395,0.01735399290919304
0.01960739493370056,0.003089920384809375,-0.013444258831441402,0.012925853952765465,-0.00037205780972726643,0.01812593825161457
0.02005819045007229,0.002815402112901211,-0.013955358415842056,0.012256917543709278,-0.0003980204928666353,0.01804748922586441
0.02045523375272751,0.0022841491736471653,-0.013604954816401005,0.01263390202075243,-0.00038005108945071697,0.018505269661545753
0.01935202069580555,0.0015024219173938036,-0.013730990700423717,0.012948663905262947,-0.00036118002026341856,0.018212687224149704
0.02106022648513317,0.0010685246670618653,-0.013478456996381283,0.012682957574725151,-0.00036291294964030385,0.01838887855410576
0.0205063633620739,0.000862146494910121,-0.013504056259989738,0.013453412801027298,-0.0003428414056543261,0.017922403290867805
0.02007189765572548,0.0009589595720171928,-0.013838258571922779,0.01306372694671154,-0.00036592117976397276,0.01710423454642296
0.02007189765572548,0.0009589595720171928,-0.013838258571922779,0.01306372694671154,-0.00036592117976397276,0.01710423454642296
0.020074350759387016,0.0010068768169730902,-0.013429836370050907,0.013035302050411701,-0.00035639572888612747,0.017521850764751434
0.020859453827142715,0.0008954493096098304,-0.013699878938496113,0.011934745125472546,-0.00037636348861269653,0.01807134784758091
0.02073734626173973,0.0019576021004468203,-0.013455333188176155,0.012321021407842636,-0.00036732768057845533,0.01856113411486149
0.020309599116444588,0.0022401921451091766,-0.01379723846912384,0.012406200170516968,-0.0003721059765666723,0.0186447873711586
0.02079734019935131,0.0016199713572859764,-0.013759210705757141,0.012658859603106976,-0.00035797516466118395,0.01836710423231125
0.02079734019935131,0.0016199713572859764,-0.013759210705757141,0.012658859603106976,-0.00035797516466118395,0.01836710423231125
0.02069258503615856,0.0012531575048342347,-0.013392413035035133,0.012562019750475883,-0.00046162959188222885,0.018176063895225525
0.020792560651898384,0.0011644919868558645,-0.014285275712609291,0.012585439719259739,-0.00043520811595954,0.018278587609529495
0.021234283223748207,0.001122277812100947,-0.013835078105330467,0.012583003379404545,-0.00039788498543202877,0.01836860366165638
0.02063562162220478,0.0008439892553724349,-0.014201205223798752,0.013080594129860401,-0.0003656050830613822,0.01791556552052498
0.02065313421189785,0.0009585342486388981,-0.013737617060542107,0.012728480622172356,-0.00038778138696216047,0.017766255885362625
0.02091248892247677,0.0015224978560581803,-0.013825987465679646,0.012890558689832687,-0.0003761916304938495,0.017136359587311745
0.020685309544205666,0.0017656784038990736,-0.013720500282943249,0.012769708409905434,-0.00035262477467767894,0.017204027622938156
0.020616859197616577,0.0013603281695395708,-0.014205137267708778,0.013869582675397396,-0.00031193162431009114,0.018795007839798927
0.021215448155999184,0.0010908968979492784,-0.014698537066578865,0.012477154843509197,-0.00033112562960013747,0.018569037318229675
0.02106182463467121,0.0010509552666917443,-0.013658094219863415,0.012439488433301449,-0.00032537488732486963,0.019240686669945717
0.020740587264299393,0.001120785134844482,-0.014356330037117004,0.012232134118676186,-0.0003100974136032164,0.017710497602820396
0.02104886621236801,0.0012527148937806487,-0.014199623838067055,0.012737858109176159,-0.0002955925592686981,0.01769883558154106
0.021165791898965836,0.0014126896858215332,-0.014355309307575226,0.012599694542586803,-0.0002823447866830975,0.018233735114336014
0.020841294899582863,0.002053334377706051,-0.013413463719189167,0.01277994830161333,-0.00030620198231190443,0.018646832555532455
0.020868347957730293,0.0019391757668927312,-0.013934986665844917,0.01322487834841013,-0.000295958569040522,0.018825488165020943
0.021359985694289207,0.0014575633686035872,-0.014410289004445076,0.013443760573863983,-0.00027438608231022954,0.01825316995382309
0.021359985694289207,0.0014575633686035872,-0.014410289004445076,0.013443760573863983,-0.00027438608231022954,0.01825316995382309
0.020969849079847336,0.001353185623884201,-0.014152194373309612,0.013156969100236893,-0.00024154734273906797,0.018356410786509514
0.02094828337430954,0.001386401359923184,-0.014144854620099068,0.013319444842636585,-0.00022811195231042802,0.01860254444181919
0.021100187674164772,0.0015206694370135665,-0.013546365313231945,0.012974808923900127,-0.0002546164614614099,0.01852789893746376
0.021100187674164772,0.0015206694370135665,-0.013546365313231945,0.012974808923900127,-0.0002546164614614099,0.01852789893746376
0.021277673542499542,0.001788426423445344,-0.014251751825213432,0.013402360491454601,-0.00024806373403407633,0.019214680418372154
0.021550169214606285,0.001934253377839923,-0.014001565054059029,0.012804500758647919,-0.00023748823150526732,0.018829310312867165
0.021514980122447014,0.001904854434542358,-0.013562378473579884,0.012843909673392773,-0.000260361674008891,0.018438629806041718
0.021909775212407112,0.0017340946942567825,-0.013834968209266663,0.01281973160803318,-0.00027508672792464495,0.01876022294163704
0.021909775212407112,0.0017340946942567825,-0.013834968209266663,0.01281973160803318,-0.00027508672792464495,0.01876022294163704
0.021454239264130592,0.001618652604520321,-0.013834909535944462,0.012940937653183937,-0.0002689906395971775,0.01866462640464306
0.020774567499756813,0.0016590587329119444,-0.013735072687268257,0.01287231594324112,-0.0004005022638011724,0.018795108422636986
0.02159239910542965,0.001681363908573985,-0.014100605621933937,0.012894977815449238,-0.00040996348252519965,0.018603051081299782
0.02162930928170681,0.0017741414485499263,-0.01348868664354086,0.012697734870016575,-0.0004340086306910962,0.018411915749311447
0.021798498928546906,0.0020110306795686483,-0.013886064291000366,0.012920436449348927,-0.0004178087110631168,0.018816055729985237
0.021932795643806458,0.0019075545715168118,-0.013855471275746822,0.012819630093872547,-0.0004190086910966784,0.019561490043997765
0.022178782150149345,0.0018777679651975632,-0.013575593940913677,0.012902932241559029,-0.0004452861030586064,0.01965872198343277
0.022054677829146385,0.001895419554784894,-0.01430010050535202,0.012912250123918056,-0.00042586951167322695,0.01899026334285736
0.022117719054222107,0.0019407047657296062,-0.013502117246389389,0.012932338751852512,-0.0005189410294406116,0.01841006800532341
0.022369882091879845,0.0022909119725227356,-0.014076123014092445,0.012906238436698914,-0.0004817668523173779,0.019625868648290634
0.02144431881606579,0.0020921460818499327,-0.013510734774172306,0.013323795981705189,-0.0005171663942746818,0.018639320507645607
0.0211879201233387,0.002239767462015152,-0.013951083645224571,0.013047527521848679,-0.00047682307194918394,0.018672460690140724
0.021840926259756088,0.00241819117218256,-0.013620293699204922,0.01287507452070713,-0.0004920339561067522,0.018962223082780838
0.022568967193365097,0.0023208691272884607,-0.014202534221112728,0.012523793615400791,-0.00047180874389596283,0.01863046921789646
0.022198012098670006,0.0024920643772929907,-0.013754531741142273,0.013017496094107628,-0.0004399325989652425,0.019296087324619293
0.02222163788974285,0.002331655705347657,-0.014135277830064297,0.013075634837150574,-0.0004620376566890627,0.019426269456744194
0.021802613511681557,0.00243445485830307,-0.013720820657908916,0.013336858712136745,-0.0004406854568514973,0.019901622086763382
0.02222467213869095,0.0024374546483159065,-0.013910958543419838,0.012870797887444496,-0.00045355400652624667,0.01920647919178009
0.02222467213869095,0.0024374546483159065,-0.013910958543419838,0.012870797887444496,-0.00045355400652624667,0.01920647919178009
0.022453341633081436,0.0025996374897658825,-0.0138607919216156,0.012319502420723438,-0.0004252600483596325,0.019362788647413254
0.022322675213217735,0.002754285465925932,-0.014020419679582119,0.012779711745679379,-0.00045651267282664776,0.01885933242738247
0.022175252437591553,0.0028106968384236097,-0.013833415694534779,0.012238764204084873,-0.0004293810634408146,0.018676696345210075
0.02179950289428234,0.0027015735395252705,-0.014002213254570961,0.012545476667582989,-0.0003982893831562251,0.019033605232834816
0.02234034426510334,0.0024878683034330606,-0.013944748789072037,0.012418536469340324,-0.0003709500888362527,0.01923082210123539
0.0223268773406744,0.0024990704841911793,-0.01365602295845747,0.012646062299609184,-0.0004009064577985555,0.020163847133517265
0.02238050103187561,0.0027310352306813,-0.013950948603451252,0.013009659014642239,-0.0003802125283982605,0.020250732079148293
0.02210172824561596,0.002681584330275655,-0.013631473295390606,0.01286980789154768,-0.000406487233703956,0.01967458240687847
0.022484691813588142,0.0028733110520988703,-0.01392333023250103,0.013064614497125149,-0.00038771735853515565,0.019444486126303673
0.022488972172141075,0.002860790118575096,-0.013466773554682732,0.01251046359539032,-0.00041733626858331263,0.01948036067187786
0.022664835676550865,0.0028091028798371553,-0.013688316568732262,0.012301384471356869,-0.00039786085835658014,0.019687848165631294
0.02247650735080242,0.002585821785032749,-0.013287492096424103,0.012103991582989693,-0.0003665662370622158,0.01999133639037609
0.02229725942015648,0.0025971797294914722,-0.014562193304300308,0.013168572448194027,-0.0004020168853458017,0.019639497622847557
0.022938033565878868,0.00272829900495708,-0.014139611274003983,0.0122171426191926,-0.00037797793629579246,0.019339127466082573
0.022706136107444763,0.0026937476359307766,-0.013909909874200821,0.013194741681218147,-0.0003865514590870589,0.019346946850419044
0.022517140954732895,0.0027964876499027014,-0.01452634111046791,0.013258655555546284,-0.0003646251861937344,0.019377773627638817
0.022785961627960205,0.0026514141354709864,-0.013795129023492336,0.013262325897812843,-0.00038100112578831613,0.01952875778079033
0.022818179801106453,0.002732078079134226,-0.014471235685050488,0.012363726273179054,-0.00037265318678691983,0.020262155681848526
0.02291467785835266,0.0028088842518627644,-0.013701769523322582,0.01323118805885315,-0.0003561444173101336,0.018929224461317062
0.02239426225423813,0.0028309619519859552,-0.014663811773061752,0.012077242136001587,-0.00039023757562972605,0.01903541572391987
0.02259870246052742,0.002626631874591112,-0.014176665805280209,0.013133018277585506,-0.000398172385757789,0.019660400226712227
0.02295013517141342,0.002826371695846319,-0.014671405777335167,0.01186351291835308,-0.000400931021431461,0.01983465626835823
0.02359105832874775,0.002681116107851267,-0.014004887081682682,0.012099933810532093,-0.0004211729974485934,0.019582394510507584
0.023370057344436646,0.0026919154915958643,-0.014468635432422161,0.012501787394285202,-0.00040833003004081547,0.019651055335998535
0.02288961410522461,0.0027984757907688618,-0.014192298986017704,0.012522213160991669,-0.00042479432886466384,0.019583584740757942
0.02288961410522461,0.0027984757907688618,-0.014192298986017704,0.012522213160991669,-0.00042479432886466384,0.019583584740757942
0.02071497216820717,0.003075328189879656,-0.014713096432387829,0.013505512848496437,-0.00041311507811769843,0.019352592527866364
0.02327280305325985,0.0030903122387826443,-0.013988671824336052,0.012603409588336945,-0.0004749675281345844,0.019742008298635483
0.023998958989977837,0.0030248831026256084,-0.014748596586287022,0.012821209616959095,-0.000501552945934236,0.019932717084884644
0.02318747714161873,0.0028919829055666924,-0.013938885182142258,0.012818516232073307,-0.0005405521369539201,0.019511008635163307
0.02257467806339264,0.002857690677046776,-0.014602427370846272,0.013130443170666695,-0.0005366303957998753,0.02028026059269905
0.023135382682085037,0.003165843430906534,-0.014021254144608974,0.013105807825922966,-0.0005282028578221798,0.02046528458595276
0.023620931431651115,0.0032159071415662766,-0.014708214439451694,0.012750837020576,-0.000540885201189667,0.019987933337688446
0.02356487140059471,0.003098774002864957,-0.01427238155156374,0.012871168553829193,-0.0005180503358133137,0.02012176811695099
0.023391081020236015,0.002782419789582491,-0.014599381946027279,0.012929883785545826,-0.0005518730031326413,0.02032930962741375
0.022258123382925987,0.0027481447905302048,-0.014252053573727608,0.013378554955124855,-0.0005491813644766808,0.020167510956525803
0.02220197021961212,0.0027668108232319355,-0.015049095265567303,0.01324451994150877,-0.0005779744824394584,0.01968388445675373
0.023227550089359283,0.0031205257400870323,-0.014167692512273788,0.013466558419167995,-0.0005326709360815585,0.019943801686167717
0.023509681224822998,0.0032155790831893682,-0.01393976528197527,0.013100190088152885,-0.0005182837485335767,0.019624672830104828
0.023070840165019035,0.003384173847734928,-0.014297625981271267,0.012680397368967533,-0.00047997155343182385,0.02025539055466652
0.02289632335305214,0.003189265727996826,-0.013766742311418056,0.012908786535263062,-0.0004769648367073387,0.020390350371599197
0.022964663803577423,0.003199883969500661,-0.014820797368884087,0.01295277290046215,-0.00047390139661729336,0.02003062143921852
0.023665551096200943,0.003323593409731984,-0.014512433670461178,0.013063770718872547,-0.0004463645163923502,0.02012019418179989
0.023765750229358673,0.003017251845449209,-0.015136051923036575,0.013385208323597908,-0.0004364289634395391,0.020222768187522888
0.023231742903590202,0.00302393501624465,-0.014417285099625587,0.013190661557018757,-0.00040126137901097536,0.020717240869998932
0.023451313376426697,0.003075848799198866,-0.014461226761341095,0.013213756494224072,-0.00042268671677447855,0.019707558676600456
0.02341117523610592,0.0033435325603932142,-0.014016750268638134,0.01232404075562954,-0.00040754771907813847,0.019687769934535027
0.02344832569360733,0.003224545158445835,-0.01505394745618105,0.012707510031759739,-0.0003799548139795661,0.020088478922843933
0.023706108331680298,0.0034139256458729506,-0.014787591062486172,0.011967388913035393,-0.0004100667138118297,0.020322322845458984
0.02361155115067959,0.003661931725218892,-0.015310528688132763,0.012275098823010921,-0.00038837111787870526,0.020776299759745598
0.02361155115067959,0.003661931725218892,-0.015310528688132763,0.012275098823010921,-0.00038837111787870526,0.020776299759745598
0.023270800709724426,0.003251329530030489,-0.014670636504888535,0.012564906850457191,-0.000414699170505628,0.02124261111021042
0.023344876244664192,0.0032611365895718336,-0.01437875535339117,0.012581289745867252,-0.00039512294461019337,0.02074996940791607
0.023994924500584602,0.003317596623674035,-0.014178448356688023,0.012759841047227383,-0.0004415937000885606,0.02070201188325882
0.023974843323230743,0.003121894085779786,-0.014764941297471523,0.012389416806399822,-0.00042318610940128565,0.020092185586690903
0.02394675277173519,0.0030494914390146732,-0.014452381990849972,0.012603250332176685,-0.00038816771120764315,0.020178504288196564
0.023457592353224754,0.0033641201443970203,-0.014889700338244438,0.01242748461663723,-0.0004190694016870111,0.020289963111281395
0.02390560321509838,0.002949030604213476,-0.013985034078359604,0.01265779696404934,-0.0003966734220739454,0.0207301527261734
0.02388770319521427,0.002399751218035817,-0.014213618822395802,0.012830941937863827,-0.0003999754262622446,0.020985886454582214
0.023890627548098564,0.0022105288226157427,-0.01454578060656786,0.013017037883400917,-0.00040196397458203137,0.02051197737455368
0.024276459589600563,0.002171512693166733,-0.015161165036261082,0.013195356354117393,-0.00041948797297663987,0.020727908238768578
0.02404167316854,0.0024905698373913765,-0.014476832933723927,0.013760915957391262,-0.00038716159178875387,0.02121836133301258
0.02414040081202984,0.0028347529005259275,-0.014420951716601849,0.013734862208366394,-0.0004131887690164149,0.02078423649072647
0.024268142879009247,0.0028451187536120415,-0.015034892596304417,0.013884433545172215,-0.0003933536936528981,0.020299265161156654
0.02436402067542076,0.002508467063307762,-0.014876043424010277,0.013174561783671379,-0.0003626926918514073,0.020402872934937477
0.024418113753199577,0.0023377009201794863,-0.014764918945729733,0.013177125714719296,-0.0003849998174700886,0.02026044949889183
