davideferrari95/blind_handover_controller/data/Test 187 - [2024-02-08 -- 11-26-41]/joint_states_data.csv
shoulder_pan_joint,shoulder_lift_joint,elbow_joint,wrist_1_joint,wrist_2_joint,wrist_3_joint
0.008610367774963379,-0.008722998201847076,-0.025087790563702583,0.03174686059355736,0.0,0.008514014072716236
0.008610367774963379,-0.008722998201847076,-0.025087790563702583,0.03174686059355736,0.0,0.008514014072716236
0.008032952435314655,-0.009029334411025047,-0.02532653696835041,0.03187789022922516,0.0,0.008475521579384804
0.008032952435314655,-0.009029334411025047,-0.02532653696835041,0.03187789022922516,0.0,0.008475521579384804
0.008129444904625416,-0.009633811190724373,-0.025795072317123413,0.0319843515753746,0.0,0.00842589046806097
0.008144394494593143,-0.009160887449979782,-0.026634585112333298,0.031921401619911194,0.0,0.008226747624576092
0.008059747517108917,-0.0099953543394804,-0.026638859882950783,0.03343960642814636,0.0,0.008037492632865906
0.008114379830658436,-0.009759247303009033,-0.026160215958952904,0.034122269600629807,0.0,0.008221709169447422
0.008530080318450928,-0.009216438047587872,-0.026464225724339485,0.03246980160474777,0.0,0.007976959459483624
0.008232465013861656,-0.008530532009899616,-0.026697635650634766,0.03161696717143059,0.0,0.008155995048582554
0.008033853024244308,-0.008728064596652985,-0.026174550876021385,0.03345206752419472,0.0,0.008234893903136253
0.008447942323982716,-0.008735240437090397,-0.02617541141808033,0.032331712543964386,0.0,0.008048072457313538
0.008173632435500622,-0.007990965619683266,-0.026296516880393028,0.03193091228604317,0.0,0.008036907762289047
0.008133807219564915,-0.00850694440305233,-0.02593005821108818,0.033405352383852005,0.0,0.008042942732572556
0.008285718970000744,-0.008112199604511261,-0.02576812356710434,0.031957995146512985,0.0,0.008422709070146084
0.008242153562605381,-0.00824811216443777,-0.02616047114133835,0.031536370515823364,0.0,0.008508031256496906
0.00852493941783905,-0.009514889679849148,-0.026007840409874916,0.032709911465644836,0.0,0.008345096372067928
0.008256450295448303,-0.008931816555559635,-0.026122860610485077,0.032385461032390594,0.0,0.00834912434220314
0.008478892967104912,-0.008468911983072758,-0.026368863880634308,0.03233300521969795,0.0,0.008379567414522171
0.008558623492717743,-0.008789189159870148,-0.026099903509020805,0.03230605274438858,0.0,0.00817106943577528
0.008663090877234936,-0.008936242200434208,-0.02572033740580082,0.032163023948669434,0.0,0.00794181041419506
0.008272611536085606,-0.007967603392899036,-0.025750255212187767,0.031916674226522446,0.0,0.008083153516054153
0.008293702267110348,-0.008072548545897007,-0.026025963947176933,0.03231847286224365,0.0,0.008619623258709908
0.007886296138167381,-0.008297543041408062,-0.02625112794339657,0.03251758962869644,0.0,0.008164105005562305
0.00873801950365305,-0.008163130842149258,-0.02617347426712513,0.03260016813874245,0.0,0.008530640043318272
0.008659426122903824,-0.008019575849175453,-0.025626668706536293,0.03243260830640793,0.0,0.008062432520091534
0.008202159777283669,-0.00905709806829691,-0.025479651987552643,0.031855978071689606,0.0,0.008523494005203247
0.00869816355407238,-0.008309945464134216,-0.026485608890652657,0.03195820748806,0.0,0.008126359432935715
0.00869816355407238,-0.008309945464134216,-0.026485608890652657,0.03195820748806,0.0,0.008126359432935715
0.008146603591740131,-0.007861049845814705,-0.026646863669157028,0.031662262976169586,0.0,0.008394637145102024
0.008148477412760258,-0.008096456527709961,-0.026105089113116264,0.03204049542546272,0.0,0.008676273748278618
0.008020619861781597,-0.009181948378682137,-0.026463422924280167,0.03214172273874283,0.0,0.008511136285960674
0.008972538635134697,-0.00825923029333353,-0.0272775050252676,0.03228706121444702,0.0,0.008402083069086075
0.008288764394819736,-0.007938701659440994,-0.026739930734038353,0.031890735030174255,0.0,0.008149814791977406
0.0083621172234416,-0.008333571255207062,-0.025436850264668465,0.03208467364311218,0.0,0.007725070230662823
0.008543530479073524,-0.008714769035577774,-0.02540559507906437,0.032988324761390686,0.0,0.008679547347128391
0.008734891191124916,-0.008091084659099579,-0.026353633031249046,0.03183349221944809,0.0,0.008606595918536186
0.008707321248948574,-0.008036918006837368,-0.026844678446650505,0.030865008011460304,0.0,0.00872568879276514
0.009150716476142406,-0.008442828431725502,-0.02673543244600296,0.030925916507840157,0.0,0.008715066127479076
0.008652028627693653,-0.008420970290899277,-0.02639363333582878,0.03250110521912575,0.0,0.00811336375772953
0.008713020011782646,-0.0080783162266016,-0.026407234370708466,0.032212164252996445,0.0,0.008031188510358334
0.008731478825211525,-0.008167932741343975,-0.02657836116850376,0.033201172947883606,0.0,0.008204284124076366
0.009017102420330048,-0.008396080695092678,-0.026215361431241035,0.03183486685156822,0.0,0.00870656967163086
0.00854058563709259,-0.008217022754251957,-0.026041366159915924,0.031121481209993362,0.0,0.008633515797555447
0.008335829712450504,-0.009180624969303608,-0.02584386058151722,0.03139679133892059,0.0,0.008774345740675926
0.00952940620481968,-0.008201593533158302,-0.025676442310214043,0.032558031380176544,0.0,0.00830419547855854
0.008651629090309143,-0.007876714691519737,-0.02571135014295578,0.0321151427924633,0.0,0.008224913850426674
0.008357283659279346,-0.008135715499520302,-0.0257610771805048,0.0318765752017498,0.0,0.008113758638501167
0.009232865646481514,-0.008082653395831585,-0.02598930522799492,0.03224305436015129,0.0,0.007468037772923708
0.008315468207001686,-0.007897534407675266,-0.026495305821299553,0.03242173045873642,0.0,0.007870867848396301
0.007842041552066803,-0.008217050693929195,-0.025916974991559982,0.032111164182424545,0.0,0.008768043480813503
0.007990309037268162,-0.008274145424365997,-0.02590026892721653,0.03137277439236641,0.0,0.008912891149520874
0.008925081230700016,-0.00826757587492466,-0.025843767449259758,0.0315784215927124,0.0,0.008596962317824364
0.008069290779531002,-0.008487296290695667,-0.02559579908847809,0.03118184022605419,0.0,0.00807164330035448
0.007855686359107494,-0.008688011206686497,-0.025465402752161026,0.03152555972337723,0.0,0.008235667832195759
0.007855686359107494,-0.008688011206686497,-0.025465402752161026,0.03152555972337723,0.0,0.008235667832195759
0.00807829387485981,-0.00810200721025467,-0.025114163756370544,0.0316307507455349,0.0,0.008334239944815636
0.007919990457594395,-0.007513902150094509,-0.02575087733566761,0.03137601166963577,0.0,0.00836541410535574
0.008058696985244751,-0.007397781126201153,-0.025787562131881714,0.031794603914022446,0.0,0.008306293748319149
0.008169550448656082,-0.007737795822322369,-0.02569674886763096,0.03190883621573448,0.0,0.008197524584829807
0.008319101296365261,-0.00770914601162076,-0.0253863837569952,0.03165169060230255,0.0,0.008408362045884132
0.007991756312549114,-0.0077892872504889965,-0.025419753044843674,0.03231401368975639,0.0,0.008064763620495796
0.007384793367236853,-0.00759630324319005,-0.025588881224393845,0.0315467044711113,0.0,0.008194380439817905
0.007563869468867779,-0.007717031054198742,-0.025510787963867188,0.03090023249387741,0.0,0.007933339104056358
0.00823818240314722,-0.007952695712447166,-0.025189109146595,0.031178824603557587,0.0,0.0084998132660985
0.00829579122364521,-0.007602327968925238,-0.024908797815442085,0.03155084326863289,0.0,0.007938770577311516
0.007760570850223303,-0.007713021244853735,-0.024923725053668022,0.03181231766939163,0.0,0.007993191480636597
0.007604790385812521,-0.007801604922860861,-0.02532893791794777,0.03196213021874428,0.0,0.007907631807029247
0.008349577896296978,-0.008319900371134281,-0.025448426604270935,0.03146013617515564,0.0,0.008236723020672798
0.008662955835461617,-0.007911787368357182,-0.025819532573223114,0.03147590160369873,0.0,0.007727464661002159
0.008375147357583046,-0.007653412409126759,-0.026085475459694862,0.031328313052654266,0.0,0.007442004047334194
0.008044869638979435,-0.008054372854530811,-0.025300923734903336,0.03278164193034172,0.0,0.007996391505002975
0.007834253832697868,-0.007783035282045603,-0.02495076321065426,0.031647730618715286,0.0,0.007862986996769905
0.007715718355029821,-0.007750921882688999,-0.025205200538039207,0.030396947637200356,0.0,0.008651813492178917
0.008281712420284748,-0.007645127829164267,-0.026304828003048897,0.02987557090818882,0.0,0.008369805291295052
0.008455820381641388,-0.008012300357222557,-0.02577122114598751,0.031137220561504364,0.0,0.00798810739070177
0.007738733198493719,-0.007647782098501921,-0.02520955726504326,0.030494416132569313,0.0,0.007987450808286667
0.008128134533762932,-0.00808974914252758,-0.026014873757958412,0.030607134103775024,0.0,0.00792449526488781
0.008178320713341236,-0.00794519204646349,-0.02666449546813965,0.03149573504924774,0.0,0.00853636022657156
0.00797000527381897,-0.0076377815566957,-0.02576572261750698,0.030756086111068726,0.0,0.008452067151665688
0.00797000527381897,-0.0076377815566957,-0.02576572261750698,0.030756086111068726,0.0,0.008452067151665688
0.00819021463394165,-0.007607480511069298,-0.02512868121266365,0.029826641082763672,0.0,0.00832093320786953
0.007853411138057709,-0.007173190824687481,-0.024888737127184868,0.03007679432630539,0.0,0.008423552848398685
0.008168230764567852,-0.00729718990623951,-0.025393832474946976,0.03082454390823841,0.0,0.007858073338866234
0.008028531447052956,-0.007248094771057367,-0.02610129676759243,0.031138675287365913,0.0,0.0075081270188093185
0.007585817016661167,-0.007276412099599838,-0.025836538523435593,0.031762782484292984,0.0,0.008085234090685844
0.008711306378245354,-0.007504792418330908,-0.025514069944620132,0.03101503662765026,0.0,0.008390816859900951
0.008157814852893353,-0.008163996040821075,-0.025860337540507317,0.030775202438235283,0.0,0.008214147761464119
0.007717894855886698,-0.007268407382071018,-0.02557513676583767,0.030981820076704025,0.0,0.007864188402891159
0.008038160391151905,-0.0074625941924750805,-0.0250683780759573,0.031297601759433746,0.0,0.008578142151236534
0.008420624770224094,-0.007068705279380083,-0.02511921525001526,0.031104102730751038,0.0,0.008279516361653805
0.008380369283258915,-0.008044738322496414,-0.02543765679001808,0.031331758946180344,0.0,0.00805650744587183
0.008017835207283497,-0.00844236183911562,-0.024899203330278397,0.03132987022399902,0.0,0.007833563722670078
0.008256008848547935,-0.007223797496408224,-0.024767335504293442,0.031923163682222366,0.0,0.007786978501826525
0.009054458700120449,-0.007300994358956814,-0.025517290458083153,0.03188932687044144,0.0,0.008192256093025208
0.008048619143664837,-0.007639382965862751,-0.025226108729839325,0.0322287455201149,0.0,0.00844719260931015
0.008307860232889652,-0.007537307217717171,-0.024705810472369194,0.032326217740774155,0.0,0.008147726766765118
0.008770100772380829,-0.007539867889136076,-0.02461155503988266,0.031673330813646317,0.0,0.008097847923636436
0.008265580050647259,-0.007066082209348679,-0.024222057312726974,0.03221362829208374,0.0,0.00760599784553051
0.008863350376486778,-0.00714529026299715,-0.02423531375825405,0.032812513411045074,0.0,0.0074736326932907104
0.008863350376486778,-0.00714529026299715,-0.02423531375825405,0.032812513411045074,0.0,0.0074736326932907104
0.008203670382499695,-0.0072243125177919865,-0.024352848529815674,0.030316829681396484,0.0,0.008325740694999695
0.008098783902823925,-0.007007846608757973,-0.023865746334195137,0.030933672562241554,0.0,0.008036100305616856
0.009087364189326763,-0.007140485569834709,-0.02388518489897251,0.03167754039168358,0.0,0.0077121020294725895
0.008191164582967758,-0.007046103477478027,-0.024361776188015938,0.031610626727342606,0.0,0.007689164485782385
0.008163362741470337,-0.007063443306833506,-0.02519313432276249,0.03172812983393669,0.0,0.007568406406790018
0.008343669585883617,-0.007276786491274834,-0.025331363081932068,0.03189314529299736,0.0,0.007553420960903168
0.008763998746871948,-0.007429015357047319,-0.024866580963134766,0.03106054849922657,0.0,0.00810733437538147
0.00828276202082634,-0.007214850280433893,-0.0240036491304636,0.030203670263290405,0.0,0.008251083083450794
0.00828276202082634,-0.007214850280433893,-0.0240036491304636,0.030203670263290405,0.0,0.008251083083450794
0.008777438662946224,-0.007227398455142975,-0.024497075006365776,0.028680650517344475,0.0,0.00809174682945013
0.008704221807420254,-0.007419468369334936,-0.024793000891804695,0.0301564559340477,0.0,0.007804188411682844
0.008252306841313839,-0.0074399239383637905,-0.023920385167002678,0.030646339058876038,0.0,0.008199671283364296
0.007965907454490662,-0.007264252752065659,-0.024686863645911217,0.030290376394987106,0.0,0.007803943008184433
0.009410799480974674,-0.007310935296118259,-0.025991536676883698,0.02981913462281227,0.0,0.007980819791555405
0.008587487041950226,-0.007698087487369776,-0.02454022690653801,0.03003319352865219,0.0,0.00815532635897398
0.008391783572733402,-0.00733401020988822,-0.02453378587961197,0.029873469844460487,0.0,0.008312915451824665
0.009094358421862125,-0.007012953981757164,-0.024976836517453194,0.02991465851664543,0.0,0.007814185693860054
0.00806080549955368,-0.007376169785857201,-0.023633437231183052,0.029928354546427727,0.0,0.007538085337728262
0.007955214008688927,-0.007730231620371342,-0.024017060175538063,0.029938703402876854,0.0,0.007544005289673805
0.00790418405085802,-0.007781286258250475,-0.025093380361795425,0.030053846538066864,0.0,0.00811729859560728
0.008756342343986034,-0.007135139778256416,-0.02502775378525257,0.030352337285876274,0.0,0.007768168114125729
0.008501733653247356,-0.007298820186406374,-0.024539602920413017,0.03052452765405178,0.0,0.00783923827111721
0.008149252273142338,-0.007379865739494562,-0.024396302178502083,0.03059655986726284,0.0,0.0077935210429131985
0.008447116240859032,-0.007421775255352259,-0.024224035441875458,0.030818717554211617,0.0,0.00783729087561369
0.008680031634867191,-0.007218427490442991,-0.024222716689109802,0.030459560453891754,0.0,0.007471306715160608
0.008428600616753101,-0.008264811709523201,-0.024114202708005905,0.030264368280768394,0.0,0.0073878103867173195
0.008239799179136753,-0.007361548487097025,-0.024328742176294327,0.03053317591547966,0.0,0.007737770676612854
0.009020564146339893,-0.007105325814336538,-0.02430294081568718,0.029754482209682465,0.0,0.008167062886059284
0.007983767427504063,-0.0074067795649170876,-0.023802049458026886,0.029649104923009872,0.0,0.0075218938291072845
0.008476050570607185,-0.00745030865073204,-0.023631952702999115,0.029763540253043175,0.0,0.008121552877128124
0.00871922355145216,-0.007504526525735855,-0.023883366957306862,0.029627865180373192,0.0,0.008091883733868599
0.008509380742907524,-0.007183833979070187,-0.023806201294064522,0.029965966939926147,0.0,0.0075106751173734665
0.008886165916919708,-0.007307238411158323,-0.023822763934731483,0.02901291660964489,0.0,0.007260999642312527
0.008604472503066063,-0.00742095522582531,-0.023843931034207344,0.028510509058833122,0.0,0.007634643465280533
0.008706146851181984,-0.007305068429559469,-0.02339722216129303,0.028545016422867775,0.0,0.007930069230496883
0.007970109581947327,-0.007077362388372421,-0.022983364760875702,0.028918646275997162,0.0,0.007661541923880577
0.008901622146368027,-0.007138545624911785,-0.02317073754966259,0.029033787548542023,0.0,0.007450175005942583
0.008702531456947327,-0.007433982100337744,-0.023612719029188156,0.028687121346592903,0.0,0.008087459951639175
0.008702531456947327,-0.007433982100337744,-0.023612719029188156,0.028687121346592903,0.0,0.008087459951639175
0.008441487327218056,-0.00766818318516016,-0.02350769378244877,0.02912071906030178,0.0,0.00809673871845007
0.009809261187911034,-0.007120661437511444,-0.02288934588432312,0.029960287734866142,0.0,0.007844663225114346
0.008338693529367447,-0.0070911431685090065,-0.02304767072200775,0.02972722239792347,0.0,0.00752413272857666
0.008368035778403282,-0.007818062789738178,-0.023125704377889633,0.028145482763648033,0.0,0.007831592112779617
0.008532597683370113,-0.00780577352270484,-0.023130062967538834,0.028253240510821342,0.0,0.007723691873252392
0.008622202090919018,-0.007536812219768763,-0.02299136482179165,0.02932547964155674,0.0,0.007799719925969839
0.008437548764050007,-0.00746579933911562,-0.022984569892287254,0.029116392135620117,6.113995368650649e-06,0.007755289785563946
0.008699558675289154,-0.007446738891303539,-0.022786928340792656,0.029078327119350433,3.9920024619277683e-07,0.007666506338864565
0.008557572960853577,-0.007467764429748058,-0.022874189540743828,0.02962675876915455,2.6064920888302368e-08,0.007983981631696224
0.009027259424328804,-0.0068955449387431145,-0.0227555762976408,0.029513411223888397,1.7018529918644276e-09,0.007682471070438623
0.008534267544746399,-0.007173665799200535,-0.02282245084643364,0.029027611017227173,1.1111884329340072e-10,0.008027126081287861
0.008554905652999878,-0.0077080754563212395,-0.02240798808634281,0.028174012899398804,7.2552662662428435e-12,0.008003597147762775
0.009419641457498074,-0.0076215267181396484,-0.022439779713749886,0.028252845630049706,4.737170399872481e-13,0.007972851395606995
0.00898678507655859,-0.006785524543374777,-0.02314210683107376,0.02902979403734207,3.093033641710097e-14,0.007805713452398777
0.008589189499616623,-0.007014433853328228,-0.02427949570119381,0.028870342299342155,0.00027175937430001795,0.007856586948037148
0.009141175076365471,-0.007311068940907717,-0.023430125787854195,0.029466301202774048,0.00051818264182657,0.0075180744752287865
0.009165139868855476,-0.0072203814052045345,-0.022164182737469673,0.02908748760819435,0.0005249900277704,0.007910997606813908
0.008571906946599483,-0.007201629225164652,-0.0230422206223011,0.028872542083263397,0.0005513009964488447,0.0076218461617827415
0.009032459929585457,-0.007527397014200687,-0.02366170845925808,0.028669994324445724,0.0005429681623354554,0.007578854449093342
0.008867437019944191,-0.007071090396493673,-0.023104701191186905,0.02997431345283985,0.0007856280426494777,0.00632562767714262
0.008644717745482922,-0.0065360283479094505,-0.022270867601037025,0.02847166545689106,0.0008142777951434255,0.00782456248998642
0.009325000457465649,-0.006682329811155796,-0.023013537749648094,0.02837958186864853,0.0008258037851192057,0.008390814997255802
0.008593820035457611,-0.006949521601200104,-0.023527782410383224,0.028521738946437836,0.0007866361411288381,0.007320368196815252
0.008424601517617702,-0.007194294594228268,-0.023170094937086105,0.028496520593762398,0.0009067204082384706,0.007216230500489473
0.00916159525513649,-0.0071303099393844604,-0.022498708218336105,0.02829214185476303,0.0008964947191998363,0.007422273512929678
0.008856622502207756,-0.007040697615593672,-0.02157827466726303,0.028285300359129906,0.0007996645290404558,0.00813421793282032
0.008816791698336601,-0.007208418566733599,-0.02355402149260044,0.027839934453368187,0.0007539419457316399,0.007743899244815111
0.008816791698336601,-0.007208418566733599,-0.02355402149260044,0.027839934453368187,0.0007539419457316399,0.007743899244815111
0.00879483949393034,-0.007135923020541668,-0.02197045460343361,0.028230270370841026,0.0007174578495323658,0.007477954961359501
0.00885820109397173,-0.00736577482894063,-0.022871848195791245,0.028729915618896484,0.0006469319341704249,0.0075133382342755795
0.008829107508063316,-0.007456790655851364,-0.022951167076826096,0.028379034250974655,0.000664599530864507,0.007605376653373241
0.008296937681734562,-0.0076471720822155476,-0.022663770243525505,0.02761928364634514,0.0006130511173978448,0.007538474630564451
0.009089046157896519,-0.007067643105983734,-0.022634044289588928,0.027758777141571045,0.0005472159245982766,0.007508792448788881
0.008942630141973495,-0.0072847167029976845,-0.022821135818958282,0.028780866414308548,0.0004744690959341824,0.007991599850356579
0.008615219034254551,-0.007408044300973415,-0.02245115488767624,0.028980428352952003,0.0004282569861970842,0.007783193606883287
0.009208545088768005,-0.0074945734813809395,-0.022231847047805786,0.028765054419636726,0.00044824014184996486,0.007746056653559208
0.009241114370524883,-0.007454240694642067,-0.02287212386727333,0.02985936775803566,0.0004302293236833066,0.007517754565924406
0.008528070524334908,-0.007617798168212175,-0.02295926958322525,0.029724562540650368,0.00043183003435842693,0.0075645484030246735
0.008748309686779976,-0.006681079976260662,-0.022691180929541588,0.028625912964344025,0.00043183579691685736,0.007528912741690874
0.009355773217976093,-0.0067269280552864075,-0.022424032911658287,0.027700131759047508,0.0004059378115925938,0.007387871854007244
0.008652009069919586,-0.0069640506990253925,-0.021794555708765984,0.027926284819841385,0.0003814733063336462,0.007364524528384209
0.008833428844809532,-0.007007497362792492,-0.022426940500736237,0.029126597568392754,0.0004075169563293457,0.008004629984498024
0.008843832649290562,-0.00698794424533844,-0.02253888174891472,0.028452115133404732,0.0003689171280711889,0.007878158241510391
0.008913848549127579,-0.006745164282619953,-0.022122012451291084,0.028604190796613693,0.00035149158793501556,0.007465701084583998
0.008913848549127579,-0.006745164282619953,-0.022122012451291084,0.028604190796613693,0.00035149158793501556,0.007465701084583998
0.008944995701313019,-0.006648973561823368,-0.022345703095197678,0.028664512559771538,0.00031699746614322066,0.007778487633913755
0.008843353018164635,-0.006656731478869915,-0.022257672622799873,0.028254631906747818,0.0002961845602840185,0.007680090144276619
0.009252605959773064,-0.006698727607727051,-0.0219180416315794,0.02805771864950657,0.00032593734795227647,0.007328326348215342
0.00924442708492279,-0.007180241867899895,-0.022083129733800888,0.028574246913194656,0.0003135712177027017,0.0075497012585401535
0.009041385725140572,-0.006626637652516365,-0.022085003554821014,0.028597775846719742,0.000296761398203671,0.007491004187613726
0.009092507883906364,-0.006262419279664755,-0.0218040868639946,0.027685482054948807,0.0003159084590151906,0.007450938690453768
0.009354365058243275,-0.0067987325601279736,-0.021802086383104324,0.027681950479745865,0.00031115254387259483,0.007265562657266855
0.009290552698075771,-0.006017071194946766,-0.021492116153240204,0.027721744030714035,0.0002971811918541789,0.007755673956125975
0.008755040355026722,-0.005185870453715324,-0.021820325404405594,0.027587704360485077,0.00031896185828372836,0.007452081423252821
0.009751318953931332,-0.004851074889302254,-0.02241969108581543,0.02758476696908474,0.0003100444737356156,0.007487358991056681
0.009026521816849709,-0.004626271780580282,-0.022598370909690857,0.027037417516112328,0.00033668606192804873,0.007600067649036646
0.008545110933482647,-0.005111871752887964,-0.02124641276896,0.02686561457812786,0.0003486887435428798,0.008168634958565235
0.008910919539630413,-0.005477233324199915,-0.021845374256372452,0.026918496936559677,0.0003259186341892928,0.007844853214919567
0.009219340980052948,-0.005178587045520544,-0.021650157868862152,0.026592351496219635,0.0003606000682339072,0.0079894894734025
0.009219340980052948,-0.005178587045520544,-0.021650157868862152,0.026592351496219635,0.0003606000682339072,0.0079894894734025
0.008899105712771416,-0.005092271603643894,-0.021563950926065445,0.026865217834711075,0.0003414866514503956,0.007917393930256367
0.009159245528280735,-0.004930556286126375,-0.021567655727267265,0.026469726115465164,0.00036085397005081177,0.007669590413570404
0.00937824696302414,-0.00489417091012001,-0.022223083302378654,0.026045190170407295,0.00035298432339914143,0.007632447872310877
0.008665856905281544,-0.005100973881781101,-0.022074038162827492,0.026660999283194542,0.0003703171678353101,0.007695098873227835
0.008926700800657272,-0.00500678364187479,-0.02171378582715988,0.027395324781537056,0.00036277444451116025,0.007586400490254164
0.00916342530399561,-0.005061048083007336,-0.021565033122897148,0.027286222204566002,0.00047258383710868657,0.007585655432194471
0.009036471135914326,-0.004899055231362581,-0.02248763106763363,0.02686273492872715,0.000488110410515219,0.007684888318181038
0.008628720417618752,-0.004728142637759447,-0.022071706131100655,0.026911335065960884,0.0004843764181714505,0.007217175327241421
0.009008717723190784,-0.004595410078763962,-0.022485041990876198,0.027057887986302376,0.00044688902562484145,0.007643966469913721
0.009119514375925064,-0.004746294114738703,-0.021527927368879318,0.02707279846072197,0.00047224550507962704,0.007650962099432945
0.0088294493034482,-0.00524524413049221,-0.02097971923649311,0.027005109935998917,0.0004468353290576488,0.007570935413241386
0.009199565276503563,-0.0049109067767858505,-0.021076058968901634,0.026676446199417114,0.00046928893425501883,0.008070231415331364
0.008802602998912334,-0.00440477067604661,-0.021710140630602837,0.026854971423745155,0.0004908547271043062,0.008048244751989841
0.008957235142588615,-0.0045945229940116405,-0.021502556279301643,0.026698537170886993,0.0004647274618037045,0.0077813370153307915
0.009212786331772804,-0.00462492136284709,-0.021994490176439285,0.027372686192393303,0.0005011040484532714,0.007799594663083553
0.008974767290055752,-0.004725248087197542,-0.022189512848854065,0.027658019214868546,0.0005199516890570521,0.0076988921500742435
0.009239329025149345,-0.005113832652568817,-0.021450817584991455,0.026962431147694588,0.0004968007560819387,0.007755069527775049
0.009623776189982891,-0.0049554286524653435,-0.021039683371782303,0.025914855301380157,0.0005184823530726135,0.007595968898385763
0.009275696240365505,-0.004665425978600979,-0.021785570308566093,0.02598680928349495,0.000588923052418977,0.00746740261092782
0.009065357968211174,-0.0044249966740608215,-0.022027548402547836,0.02696141228079796,0.0006044331239536405,0.007604645099490881
0.009065357968211174,-0.0044249966740608215,-0.022027548402547836,0.02696141228079796,0.0006044331239536405,0.007604645099490881
0.009820142760872841,-0.004706122446805239,-0.02149466797709465,0.026609567925333977,0.000646954111289233,0.007725353352725506
0.00891030766069889,-0.0047565484419465065,-0.021668462082743645,0.02774777263402939,0.0006066205678507686,0.0080994488671422
0.009883073158562183,-0.005087582394480705,-0.021084170788526535,0.027720946818590164,0.0006228885031305254,0.007967758923768997
0.009883073158562183,-0.005087582394480705,-0.021084170788526535,0.027720946818590164,0.0006228885031305254,0.007967758923768997
0.009280744008719921,-0.004898102954030037,-0.020962389186024666,0.027189482003450394,0.0006504781194962561,0.007617079187184572
0.009741539135575294,-0.0044417185708880424,-0.02143867500126362,0.026758311316370964,0.0006296103820204735,0.007443328853696585
0.009880662895739079,-0.004083692561835051,-0.0212656632065773,0.024968091398477554,0.0006592985009774566,0.007456728257238865
0.009430760517716408,-0.004509456921368837,-0.020830832421779633,0.025231707841157913,0.0006788399768993258,0.007547896821051836
0.009019823744893074,-0.0048065693117678165,-0.020875994116067886,0.026212774217128754,0.0006887888885103166,0.007796484511345625
0.009482679888606071,-0.004928888287395239,-0.02097717672586441,0.02591056004166603,0.0007549097645096481,0.007667499128729105
0.009361330419778824,-0.0048146783374249935,-0.020832279697060585,0.026003284379839897,0.0008081674459390342,0.007522117346525192
0.009038016200065613,-0.004424819722771645,-0.020304055884480476,0.026109416037797928,0.0008233616827055812,0.007844597101211548
0.009956112131476402,-0.004449383355677128,-0.0201492328196764,0.0263708233833313,0.000833149766549468,0.007632500026375055
0.00969722494482994,-0.00465107848867774,-0.020575037226080894,0.02598138339817524,0.0007928270497359335,0.007534740027040243
0.009301073849201202,-0.004736520349979401,-0.020696818828582764,0.025491172447800636,0.0008295283187180758,0.008061179891228676
0.009414697997272015,-0.004961214493960142,-0.02032412216067314,0.02641165442764759,0.0008446885622106493,0.008340885862708092
0.009776324033737183,-0.004801901988685131,-0.020687149837613106,0.025649717077612877,0.0008211496751755476,0.0080094113945961
0.01001087948679924,-0.004720731172710657,-0.02104824222624302,0.02583460509777069,0.0007756340783089399,0.007631588261574507
0.008906067349016666,-0.004621709231287241,-0.021083498373627663,0.026128342375159264,0.000778929446823895,0.0075439875945448875
0.009654169902205467,-0.004299318417906761,-0.021004917100071907,0.025931617245078087,0.000715873611625284,0.00799361802637577
0.009422932751476765,-0.004669887479394674,-0.02137668989598751,0.025748686864972115,0.0007360484451055527,0.008193793706595898
0.009641761891543865,-0.004739890806376934,-0.02083243802189827,0.02603274956345558,0.0007067181286402047,0.008417731150984764
0.009594391100108624,-0.004588633310049772,-0.020730679854750633,0.02707912027835846,0.0007244500447995961,0.007916441187262535
0.00969559047371149,-0.004730175249278545,-0.020871859043836594,0.02666809968650341,0.0006991301779635251,0.007256077136844397
0.009759706445038319,-0.0047505940310657024,-0.021094169467687607,0.02525017037987709,0.000730334606487304,0.007103747222572565
0.009468348696827888,-0.004402945749461651,-0.021215688437223434,0.02418006770312786,0.0007618914823979139,0.00801032967865467
0.009646859019994736,-0.004577409941703081,-0.02147253230214119,0.02416921779513359,0.0007719516870565712,0.007780753076076508
0.00987288448959589,-0.004645707085728645,-0.021209770813584328,0.024728454649448395,0.0007857251912355423,0.0075353956781327724
0.00982199888676405,-0.0049560703337192535,-0.02123500593006611,0.02426954358816147,0.0008855528431013227,0.007530823349952698
0.009691883809864521,-0.004958508536219597,-0.020562531426548958,0.02436032146215439,0.0009060372249223292,0.007202207576483488
0.009691883809864521,-0.004958508536219597,-0.020562531426548958,0.02436032146215439,0.0009060372249223292,0.007202207576483488
0.010515712201595306,-0.0049527897499501705,-0.020789790898561478,0.024862077087163925,0.0009064340847544372,0.007724022027105093
0.009350135922431946,-0.004767378326505423,-0.021400481462478638,0.025137316435575485,0.0008764340891502798,0.008097893558442593
0.00955500639975071,-0.004673266317695379,-0.021042747423052788,0.024263815954327583,0.0008274660794995725,0.008152970112860203
0.010163656435906887,-0.004888132214546204,-0.020388353615999222,0.02350461669266224,0.0008107417961582541,0.008064758963882923
0.009570758789777756,-0.004705854691565037,-0.02116425894200802,0.02365751937031746,0.0008134246454574168,0.0076288278214633465
0.009522326290607452,-0.004856344312429428,-0.021119605749845505,0.023911597207188606,0.0007939413189888,0.008013694547116756
0.009664800018072128,-0.004804459400475025,-0.020413838326931,0.024632684886455536,0.0007529273279942572,0.007920064963400364
0.009615117684006691,-0.004654003772884607,-0.020682042464613914,0.024624759331345558,0.0007460900815203786,0.008047620765864849
0.00982002355158329,-0.004170460160821676,-0.021047627553343773,0.0237603597342968,0.0006957827135920525,0.0080590033903718
0.010053122416138649,-0.004023940302431583,-0.01982300914824009,0.023412959650158882,0.0006804331787861884,0.008141456171870232
0.009629743173718452,-0.004278917796909809,-0.02012890949845314,0.02364184893667698,0.0006083579501137137,0.007912697270512581
0.00972389243543148,-0.004970301408320665,-0.020275741815567017,0.023352481424808502,0.0006363707361742854,0.008032931946218014
0.01075168140232563,-0.004949255380779505,-0.020657163113355637,0.0232451930642128,0.0006640097708441317,0.007831234484910965
0.008740490302443504,-0.0045282007195055485,-0.02029973827302456,0.023630188778042793,0.0006696836790069938,0.007675150875002146
0.010113473050296307,-0.004059572704136372,-0.020352883264422417,0.022966235876083374,0.0007816776051186025,0.007669923361390829
0.010067684575915337,-0.004021479748189449,-0.020206283777952194,0.023905782029032707,0.0009212235454469919,0.007577726151794195
0.009425528347492218,-0.004387800581753254,-0.020096125081181526,0.023518970236182213,0.0008622350287623703,0.007637572940438986
0.010070557706058025,-0.0041386461816728115,-0.02022169530391693,0.023550963029265404,0.000865994137711823,0.00783342681825161
0.009741050191223621,-0.0039540985599160194,-0.019757572561502457,0.0231950543820858,0.00098594615701586,0.007720621302723885
0.00971221923828125,-0.00436891196295619,-0.019780153408646584,0.02298634871840477,0.0009957625297829509,0.007999812252819538
0.00984581746160984,-0.004178310744464397,-0.020123649388551712,0.023516343906521797,0.0009754379861988127,0.008247866295278072
0.009792120195925236,-0.003946447279304266,-0.019626004621386528,0.023370539769530296,0.0009657705086283386,0.007781850174069405
0.009527629241347313,-0.004031031392514706,-0.019533058628439903,0.023189419880509377,0.0009480071603320539,0.007928581908345222
0.01046158280223608,-0.004007434938102961,-0.01993837207555771,0.02285892143845558,0.0009611746063455939,0.007653818465769291
0.010771336033940315,-0.003950193524360657,-0.01970989815890789,0.023144349455833435,0.0009530457900837064,0.007916864939033985
0.010729442350566387,-0.004291948862373829,-0.019036119803786278,0.02335270307958126,0.0009459436987526715,0.007623034995049238
0.010485962964594364,-0.004144364036619663,-0.019114093855023384,0.02332073636353016,0.0009517401340417564,0.00805160216987133
0.0104560237377882,-0.0042225513607263565,-0.019608531147241592,0.023036887869238853,0.0009008882334455848,0.007689161691814661
0.0104560237377882,-0.0042225513607263565,-0.019608531147241592,0.023036887869238853,0.0009008882334455848,0.007689161691814661
0.011127732694149017,-0.004085704684257507,-0.019093720242381096,0.022986723110079765,0.0008319391054101288,0.008010811172425747
0.010533320717513561,-0.004281808156520128,-0.019303498789668083,0.02281903475522995,0.0008281129994429648,0.007836352102458477
0.010551013983786106,-0.004139096941798925,-0.01950552687048912,0.023094328120350838,0.0008357553160749376,0.007880514487624168
0.010858193039894104,-0.00406781118363142,-0.01901099644601345,0.022986765950918198,0.0007972565363161266,0.008492227643728256
0.010427440516650677,-0.004399564582854509,-0.019432641565799713,0.023533117026090622,0.0008166423067450523,0.008282431401312351
0.010806913487613201,-0.004306644666939974,-0.019373727962374687,0.022389721125364304,0.0008445194689556956,0.0079072006046772
0.011348833329975605,-0.004504979122430086,-0.018591931089758873,0.022196529433131218,0.0008523064316250384,0.008198537863790989
0.010258176364004612,-0.004120667465031147,-0.019173067063093185,0.022955380380153656,0.0011386183323338628,0.008242138661444187
0.010662111453711987,-0.004057420417666435,-0.01946175843477249,0.02313549630343914,0.0011763544753193855,0.007771562784910202
0.010793305933475494,-0.003963786642998457,-0.018923217430710793,0.02242565155029297,0.001156024867668748,0.007503437343984842
0.010057534091174603,-0.003847465617582202,-0.01898275688290596,0.02179943397641182,0.0013334007235243917,0.007953683845698833
0.01062590628862381,-0.0043735867366194725,-0.019809138029813766,0.022146668285131454,0.0011799921048805118,0.008247348479926586
0.010346915572881699,-0.003923213575035334,-0.019239701330661774,0.021916087716817856,0.0010802287142723799,0.007868656888604164
0.010819705203175545,-0.004346063360571861,-0.019184334203600883,0.022267110645771027,0.0009577213786542416,0.008320057764649391
0.010292645543813705,-0.004192281048744917,-0.019246846437454224,0.022031288594007492,0.0007946050027385354,0.00861061830073595
0.010226039215922356,-0.004542381037026644,-0.019682157784700394,0.021772034466266632,0.000790678896009922,0.00795048289000988
0.01042699534446001,-0.004261462949216366,-0.020297963172197342,0.02184991165995598,0.0007590791792608798,0.008100159466266632
0.010310154408216476,-0.003928107675164938,-0.019337765872478485,0.021317647770047188,0.0007226255256682634,0.008482332341372967
0.01108173094689846,-0.003995664417743683,-0.0195650365203619,0.02107936143875122,0.0007374527049250901,0.00821300782263279
0.011405388824641705,-0.004070801194757223,-0.01958351396024227,0.02169877476990223,0.0007550592417828739,0.007853623479604721
0.010168883018195629,-0.004380011465400457,-0.018639439716935158,0.022379903122782707,0.0007830436807125807,0.008127115666866302
0.010388520546257496,-0.004140656907111406,-0.019506530836224556,0.02185027115046978,0.0007984129479154944,0.008361940272152424
0.010718622244894505,-0.0040784780867397785,-0.02011907659471035,0.0210401713848114,0.0008138564298860729,0.007775775156915188
0.010363547131419182,-0.003539241850376129,-0.019459793344140053,0.020803794264793396,0.0011120714480057359,0.007961357943713665
0.010394396260380745,-0.00417386693879962,-0.019066495820879936,0.020898498594760895,0.001092699822038412,0.008110137656331062
0.010394396260380745,-0.00417386693879962,-0.019066495820879936,0.020898498594760895,0.001092699822038412,0.008110137656331062
0.010543681681156158,-0.00411974685266614,-0.019942348822951317,0.020674213767051697,0.0010824603959918022,0.008295640349388123
0.009974978864192963,-0.003984265029430389,-0.019684944301843643,0.021469272673130035,0.0013012373819947243,0.008300360292196274
0.010764882899820805,-0.003870944492518902,-0.019909758120775223,0.021478235721588135,0.0012756857322528958,0.007943366654217243
0.010818993672728539,-0.003971347119659185,-0.01977684162557125,0.021249841898679733,0.0012145353248342872,0.008172168396413326
0.010928166098892689,-0.003481845371425152,-0.01904965005815029,0.022241422906517982,0.0011221911991015077,0.00787802692502737
0.010928166098892689,-0.003481845371425152,-0.01904965005815029,0.022241422906517982,0.0011221911991015077,0.00787802692502737
0.010241195559501648,-0.004257330670952797,-0.01997014880180359,0.021948937326669693,0.0011696256697177887,0.008020056411623955
0.010616271756589413,-0.0041074249893426895,-0.019156109541654587,0.021243685856461525,0.0010818919399753213,0.008440176956355572
0.010758280754089355,-0.0038084296975284815,-0.018959106877446175,0.020552610978484154,0.0010880233021453023,0.008328364230692387
0.010525861755013466,-0.004247978329658508,-0.020001132041215897,0.020756352692842484,0.0010978258214890957,0.008070305921137333
0.010928130708634853,-0.004102003760635853,-0.01989459991455078,0.020725738257169724,0.0010702379513531923,0.008189341053366661
0.010965416207909584,-0.0039269994013011456,-0.01934085227549076,0.021140892058610916,0.0010878313332796097,0.008342747576534748
0.01085694320499897,-0.0038312373217195272,-0.019793815910816193,0.021106263622641563,0.0010788679355755448,0.007842343300580978
0.010657278820872307,-0.004243490286171436,-0.018972091376781464,0.02087986096739769,0.001057157409377396,0.008285528048872948
0.01085942704230547,-0.0040216282941401005,-0.019640978425741196,0.020452385768294334,0.0011406774865463376,0.0081130750477314
0.010631737299263477,-0.0034535194281488657,-0.01969652622938156,0.020559461787343025,0.0011457453947514296,0.00820873025804758
0.01086151972413063,-0.00392351346090436,-0.019405530765652657,0.020539065822958946,0.0010848555248230696,0.008027566596865654
0.01086151972413063,-0.00392351346090436,-0.019405530765652657,0.020539065822958946,0.0010848555248230696,0.008027566596865654
0.010667751543223858,-0.003988456446677446,-0.01926305703818798,0.020292051136493683,0.0011523902649059892,0.0077620213851332664
0.010679427534341812,-0.0033989029470831156,-0.01898396573960781,0.020471855998039246,0.0011655085254460573,0.0078053344041109085
0.010894427075982094,-0.0034689116291701794,-0.01971151866018772,0.020033564418554306,0.0011784860398620367,0.007062695920467377
0.01054646447300911,-0.003631057683378458,-0.019323604181408882,0.01961498148739338,0.0012035706313326955,0.008003420196473598
0.011006517335772514,-0.0037165037356317043,-0.018928147852420807,0.020264750346541405,0.0011516145896166563,0.00848342664539814
0.011126690544188023,-0.003641174640506506,-0.019494036212563515,0.020847750827670097,0.0010756503324955702,0.008473935537040234
0.01068796869367361,-0.003631716128438711,-0.01941400207579136,0.019909696653485298,0.0009897936834022403,0.008567842654883862
0.010857753455638885,-0.0036608304362744093,-0.01888851635158062,0.01970209926366806,0.0008811047882772982,0.008143933489918709
0.011018550023436546,-0.003254404990002513,-0.019146069884300232,0.020488588139414787,0.0008701636106707156,0.007879402488470078
0.011018550023436546,-0.003254404990002513,-0.019146069884300232,0.020488588139414787,0.0008701636106707156,0.007879402488470078
0.01114118192344904,-0.003263245103880763,-0.018720120191574097,0.02069101668894291,0.0008621099404990673,0.008401039987802505
0.01114118192344904,-0.003263245103880763,-0.018720120191574097,0.02069101668894291,0.0008621099404990673,0.008401039987802505
0.010708619840443134,-0.003838043427094817,-0.01910088025033474,0.01946997083723545,0.0009467307245358825,0.008190294727683067
0.010708619840443134,-0.003838043427094817,-0.01910088025033474,0.01946997083723545,0.0009467307245358825,0.008190294727683067
0.010896893218159676,-0.003461789106950164,-0.018801897764205933,0.01929212361574173,0.0010188294108957052,0.008334580808877945
0.010789791122078896,-0.003096716245636344,-0.01916256919503212,0.019893547520041466,0.0012759813107550144,0.00780806690454483
0.011274393647909164,-0.0033319368958473206,-0.01944088190793991,0.020406026393175125,0.0013939805794507265,0.007548605091869831
0.011162890121340752,-0.0029649920761585236,-0.01871884986758232,0.02008218504488468,0.0013550239382311702,0.007980253547430038
0.0110934404656291,-0.0030691989231854677,-0.019004011526703835,0.019421447068452835,0.0013100103242322803,0.008284024894237518
0.011770009063184261,-0.003172576194629073,-0.019035913050174713,0.02037443034350872,0.001258065807633102,0.008267591707408428
0.011271701194345951,-0.0030648375395685434,-0.01882142759859562,0.02043052762746811,0.001191680203191936,0.008451937697827816
0.011260934174060822,-0.0031969400588423014,-0.01920808106660843,0.0199178084731102,0.0011345056118443608,0.00792392622679472
0.011971715837717056,-0.003064129501581192,-0.01856865920126438,0.02012566290795803,0.0008372534066438675,0.00808393582701683
0.011684497818350792,-0.002984772901982069,-0.01890719309449196,0.01915961690247059,0.0008366007823497057,0.007689987309277058
0.011131813749670982,-0.002861451357603073,-0.018684441223740578,0.019196785986423492,0.0008443852420896292,0.008588002063333988
0.011313709430396557,-0.00262110005132854,-0.018479470163583755,0.019785182550549507,0.0008508997270837426,0.008114241994917393
0.011724155396223068,-0.0026214919053018093,-0.018762657418847084,0.019851641729474068,0.0009641930810175836,0.008119272999465466
0.011398239061236382,-0.0027408304158598185,-0.018956901505589485,0.020115677267313004,0.0010272363433614373,0.007857871241867542
0.011967585422098637,-0.002745497040450573,-0.019321540370583534,0.020228154957294464,0.001035346300341189,0.007830698043107986
0.011630257591605186,-0.00216599740087986,-0.019384488463401794,0.019672485068440437,0.0013835380086675286,0.0076112993992865086
0.011818082071840763,-0.0015481081791222095,-0.018705837428569794,0.01953480951488018,0.0014094517100602388,0.007941151969134808
0.012066897004842758,-0.0013763172319158912,-0.018596947193145752,0.019800184294581413,0.0012548540253192186,0.008238769136369228
0.012066897004842758,-0.0013763172319158912,-0.018596947193145752,0.019800184294581413,0.0012548540253192186,0.008238769136369228
0.011431337334215641,-0.0011152668157592416,-0.018728870898485184,0.019160816445946693,0.0010873385472223163,0.008373746648430824
0.011204000562429428,-0.0008561959257349372,-0.02073340304195881,0.019539641216397285,0.0011269672540947795,0.007931956090033054
0.011204000562429428,-0.0008561959257349372,-0.02073340304195881,0.019539641216397285,0.0011269672540947795,0.007931956090033054
0.012161485850811005,-0.002069943817332387,-0.017958546057343483,0.019145507365465164,0.0010319348657503724,0.008387226611375809
0.01203889399766922,-0.0018440892454236746,-0.01934872940182686,0.01963036134839058,0.0010703494772315025,0.008741585537791252
0.01203889399766922,-0.0018440892454236746,-0.01934872940182686,0.01963036134839058,0.0010703494772315025,0.008741585537791252
0.011966737918555737,-0.0017027633730322123,-0.02010001614689827,0.01921258494257927,0.0010736609110608697,0.007779838517308235
0.011385811492800713,-0.0015029051573947072,-0.019280405715107918,0.018908869475126266,0.0013765619369223714,0.008139029145240784
0.012146314606070518,-0.0012656550388783216,-0.018072711303830147,0.019482623785734177,0.0014015143970027566,0.008381768129765987
0.01221788302063942,-0.0011981663992628455,-0.018819201737642288,0.019258586689829826,0.001419045845977962,0.008082075975835323
0.012196766212582588,-0.00108356773853302,-0.018764860928058624,0.018832288682460785,0.0013363553443923593,0.00763604324311018
0.012266097590327263,-0.0009092572145164013,-0.0184821467846632,0.018732920289039612,0.0013486347161233425,0.008052850142121315
0.011946609243750572,-0.0009021261939778924,-0.01848943904042244,0.018353361636400223,0.0012817373499274254,0.00866209901869297
0.012447536922991276,-0.001010159612633288,-0.018219416961073875,0.01852608285844326,0.0013555326731875539,0.008442500606179237
0.012395486235618591,-0.0011352610308676958,-0.018382573500275612,0.018285702913999557,0.0015409502666443586,0.008156422525644302
0.012436912395060062,-0.0010566242272034287,-0.018283795565366745,0.018318530172109604,0.0014589555794373155,0.00847469363361597
0.012419860810041428,-0.0009576724260114133,-0.01839197427034378,0.01823234185576439,0.0013715332606807351,0.008596738800406456
0.012652058154344559,-0.0009468042990192771,-0.018211862072348595,0.01768219843506813,0.0013658273965120316,0.008687598630785942
0.012344001792371273,-0.0008169604698196054,-0.01840187795460224,0.01782912015914917,0.0013207844458520412,0.008719881996512413
0.012951713986694813,-0.000800984853412956,-0.01828981563448906,0.01778056100010872,0.0012705071130767465,0.008510180748999119
0.012135758064687252,-0.000813668011687696,-0.017382221296429634,0.017431162297725677,0.0011541738640516996,0.008506527170538902
0.012674840167164803,-0.000832076882943511,-0.018027544021606445,0.017802421003580093,0.0012080422602593899,0.008342704735696316
0.012140908278524876,-0.0011853299802169204,-0.018523508682847023,0.017677972093224525,0.0012006483739241958,0.008514943532645702
0.012140908278524876,-0.0011853299802169204,-0.018523508682847023,0.017677972093224525,0.0012006483739241958,0.008514943532645702
0.012907993979752064,-0.0011510899057611823,-0.018084120005369186,0.01737958751618862,0.0013262840220704675,0.008516241796314716
0.012907993979752064,-0.0011510899057611823,-0.018084120005369186,0.01737958751618862,0.0013262840220704675,0.008516241796314716
0.012325316667556763,-0.0011666907230392098,-0.017527986317873,0.017380615696310997,0.001327627687714994,0.008488412946462631
0.012610948644578457,-0.0010698847472667694,-0.01792052574455738,0.0178870540112257,0.0015281400410458446,0.008486735634505749
0.012023312039673328,-0.0010399218881502748,-0.01795932836830616,0.017314204946160316,0.0014325942611321807,0.008259985595941544
0.012854205444455147,-0.000933077943045646,-0.01708470657467842,0.017216302454471588,0.0014400603249669075,0.008412462659180164
0.012675953097641468,-0.000924259889870882,-0.017568856477737427,0.017198758199810982,0.0014954215148463845,0.0084798913449049
0.012764052487909794,-0.00082867790479213,-0.017314363270998,0.01723686046898365,0.0014734144788235426,0.008488839492201805
0.012984523549675941,-0.0007053535664454103,-0.017366815358400345,0.01744973100721836,0.001658753608353436,0.008539265021681786
0.012986707501113415,-0.0007263603620231152,-0.01765185035765171,0.017032410949468613,0.0016985456459224224,0.00834076851606369
0.013245882466435432,-0.0007384112104773521,-0.01643366925418377,0.017377136275172234,0.0015101619064807892,0.008395185694098473
0.012468268163502216,-0.0006713594775646925,-0.017369605600833893,0.017485110089182854,0.0014011738821864128,0.008499843068420887
0.01286742091178894,-0.0006922199972905219,-0.017061244696378708,0.01729603484272957,0.0012980405008420348,0.008462593890726566
0.012711687944829464,-0.0007481560460291803,-0.016799332574009895,0.017437873408198357,0.0012447192566469312,0.008362901397049427
0.013281909748911858,-0.0007598775555379689,-0.017059486359357834,0.016939667984843254,0.0012147327652201056,0.008294130675494671
0.013154806569218636,-0.0006782958516851068,-0.016507279127836227,0.016810599714517593,0.0012606860836967826,0.007847392000257969
0.013554438948631287,-0.0007118505891412497,-0.016698481515049934,0.01655580848455429,0.0015065219486132264,0.008850641548633575
0.01304618176072836,-0.0006567640812136233,-0.016772564500570297,0.017013996839523315,0.0014710314571857452,0.008933624252676964
0.013386006467044353,-0.000665531842969358,-0.017005061730742455,0.016505373641848564,0.0015058083226904273,0.008721708320081234
0.013278190046548843,-0.0005886989529244602,-0.01645481213927269,0.017035236582159996,0.0014721128391101956,0.008869071491062641
0.01352306641638279,-0.0006203093798831105,-0.01715392805635929,0.01665276288986206,0.0014095217920839787,0.008751901797950268
0.013039435259997845,-0.0006206360412761569,-0.016282208263874054,0.016429197043180466,0.0014785584062337875,0.008697845973074436
0.013675686903297901,-0.0005914652138017118,-0.01684097945690155,0.016521433368325233,0.0015206789830699563,0.008442689664661884
0.013286984525620937,-0.0005410382291302085,-0.016863344237208366,0.016145875677466393,0.0014325533993542194,0.008404562249779701
0.013286984525620937,-0.0005410382291302085,-0.016863344237208366,0.016145875677466393,0.0014325533993542194,0.008404562249779701
0.01368142943829298,-0.0005683862837031484,-0.016646815463900566,0.01638139598071575,0.0013455261941999197,0.00932132825255394
0.013307865709066391,-0.0005276683950796723,-0.01712295226752758,0.015900230035185814,0.0013418149901553988,0.00869606900960207
0.013319053687155247,-0.0005209625815041363,-0.016589468345046043,0.016178203746676445,0.001276666298508644,0.0083849485963583
0.013447190634906292,-0.0004798824083991349,-0.01711435616016388,0.016079505905508995,0.0013174531050026417,0.008415360003709793
0.013631552457809448,-0.0005168663919903338,-0.016497893258929253,0.016052596271038055,0.0012904186733067036,0.008486894890666008
0.013291191309690475,-0.00047472812002524734,-0.016838349401950836,0.0161209087818861,0.0015197359025478363,0.008382435888051987
0.014047122560441494,-0.0005060742842033505,-0.01718752644956112,0.016024848446249962,0.0015419234987348318,0.008329126983880997
0.013782619498670101,-0.00047100946540012956,-0.016767824068665504,0.016841724514961243,0.0017418633215129375,0.008763184770941734
0.013380276970565319,-0.0004982787068001926,-0.017332974821329117,0.016041824594140053,0.0017019357765093446,0.008580743335187435
0.014013141393661499,-0.00046826445031911135,-0.01678287610411644,0.015840545296669006,0.0016933857696130872,0.008327070623636246
0.013672856613993645,-0.00044184920261614025,-0.016869494691491127,0.015187496319413185,0.0015862936852499843,0.008965499699115753
0.013534690253436565,-0.00048022923874668777,-0.016833744943141937,0.015317444689571857,0.0015458393609151244,0.008299306035041809
0.011784258298575878,-0.0004915953613817692,-0.0171288400888443,0.015100468881428242,0.0014032673789188266,0.00817618053406477
0.014528302475810051,-0.00047553086187690496,-0.017289279028773308,0.01572921685874462,0.0014101068954914808,0.008114611729979515
0.014125035144388676,-0.0004373702104203403,-0.016449619084596634,0.01556406356394291,0.001386231160722673,0.00828634388744831
0.013919763267040253,-0.00046390583156608045,-0.016904186457395554,0.01524032186716795,0.001717957784421742,0.008289363235235214
0.013987595215439796,-0.0004488505655899644,-0.016674568876624107,0.014820072799921036,0.0018408360192552209,0.008441824465990067
0.013476742431521416,-0.000440169038483873,-0.0167029220610857,0.014451528899371624,0.0017789965495467186,0.008382788859307766
0.014386110939085484,-0.00041886375402100384,-0.01645646244287491,0.0148704145103693,0.001571771572344005,0.008381561376154423
0.014122027903795242,-0.0004494267050176859,-0.016717057675123215,0.015026956796646118,0.001534264418296516,0.008343878202140331
0.014139066450297832,-0.00046286388533189893,-0.01628142222762108,0.014981388114392757,0.0014817570336163044,0.008616349659860134
0.014018464833498001,-0.0004500198701862246,-0.017003579065203667,0.01447412557899952,0.001524142106063664,0.00846891663968563
0.013974091038107872,-0.00041571768815629184,-0.0169175174087286,0.014171907678246498,0.001527198008261621,0.008213545195758343
0.01387371402233839,-0.00042803125688806176,-0.01665409281849861,0.014111608266830444,0.0017220337176695466,0.008466622792184353
0.014101548120379448,-0.00041998334927484393,-0.016721779480576515,0.014975843019783497,0.00180082640144974,0.008790711872279644
0.014101548120379448,-0.00041998334927484393,-0.016721779480576515,0.014975843019783497,0.00180082640144974,0.008790711872279644
0.013444173149764538,-0.0003939901362173259,-0.016273099929094315,0.0151209756731987,0.0019655812066048384,0.009016585536301136
0.013936418108642101,-0.00037080037873238325,-0.01661587506532669,0.014763704501092434,0.0018623520154505968,0.00910634733736515
0.013736909255385399,-0.00039815568015910685,-0.01617087423801422,0.01532021164894104,0.0017081762198358774,0.008766824379563332
0.01384976040571928,-0.00037910978426225483,-0.016544926911592484,0.015153142623603344,0.0016201265389099717,0.008482856675982475
0.01404307596385479,-0.000361293728929013,-0.016747675836086273,0.015417380258440971,0.0016255236696451902,0.008261898532509804
0.0144347557798028,-0.0003710416494868696,-0.017291467636823654,0.014834333211183548,0.0016118017956614494,0.00839320756494999
0.014141803607344627,-0.00034326425520703197,-0.017714807763695717,0.014748086221516132,0.0015160839539021254,0.008800400421023369
0.014250870794057846,-0.00031893744016997516,-0.016722584143280983,0.013315852731466293,0.0014207930071279407,0.009001472033560276
0.014157896861433983,-0.0002978251432068646,-0.017184581607580185,0.015343835577368736,0.0013742393348366022,0.008855059742927551
0.014189892448484898,-0.0003328899620100856,-0.017262263223528862,0.014857109636068344,0.001330854371190071,0.008609574288129807
0.014051146805286407,-0.00031557612237520516,-0.017388638108968735,0.014773431234061718,0.0012902115704491735,0.008755444549024105
0.014150279574096203,-0.0002981768921017647,-0.017452498897910118,0.01408770028501749,0.0015246502589434385,0.008697966113686562
0.014248484745621681,-0.00028257330995984375,-0.016536373645067215,0.013882746919989586,0.0015297166537493467,0.009340181015431881
0.014661121182143688,-0.0002685207291506231,-0.0172243881970644,0.013586027547717094,0.0020337067544460297,0.009226346388459206
0.014662516303360462,-0.0002557998523116112,-0.016945024952292442,0.014130251482129097,0.002027610084041953,0.00910055823624134
0.014609212055802345,-0.00024422944989055395,-0.017188498750329018,0.013567216694355011,0.0020412958692759275,0.008838506415486336
0.014725198037922382,-0.00027205896913073957,-0.017475346103310585,0.01334905531257391,0.0018648449331521988,0.00843807216733694
0.014587551355361938,-0.00025089140399359167,-0.016874738037586212,0.01302140299230814,0.0016014204593375325,0.009254579432308674
0.014648191630840302,-0.000241281624766998,-0.016853684559464455,0.013271190226078033,0.0014468301087617874,0.009096583351492882
0.014681641012430191,-0.00023238224093802273,-0.017042677849531174,0.013424176722764969,0.0015175383305177093,0.008806701749563217
0.015029399655759335,-0.00022411493409890682,-0.016888801008462906,0.01379387453198433,0.0016537806950509548,0.009428158402442932
0.014719376340508461,-0.00021641596686095,-0.016484063118696213,0.014248017221689224,0.0018368876772001386,0.009502737782895565
0.014798319898545742,-0.00020922822295688093,-0.016902148723602295,0.013925124891102314,0.0018866196041926742,0.009339025244116783
0.014667855575680733,-0.00020250346278771758,-0.01648901030421257,0.013243597000837326,0.002098197117447853,0.008780828677117825
0.014876652508974075,-0.00019619680824689567,-0.01672697812318802,0.013185616582632065,0.001875782385468483,0.009077099151909351
0.014508228749036789,-0.00019027148664463311,-0.016771182417869568,0.012539769522845745,0.0018607086967676878,0.007796382065862417
0.015041268430650234,-0.0001846929226303473,-0.016726486384868622,0.012805188074707985,0.0016782997408881783,0.00877903588116169
0.014603501185774803,-0.00017943284183274955,-0.016721578314900398,0.012633288279175758,0.0015852273209020495,0.009408853016793728
0.014603501185774803,-0.00017943284183274955,-0.016721578314900398,0.012633288279175758,0.0015852273209020495,0.009408853016793728
0.014872687868773937,-0.000174464046722278,-0.0161711648106575,0.013252373784780502,0.001629520207643509,0.009685602970421314
0.01486563216894865,-0.00016976258484646678,-0.016276512295007706,0.013193793594837189,0.0018323103431612253,0.008948138915002346
0.01491587981581688,-0.00016530822904314846,-0.016014790162444115,0.013220186345279217,0.0018543374026194215,0.009130734018981457
0.014440453611314297,-0.00016108175623230636,-0.016391826793551445,0.013250121846795082,0.0018012125510722399,0.008905134163796902
0.014971853233873844,-0.00015706576232332736,-0.016334161162376404,0.01405361108481884,0.0017962263664230704,0.008912417106330395
0.014599761925637722,-0.00015324527339544147,-0.016518762335181236,0.013003000058233738,0.0016796234995126724,0.009111295454204082
0.014824113808572292,-0.0001496062322985381,-0.016779014840722084,0.012529817409813404,0.0017018176149576902,0.00912709441035986
0.014796632342040539,-0.00014613597886636853,-0.015806348994374275,0.01275523193180561,0.001717246137559414,0.009053775109350681
0.014979496598243713,-0.00014282308984547853,-0.016336997970938683,0.012431930750608444,0.0018262485973536968,0.008984408341348171
0.014369972050189972,-0.00013965692778583616,-0.016026707366108894,0.012494493275880814,0.0018752102041617036,0.009119434282183647
0.014970253221690655,-0.0001366282522212714,-0.016699085012078285,0.012670179829001427,0.0019631190225481987,0.00846518762409687
0.014616197906434536,-0.000133728317450732,-0.016479311510920525,0.012155086733400822,0.0018319332739338279,0.008720983751118183
0.015049809589982033,-0.00013094871246721596,-0.016248617321252823,0.012031587772071362,0.0018780870595946908,0.00907838810235262
0.015194203704595566,-0.00012828229228034616,-0.016801349818706512,0.011603604070842266,0.0017587082693353295,0.009329551830887794
0.015374301932752132,-0.00012572245032060891,-0.01600506715476513,0.011806372553110123,0.001851870329119265,0.009268145076930523
0.015022391453385353,-0.00012089731899322942,-0.015795905143022537,0.01100432313978672,0.0020500689279288054,0.009284546598792076
0.015022391453385353,-0.00012089731899322942,-0.015795905143022537,0.01100432313978672,0.0020500689279288054,0.009284546598792076
0.015345247462391853,-0.00011654378613457084,-0.015825575217604637,0.010528362356126308,0.0017950106412172318,0.008954605087637901
0.015341810882091522,-4.194442226435058e-05,-0.016101086512207985,0.010276083834469318,0.0017974503571167588,0.009456511586904526
0.015378324314951897,-4.0045772038865834e-05,-0.016253499314188957,0.01031591184437275,0.0020540705882012844,0.009214482270181179
0.015385660342872143,-3.916156856575981e-05,-0.016284780576825142,0.010117474012076855,0.002162643475458026,0.009431255050003529
0.015385660342872143,-3.916156856575981e-05,-0.016284780576825142,0.010117474012076855,0.002162643475458026,0.009431255050003529
0.015772275626659393,-3.752847624127753e-05,-0.015745464712381363,0.010899030603468418,0.0023935013450682163,0.009480317123234272
0.015040867030620575,-3.6762030504178256e-05,-0.016528073698282242,0.011117064394056797,0.0022368934005498886,0.00905347615480423
0.015999209135770798,-3.602626748033799e-05,-0.016222430393099785,0.011091412045061588,0.0021902816370129585,0.008975701406598091
0.015999209135770798,-3.602626748033799e-05,-0.016222430393099785,0.011091412045061588,0.0021902816370129585,0.008975701406598091
0.015377686358988285,-2.3699414668953978e-05,-0.01687801629304886,0.010548476129770279,0.0020500628743320704,0.008913962170481682
0.015566299669444561,-1.740089282975532e-05,-0.01628541760146618,0.010676344856619835,0.00214334181509912,0.008759710006415844
0.015666354447603226,-6.805712473578751e-07,-0.016165530309081078,0.01054441835731268,0.002019852166995406,0.008934196084737778
0.015673499554395676,-9.130731726259e-09,-0.016706453636288643,0.01018898468464613,0.0019622475374490023,0.008945954032242298
0.01540278922766447,-1.2250041259154187e-10,-0.015765633434057236,0.010006536729633808,0.0018172679701820016,0.009095990099012852
0.0159453134983778,-1.643499247284963e-12,-0.016239803284406662,0.009861800819635391,0.0017272051190957427,0.009456662461161613
0.015503122471272945,-2.2049638116338095e-14,-0.01539404597133398,0.009704260155558586,0.001739372848533094,0.00916331633925438
0.015171611681580544,-2.9582405983685745e-16,-0.01613454334437847,0.010549231432378292,0.0019878598395735025,0.00873684324324131
0.01545186061412096,-3.968857660372811e-18,-0.01618109829723835,0.010136150754988194,0.0018944998737424612,0.009455359540879726
0.015519059263169765,-5.3247289778309104e-20,-0.01689334399998188,0.009848338551819324,0.002053056377917528,0.009763882495462894
0.015814954414963722,-7.14380369351742e-22,-0.016451166942715645,0.010143681429326534,0.0020676148124039173,0.00929073616862297
0.015655040740966797,0.0004284967144485563,-0.01568090170621872,0.010112455114722252,0.002115565584972501,0.009010734036564827
0.015481922775506973,0.00047076106420718133,-0.01660401001572609,0.009224523790180683,0.0019914647564291954,0.009310439229011536
0.015201667323708534,0.0004272265068721026,-0.016025222837924957,0.009514112025499344,0.0019019709434360266,0.008798961527645588
0.016058985143899918,0.00046707308501936495,-0.01649889536201954,0.009352120570838451,0.0017394206952303648,0.009515260346233845
0.015769248828291893,0.0004308354400563985,-0.016618313267827034,0.009219822473824024,0.001688800286501646,0.00988557655364275
0.01625842973589897,0.00044244207674637437,-0.01552822720259428,0.00873592495918274,0.0017362055368721485,0.009290703572332859
0.01580824889242649,0.0004610932955984026,-0.016334956511855125,0.008168745785951614,0.0024794917553663254,0.009340433403849602
0.016158781945705414,0.00043543073115870357,-0.016659637913107872,0.008192189037799835,0.0024098611902445555,0.00957309640944004
0.016043754294514656,0.0004880994965787977,-0.01581471599638462,0.007959379814565182,0.002235134830698371,0.009430456906557083
0.01605335809290409,0.0005286190425977111,-0.016165930777788162,0.008138749748468399,0.0021787690930068493,0.009951852262020111
0.015890425071120262,0.0005372421001084149,-0.01543080247938633,0.00815737247467041,0.0021380919497460127,0.009162457659840584
0.016297634690999985,0.0005184618639759719,-0.016086356714367867,0.00860975868999958,0.0020948692690581083,0.008991863578557968
0.01648205704987049,0.0005468281451612711,-0.01576387695968151,0.008649221621453762,0.0021098810248076916,0.00897399615496397
0.016503453254699707,0.000776431174017489,-0.0164059828966856,0.008780156262218952,0.0019997081253677607,0.009270492941141129
0.016476955264806747,0.0008009991724975407,-0.015830673277378082,0.008520310744643211,0.0019813724793493748,0.009214026853442192
0.015987521037459373,0.0008139365236274898,-0.015550108626484871,0.008148637600243092,0.001874037436209619,0.009050499647855759
0.015987521037459373,0.0008139365236274898,-0.015550108626484871,0.008148637600243092,0.001874037436209619,0.009050499647855759
0.016011549159884453,0.0009217926417477429,-0.015881281346082687,0.007358787581324577,0.002094642724841833,0.009903633035719395
0.016011549159884453,0.0009217926417477429,-0.015881281346082687,0.007358787581324577,0.002094642724841833,0.009903633035719395
0.01653864048421383,0.000887845060788095,-0.01627166196703911,0.007309438195079565,0.002072956645861268,0.009906688705086708
0.01651223748922348,0.0008893856429494917,-0.015674514696002007,0.007404989097267389,0.002384952735155821,0.009339384734630585
0.016502035781741142,0.0008153123199008405,-0.01564696617424488,0.007361655589193106,0.0024031500797718763,0.009417098015546799
0.01648944988846779,0.0008239448652602732,-0.015039002522826195,0.007257711607962847,0.0025631587486714125,0.009079864248633385
0.016565149649977684,0.000789112295024097,-0.015704983845353127,0.00735071487724781,0.0024367626756429672,0.009402377530932426
0.01656252332031727,0.0007857402670197189,-0.015460039488971233,0.0070895422250032425,0.0022723700385540724,0.009452911093831062
0.015951497480273247,0.0008283869829028845,-0.01558373961597681,0.007267799694091082,0.0020621197763830423,0.009241501800715923
0.016842341050505638,0.0008612260571680963,-0.015105219557881355,0.007590265944600105,0.0019882319029420614,0.009357796050608158
0.016581745818257332,0.0014861869858577847,-0.015609038062393665,0.007783882319927216,0.002065644133836031,0.009296947158873081
0.016409533098340034,0.0022802206221967936,-0.01600470580160618,0.007758044172078371,0.0021722230594605207,0.009457450360059738
0.016573438420891762,0.0022052989806979895,-0.015422097407281399,0.0073760333471000195,0.00249403715133667,0.009652633219957352
0.016146112233400345,0.0018313316395506263,-0.015428532846271992,0.0072451806627213955,0.002664602594450116,0.009574494324624538
0.01605692319571972,0.0017620715079829097,-0.015161974355578423,0.006942482199519873,0.002375673269852996,0.009742967784404755
0.01599307544529438,0.0016588646685704589,-0.015823300927877426,0.007088115904480219,0.0022499889601022005,0.009871643036603928
0.01657799817621708,0.0023605027236044407,-0.016068464145064354,0.006990355905145407,0.001997982384636998,0.00965309701859951
0.016630666330456734,0.002584282075986266,-0.015447567217051983,0.006747201085090637,0.0021802736446261406,0.010111567564308643
0.015462538227438927,0.0023865466937422752,-0.015809791162610054,0.0068556638434529305,0.0023450665175914764,0.009518321603536606
0.01714828610420227,0.0022096310276538134,-0.014956208877265453,0.00721407774835825,0.0028973964508622885,0.009288232773542404
0.017698174342513084,0.0019959851633757353,-0.015508090145885944,0.007030528970062733,0.002875358099117875,0.009566733613610268
0.016814567148685455,0.002045183442533016,-0.01544507872313261,0.006396634038537741,0.0024907090701162815,0.009906893596053123
0.017279313877224922,0.0026311727706342936,-0.015857350081205368,0.006472680252045393,0.0022153828758746386,0.009607971645891666
0.01713535189628601,0.003187033114954829,-0.016036268323659897,0.006849329452961683,0.0019453063141554594,0.009340982884168625
0.016758903861045837,0.0031475513242185116,-0.015528615564107895,0.007440174929797649,0.001718617044389248,0.00934467650949955
0.017402421683073044,0.0030586367938667536,-0.015480216592550278,0.007059753406792879,0.0017148905899375677,0.009500259533524513
0.01695295423269272,0.002772024367004633,-0.015126855112612247,0.007337627932429314,0.0020752439741045237,0.010038305073976517
0.017411185428500175,0.0029297485016286373,-0.016253137961030006,0.007402285933494568,0.0025520012713968754,0.009717055596411228
0.01742567867040634,0.0034587737172842026,-0.015717532485723495,0.007239903323352337,0.002733631292358041,0.009281192906200886
0.01777089759707451,0.0038180812261998653,-0.01631609909236431,0.006850461009889841,0.0027401219122111797,0.009203373454511166
0.01777089759707451,0.0038180812261998653,-0.01631609909236431,0.006850461009889841,0.0027401219122111797,0.009203373454511166
0.01741592213511467,0.003575120121240616,-0.015662072226405144,0.006781988777220249,0.002476501977071166,0.00915314070880413
0.01741592213511467,0.003575120121240616,-0.015662072226405144,0.006781988777220249,0.002476501977071166,0.00915314070880413
0.018039939925074577,0.0034701055847108364,-0.015937428921461105,0.006394635885953903,0.0025530033744871616,0.009336757473647594
0.017658373340964317,0.0038885052781552076,-0.016009068116545677,0.006060871761292219,0.002650266047567129,0.01004156656563282
0.017021408304572105,0.004192223772406578,-0.015792416408658028,0.0058828662149608135,0.002549507189542055,0.009455320425331593
0.01813056692481041,0.003996202256530523,-0.015461581759154797,0.005684775300323963,0.0027028112672269344,0.009704533964395523
0.01795073039829731,0.0038167638704180717,-0.015813356265425682,0.006141877267509699,0.0024541437160223722,0.010423754341900349
0.018259920179843903,0.004339028149843216,-0.01523351389914751,0.006026832386851311,0.0022622777614742517,0.009866812266409397
0.018110504373908043,0.0041249776259064674,-0.016066601499915123,0.005958388559520245,0.002155496971681714,0.00961882434785366
0.01800515316426754,0.004142438992857933,-0.015193356201052666,0.00604192866012454,0.0021377326920628548,0.009602430276572704
0.018510617315769196,0.004775320645421743,-0.015470532700419426,0.005724340211600065,0.0022923171054571867,0.010107621550559998
0.018467294052243233,0.004866688046604395,-0.01463723462074995,0.006295680534094572,0.0024281071964651346,0.009894639253616333
0.018941255286335945,0.004459968768060207,-0.015344290062785149,0.005550796631723642,0.002453017747029662,0.010024357587099075
0.01918810047209263,0.00456067593768239,-0.015420155599713326,0.005356495268642902,0.002568370895460248,0.010537360794842243
0.018390081822872162,0.004949298687279224,-0.015087883919477463,0.005181742832064629,0.0025250848848372698,0.010138067416846752
0.018549831584095955,0.004954705946147442,-0.015234444290399551,0.005838681478053331,0.002832466969266534,0.009804710745811462
0.0190334040671587,0.004924118984490633,-0.015302499756217003,0.005596666131168604,0.0029618251137435436,0.01057480089366436
0.01884930394589901,0.005183585919439793,-0.015093755908310413,0.005007090978324413,0.0027020517736673355,0.010141433216631413
0.019379394128918648,0.005006448831409216,-0.01532238069921732,0.004563568159937859,0.002673713956028223,0.009591762907803059
0.019337916746735573,0.005258840974420309,-0.015241093002259731,0.0045777964405715466,0.0026768844109028578,0.01008677203208208
0.018897265195846558,0.005475587211549282,-0.015440603718161583,0.004700791090726852,0.00279125664383173,0.008704851381480694
0.019660307094454765,0.0056050485000014305,-0.014569124206900597,0.00507619883865118,0.002762959338724613,0.009908515959978104
0.01949271559715271,0.005852903239428997,-0.014916939660906792,0.005567415151745081,0.0025974400341510773,0.010085497982800007
0.01892741769552231,0.0056583210825920105,-0.014600446447730064,0.0047433096915483475,0.0022154843900352716,0.010643753223121166
0.01943812146782875,0.005751830991357565,-0.01517543662339449,0.0044106049463152885,0.0022340496070683002,0.010078107938170433
0.01943812146782875,0.005751830991357565,-0.01517543662339449,0.0044106049463152885,0.0022340496070683002,0.010078107938170433
0.019602201879024506,0.006093272008001804,-0.014789543114602566,0.0045026084408164024,0.002282305620610714,0.009997700341045856
0.019322384148836136,0.006414215080440044,-0.015148943290114403,0.004482542164623737,0.002759324386715889,0.010074351914227009
0.019745061174035072,0.006528399884700775,-0.014498676173388958,0.004897714126855135,0.00280876737087965,0.009953626431524754
0.019754769280552864,0.006410300265997648,-0.01503909844905138,0.00539785111322999,0.003053167136386037,0.010779346339404583
0.020365186035633087,0.006609831936657429,-0.014462025836110115,0.0051015084609389305,0.0025933142751455307,0.010191529989242554
0.019818365573883057,0.0063162329606711864,-0.01489285659044981,0.0046957628801465034,0.0023989055771380663,0.009676541201770306
0.020128170028328896,0.006730430293828249,-0.01443546824157238,0.004322533495724201,0.0021435003727674484,0.010159067809581757
0.020128170028328896,0.006730430293828249,-0.01443546824157238,0.004322533495724201,0.0021435003727674484,0.010159067809581757
0.020420720800757408,0.006637686397880316,-0.014086965471506119,0.004817998968064785,0.002510057296603918,0.009774315170943737
0.020485222339630127,0.0064668478444218636,-0.014556964859366417,0.0049906144849956036,0.0025074335280805826,0.009978016838431358
0.02010081335902214,0.006509924307465553,-0.013980094343423843,0.00486828712746501,0.0023959584068506956,0.010532025247812271
0.01991424523293972,0.0069957575760781765,-0.014545249752700329,0.004789350554347038,0.0023235257249325514,0.010258018039166927
0.020429402589797974,0.007124484051018953,-0.013657160103321075,0.004259559325873852,0.002442068187519908,0.010807844810187817
0.02073080651462078,0.007132922299206257,-0.014146247878670692,0.003605311969295144,0.0024315710179507732,0.01037023775279522
0.02043178677558899,0.007798848673701286,-0.013955486007034779,0.0032449914142489433,0.0030216805171221495,0.01020061131566763
0.020753946155309677,0.007665114942938089,-0.013558750040829182,0.003374839434400201,0.0031273197382688522,0.010637681931257248
0.020803095772862434,0.007459206040948629,-0.014051082544028759,0.0033043280709534883,0.00287986034527421,0.01123559009283781
0.02038564160466194,0.007188538555055857,-0.013509667478501797,0.0034377863630652428,0.002763945609331131,0.010337619110941887
0.020758330821990967,0.008070780895650387,-0.013786098919808865,0.003668365301564336,0.0027671910356730223,0.009778592735528946
0.020799478515982628,0.007871712557971478,-0.013668493367731571,0.003362624906003475,0.0027546286582946777,0.010050773620605469
0.020699016749858856,0.007566651329398155,-0.013850148767232895,0.0030256828758865595,0.002605261281132698,0.010558954440057278
0.02065756544470787,0.008330361917614937,-0.013763144612312317,0.0029909275472164154,0.0025635806377977133,0.010302543640136719
0.020985638722777367,0.008715459145605564,-0.013271664269268513,0.0030785880517214537,0.002724352525547147,0.010609110817313194
0.021197348833084106,0.007993131875991821,-0.013647790998220444,0.003201011335477233,0.002738591516390443,0.010779614560306072
0.02074245922267437,0.007704977877438068,-0.013511423021554947,0.003107043681666255,0.00291823991574347,0.009957605041563511
0.021055221557617188,0.008963314816355705,-0.01396122295409441,0.0034820525906980038,0.0031643398106098175,0.009976055473089218
0.02139921858906746,0.008595321327447891,-0.013755585998296738,0.003173958510160446,0.003125168848782778,0.009800488129258156
0.02110888622701168,0.008085229434072971,-0.014507455751299858,0.002904284978285432,0.0027242829091846943,0.010491911321878433
0.021071642637252808,0.008454672060906887,-0.013517997227609158,0.0026535457000136375,0.0027502200100570917,0.010760616511106491
0.021071642637252808,0.008454672060906887,-0.013517997227609158,0.0026535457000136375,0.0027502200100570917,0.010760616511106491
0.021034549921751022,0.008486956357955933,-0.013987348414957523,0.002379808109253645,0.0030225461814552546,0.009903589263558388
0.020741155371069908,0.0082446513697505,-0.013738447800278664,0.0022527521941810846,0.003062932286411524,0.010137248784303665
0.021091556176543236,0.007824522443115711,-0.014311653561890125,0.0022222392726689577,0.0029496962670236826,0.010055688209831715
0.021219104528427124,0.008240723051130772,-0.013692697510123253,0.0023281348403543234,0.0029678845312446356,0.009981256909668446
0.02187609113752842,0.008745631203055382,-0.0157993845641613,0.00213732966221869,0.0030462718568742275,0.010099243372678757
0.022165486589074135,0.008502703160047531,-0.013204770162701607,0.002201484050601721,0.003140627173706889,0.010339154861867428
0.021385986357927322,0.008453790098428726,-0.013976017013192177,0.0021338609512895346,0.0034190292935818434,0.010669069364666939
0.01927356608211994,0.009695762768387794,-0.01409518625587225,0.001927569042891264,0.0033833873458206654,0.011150902137160301
0.022124407812952995,0.008479143492877483,-0.014804117381572723,0.0017753789434209466,0.003450304502621293,0.010963713750243187
0.021792426705360413,0.008512691594660282,-0.01431809552013874,0.0017550858901813626,0.0032282122410833836,0.011025608517229557
0.021783871576189995,0.009204071946442127,-0.014808068983256817,0.001684070099145174,0.0030770055018365383,0.010589172132313251
0.021159809082746506,0.009022434242069721,-0.013806004077196121,0.0018997153965756297,0.0030156278517097235,0.010249699465930462
0.02182949148118496,0.008579776622354984,-0.014436510391533375,0.0017514972714707255,0.0026979262474924326,0.0102601433172822
0.021820157766342163,0.008904487825930119,-0.014126867055892944,0.0014970771735534072,0.0026819484774023294,0.010557356290519238
0.02165336348116398,0.008906378410756588,-0.013511513359844685,0.001105851144529879,0.002955341711640358,0.010756608098745346
0.022059816867113113,0.007086216006428003,-0.014075995422899723,0.001069126301445067,0.002996989293023944,0.011029783636331558
0.021129632368683815,0.00687574315816164,-0.01350401435047388,0.0010439847828820348,0.0030045071616768837,0.010730375535786152
0.02135472558438778,0.0069372523576021194,-0.013783842325210571,0.0008866384741850197,0.0030296421609818935,0.01081898808479309
0.02199919894337654,0.006589415017515421,-0.013611197471618652,0.0008476402144879103,0.00304659572429955,0.010970150120556355
0.022411426529288292,0.006896445527672768,-0.013830142095685005,0.0008523811702616513,0.0031172314193099737,0.010347673669457436
0.021816836670041084,0.007034119218587875,-0.013362826779484749,0.0007771356613375247,0.0034705554135143757,0.010601057671010494
0.021814817562699318,0.0076706246472895145,-0.013600013218820095,0.0007785489433445036,0.0032921363599598408,0.010152952745556831
0.02176295965909958,0.007118815090507269,-0.013338015414774418,0.0007130175945349038,0.0031066404189914465,0.009921218268573284
0.022107020020484924,0.006896938197314739,-0.013091170229017735,0.00064939318690449,0.0030059826094657183,0.010591554455459118
0.02194366604089737,0.007481641601771116,-0.013847612775862217,0.0006109898677095771,0.0030153843108564615,0.011001842096447945
0.021571433171629906,0.007461715489625931,-0.013387266546487808,0.000545190938282758,0.003131298115476966,0.010478541254997253
0.021857473999261856,0.007082286290824413,-0.014090124517679214,0.00048666601651348174,0.0030178194865584373,0.010652025230228901
0.022190652787685394,0.007046575658023357,-0.013196472078561783,0.00043913707486353815,0.002988876774907112,0.010671297088265419
0.022190652787685394,0.007046575658023357,-0.013196472078561783,0.00043913707486353815,0.002988876774907112,0.010671297088265419
0.02221808023750782,0.007191711105406284,-0.013905003666877747,0.0004586604773066938,0.003317853668704629,0.010263738222420216
0.021959614008665085,0.007746412418782711,-0.013140194118022919,0.0004394305869936943,0.003668311284855008,0.01046847365796566
0.022135797888040543,0.007292145397514105,-0.013914914801716805,0.00040743788122199476,0.003693430218845606,0.010241123847663403
0.02195763774216175,0.007128722965717316,-0.013542655855417252,0.0003789066104218364,0.0033544593024998903,0.0106958681717515
0.022399242967367172,0.007543359883129597,-0.013990839011967182,0.0003540530160535127,0.0032059848308563232,0.011053151451051235
0.02248346619307995,0.007685299031436443,-0.013197308406233788,0.0003322572447359562,0.0030193475540727377,0.01052238792181015
0.022128093987703323,0.007458174135535955,-0.014025246724486351,0.0003129894903395325,0.003156105987727642,0.010884268209338188
0.022157931700348854,0.007720152847468853,-0.013532276265323162,0.0002958355180453509,0.003160208696499467,0.01086953841149807
0.02259719930589199,0.008550775237381458,-0.013662123121321201,0.0002804642717819661,0.0033572500105947256,0.01074282918125391
0.022471895441412926,0.008614099584519863,-0.013611507602036,0.000266612769337371,0.0031619821675121784,0.011053813621401787
0.022356653586030006,0.008000452071428299,-0.013806953094899654,0.0002540647692512721,0.003322131233289838,0.011034750379621983
0.020661665126681328,0.008047526702284813,-0.01360247191041708,0.00024264580861199647,0.0034903197083622217,0.01108294166624546
0.02300203964114189,0.008548437617719173,-0.01311410404741764,0.00023220901493914425,0.003389740362763405,0.010661385953426361
0.02309095486998558,0.00817018374800682,-0.013253219425678253,0.00022263327264226973,0.0031703391578048468,0.010471370071172714
0.02312566339969635,0.008767376653850079,-0.013135535642504692,0.0002056711382465437,0.0037908731028437614,0.01087621133774519
0.02295878902077675,0.008584791794419289,-0.013085256330668926,0.00019812386017292738,0.0034050573594868183,0.010613317601382732
0.02220194973051548,0.00829914677888155,-0.013384002260863781,0.00016754433454480022,0.0029555007349699736,0.010868554003536701
0.022951966151595116,0.008618365973234177,-0.012444516643881798,0.0001543558028060943,0.002652313094586134,0.01055289525538683
0.023156309500336647,0.009389353916049004,-0.012826402671635151,0.00014876562636345625,0.0027387109585106373,0.010772832669317722
0.02341575361788273,0.008486755192279816,-0.012759354896843433,0.00014397372433450073,0.0031877290457487106,0.010989557020366192
0.022794581949710846,0.008568897843360901,-0.012712531723082066,0.0001395075669279322,0.00419619120657444,0.01108711026608944
0.023324791342020035,0.009112350642681122,-0.01281549409031868,0.0001353121770080179,0.004157474264502525,0.011388301849365234
0.024061650037765503,0.009053623303771019,-0.01246708258986473,0.0001119019725592807,0.003914182074368,0.011180450208485126
0.023183180019259453,0.00920264981687069,-0.012734834104776382,0.00010255340748699382,0.003774475073441863,0.01142535824328661
0.023139607161283493,0.008539867587387562,-0.012421473860740662,9.932116518029943e-05,0.003581468015909195,0.011887076310813427
0.022455349564552307,0.008827175945043564,-0.012690777890384197,9.662865340942517e-05,0.003416988532990217,0.011434430256485939
0.022794628515839577,0.00879621785134077,-0.01261562667787075,7.666655437787995e-05,0.003597976639866829,0.011480034328997135
0.02315218560397625,0.008881639689207077,-0.012889806181192398,6.917547580087557e-05,0.0038064236287027597,0.010686768218874931
0.02315218560397625,0.008881639689207077,-0.012889806181192398,6.917547580087557e-05,0.0038064236287027597,0.010686768218874931
0.023456450551748276,0.009210119023919106,-0.012842468917369843,6.709514855174348e-05,0.0038870251737535,0.010844098404049873
0.02289833500981331,0.009089800529181957,-0.01257883757352829,-2.1732850655098446e-05,0.003950299695134163,0.011774887330830097
0.023070812225341797,0.009096341207623482,-0.012858742848038673,-4.8789253924041986e-05,0.0039810910820961,0.010718133300542831
0.02311084233224392,0.009633705019950867,-0.012173591181635857,-7.229521725093946e-05,0.003908021375536919,0.011197871528565884
0.023417366668581963,0.009491738863289356,-0.013171791099011898,-8.379088103538379e-05,0.0038428015541285276,0.011862585321068764
0.023038310930132866,0.009678791277110577,-0.012227697297930717,-0.00010433034913148731,0.003777874168008566,0.011743390001356602
0.023145711049437523,0.0098942955955863,-0.012671555392444134,-0.0001135914062615484,0.0033380708191543818,0.011894844472408295
0.022988881915807724,0.009591439738869667,-0.012543228454887867,-0.0007713850354775786,0.003066036384552717,0.011207391507923603
0.02305394783616066,0.00986260361969471,-0.01271557342261076,-0.0014286012155935168,0.0031879316084086895,0.011454003863036633
0.02305394783616066,0.00986260361969471,-0.01271557342261076,-0.0014286012155935168,0.0031879316084086895,0.011454003863036633
0.0231611430644989,0.009425223805010319,-0.012801182456314564,-0.0019147617276757956,0.003793074283748865,0.011336891911923885
0.02318679541349411,0.009337261319160461,-0.012156626209616661,-0.001967567717656493,0.0038929989095777273,0.011165281757712364
0.02333907037973404,0.009958934970200062,-0.01232185959815979,-0.0024100467562675476,0.0038801953196525574,0.010909255594015121
0.023708583787083626,0.009210260584950447,-0.012296716682612896,-0.003176638390868902,0.003851395333185792,0.011534933932125568
0.02374778874218464,0.009728862904012203,-0.013093004003167152,-0.0037750282790511847,0.0037676163483411074,0.01170718390494585
0.022148266434669495,0.00987069308757782,-0.012566503137350082,-0.004109793342649937,0.0033820481039583683,0.01237307209521532
0.02362752892076969,0.00926332175731659,-0.012175503186881542,-0.004019196145236492,0.0035294375848025084,0.011507374234497547
0.0236769188195467,0.010009531863033772,-0.012808200903236866,-0.004264600574970245,0.0038659207057207823,0.011103302240371704
0.023675478994846344,0.00943046621978283,-0.012419438920915127,-0.004205353558063507,0.004011969082057476,0.011470513418316841
0.023906834423542023,0.009299490600824356,-0.01332107000052929,-0.003994621802121401,0.0035628993064165115,0.01158537995070219
0.023557763546705246,0.009578447788953781,-0.012426079250872135,-0.004290401469916105,0.0035188631154596806,0.011586550623178482
0.023823728784918785,0.009794136509299278,-0.012673073448240757,-0.005004510283470154,0.0035456253681331873,0.012493327260017395
0.0238798838108778,0.009631900116801262,-0.012585139833390713,-0.0053409794345498085,0.003532217815518379,0.011871924623847008
0.0238798838108778,0.009631900116801262,-0.012585139833390713,-0.0053409794345498085,0.003532217815518379,0.011871924623847008
0.0238957479596138,0.009679698385298252,-0.012832889333367348,-0.005891577806323767,0.0035372450947761536,0.01148980576545
0.023810910061001778,0.009704310446977615,-0.012963988818228245,-0.005509914830327034,0.003439340041950345,0.011513164266943932
0.024236461147665977,0.009738698601722717,-0.01239967904984951,-0.0052860938012599945,0.003126296680420637,0.011356844566762447
0.02429221011698246,0.009795471094548702,-0.01331770047545433,-0.0052090538665652275,0.00341822043992579,0.011533071286976337
0.02411830611526966,0.009697900153696537,-0.012930226512253284,-0.0050550419837236404,0.0038016238249838352,0.011191137135028839
0.02404051460325718,0.009679263457655907,-0.01333052571862936,-0.0059210569597780704,0.003903290955349803,0.011590825393795967
0.02400285191833973,0.01098963525146246,-0.012204659171402454,-0.006577626336365938,0.0042635672725737095,0.011476447805762291
0.024290937930345535,0.010028958320617676,-0.013323219493031502,-0.006167407147586346,0.004212747793644667,0.011366632767021656
0.02471093088388443,0.010032584890723228,-0.013559249229729176,-0.006034042686223984,0.0036090232897549868,0.011580390855669975
0.024498524144291878,0.010399040766060352,-0.013482015579938889,-0.006045506801456213,0.003173507284373045,0.011730014346539974
0.024147026240825653,0.010112032294273376,-0.012875554151833057,-0.0067869629710912704,0.003662165952846408,0.011757777072489262
0.024147026240825653,0.010112032294273376,-0.012875554151833057,-0.0067869629710912704,0.003662165952846408,0.011757777072489262
0.024572987109422684,0.010205034166574478,-0.012987700290977955,-0.006640163250267506,0.004607595503330231,0.011701860465109348
0.02554343082010746,0.01007494144141674,-0.013600032776594162,-0.007115334738045931,0.004303980153053999,0.01155876088887453
0.025547150522470474,0.010112886317074299,-0.012665536254644394,-0.00752594880759716,0.003568072337657213,0.01171688549220562
0.02465721219778061,0.009880966506898403,-0.012930343858897686,-0.0068871923722326756,0.003973545506596565,0.011602387763559818
0.024469975382089615,0.00958975963294506,-0.012679669074714184,-0.006418480537831783,0.0038992788176983595,0.011502593755722046
0.02488100156188011,0.010575440712273121,-0.013571064919233322,-0.006595671642571688,0.003573817200958729,0.011721238493919373
0.02488100156188011,0.010575440712273121,-0.013571064919233322,-0.006595671642571688,0.003573817200958729,0.011721238493919373
0.025598585605621338,0.009788474068045616,-0.012816627509891987,-0.007208563387393951,0.0036704367958009243,0.011632069945335388
0.024628441780805588,0.009874972514808178,-0.013252230361104012,-0.007569161243736744,0.0038835559971630573,0.011973874643445015
0.025299327448010445,0.010370025411248207,-0.013217856176197529,-0.006850528065115213,0.004267604555934668,0.011563725769519806
0.026217110455036163,0.0102463997900486,-0.012761208228766918,-0.0063613359816372395,0.004454589914530516,0.011044872924685478
0.025567876175045967,0.010856011882424355,-0.013390947133302689,-0.007241944316774607,0.004176366608589888,0.011625201441347599
0.025802673771977425,0.011380365118384361,-0.012888891622424126,-0.007825300097465515,0.0036403897684067488,0.012556743808090687
0.02535049244761467,0.010300041176378727,-0.013367930427193642,-0.007625321391969919,0.003257799195125699,0.012172656133770943
0.025024592876434326,0.010065687820315361,-0.012933197431266308,-0.007102686446160078,0.003072779392823577,0.01182243600487709
0.025568822398781776,0.010525209829211235,-0.013006576336920261,-0.007984006777405739,0.003121862653642893,0.012150079943239689
0.026119571179151535,0.00995632540434599,-0.012797187082469463,-0.008548304438591003,0.0040311613120138645,0.011979185976088047
0.025563091039657593,0.010713872499763966,-0.01311644446104765,-0.00817088596522808,0.004560866858810186,0.011774676851928234
0.025574781000614166,0.010173342190682888,-0.012720129452645779,-0.008200178854167461,0.004457395523786545,0.011765772476792336
0.026666145771741867,0.010232314467430115,-0.012875975109636784,-0.009007892571389675,0.00400292593985796,0.011741704307496548
0.026238908991217613,0.010145045816898346,-0.013354280032217503,-0.008649512194097042,0.004291166085749865,0.012088845483958721
0.02625402621924877,0.009969597682356834,-0.012576219625771046,-0.008200623095035553,0.004161040298640728,0.012283183634281158
0.025924013927578926,0.010603386908769608,-0.012841513380408287,-0.008246026933193207,0.003702705493196845,0.01246616616845131
0.026528842747211456,0.011410805396735668,-0.012512953020632267,-0.00885148998349905,0.003456966718658805,0.012266119010746479
0.02586335502564907,0.010341459885239601,-0.01247552689164877,-0.008702432736754417,0.004187669139355421,0.012412535957992077
0.026203297078609467,0.010410498827695847,-0.012743697501718998,-0.00828102882951498,0.0044250390492379665,0.012150269001722336
0.026621442288160324,0.01014612428843975,-0.012680202722549438,-0.008123110979795456,0.004661052022129297,0.012276623398065567
0.026815520599484444,0.010034809820353985,-0.013018329627811909,-0.008020949549973011,0.004704084247350693,0.01209449302405119
0.02657267637550831,0.009890349581837654,-0.012638320215046406,-0.008524410426616669,0.004423319827765226,0.012465167790651321
0.026750730350613594,0.01007501408457756,-0.012252971529960632,-0.008602958172559738,0.0040267701260745525,0.01205435860902071
0.02677714079618454,0.009560064412653446,-0.012741747312247753,-0.008363070897758007,0.0038549082819372416,0.012060519307851791
0.027270767837762833,0.0104698920622468,-0.012505852617323399,-0.009070868603885174,0.004196593537926674,0.012125378474593163
0.028345119208097458,0.00970443245023489,-0.012354966253042221,-0.008964860811829567,0.00422317162156105,0.011948293074965477
0.028345119208097458,0.00970443245023489,-0.012354966253042221,-0.008964860811829567,0.00422317162156105,0.011948293074965477
0.027809666469693184,0.009415351785719395,-0.011951114051043987,-0.008486508391797543,0.0043206061236560345,0.01227833516895771
0.026944372802972794,0.009812777861952782,-0.012307494878768921,-0.008762267418205738,0.004451434593647718,0.012618442997336388
0.027116399258375168,0.009641535580158234,-0.01248527504503727,-0.009147011674940586,0.004173973575234413,0.012098316103219986
0.027925534173846245,0.009887583553791046,-0.012393929064273834,-0.008953340351581573,0.0038761638570576906,0.012100490741431713
0.028029611334204674,0.010286989621818066,-0.012570641934871674,-0.00802287645637989,0.003394159721210599,0.011744383722543716
0.027661927044391632,0.009685331955552101,-0.012063737027347088,-0.008685627952218056,0.003441818756982684,0.01192284096032381
0.02868538722395897,0.009951665997505188,-0.012719482183456421,-0.009212786331772804,0.004551188088953495,0.012137842364609241
0.028456849977374077,0.01058998703956604,-0.01224544458091259,-0.008772660978138447,0.004837406799197197,0.012772878631949425
0.02873915061354637,0.010109273716807365,-0.01278760377317667,-0.009468050673604012,0.004538777284324169,0.012417144142091274
0.02712053433060646,0.01087177637964487,-0.012254578992724419,-0.009215653873980045,0.00412802305072546,0.011903689242899418
0.027125846594572067,0.010165270417928696,-0.01192215085029602,-0.009414850734174252,0.0038899295032024384,0.012314907275140285
0.028111308813095093,0.010066712275147438,-0.012391306459903717,-0.009344865567982197,0.004095226060599089,0.01203758455812931
0.027968401089310646,0.01063449401408434,-0.011902078986167908,-0.009487846866250038,0.004236839711666107,0.012226859107613564
0.027689026668667793,0.010363755747675896,-0.012459797784686089,-0.009341333992779255,0.0044626276940107346,0.011992471292614937
0.027102090418338776,0.00988621637225151,-0.011974775232374668,-0.009304390288889408,0.00444465596228838,0.012205759063363075
0.027769461274147034,0.01023112889379263,-0.011752587743103504,-0.010247915983200073,0.004258004017174244,0.012583217583596706
0.027279136702418327,0.010298183187842369,-0.011934800073504448,-0.009797094389796257,0.004387572407722473,0.012233750894665718
0.02741338685154915,0.010622155852615833,-0.012447272427380085,-0.01049981452524662,0.004314730875194073,0.012135215103626251
0.02741338685154915,0.010622155852615833,-0.012447272427380085,-0.01049981452524662,0.004314730875194073,0.012135215103626251
0.027777547016739845,0.010721837170422077,-0.012173695489764214,-0.009626196697354317,0.0036274271551519632,0.012347777374088764
0.027777547016739845,0.010721837170422077,-0.012173695489764214,-0.009626196697354317,0.0036274271551519632,0.012347777374088764
0.027852103114128113,0.011188617907464504,-0.012114095501601696,-0.009577833116054535,0.0039715878665447235,0.012943665497004986
0.027698908001184464,0.011593018658459187,-0.012459016405045986,-0.009247506968677044,0.004608877003192902,0.012575224041938782
0.028097743168473244,0.011133158579468727,-0.01183945033699274,-0.009524513967335224,0.0042574056424200535,0.01243780367076397
0.027893178164958954,0.01111894566565752,-0.012651978060603142,-0.009803485125303268,0.004309784155339003,0.012106174603104591
0.027893178164958954,0.01111894566565752,-0.012651978060603142,-0.009803485125303268,0.004309784155339003,0.012106174603104591
0.02822260372340679,0.011421357281506062,-0.011918877251446247,-0.010400000028312206,0.003984482027590275,0.012502391822636127
0.02822260372340679,0.011421357281506062,-0.011918877251446247,-0.010400000028312206,0.003984482027590275,0.012502391822636127
0.028473401442170143,0.011975168250501156,-0.012127826921641827,-0.010736605152487755,0.0034935693256556988,0.012479194439947605
0.027919704094529152,0.011735554784536362,-0.01182456873357296,-0.011185288429260254,0.004118458367884159,0.01237676665186882
0.027925781905651093,0.011241802014410496,-0.012610048055648804,-0.01049156952649355,0.004667247645556927,0.012293711304664612
0.028827322646975517,0.01171770691871643,-0.011810299009084702,-0.01036060880869627,0.0047300332225859165,0.012522290460765362
0.028491811826825142,0.011893576942384243,-0.01227751187980175,-0.011018266901373863,0.004392766859382391,0.01257136557251215
0.02811364457011223,0.011930321343243122,-0.011963867582380772,-0.01042637974023819,0.00438532093539834,0.01268836297094822
0.02811364457011223,0.011930321343243122,-0.011963867582380772,-0.01042637974023819,0.00438532093539834,0.01268836297094822
0.028034402057528496,0.01159198209643364,-0.012402240186929703,-0.010917538776993752,0.004340482875704765,0.012401385232806206
0.02844914048910141,0.012393338605761528,-0.01199586782604456,-0.011295524425804615,0.004477920010685921,0.012722768820822239
0.02827189676463604,0.011850065551698208,-0.012385285459458828,-0.010980207473039627,0.004267766140401363,0.012556270696222782
0.028321925550699234,0.01221456192433834,-0.012281838804483414,-0.010408485308289528,0.004226032178848982,0.012698921374976635
0.02815125323832035,0.012318512424826622,-0.0122936787083745,-0.00992623157799244,0.00402769586071372,0.012207540683448315
0.0281393863260746,0.011844929307699203,-0.012032301165163517,-0.010403571650385857,0.003888679901137948,0.012669418938457966
0.028243426233530045,0.011948409490287304,-0.011693671345710754,-0.010937249287962914,0.003860387485474348,0.012736801989376545
0.02806800603866577,0.01204825658351183,-0.012129385955631733,-0.010201092809438705,0.004253111779689789,0.013128778897225857
0.02804088406264782,0.012446455657482147,-0.012162372469902039,-0.010547518730163574,0.004348657559603453,0.013388562947511673
0.029065627604722977,0.01290468405932188,-0.012142286635935307,-0.010857511311769485,0.004487163387238979,0.012678432278335094
0.028757747262716293,0.012822224758565426,-0.012343505397439003,-0.011531336233019829,0.004235155880451202,0.012524191290140152
0.02794051356613636,0.012535877525806427,-0.01304720900952816,-0.010924351401627064,0.004033457022160292,0.012900395318865776
0.027208223938941956,0.01276898942887783,-0.011764958500862122,-0.010698997415602207,0.003939633257687092,0.012823664583265781
0.027519987896084785,0.012133253738284111,-0.012572700157761574,-0.011847440153360367,0.0042731184512376785,0.01345409732311964
0.028479617089033127,0.012870739214122295,-0.01220614742487669,-0.011163190007209778,0.004464078228920698,0.013431601226329803
0.028016330674290657,0.012733283452689648,-0.012200864963233471,-0.01173725351691246,0.004615006037056446,0.013584469445049763
0.02870592661201954,0.013056802563369274,-0.01221079658716917,-0.011631790548563004,0.004675134550780058,0.012951147742569447
0.029372310265898705,0.012806273996829987,-0.011375349014997482,-0.011725828982889652,0.004307050257921219,0.013358090072870255
0.028480859473347664,0.013404149562120438,-0.012380494736135006,-0.012159472331404686,0.004356850404292345,0.013076217845082283
0.028480859473347664,0.013404149562120438,-0.012380494736135006,-0.012159472331404686,0.004356850404292345,0.013076217845082283
0.027598479762673378,0.013367978855967522,-0.012176492251455784,-0.01119487825781107,0.004434318281710148,0.013040702790021896
0.027653547003865242,0.012807098217308521,-0.012393377721309662,-0.01177119929343462,0.0042286585085093975,0.012767119333148003
0.028855806216597557,0.013012537732720375,-0.011642172932624817,-0.011549707502126694,0.004033002536743879,0.012835337780416012
0.029193082824349403,0.01295291818678379,-0.011916112154722214,-0.011457870714366436,0.004490524064749479,0.012935546226799488
0.028690630570054054,0.013540336862206459,-0.012371260672807693,-0.011898971162736416,0.004828791134059429,0.01309160701930523
0.02863755077123642,0.013076229952275753,-0.01146567240357399,-0.011820158921182156,0.004595851991325617,0.01351953949779272
0.028832023963332176,0.013576410710811615,-0.01180366799235344,-0.011911137029528618,0.0041430345736444,0.012887556105852127
0.028859833255410194,0.013049899600446224,-0.011995690874755383,-0.011966697871685028,0.004328877665102482,0.012057428248226643
0.02852192521095276,0.013542789965867996,-0.0122531121596694,-0.012193908914923668,0.004621780943125486,0.01355032715946436
0.028861312195658684,0.013228687457740307,-0.012509385123848915,-0.012406906113028526,0.0045427544973790646,0.014117991551756859
0.029370766133069992,0.013575385324656963,-0.011644026264548302,-0.011995385400950909,0.004465780220925808,0.01366681233048439
0.029035955667495728,0.013417289592325687,-0.011930802837014198,-0.012754315510392189,0.00489445123821497,0.013243356719613075
0.029341325163841248,0.01409054733812809,-0.011617387644946575,-0.012739269062876701,0.004816748201847076,0.012876011431217194
0.029430242255330086,0.013679469004273415,-0.012057377956807613,-0.013197500258684158,0.004662409890443087,0.013006076216697693
0.02911520004272461,0.013745383359491825,-0.01250127237290144,-0.013496406376361847,0.00452631339430809,0.013394723646342754
