davideferrari95/blind_handover_controller/data/Test 7 - [2024-02-07 -- 13-03-31]/joint_states_data.csv
shoulder_pan_joint,shoulder_lift_joint,elbow_joint,wrist_1_joint,wrist_2_joint,wrist_3_joint
0.0027853776700794697,0.012048336677253246,-0.011711781844496727,0.00011327044194331393,0.0,0.0025254860520362854
0.002625748747959733,0.012681755237281322,-0.0113449702039361,0.00010178741649724543,0.0,0.0026710969395935535
0.002625748747959733,0.012681755237281322,-0.0113449702039361,0.00010178741649724543,0.0,0.0026710969395935535
0.0024444139562547207,0.012905831448733807,-0.011277996934950352,9.150985715677962e-05,0.0,0.0027259853668510914
0.002494527492672205,0.01306228619068861,-0.01214762032032013,8.30584394861944e-05,0.0,0.0024596727453172207
0.002631073584780097,0.012948203831911087,-0.011202204041182995,7.603434642078355e-05,0.0,0.002261086832731962
0.002634362317621708,0.012851418927311897,-0.011559972539544106,7.010606350377202e-05,0.0,0.002005673246458173
0.0029548965394496918,0.012526323087513447,-0.011311088688671589,6.50360161671415e-05,0.0,0.0019421707838773727
0.0031841376330703497,0.012080858461558819,-0.01104634627699852,6.06502580922097e-05,0.0,0.0020995878148823977
0.0030970738735049963,0.012344867922365665,-0.011690553277730942,5.681935726897791e-05,0.0,0.002147611929103732
0.0026329378597438335,0.012053710408508778,-0.011376786977052689,5.3443382057594135e-05,0.0,0.0023761175107210875
0.002716896589845419,0.01274973526597023,-0.011814812198281288,5.044672070653178e-05,0.0,0.0023915478959679604
0.0030329336877912283,0.012106740847229958,-0.012131924740970135,4.776811692863703e-05,0.0,0.0022540921345353127
0.0030362310353666544,0.012544426135718822,-0.011381633579730988,4.5359836803982034e-05,0.0,0.002251594327390194
0.003009883454069495,0.0124709727242589,-0.01247225422412157,4.3182892113691196e-05,0.0,0.0020541558042168617
0.0027532002422958612,0.01172666996717453,-0.01133713312447071,4.120512676308863e-05,0.0,0.002113617956638336
0.0029901631642132998,0.012653288431465626,-0.011545480228960514,3.9400958485202864e-05,0.0,0.0023767570964992046
0.003046758007258177,0.01207338459789753,-0.01157358381897211,3.774799552047625e-05,0.0,0.0024626886006444693
0.003047260921448469,0.011811005882918835,-0.010776370763778687,3.6228222597856075e-05,0.0,0.0025128633715212345
0.003054189495742321,0.011478857137262821,-0.011500217020511627,3.4826087357942015e-05,0.0,0.002453079679980874
0.003106026677414775,0.011410403996706009,-0.011367559432983398,3.232413291698322e-05,0.0,0.0021495134569704533
0.0030539094004780054,0.01131225936114788,-0.011179858818650246,3.1206316634779796e-05,0.0,0.0021487742196768522
0.002931613940745592,0.011237943544983864,-0.01088629849255085,3.0158544177538715e-05,0.0,0.002063062274828553
0.0032982167322188616,0.01137863751500845,-0.011878883466124535,2.9180471756262705e-05,0.0,0.0020433308091014624
0.003116135485470295,0.01155140157788992,-0.011270418763160706,2.8266484150663018e-05,0.0,0.002125136088579893
0.003116135485470295,0.01155140157788992,-0.011270418763160706,2.8266484150663018e-05,0.0,0.002125136088579893
0.0032565605361014605,0.01113873440772295,-0.011202310211956501,2.659589699760545e-05,0.0,0.0018318608636036515
0.0032181688584387302,0.011471736244857311,-0.01053199078887701,2.5832483515841886e-05,0.0,0.0018277850467711687
0.0034801128786057234,0.011623785831034184,-0.011427574791014194,2.5111598006333224e-05,0.0,0.001785026746802032
0.0034801128786057234,0.011623785831034184,-0.011427574791014194,2.5111598006333224e-05,0.0,0.001785026746802032
0.003684330964460969,0.011145045980811119,-0.012054539285600185,2.443002085783519e-05,0.0,0.001846090890467167
0.0037770189810544252,0.011525892652571201,-0.010954415425658226,2.378434146521613e-05,0.0,0.0019789175130426884
0.003372268518432975,0.011564033105969429,-0.01094556413590908,2.317192411283031e-05,0.0,0.0019588854629546404
0.0034972471185028553,0.011686773970723152,-0.010951810516417027,2.259029497508891e-05,0.0,0.0019573355093598366
0.0037333278451114893,0.011774465441703796,-0.011165909469127655,2.2037125745555386e-05,0.0,0.001982408110052347
0.0034221613314002752,0.010926220566034317,-0.011708224192261696,2.1510444639716297e-05,0.0,0.002086724154651165
0.0033300265204161406,0.01188912708312273,-0.011405440047383308,2.1008276235079393e-05,0.0,0.001969719072803855
0.0034247732255607843,0.011187640950083733,-0.011638783849775791,2.0529088942566887e-05,0.0,0.002109952736645937
0.003674684790894389,0.012017151340842247,-0.011553495191037655,2.0071245671715587e-05,0.0,0.0019939441699534655
0.0037533394061028957,0.011681618168950081,-0.010369626805186272,1.9633407646324486e-05,0.0,0.0019987260457128286
0.0036518012639135122,0.011021707206964493,-0.010837160982191563,1.921423609019257e-05,0.0,0.001931259874254465
0.003407820127904415,0.011566147208213806,-0.01064245868474245,1.8812603229889646e-05,0.0,0.001966009382158518
0.003531009890139103,0.011317470110952854,-0.010270411148667336,1.842739584390074e-05,0.0,0.0018997667357325554
0.003713850397616625,0.011542712338268757,-0.010672099888324738,1.8057686247630045e-05,0.0,0.0019423415651544929
0.003742062719538808,0.011867014691233635,-0.009963649325072765,1.7702481272863224e-05,0.0,0.0019151241285726428
0.0036651326809078455,0.011078126728534698,-0.010867155157029629,1.7361015125061385e-05,0.0,0.0021387627348303795
0.0038357023149728775,0.011851307936012745,-0.011461028829216957,1.7032463802024722e-05,0.0,0.002157267415896058
0.003944451455026865,0.011711296625435352,-0.010513893328607082,1.6716092432034202e-05,0.0,0.002096361480653286
0.0037357560358941555,0.011474864557385445,-0.011901069432497025,1.6411286196671426e-05,0.0,0.001996990293264389
0.003442983841523528,0.012047609314322472,-0.011416361667215824,1.6117379345814697e-05,0.0,0.0019500094931572676
0.0035642944276332855,0.011244487948715687,-0.011414330452680588,1.5833838915568776e-05,0.0,0.0017429428407922387
0.0038093416951596737,0.011533480137586594,-0.010357207618653774,1.529563269286882e-05,0.0,0.0016397099243476987
0.003539607860147953,0.011696490459144115,-0.01131673064082861,1.5040036487334874e-05,0.0,0.001743011875078082
0.003627894911915064,0.012054603546857834,-0.011356834322214127,1.4792837646382395e-05,1.4221569699657266e-06,0.001633852138184011
0.0038086760323494673,0.011556818149983883,-0.010703532956540585,1.4553630535374396e-05,9.285668767233801e-08,0.0017037279903888702
0.0038086760323494673,0.011556818149983883,-0.010703532956540585,1.4553630535374396e-05,9.285668767233801e-08,0.0017037279903888702
0.004017578437924385,0.011921590194106102,-0.011634920723736286,1.4322030438052025e-05,6.0628786435756865e-09,0.0017415840411558747
0.0036889587063342333,0.011941389180719852,-0.011198175139725208,1.4097699931880925e-05,3.9586259270585344e-10,0.0018741263775154948
0.003572663990780711,0.011939040385186672,-0.011187855154275894,1.3880272490496282e-05,2.5846996418166235e-11,0.001819675788283348
0.003362644463777542,0.01179669052362442,-0.011579432524740696,1.3669464351551142e-05,1.6876243241412126e-12,0.0018206924432888627
0.0034541182685643435,0.011217204853892326,-0.011208638548851013,1.3464967196341604e-05,1.1018980460063624e-13,0.0017197633860632777
0.0036026451271027327,0.011923969723284245,-0.01151735708117485,1.326648452959489e-05,7.194606374419724e-15,0.0015932504320517182
0.004092464689165354,0.011190079152584076,-0.011201932094991207,1.3073772606730927e-05,4.697564257342361e-16,0.0016448107780888677
0.004217549227178097,0.011946657672524452,-0.011220322921872139,1.288657404074911e-05,3.067173799945806e-17,0.0015585654182359576
0.0037366242613643408,0.01131131500005722,-0.011609967797994614,1.2704668733931612e-05,2.0026454152263545e-18,0.0018877690890803933
0.002433394780382514,0.011036588810384274,-0.011730067431926727,1.252784022653941e-05,1.3075842356100102e-19,0.002069032983854413
0.00046842420124448836,0.011347089894115925,-0.011609627865254879,1.2355835679045413e-05,8.537590403894788e-21,0.0021861009299755096
0.0003933132393285632,0.011151238344609737,-0.011350936256349087,1.2188523214717861e-05,5.574436488041539e-22,0.0019109699642285705
0.000677869888022542,0.011175698600709438,-0.011149153113365173,1.202565363200847e-05,3.639708922292398e-23,0.0016286520985886455
0.0008081165142357349,0.011959511786699295,-0.012521876022219658,1.186708777822787e-05,2.376469903818623e-24,0.0015035375254228711
0.00273130857385695,0.011164297349750996,-0.011537373997271061,1.171266285382444e-05,1.551664995185475e-25,0.0014233831316232681
0.002568643307313323,0.012046344578266144,-0.01182527095079422,1.1562196050363127e-05,1.0131264338927657e-26,0.001506080967374146
0.0019634130876511335,0.011404826305806637,-0.011800164356827736,1.1415542758186348e-05,6.614991579986839e-28,0.0014540939591825008
0.0013588247820734978,0.011008602567017078,-0.011868330650031567,1.1272567462583538e-05,4.3191166738929966e-29,0.0017369250999763608
0.0011112827342003584,0.011559195816516876,-0.011747291311621666,1.1133131920360029e-05,2.8200747064362563e-30,0.0017134073423221707
0.0010810837848111987,0.011146306991577148,-0.010955555364489555,1.0997116078215186e-05,1.8413071640164551e-31,0.0015197733882814646
0.0008326349197886884,0.011404305696487427,-0.011807471513748169,1.0864373507502023e-05,1.2022420635596763e-32,0.0014024816919118166
0.0009589064866304398,0.012244381941854954,-0.011491735465824604,1.0734769603004679e-05,7.849782297478305e-34,0.0014268517261371017
0.0017806757241487503,0.011364941485226154,-0.011571187525987625,1.0608267984935082e-05,5.125347076183403e-35,0.0014107804745435715
0.0018131278920918703,0.011431463062763214,-0.011744865216314793,1.0484686754352879e-05,3.3464854799972e-36,0.0014993323711678386
0.001516888034529984,0.011100689880549908,-0.011167359538376331,1.036396042763954e-05,2.185015996829138e-37,0.0014497401425614953
0.0012670628493651748,0.011805879883468151,-0.011435046792030334,6.68988377583446e-07,9.315061476676005e-40,0.0014399653300642967
0.0012390508782118559,0.01126040704548359,-0.01116473414003849,4.3680156380787594e-08,6.082055724709004e-41,0.0013577139470726252
0.0012390508782118559,0.01126040704548359,-0.01116473414003849,4.3680156380787594e-08,6.082055724709004e-41,0.0013577139470726252
0.001229507033713162,0.01213056966662407,-0.011649387888610363,2.8520019679234565e-09,3.9712798478965316e-42,0.0011539408005774021
0.001325202058069408,0.010977483354508877,-0.010967073030769825,1.8621533481866237e-10,2.5924021590009116e-43,0.0009248174028471112
0.0019303102744743228,0.011301455087959766,-0.012056246399879456,1.2158530258987721e-11,1.6815581571897805e-44,0.0009081877069547772
0.0020172023214399815,0.011742756702005863,-0.011244799941778183,7.938651363885441e-13,1.401298464324817e-45,0.0007850346155464649
0.0020632874220609665,0.011270667426288128,-0.011074927635490894,5.18337204213036e-14,0.0,0.0007914153975434601
0.0018245938699692488,0.011914616450667381,-0.011453296057879925,3.3843715980061027e-15,0.0,0.0007577613578177989
0.001629294827580452,0.011578542180359364,-0.01110236719250679,2.2097529200357176e-16,0.0,0.0007253465009853244
0.0014533961657434702,0.011995077133178711,-0.011387708596885204,1.4428107760623536e-17,0.0,0.0005997372791171074
0.0015249754069373012,0.011924892663955688,-0.010979432612657547,9.420522181940323e-19,0.0,0.0005631661624647677
0.002002725610509515,0.01219046488404274,-0.010898483917117119,6.150927959641385e-20,0.0,0.0005487510934472084
0.0019077685428783298,0.012134617194533348,-0.011588096618652344,4.0161165664130196e-21,0.0,0.000572520075365901
0.002223591087386012,0.011431909166276455,-0.01094307005405426,2.6222370102625506e-22,0.0,0.0005899109528400004
0.0019319995772093534,0.01141500473022461,-0.011047928594052792,1.7121334534999161e-23,0.0,0.000561839435249567
0.0017139895353466272,0.011558395810425282,-0.011799323372542858,1.1179008038530981e-24,0.0,0.0006651594885624945
0.0017321419436484575,0.010985934175550938,-0.011307569220662117,7.299093914036038e-26,0.0,0.0006873662350699306
0.0017644460313022137,0.011896748095750809,-0.01122608594596386,4.765786832724102e-27,0.0,0.0006346169975586236
0.001786081469617784,0.011240238323807716,-0.010824871249496937,3.1117182703916516e-28,0.0,0.0006574420258402824
0.002249252749606967,0.01119084283709526,-0.010973681695759296,2.0317297021759334e-29,0.0,0.0006744778365828097
0.0020686485804617405,0.011396709829568863,-0.011307341046631336,1.3265742450442076e-30,0.0,0.0006261881208047271
0.0024019854608923197,0.011137760244309902,-0.010969800874590874,8.661582516512817e-32,0.0,0.0006630777497775853
0.0023598899133503437,0.011450172401964664,-0.010951762087643147,5.655394055276229e-33,0.0,0.0005914405337534845
0.0022829801309853792,0.010879979468882084,-0.010690626688301563,3.6925680064460704e-34,0.0,0.0006134096183814108
0.002097503747791052,0.010817845351994038,-0.01071565318852663,2.4109831093690377e-35,0.0,0.0005617492133751512
0.0021003393922001123,0.011556655168533325,-0.011180603876709938,1.5741995923218338e-36,0.0,0.0005094826337881386
0.002534219529479742,0.01189929898828268,-0.010989225469529629,6.711059368987413e-39,0.0,0.0004949384019710124
0.0023744055069983006,0.011324340477585793,-0.010969312861561775,4.38184628495906e-40,-6.126616790425032e-05,0.0004628798633348197
0.0023655439727008343,0.01090408768504858,-0.010628913529217243,2.861031074611979e-41,-7.712783553870395e-05,0.00043144350638613105
0.0024867458269000053,0.01128103956580162,-0.01101834699511528,1.867930852944981e-42,-7.691385690122843e-05,0.00044624661677516997
0.0023935900535434484,0.010959217324852943,-0.01107893604785204,1.2191296639625909e-43,-7.569228182546794e-05,0.0004326731141190976
0.0023935900535434484,0.010959217324852943,-0.01107893604785204,1.2191296639625909e-43,-7.569228182546794e-05,0.0004326731141190976
0.0025697892997413874,0.01110335998237133,-0.010369112715125084,8.407790785948902e-45,-8.834532491164282e-05,0.000408955937018618
0.0027389011811465025,0.011449053883552551,-0.011237961240112782,0.0,-8.781572978477925e-05,0.00038702142774127424
0.002835603663697839,0.010766246356070042,-0.011064000427722931,0.0,-8.646880451124161e-05,0.00036727511906065047
0.0028944965451955795,0.010997033677995205,-0.010698246769607067,0.0,-8.51098375278525e-05,0.0003494449774734676
0.0028769487980753183,0.010829588398337364,-0.010900408029556274,0.0,-8.378946949960664e-05,0.0002991486981045455
0.0027552370447665453,0.010278298519551754,-0.010259265080094337,0.0,-9.534893615636975e-05,0.00027119959122501314
0.0027044457383453846,0.010740818455815315,-0.01090793777257204,0.0,-9.475250408286229e-05,0.0002551648358348757
0.0029157509561628103,0.010863902978599072,-0.010742532089352608,0.0,-9.34024210437201e-05,0.00024142718757502735
0.003180781612172723,0.010422623716294765,-0.010326666757464409,0.0,-9.204143862007186e-05,0.00022912703570909798
0.0031065004877746105,0.010672586970031261,-0.010883128270506859,0.0,-0.00010034022125182673,0.0002180219889851287
0.0031345633324235678,0.010323340073227882,-0.01108317356556654,0.0,-0.00010198637028224766,0.00020794467127416283
0.0032855626195669174,0.010339008644223213,-0.011356985196471214,0.0,-0.0001007594182738103,0.00023319822503253818
0.003252732800319791,0.010689941234886646,-0.011436745524406433,0.0,-9.93817302514799e-05,0.00022807104687672108
0.0032992581836879253,0.010354711674153805,-0.010207917541265488,0.0,-9.802953718462959e-05,0.0002191236417274922
0.003411254147067666,0.010670477524399757,-0.010197755880653858,0.0,-9.671281441114843e-05,0.00021059646678622812
0.003365699667483568,0.010565460659563541,-0.010856444016098976,0.0,-9.543093619868159e-05,0.00020269154629204422
0.0034214251209050417,0.010431047528982162,-0.010186677798628807,0.0,-9.418265835847706e-05,0.00019535758474376053
0.0032171092461794615,0.010842344723641872,-0.010156958363950253,0.0,-9.296659118263051e-05,0.00018853609799407423
0.0035425443202257156,0.01101157907396555,-0.010789899155497551,0.0,-9.188769763568416e-05,0.00018217468459624797
0.0033353553153574467,0.01019012089818716,-0.01012740284204483,0.0,-0.0001864396472228691,0.00017622869927436113
0.003515609772875905,0.010336654260754585,-0.010734964162111282,0.0,-0.00018519074365030974,0.00017065860447473824
0.003709916491061449,0.01030786894261837,-0.010202350094914436,0.0,-0.00017827292322181165,0.00016542994126211852
0.003815482137724757,0.010516082867980003,-0.010763648897409439,0.0,-0.00016520913050044328,0.0001558783114887774
0.0038641435094177723,0.01047434564679861,-0.01033084001392126,0.0,-0.00015935758710838854,0.00015150463150348514
0.0034597162157297134,0.011262680403888226,-0.009766065515577793,0.0,-0.0001539066288387403,0.00014736966113559902
0.003334533190354705,0.010414454154670238,-0.010716955177485943,0.0,-0.0001488163834437728,0.00014345439558383077
0.003334533190354705,0.010414454154670238,-0.010716955177485943,0.0,-0.0001488163834437728,0.00014345439558383077
0.0034353244118392467,0.010455603711307049,-0.009223860688507557,0.0,-0.00014405215915758163,0.00013974188186693937
0.003660338930785656,0.01108749769628048,-0.010740024037659168,0.0,-0.00013958329509478062,0.00013621659309137613
0.0037559689953923225,0.010560535825788975,-0.01145810168236494,0.0,-0.00013538342318497598,0.0001328649086644873
0.0037307264283299446,0.009872544556856155,-0.010214798152446747,0.0,-0.00013142898387741297,0.0001296740520047024
0.0036082568112760782,0.010299558751285076,-0.01055538933724165,0.0,-0.0001498679193900898,0.0001266330073121935
0.003506900044158101,0.010390791110694408,-0.010637481696903706,0.0,-0.0001487898698542267,0.00012373135541565716
0.0038561944384127855,0.011117382906377316,-0.010104669257998466,0.0,-0.00014499407552648336,0.0001209595866384916
0.004028231371194124,0.010496691800653934,-0.010813938453793526,0.0,-0.0001412150595569983,0.00011830945004476234
0.003908267244696617,0.01013899315148592,-0.010779966600239277,0.0,-0.0001376168365823105,9.776480146683753e-05
0.004274669103324413,0.010526534169912338,-0.01119250152260065,0.0,-0.00013419669994618744,9.45362844504416e-05
0.00407115463167429,0.010639980435371399,-0.011631034314632416,0.0,-0.00013094249879941344,9.25160275073722e-05
0.004365547560155392,0.01007548626512289,-0.010551526211202145,0.0,-0.00012784238788299263,9.064734331332147e-05
0.004671389702707529,0.010649747215211391,-0.010778918862342834,0.0,-0.00012488567153923213,8.88569702510722e-05
0.004561322741210461,0.010846348479390144,-0.01093923207372427,0.0,-0.00012206257815705612,8.713632269063964e-05
0.003930570092052221,0.01112845353782177,-0.010599828325212002,0.0,-0.0001193642383441329,8.54810859891586e-05
0.003890922060236335,0.01065344549715519,-0.010941623710095882,0.0,-0.00011678280134219676,6.822627619840205e-05
0.003987003583461046,0.010388700291514397,-0.01034629251807928,0.0,-0.00011431053280830383,6.595475133508444e-05
0.004472654778510332,0.00989533681422472,-0.010233482345938683,0.0,-0.0001119408116210252,6.470260268542916e-05
0.00463666720315814,0.010401125997304916,-0.01156083308160305,0.0,-0.00010966736590489745,6.35559408692643e-05
0.004454900044947863,0.010379967279732227,-0.010847911238670349,0.0,-0.0001230495108757168,5.4766722314525396e-05
0.004555710591375828,0.010766090825200081,-0.010577903129160404,0.0,-0.00012279786460567266,4.655863085645251e-05
0.004588609095662832,0.011073822155594826,-0.010938497260212898,0.0,-0.00012058755237376317,3.0763912945985794e-06
0.004571808502078056,0.010089251212775707,-0.010923203080892563,0.0,-0.00011615060793701559,-4.8222835175693035e-05
0.004571808502078056,0.010089251212775707,-0.010923203080892563,0.0,-0.00011615060793701559,-4.8222835175693035e-05
0.0050178891979157925,0.010430028662085533,-0.011242938227951527,0.0,-0.0001140479653258808,-5.639489972963929e-05
0.00502269109711051,0.010292437858879566,-0.010575936175882816,0.0,-0.00011202003224752843,-7.200845720944926e-05
0.004666393157094717,0.011102637276053429,-0.010881831869482994,0.0,-0.00011006300337612629,-8.86751658981666e-05
0.0044227298349142075,0.010638546198606491,-0.010383070446550846,0.0,-0.00010817308066179976,-0.00063922512345016
0.004445007536560297,0.01046458724886179,-0.010921938344836235,0.0,-0.00010634713544277474,-0.0007428204989992082
0.004635483492165804,0.010968266986310482,-0.011491872370243073,0.0,-0.00010458169708726928,-0.0007665921584703028
0.004993136506527662,0.011524215340614319,-0.010865221731364727,0.0,-0.00010287402255926281,-0.0007814696873538196
0.004969363566488028,0.010097207501530647,-0.010975703597068787,0.0,-0.00010122110688826069,-0.0010263255098834634
0.00527316564694047,0.010981040075421333,-0.010795331560075283,0.00011954538786085322,-9.96204762486741e-05,-0.0010773369576781988
0.004730944521725178,0.010439099743962288,-0.010579699650406837,0.0001727292692521587,-0.0001084716132027097,-0.0011012337636202574
0.004576010163873434,0.010908701457083225,-0.01166437566280365,0.00017648443463258445,-0.00011012618051609024,-0.0015670480206608772
0.004958225414156914,0.011052836664021015,-0.011133909225463867,0.0001981548557523638,-0.0001086802949430421,-0.0015461277216672897
0.005018121097236872,0.010732178576290607,-0.010995891876518726,0.00021435471717268229,-0.00010707804904086515,-0.0016049641417339444
0.005005833692848682,0.011542667634785175,-0.011368031613528728,0.0002148645289707929,-0.00010550992010394111,-0.001547988853417337
0.004438828211277723,0.010956995189189911,-0.010770099237561226,0.0007715829997323453,-0.00010398607264505699,-0.0015234369784593582
0.0039223963394761086,0.010546169243752956,-0.011994961649179459,0.000819291512016207,-0.00010250572086079046,-0.0016380163142457604
0.00382890528999269,0.011532510630786419,-0.011366067454218864,0.0008450766908936203,-0.00010106685658684,-0.0018050451762974262
0.003942304290831089,0.010971534065902233,-0.011165481060743332,0.0010458469623699784,-9.966783545678481e-05,-0.00215835589915514
0.004040304571390152,0.011928858235478401,-0.01132633164525032,0.0010861714836210012,-9.830696217250079e-05,-0.0022885354701429605
0.004537700209766626,0.011286054737865925,-0.01080035325139761,0.0010384004563093185,-9.698275243863463e-05,-0.002286990638822317
0.004636595956981182,0.011114547960460186,-0.01123738568276167,0.00098416768014431,-9.569377289153636e-05,-0.002404395956546068
0.004340652842074633,0.011284196749329567,-0.011285951361060143,0.0009268430294468999,-9.443863382330164e-05,-0.0024701207876205444
0.004085999447852373,0.010926463641226292,-0.010915324091911316,0.0008991815848276019,-9.334515198133886e-05,-0.002387448912486434
0.004187262151390314,0.01091916486620903,-0.01092428620904684,0.0009305887506343424,-7.910201384220272e-05,-0.003065558848902583
0.004187262151390314,0.01091916486620903,-0.01092428620904684,0.0009305887506343424,-7.910201384220272e-05,-0.003065558848902583
0.004187262151390314,0.01091916486620903,-0.01092428620904684,0.0009305887506343424,-7.910201384220272e-05,-0.003065558848902583
0.004717730451375246,0.01108241081237793,-0.010438155382871628,0.0010208880994468927,-8.911746408557519e-05,-0.002777033019810915
0.004640872124582529,0.010696548037230968,-0.011831870302557945,0.0010195281356573105,-8.857050852384418e-05,-0.0026890381705015898
0.004640872124582529,0.010696548037230968,-0.011831870302557945,0.0010195281356573105,-8.857050852384418e-05,-0.0026890381705015898
0.004515865817666054,0.01129591092467308,-0.010410069487988949,0.0012603363720700145,-9.286178828915581e-05,-0.0032959911040961742
0.004515865817666054,0.01129591092467308,-0.010410069487988949,0.0012603363720700145,-9.286178828915581e-05,-0.0032959911040961742
0.004467192571610212,0.011089315637946129,-0.011052233166992664,0.0017096007941290736,-9.808112372411415e-05,-0.0033710391726344824
0.004110655747354031,0.010794732719659805,-0.010869329795241356,0.0018449777271598577,-9.700613736640662e-05,-0.00342736323364079
0.004836910404264927,0.01064433716237545,-0.011093677021563053,0.0017311422852799296,-9.556310396874323e-05,-0.003552699461579323
0.0048766788095235825,0.011346537619829178,-0.0110246567055583,0.0016003180062398314,-0.00010669371840776876,-0.003486311761662364
0.004947235807776451,0.010638922452926636,-0.010802329517900944,0.0014425202971324325,-0.00010594321793178096,-0.003554816823452711
0.004838777240365744,0.0099306246265769,-0.011802364140748978,0.0012741944519802928,-0.00010445965017424896,-0.0034903648775070906
0.004783382639288902,0.01016650814563036,-0.011205267161130905,0.0011420241789892316,-0.00010296929394826293,-0.003465489484369755
0.004444809630513191,0.009960610419511795,-0.010962415486574173,0.0008835053304210305,-0.00018877034017350525,-0.004033793229609728
0.004598244093358517,0.010236255824565887,-0.011649955995380878,0.0008649354567751288,-0.00025936178280971944,-0.004174640402197838
0.005126292817294598,0.010205265134572983,-0.011398622766137123,0.0009280259255319834,-0.0002502648567315191,-0.003938909154385328
0.004863248206675053,0.009850805625319481,-0.01119667012244463,0.001029839157126844,-0.00023740647884551436,-0.0039497725665569305
0.005166422110050917,0.010563138872385025,-0.010889094322919846,0.0011284957872703671,-0.000225527081056498,-0.004045290406793356
0.005065304227173328,0.010030610486865044,-0.010646025650203228,0.0011828540591523051,-0.00021476235997397453,-0.004005465656518936
0.004854895640164614,0.00949840247631073,-0.011635656468570232,0.0013103627134114504,-0.00020497673540376127,-0.0042714006267488
0.004734989255666733,0.010086731985211372,-0.01109505444765091,0.0012908742064610124,-0.00021521333837881684,-0.00406421534717083
0.005231611896306276,0.00985814444720745,-0.010906222276389599,0.001218822319060564,-0.0002241219481220469,-0.004402892664074898
0.005270128604024649,0.009430057369172573,-0.01090059895068407,0.0011700608301907778,-0.0002163096214644611,-0.004547993652522564
0.005532680079340935,0.010384634137153625,-0.010140241123735905,0.0011489673051983118,-0.0002080502745229751,-0.0044284723699092865
0.005294672213494778,0.00977660994976759,-0.01099126785993576,0.0011470091994851828,-0.00020033560576848686,-0.004784841556102037
0.005345092620700598,0.009111979976296425,-0.010821228846907616,0.0013385404599830508,-0.00020949638565070927,-0.004413064569234848
0.005278673954308033,0.009608783759176731,-0.011542284861207008,0.0013912878930568695,-0.00020978666725568473,-0.004375556483864784
0.005329443141818047,0.00917007029056549,-0.010872798040509224,0.0013949342537671328,-0.0002034848293988034,-0.004433843772858381
0.005654952488839626,0.009177697822451591,-0.01095486432313919,0.001573727698996663,-0.00019714789232239127,-0.004409562796354294
0.005654952488839626,0.009177697822451591,-0.01095486432313919,0.001573727698996663,-0.00019714789232239127,-0.004409562796354294
0.0051783486269414425,0.009628679603338242,-0.01100802794098854,0.0014823322417214513,-0.00019116670591756701,-0.004804412834346294
0.00516274431720376,0.009587558917701244,-0.010292140766978264,0.0015918281860649586,-0.00018553671543486416,-0.004974347539246082
0.005421059671789408,0.009418319910764694,-0.011313783936202526,0.001444946974515915,-0.00020424454123713076,-0.004923669621348381
0.005497286096215248,0.009595340117812157,-0.01153012178838253,0.0013402042677626014,-0.0002001334069063887,-0.005054617766290903
0.00545228598639369,0.008910572156310081,-0.010789849795401096,0.0011671369429677725,-0.00019481986237224191,-0.0049555194564163685
0.005636228248476982,0.009066187776625156,-0.01113139558583498,0.0011954617220908403,-0.00018969332450069487,-0.004855805542320013
0.005304544698446989,0.00965816155076027,-0.010671072639524937,0.0012218968477100134,-0.00018509359506424516,-0.005004219710826874
0.005482526030391455,0.009347110986709595,-0.010886862874031067,0.0016337708802893758,-0.00018583408382255584,-0.005252866540104151
0.005726860370486975,0.008913535624742508,-0.011197353713214397,0.0016362873138859868,-0.00017898925580084324,-0.005147454794496298
0.005601896904408932,0.010005852207541466,-0.010878928937017918,0.0014474211493507028,-0.0001721757580526173,-0.005275022704154253
0.005833073519170284,0.009500198997557163,-0.011843322776257992,0.0013080333592370152,-0.00016583203978370875,-0.005306110717356205
0.005594015587121248,0.009127285331487656,-0.010511918924748898,0.001221831887960434,-0.00018975943385157734,-0.005958596710115671
0.0057495287619531155,0.00904792733490467,-0.010275403968989849,0.001204614876769483,-0.0001851952401921153,-0.005689173471182585
0.006342192180454731,0.009462532587349415,-0.011268316768109798,0.0011068343883380294,-0.00017917696095537394,-0.0058384845033288
0.005752129014581442,0.008660642430186272,-0.0107524823397398,0.0011624996550381184,-0.00019482818606775254,-0.005342863034456968
0.005921285133808851,0.009099210612475872,-0.0102153355255723,0.0011626160703599453,-0.00019554868049453944,-0.005336439236998558
0.005544691812247038,0.009454096667468548,-0.01083614956587553,0.0013335394905880094,-0.00019009006791748106,-0.0057807182893157005
0.00574493920430541,0.009598192758858204,-0.010600161738693714,0.001354068866930902,-0.00020743245841003954,-0.005928898695856333
0.005989876110106707,0.008927591145038605,-0.011020851321518421,0.0013346795458346605,-0.00020468622096814215,-0.005939640570431948
0.006035279016941786,0.009836829267442226,-0.011009357869625092,0.0016580490628257394,-0.00030878011602908373,-0.006150138098746538
0.00615433556959033,0.009027582593262196,-0.010857095010578632,0.0016088789561763406,-0.0003222296363674104,-0.006392433308064938
0.006212796084582806,0.009114820510149002,-0.01066527422517538,0.0015297321369871497,-0.00033298006746917963,-0.006544664967805147
0.006366417743265629,0.009861876256763935,-0.010529921390116215,0.0014434793265536427,-0.0003199583734385669,-0.0065219225361943245
0.006131588947027922,0.008584203198552132,-0.011515960097312927,0.0014188174391165376,-0.0003270342422183603,-0.006495175417512655
0.0061461785808205605,0.00886396411806345,-0.010955174453556538,0.0014450931921601295,-0.0003325010766275227,-0.007168132346123457
0.0061461785808205605,0.00886396411806345,-0.010955174453556538,0.0014450931921601295,-0.0003325010766275227,-0.007168132346123457
0.006210898514837027,0.009145736694335938,-0.011085337959229946,0.0014083540299907327,-0.0003506916109472513,-0.006917458958923817
0.007107690908014774,0.008942211978137493,-0.010624206624925137,0.0015564382774755359,-0.0003445049514994025,-0.0071666305884718895
0.006701737176626921,0.00903145968914032,-0.010057540610432625,0.0016836825525388122,-0.00046015746193006635,-0.007027043960988522
0.006463394500315189,0.009149524383246899,-0.01085410825908184,0.0018418385880067945,-0.00047763079055584967,-0.007092164363712072
0.006649216171354055,0.009031570516526699,-0.010703383944928646,0.0018342765979468822,-0.00047495090984739363,-0.0066284597851336
0.006876001134514809,0.008960826322436333,-0.010201801545917988,0.0018938647117465734,-0.0005068848840892315,-0.006828496232628822
0.006911697797477245,0.009331942535936832,-0.011776082217693329,0.0017303605563938618,-0.0005230825627222657,-0.006059688050299883
0.006630982272326946,0.00879006925970316,-0.010742714628577232,0.001665332238189876,-0.0005060762050561607,-0.005784983281046152
0.006600614637136459,0.0087220324203372,-0.010761776939034462,0.0016078364569693804,-0.0006743324338458478,-0.00590556813403964
0.006971938069909811,0.008963384665548801,-0.010393954813480377,0.0016352423699572682,-0.0007034557056613266,-0.006437303032726049
0.007017124909907579,0.009424608200788498,-0.01043893676251173,0.0015864147571846843,-0.0006355157820507884,-0.0067534539848566055
0.0068991403095424175,0.008834424428641796,-0.011325503699481487,0.001624798751436174,-0.0005693768616765738,-0.0065633081831038
0.006756044924259186,0.009164695627987385,-0.010849887505173683,0.0016851478721946478,-0.000594697892665863,-0.0059639811515808105
0.006669620517641306,0.009068806655704975,-0.010276074521243572,0.0015890836948528886,-0.0005859663942828774,-0.006056883372366428
0.007111931685358286,0.009232555516064167,-0.01139041967689991,0.0015649371780455112,-0.0005739490734413266,-0.006234710570424795
0.007292642258107662,0.00880521722137928,-0.011318913660943508,0.0014967930037528276,-0.0005351077415980399,-0.006289880257099867
0.007052984554320574,0.00902565661817789,-0.01160205714404583,0.0015912032686173916,-0.0005008986336179078,-0.006525098811835051
0.007349051535129547,0.008943606168031693,-0.011150154285132885,0.0019017012091353536,-0.0005299897748045623,-0.006610102951526642
0.006977904122322798,0.008820497430860996,-0.01060217060148716,0.0020875546615570784,-0.0005524732987396419,-0.006998804397881031
0.007517335005104542,0.009236570447683334,-0.011267959140241146,0.0020771659910678864,-0.0005905577563680708,-0.007520660292357206
0.007555942516773939,0.008349364623427391,-0.010876934044063091,0.0020070013124495745,-0.0008195493137463927,-0.007173074875026941
0.006819167174398899,0.008558300323784351,-0.012117702513933182,0.0019712906796485186,-0.0009851923678070307,-0.0065698400139808655
0.006321276538074017,0.009150994010269642,-0.011293824762105942,0.0019987376872450113,-0.001015961985103786,-0.006394222844392061
0.007839512079954147,0.008582948707044125,-0.010819844901561737,0.0022941776551306248,-0.0012066669296473265,-0.007378249429166317
0.007484747562557459,0.008729779161512852,-0.011894849129021168,0.0021658174227923155,-0.0011548500042408705,-0.007322545163333416
0.00672146724537015,0.010061188600957394,-0.011746857315301895,0.002325912704691291,-0.0011051936307922006,-0.007093712687492371
0.007169283460825682,0.008789406158030033,-0.011314739473164082,0.0023817201144993305,-0.0009979745373129845,-0.00714793661609292
0.007387325167655945,0.008000845089554787,-0.010853325948119164,0.0023426383268088102,-0.0008420668309554458,-0.007302002049982548
0.0071966927498579025,0.009119022637605667,-0.011167836375534534,0.0021658954210579395,-0.0008417150820605457,-0.007758078631013632
0.0071966927498579025,0.009119022637605667,-0.011167836375534534,0.0021658954210579395,-0.0008417150820605457,-0.007758078631013632
0.006965994834899902,0.008978268131613731,-0.01124003529548645,0.0021477786358445883,-0.0008489113533869386,-0.007742747198790312
0.0073590632528066635,0.008542674593627453,-0.011300968937575817,0.0022532446309924126,-0.0008475983631797135,-0.008051198907196522
0.007804466877132654,0.008880938403308392,-0.011491691693663597,0.002403003629297018,-0.0008110753842629492,-0.0077364156022667885
0.007430830039083958,0.008733176626265049,-0.011096357367932796,0.0023817806504666805,-0.0008477381197735667,-0.00722368061542511
0.006977633107453585,0.008586389943957329,-0.011211900040507317,0.002433524001389742,-0.0008401742088608444,-0.007913539186120033
0.007322357501834631,0.009078004397451878,-0.01125677302479744,0.002098199212923646,-0.0008608340285718441,-0.008443807251751423
0.008066023699939251,0.009239861741662025,-0.010870481841266155,0.0018592167180031538,-0.0010163310216739774,-0.007976197637617588
0.00819642934948206,0.009303895756602287,-0.011278348043560982,0.0018331523751839995,-0.0011044370476156473,-0.008032605983316898
0.007212632801383734,0.008511844091117382,-0.010945570655167103,0.0020441333763301373,-0.0010789557127282023,-0.007672843988984823
0.007434672210365534,0.00937165692448616,-0.010346876457333565,0.0019837073050439358,-0.000997554394416511,-0.007885481230914593
0.008463920094072819,0.008733405731618404,-0.011038391850888729,0.0023330433759838343,-0.0009824975859373808,-0.00814707763493061
0.008526293560862541,0.008694647811353207,-0.011305955238640308,0.0027051358483731747,-0.0009674979373812675,-0.00839326437562704
0.007930250838398933,0.009356115944683552,-0.011191733181476593,0.0025437178555876017,-0.0009473423706367612,-0.008176133036613464
0.007851931266486645,0.008598003536462784,-0.011607139371335506,0.0025570893194526434,-0.0009247196721844375,-0.008385430090129375
0.00826126616448164,0.008632144890725613,-0.011094639077782631,0.0023453666362911463,-0.0008464592974632978,-0.007853577844798565
0.007728678174316883,0.008971777744591236,-0.011443594470620155,0.0022689017932862043,-0.0007753277313895524,-0.008027764968574047
0.007620897609740496,0.008807777427136898,-0.011182590387761593,0.0024103806354105473,-0.0007790818926878273,-0.008527311496436596
0.007726642303168774,0.00875383336097002,-0.011010217480361462,0.002618062077090144,-0.000793699873611331,-0.008471551351249218
0.008248153142631054,0.008499983698129654,-0.01176484115421772,0.002584900939837098,-0.0007924459641799331,-0.008405760861933231
0.008162894286215305,0.00886466447263956,-0.010914308950304985,0.0026440550573170185,-0.0006685074185952544,-0.008878459222614765
0.0077918414026498795,0.008997759781777859,-0.010901670902967453,0.002572763944044709,-0.000631749106105417,-0.008677552454173565
0.008152209222316742,0.009418188594281673,-0.010887865908443928,0.002613234333693981,-0.0005761170177720487,-0.008169658482074738
0.008172747679054737,0.00843726471066475,-0.011787530034780502,0.0025355112738907337,-0.0005612201057374477,-0.008717228658497334
0.008376789279282093,0.00845082476735115,-0.011765090748667717,0.002402456011623144,-0.0005482666310854256,-0.00849736575037241
0.008295077830553055,0.009464170783758163,-0.011016828007996082,0.002410407643765211,-0.0005003171390853822,-0.008540449663996696
0.007802624721080065,0.009005540050566196,-0.010917767882347107,0.0026573846116662025,-0.0005289152613840997,-0.008757323026657104
0.007802624721080065,0.009005540050566196,-0.010917767882347107,0.0026573846116662025,-0.0005289152613840997,-0.008757323026657104
0.007959632202982903,0.008497398346662521,-0.010830763727426529,0.00268790265545249,-0.0005529072950594127,-0.008879756554961205
0.008201900869607925,0.008841421455144882,-0.011522993445396423,0.0028304357547312975,-0.0005227274377830327,-0.009277869015932083
0.0088174007833004,0.009262217208743095,-0.011515983380377293,0.0026061097159981728,-0.0005535634700208902,-0.009114127606153488
0.008115668781101704,0.008606468327343464,-0.010933500714600086,0.0024645994417369366,-0.0005712271085940301,-0.009231326170265675
0.00834729429334402,0.008414563722908497,-0.010807430371642113,0.0026052051689475775,-0.0005370902363210917,-0.009172946214675903
0.0089607248082757,0.008869660086929798,-0.01079883798956871,0.0028019871097058058,-0.0005656029679812491,-0.009615987539291382
0.008552624844014645,0.009183729998767376,-0.011486825533211231,0.002915800316259265,-0.0005784945096820593,-0.009922577999532223
0.007873520255088806,0.008163905702531338,-0.01126080472022295,0.002781889634206891,-0.0005536561366170645,-0.00969144981354475
0.008564670570194721,0.00855625793337822,-0.010711731389164925,0.0026631997898221016,-0.0006478055729530752,-0.009791282936930656
0.009142528288066387,0.009288431145250797,-0.011140751652419567,0.00270810816437006,-0.0006830159109085798,-0.010137469507753849
0.008342241868376732,0.008074551820755005,-0.010850779712200165,0.0028380583971738815,-0.0007009269902482629,-0.009904579259455204
0.008848147466778755,0.008171520195901394,-0.011018890887498856,0.002971068723127246,-0.0006860130233690143,-0.010147386230528355
0.00887924525886774,0.00894154142588377,-0.011371444910764694,0.003120610723271966,-0.0006668134010396898,-0.009811336174607277
0.008790606632828712,0.008478375151753426,-0.010966203175485134,0.003425655886530876,-0.000755328219383955,-0.009682146832346916
0.010161560028791428,0.007817352190613747,-0.011104450561106205,0.0033010586630553007,-0.0007706368342041969,-0.009916648268699646
0.008973508141934872,0.008002430200576782,-0.011013096198439598,0.003132009180262685,-0.0007431670092046261,-0.00996202789247036
0.008248373866081238,0.008677207864820957,-0.010635251179337502,0.0028945019003003836,-0.0007092414307408035,-0.010276938788592815
0.009105604141950607,0.008369352668523788,-0.011655466631054878,0.002871278440579772,-0.0007071960717439651,-0.010016481392085552
0.009285426698625088,0.0076870303601026535,-0.010900814086198807,0.0032726016361266375,-0.0006672100862488151,-0.009940716437995434
0.009511047042906284,0.00775727815926075,-0.010416475124657154,0.0032950618769973516,-0.0006512304535135627,-0.010022380389273167
0.008653509430587292,0.007931692525744438,-0.011332264170050621,0.003543013473972678,-0.0006795818917453289,-0.01052753534168005
0.009198165498673916,0.00758751854300499,-0.01088622398674488,0.0035590894985944033,-0.0007179605308920145,-0.010325886309146881
0.008974849246442318,0.00699966074898839,-0.011126120574772358,0.0038221413269639015,-0.0007783640758134425,-0.01041646022349596
0.009273329749703407,0.008063632994890213,-0.010581073351204395,0.0035431194119155407,-0.0008678924641571939,-0.010550040751695633
0.00934799388051033,0.007059967145323753,-0.010936693288385868,0.003484222572296858,-0.0007824450149200857,-0.010170591995120049
0.009049341082572937,0.006672289688140154,-0.010650183074176311,0.0034995253663510084,-0.0007912795408628881,-0.010720239020884037
0.009985365904867649,0.0068181646056473255,-0.010892720893025398,0.003633121494203806,-0.0007830783724784851,-0.010771935805678368
0.009303961880505085,0.0074578868225216866,-0.011424046009778976,0.0037825945764780045,-0.0007344800978899002,-0.01065758801996708
0.009514948353171349,0.007340008858591318,-0.01115653570741415,0.004254154860973358,-0.0007852135458961129,-0.010646099224686623
0.009458206593990326,0.006842273287475109,-0.011426907032728195,0.0038463796954602003,-0.000802933587692678,-0.010805007070302963
0.009555432945489883,0.006889374926686287,-0.012007316574454308,0.0035136695951223373,-0.0008149598725140095,-0.010873586870729923
0.009555432945489883,0.006889374926686287,-0.012007316574454308,0.0035136695951223373,-0.0008149598725140095,-0.010873586870729923
0.009282905608415604,0.007705679628998041,-0.011626679450273514,0.0035328452941030264,-0.0009333585621789098,-0.01064275298267603
0.00920566264539957,0.007108231075108051,-0.011458939872682095,0.003743974259123206,-0.0010550398146733642,-0.010887944139540195
0.009812060743570328,0.006372486241161823,-0.009779373183846474,0.0037303923163563013,-0.001037451671436429,-0.01119222305715084
0.009761523455381393,0.006298461928963661,-0.011962642893195152,0.004130244255065918,-0.001018105074763298,-0.011056274175643921
0.009133412502706051,0.0068239266984164715,-0.012411585077643394,0.004129366483539343,-0.0009059637668542564,-0.010972535237669945
0.009877989068627357,0.007223085034638643,-0.011019553057849407,0.0036360975354909897,-0.0008525982848368585,-0.011553690768778324
0.009773463010787964,0.006778643932193518,-0.011739726178348064,0.0034817922860383987,-0.0007351422682404518,-0.011426921002566814
0.00932780746370554,0.0064185443334281445,-0.011221267282962799,0.0036100789438933134,-0.0006328675081022084,-0.011648451909422874
0.01037777028977871,0.006046943832188845,-0.011830413714051247,0.0042183538898825645,-0.0006574137369170785,-0.011682845652103424
0.009944400750100613,0.006665568333119154,-0.01199299655854702,0.004078993573784828,-0.0005920027615502477,-0.011768076568841934
0.009300008416175842,0.006656563375145197,-0.011321593075990677,0.003528263419866562,-0.0006163129000924528,-0.011852873489260674
0.010643845424056053,0.006271005142480135,-0.011970864608883858,0.003967813216149807,-0.0006255655898712575,-0.011909396387636662
0.010128317400813103,0.006121185142546892,-0.01127241738140583,0.004179219715297222,-0.0005957367829978466,-0.012243111617863178
0.009560531936585903,0.006812638137489557,-0.011823879554867744,0.004464284982532263,-0.0005851129535585642,-0.012211579829454422
0.010110387578606606,0.006953437812626362,-0.011675284244120121,0.004115042742341757,-0.0006395845557563007,-0.012167680077254772
0.009830131195485592,0.0064584785141050816,-0.012010631151497364,0.0038077281787991524,-0.001180341700091958,-0.011778196319937706
0.010126274079084396,0.006452708970755339,-0.01139652170240879,0.0038686981424689293,-0.0012346346629783511,-0.01214103028178215
0.010069528594613075,0.007024733815342188,-0.011876329779624939,0.003884268458932638,-0.001215723343193531,-0.012055020779371262
0.009532689116895199,0.007157011888921261,-0.01213380228728056,0.003935567103326321,-0.0013685739831998944,-0.012034091167151928
0.009895902127027512,0.00692029157653451,-0.011832714080810547,0.0042884862050414085,-0.0013314783573150635,-0.012129321694374084
0.009800051338970661,0.0072150989435613155,-0.011903923004865646,0.00418208260089159,-0.0012161750346422195,-0.012311222963035107
0.010806652717292309,0.006789849605411291,-0.011729294434189796,0.003971640486270189,-0.0011000115191563964,-0.012267103418707848
0.010806652717292309,0.006789849605411291,-0.011729294434189796,0.003971640486270189,-0.0011000115191563964,-0.012267103418707848
0.009967506863176823,0.007141669746488333,-0.012697095051407814,0.0038808442186564207,-0.0010348964715376496,-0.012443438172340393
0.009242972359061241,0.0072281514294445515,-0.011761462315917015,0.0034466562792658806,-0.0010502166114747524,-0.012751011177897453
0.009332275949418545,0.007099885027855635,-0.011721029877662659,0.003577335737645626,-0.0010478904005140066,-0.01291902270168066
0.009717319160699844,0.007196514867246151,-0.012376731261610985,0.004045816138386726,-0.0012946807546541095,-0.013249661773443222
0.00979552511125803,0.007006565108895302,-0.011708231642842293,0.004286765120923519,-0.001325165037997067,-0.01313049253076315
0.009420286864042282,0.007115371525287628,-0.012347628362476826,0.004110532347112894,-0.0014488325687125325,-0.013068622909486294
0.009608068503439426,0.00759850163012743,-0.012645780108869076,0.003979358822107315,-0.0015894301468506455,-0.013125080615282059
0.009299950674176216,0.0070267911069095135,-0.011714664287865162,0.004002902656793594,-0.0015339055098593235,-0.012835466302931309
0.009107588790357113,0.006920747458934784,-0.011974425986409187,0.00404596421867609,-0.0016234875656664371,-0.013182198628783226
0.009690741077065468,0.007212409283965826,-0.011660243384540081,0.004069663118571043,-0.001623883144930005,-0.01359221339225769
0.009488210082054138,0.007592655718326569,-0.0121946195140481,0.003974653780460358,-0.001512918621301651,-0.013431676663458347
0.009076301008462906,0.006776776630431414,-0.011999205686151981,0.003847722662612796,-0.0015524413902312517,-0.013495629653334618
0.00948465894907713,0.007041099015623331,-0.01290049497038126,0.004239486064761877,-0.0014750908594578505,-0.013734094798564911
0.009385873563587666,0.007200433872640133,-0.011702671647071838,0.004491548519581556,-0.0012795848306268454,-0.013382457196712494
0.009115978144109249,0.006742628291249275,-0.011506052687764168,0.00458665331825614,-0.001168379676528275,-0.013927362859249115
0.009222842752933502,0.006692058872431517,-0.012042064219713211,0.004208470694720745,-0.0010342664318159223,-0.013499007560312748
0.009742476046085358,0.007274895440787077,-0.012257535010576248,0.004290846176445484,-0.0010754481190815568,-0.013396749272942543
0.009481099434196949,0.006894272286444902,-0.011774172075092793,0.0041626510210335255,-0.0010572894243523479,-0.013539295643568039
0.009989176876842976,0.006781847216188908,-0.011607230640947819,0.004158623516559601,-0.0011303628562018275,-0.013933918438851833
0.009447971358895302,0.006870660465210676,-0.011988947167992592,0.004204957280308008,-0.0013157312059774995,-0.0143668157979846
0.00928622204810381,0.006793330889195204,-0.011771944351494312,0.004332265816628933,-0.0014641978777945042,-0.014795352704823017
0.009449147619307041,0.006799172610044479,-0.012368936091661453,0.004561339970678091,-0.0013970209984108806,-0.014820386655628681
0.009113721549510956,0.007114831358194351,-0.012453211471438408,0.004683486185967922,-0.0015305826673284173,-0.014316657558083534
0.009436695836484432,0.007007170934230089,-0.011738235130906105,0.00466783344745636,-0.001402498222887516,-0.014686032198369503
0.009436695836484432,0.007007170934230089,-0.011738235130906105,0.00466783344745636,-0.001402498222887516,-0.014686032198369503
0.009569843299686909,0.007180286105722189,-0.01156850066035986,0.004495801404118538,-0.00133077846840024,-0.014610450714826584
0.009474044665694237,0.007381218485534191,-0.011567693203687668,0.004619421903043985,-0.0011664325138553977,-0.014744371175765991
0.00977613776922226,0.006896756123751402,-0.01269740890711546,0.004703591577708721,-0.0011064938735216856,-0.014571220614016056
0.009592873044312,0.0068140956573188305,-0.011672496795654297,0.004530441481620073,-0.0010700409766286612,-0.014427794143557549
0.009968537837266922,0.0073379892855882645,-0.012104003690183163,0.0042018042877316475,-0.0010669216280803084,-0.013710441999137402
0.010044261813163757,0.007181092165410519,-0.012888559140264988,0.004408456385135651,-0.0012084689224138856,-0.01413992140442133
0.009762405417859554,0.00710754469037056,-0.01151511911302805,0.004488633945584297,-0.0012961708707734942,-0.014144551940262318
0.010075806640088558,0.00682993046939373,-0.011873763054609299,0.0046453047543764114,-0.0015438467962667346,-0.014488798566162586
0.009402505122125149,0.0073147667571902275,-0.011669158935546875,0.004478686023503542,-0.0015337092336267233,-0.014499081298708916
0.00978321023285389,0.006959639489650726,-0.012441379949450493,0.0045124683529138565,-0.0014384809182956815,-0.015087719075381756
0.010427484288811684,0.0072124735452234745,-0.011650005355477333,0.004887652117758989,-0.0012760274112224579,-0.014906512573361397
0.00993936974555254,0.0069891056045889854,-0.011336359195411205,0.0050840615294873714,-0.0011566729517653584,-0.0151094701141119
0.009843811392784119,0.007634940091520548,-0.012250804342329502,0.005083269439637661,-0.001128765637986362,-0.015020783990621567
0.010190311819314957,0.006752355489879847,-0.011587305925786495,0.005319901742041111,-0.0010943973902612925,-0.015104695223271847
0.009779427200555801,0.006533294450491667,-0.011918815784156322,0.005257203243672848,-0.0011309463297948241,-0.014875262975692749
0.010011974722146988,0.006802914198487997,-0.011654849164187908,0.0050324732437729836,-0.0011186589254066348,-0.015428202226758003
0.009981291368603706,0.007275738753378391,-0.011892286129295826,0.005316164344549179,-0.0010868158424273133,-0.01571699045598507
0.011520967818796635,0.00703607639297843,-0.011877354234457016,0.005065381061285734,-0.0012767983134835958,-0.015812769532203674
0.013044806197285652,0.006378174293786287,-0.011446746997535229,0.005250696092844009,-0.0012784485006704926,-0.015620659105479717
0.012732356786727905,0.006187937688082457,-0.012117554433643818,0.005275830160826445,-0.001238101627677679,-0.01597760245203972
0.011780969798564911,0.006846181116998196,-0.012141624465584755,0.004799115937203169,-0.001489680027589202,-0.016159232705831528
0.01229199580848217,0.006650846917182207,-0.012133654206991196,0.004638136830180883,-0.001688282354734838,-0.016232579946517944
0.012664927169680595,0.006299169734120369,-0.01148503739386797,0.004746993537992239,-0.0018583456985652447,-0.015762491151690483
0.012479538097977638,0.006530589424073696,-0.012278216890990734,0.004674062132835388,-0.0019414931302890182,-0.015964146703481674
0.012479538097977638,0.006530589424073696,-0.012278216890990734,0.004674062132835388,-0.0019414931302890182,-0.015964146703481674
0.01319971401244402,0.006825989577919245,-0.011942374520003796,0.005359745118767023,-0.0016917901812121272,-0.016049018129706383
0.012548916041851044,0.006466589402407408,-0.012077410705387592,0.005341428332030773,-0.0014196530682966113,-0.01639621891081333
0.012948968447744846,0.006184773053973913,-0.011510999873280525,0.005005185957998037,-0.001163298380561173,-0.016567664220929146
0.012674163095653057,0.005895580165088177,-0.012462408281862736,0.005208925344049931,-0.0010829975362867117,-0.016701705753803253
0.01348495576530695,0.005990125704556704,-0.012337238527834415,0.005120404995977879,-0.0009676650515757501,-0.016499651595950127
0.012768929824233055,0.006532026920467615,-0.011639120988547802,0.0052587916143238544,-0.0007111370214261115,-0.016461074352264404
0.013007345609366894,0.006619451567530632,-0.012190478853881359,0.005698299501091242,-0.0007013116264715791,-0.016923487186431885
0.01309259608387947,0.005667662248015404,-0.012080284766852856,0.0059849838726222515,-0.0007223026477731764,-0.01726878434419632
0.013127031736075878,0.0059664188884198666,-0.012234392575919628,0.005249650217592716,-0.0007561640813946724,-0.017002815380692482
0.01299249567091465,0.005618305876851082,-0.012492525391280651,0.004907005466520786,-0.0011923403944820166,-0.01684323325753212
0.013093509711325169,0.006495040375739336,-0.011875760741531849,0.00506433704867959,-0.0012486173072829843,-0.016944149509072304
0.013357419520616531,0.006688878871500492,-0.01204114593565464,0.005435043014585972,-0.00172276864759624,-0.017685845494270325
0.01308914739638567,0.005785718560218811,-0.011528437957167625,0.005628316663205624,-0.0017323036445304751,-0.016861537471413612
0.013302807696163654,0.005821236874908209,-0.012671522796154022,0.005490121431648731,-0.0016791053349152207,-0.01659236289560795
0.012736434116959572,0.005726594012230635,-0.011967403814196587,0.005158676765859127,-0.0015777723165228963,-0.01729624532163143
0.013286979869008064,0.006104012485593557,-0.011733218096196651,0.005200402345508337,-0.0014675348065793514,-0.01775479130446911
0.013098922558128834,0.006027563009411097,-0.012093392200767994,0.004985508508980274,-0.0012921701418235898,-0.017329860478639603
0.013708457350730896,0.005847260355949402,-0.012058540247380733,0.005815614014863968,-0.001208427594974637,-0.0171146672219038
0.012807797640562057,0.005646010395139456,-0.01304436195641756,0.006193244364112616,-0.0011509917676448822,-0.017616115510463715
0.013567546382546425,0.005802026018500328,-0.011773393489420414,0.0057268450036644936,-0.0011114170774817467,-0.01795053295791149
0.01392594538629055,0.006018913816660643,-0.012693740427494049,0.005268737208098173,-0.0010753290262073278,-0.01784580945968628
0.013886340893805027,0.005971959326416254,-0.012167474254965782,0.00550831900909543,-0.0010742038721218705,-0.0174723993986845
0.013886340893805027,0.005971959326416254,-0.012167474254965782,0.00550831900909543,-0.0010742038721218705,-0.0174723993986845
0.013888111338019371,0.0066844625398516655,-0.012534729205071926,0.006221808958798647,-0.0013948304113000631,-0.017530320212244987
0.013838562183082104,0.005115963518619537,-0.012429873459041119,0.005247976630926132,-0.0015404747100546956,-0.01791592873632908
0.013838562183082104,0.005115963518619537,-0.012429873459041119,0.005247976630926132,-0.0015404747100546956,-0.01791592873632908
0.01423218846321106,0.005978928413242102,-0.012361591681838036,0.005142137408256531,-0.0015624298248440027,-0.01845015212893486
0.013752585276961327,0.00633270014077425,-0.01260981336236,0.005114604253321886,-0.0014330685371533036,-0.01883203536272049
0.014231428503990173,0.005872267764061689,-0.012750273570418358,0.005652968771755695,-0.0012790763285011053,-0.018811067566275597
0.013926352374255657,0.005716696381568909,-0.01234219130128622,0.0058444226160645485,-0.0011786905815824866,-0.018751857802271843
0.01419149525463581,0.00531788170337677,-0.01265838835388422,0.00627499632537365,-0.001147717353887856,-0.018520860001444817
0.013517656363546848,0.006386342458426952,-0.012022863142192364,0.005870352499186993,-0.0012624552473425865,-0.01838742382824421
0.014066223986446857,0.005926231853663921,-0.01272827759385109,0.005615951027721167,-0.0014081316767260432,-0.018457109108567238
0.013677794486284256,0.005792851559817791,-0.01254715584218502,0.006230099592357874,-0.0014078643871471286,-0.018087774515151978
0.014008798636496067,0.005803700070828199,-0.013125278055667877,0.0063706389628350735,-0.0017243794864043593,-0.018454551696777344
0.013669224455952644,0.005748947616666555,-0.013256197795271873,0.005980091635137796,-0.0016696912935003638,-0.018871640786528587
0.014241251163184643,0.006193813867866993,-0.012449106201529503,0.005486319772899151,-0.0014989416813477874,-0.018632393330335617
0.013961157761514187,0.005522476509213448,-0.01299893856048584,0.005489777773618698,-0.001366106909699738,-0.018781917169690132
0.01455300860106945,0.004961411934345961,-0.013179924339056015,0.006153183523565531,-0.0012691125739365816,-0.018881971016526222
0.014006871730089188,0.0051312861032783985,-0.013465959578752518,0.006050878204405308,-0.0012047672644257545,-0.018863292410969734
0.014536123722791672,0.005155176389962435,-0.01203675102442503,0.005852945148944855,-0.0010916530154645443,-0.019548339769244194
0.01421693991869688,0.00589333800598979,-0.013279909268021584,0.005942156538367271,-0.0011481792898848653,-0.01921146549284458
0.014621778391301632,0.005401040427386761,-0.012690773233771324,0.005704771261662245,-0.0011505744187161326,-0.01917046122252941
0.014102966524660587,0.005197068676352501,-0.01315206941217184,0.006359095219522715,-0.0014142243890091777,-0.01947113126516342
0.014824305661022663,0.0053946818225085735,-0.012882286682724953,0.006874994374811649,-0.0015184096992015839,-0.019467459991574287
0.0149578507989645,0.005347229540348053,-0.013234013691544533,0.006189776584506035,-0.0016885591903701425,-0.01984577812254429
0.0149578507989645,0.005347229540348053,-0.013234013691544533,0.006189776584506035,-0.0016885591903701425,-0.01984577812254429
0.01474065613001585,0.005583889316767454,-0.013118796050548553,0.0061685736291110516,-0.0015508150681853294,-0.01955900527536869
0.014255182817578316,0.005438313819468021,-0.013186619617044926,0.006748886313289404,-0.0015432058135047555,-0.019745970144867897
0.01474007312208414,0.005496060475707054,-0.013597555458545685,0.006388665642589331,-0.0015610636910423636,-0.020426420494914055
0.014686713926494122,0.005179719068109989,-0.012776676565408707,0.005678801331669092,-0.001633944222703576,-0.020516207441687584
0.014686713926494122,0.005179719068109989,-0.012776676565408707,0.005678801331669092,-0.001633944222703576,-0.020516207441687584
0.015094646252691746,0.0058952453546226025,-0.013439775444567204,0.006188531406223774,-0.0016993741737678647,-0.02060602232813835
0.014348185621201992,0.005612251814454794,-0.013102784752845764,0.0067922743037343025,-0.0018362033879384398,-0.020263124257326126
0.01493926253169775,0.005773688666522503,-0.013478891924023628,0.006623206660151482,-0.0018750667804852128,-0.02028566040098667
0.014656114391982555,0.005278761964291334,-0.013173410668969154,0.006331187207251787,-0.0018998240120708942,-0.02012712135910988
0.015084353275597095,0.005354358348995447,-0.013849220238626003,0.005644845310598612,-0.0017575875390321016,-0.020524678751826286
0.014556230045855045,0.005537178833037615,-0.013642336241900921,0.005820668768137693,-0.0016716455575078726,-0.020989377051591873
0.014866911806166172,0.005271845497190952,-0.013861658982932568,0.006780419498682022,-0.001526349107734859,-0.021064668893814087
0.014946231618523598,0.005411168094724417,-0.013462272472679615,0.006934901233762503,-0.0014382816152647138,-0.021098505705595016
0.015337422490119934,0.005016585811972618,-0.013570383191108704,0.006657423451542854,-0.0013959354255348444,-0.02117939293384552
0.015058045275509357,0.004842603579163551,-0.013450507074594498,0.006253938656300306,-0.0014254925772547722,-0.021566221490502357
0.015372762456536293,0.005085337441414595,-0.013265338726341724,0.006591346114873886,-0.0015803882852196693,-0.021479861810803413
0.015042074024677277,0.005059147719293833,-0.013625324703752995,0.0068743000738322735,-0.0016773475799709558,-0.021116890013217926
0.014680673368275166,0.00578271271660924,-0.01299718115478754,0.0067864940501749516,-0.001933497958816588,-0.021410182118415833
0.015353859402239323,0.005276462994515896,-0.013566860929131508,0.006570371799170971,-0.002060169354081154,-0.021917635574936867
0.015573754906654358,0.004815286491066217,-0.013016417622566223,0.00657055526971817,-0.0020541856065392494,-0.021609362214803696
0.015818694606423378,0.004965230822563171,-0.012368484400212765,0.006945337168872356,-0.0019161916570737958,-0.02170596644282341
0.015491939149796963,0.005000394303351641,-0.01309901662170887,0.006478897295892239,-0.0016363355098292232,-0.02180531993508339
0.015472976490855217,0.005250145681202412,-0.014521258883178234,0.006145924795418978,-0.0015700884396210313,-0.022087663412094116
0.015230841934680939,0.00547000952064991,-0.01303331833332777,0.0061384038999676704,-0.0014960793778300285,-0.022190259769558907
0.015681063756346703,0.004581450019031763,-0.01313141267746687,0.0072114658541977406,-0.001729672309011221,-0.02183527499437332
0.016111044213175774,0.004914720542728901,-0.013467233628034592,0.006914796307682991,-0.0018628534162417054,-0.021890413016080856
0.016111044213175774,0.004914720542728901,-0.013467233628034592,0.006914796307682991,-0.0018628534162417054,-0.021890413016080856
0.01594359241425991,0.004968636203557253,-0.01315648015588522,0.006414210423827171,-0.0018707431154325604,-0.022642595693469048
0.01627012901008129,0.0043991017155349255,-0.012522331438958645,0.006348977796733379,-0.0016012201085686684,-0.022702034562826157
0.0165046788752079,0.004527031444013119,-0.013363935984671116,0.006430492736399174,-0.001607490354217589,-0.02296963706612587
0.01622476801276207,0.005086819641292095,-0.013162066228687763,0.0063032181933522224,-0.001506330445408821,-0.022650711238384247
0.016300156712532043,0.004874933045357466,-0.013481532223522663,0.006495848763734102,-0.001516424585133791,-0.02269855886697769
0.015864521265029907,0.004243998322635889,-0.012761271558701992,0.006861304398626089,-0.001555873197503388,-0.022288870066404343
0.017040908336639404,0.004293067380785942,-0.013790180906653404,0.007020840421319008,-0.001979612046852708,-0.021630244329571724
0.016660528257489204,0.004530994687229395,-0.01329819392412901,0.007359649054706097,-0.0020952876657247543,-0.02220735512673855
0.016234809532761574,0.004758205730468035,-0.013370404951274395,0.00725447665899992,-0.0021391622722148895,-0.022974183782935143
0.016660206019878387,0.004992589354515076,-0.013172140344977379,0.006759511306881905,-0.0019479539478197694,-0.023284997791051865
0.01675325259566307,0.0043690199963748455,-0.013723568990826607,0.007004071492701769,-0.001693925354629755,-0.022736119106411934
0.01678883470594883,0.004285396542400122,-0.013674589805305004,0.0075146290473639965,-0.0016202385304495692,-0.023072808980941772
0.01662973128259182,0.004567631520330906,-0.013605854474008083,0.0069952961057424545,-0.0014210358494892716,-0.023798096925020218
0.017218636348843575,0.0047099897637963295,-0.0132500184699893,0.006925533525645733,-0.0013127569109201431,-0.02363833785057068
0.01706773415207863,0.004386700689792633,-0.013234475627541542,0.006744395010173321,-0.0013278091792017221,-0.023224953562021255
0.01699061691761017,0.004548214841634035,-0.01388438418507576,0.007369768340140581,-0.0015224876115098596,-0.022205540910363197
0.017391618341207504,0.004218588583171368,-0.013522987253963947,0.00771449226886034,-0.0016369158402085304,-0.022710701450705528
0.017090467736124992,0.004262124188244343,-0.013698595575988293,0.006962867453694344,-0.0017216055421158671,-0.023867297917604446
0.017452554777264595,0.004628104157745838,-0.01334426086395979,0.006750612519681454,-0.0017764356452971697,-0.024288101121783257
0.01751154102385044,0.004224551375955343,-0.013879851438105106,0.007229089271277189,-0.0017666536150500178,-0.02432895638048649
0.01748371124267578,0.004468770232051611,-0.013277086429297924,0.007868424989283085,-0.001832794165238738,-0.024348637089133263
0.018030209466814995,0.004188132006675005,-0.014012536965310574,0.007603762671351433,-0.001812947215512395,-0.024216458201408386
0.01762496866285801,0.004457453731447458,-0.013472975231707096,0.007123205810785294,-0.0017959631513804197,-0.024153226986527443
0.01774645410478115,0.004418950993567705,-0.013873770833015442,0.007226321846246719,-0.001695846440270543,-0.02441134862601757
0.017972202971577644,0.0042237951420247555,-0.013293611817061901,0.007864034734666348,-0.001673333696089685,-0.024619881063699722
0.01808979921042919,0.004250627942383289,-0.013641556724905968,0.007472694385796785,-0.0019982843659818172,-0.024719132110476494
0.017839983105659485,0.004025276750326157,-0.014201465994119644,0.008035991340875626,-0.0019120851065963507,-0.024387625977396965
0.017753329128026962,0.0038021111395210028,-0.013583327643573284,0.008204412646591663,-0.0019825876224786043,-0.02449936978518963
0.017753329128026962,0.0038021111395210028,-0.013583327643573284,0.008204412646591663,-0.0019825876224786043,-0.02449936978518963
0.018103159964084625,0.004315415862947702,-0.01404588669538498,0.007855840027332306,-0.0018421253189444542,-0.02457951009273529
0.01811760850250721,0.004593040328472853,-0.013749576173722744,0.00772571936249733,-0.0015721904346719384,-0.024999873712658882
0.018032940104603767,0.004228097852319479,-0.014116336591541767,0.0076994565315544605,-0.001510816509835422,-0.024502495303750038
0.01810668408870697,0.003915549721568823,-0.013839084655046463,0.007655715104192495,-0.0014505484141409397,-0.024242816492915154
0.018120815977454185,0.0037723963614553213,-0.014124032109975815,0.007194289937615395,-0.001595828216522932,-0.02525945194065571
0.01824338547885418,0.004032289143651724,-0.013916078954935074,0.006993724498897791,-0.0016635361826047301,-0.025542788207530975
0.0183547493070364,0.00406331941485405,-0.01438318844884634,0.008040321990847588,-0.0019073482835665345,-0.02568655274808407
0.018440773710608482,0.004321238491684198,-0.013858734630048275,0.007836446166038513,-0.001854168251156807,-0.02559088170528412
0.018858909606933594,0.004163569770753384,-0.013735823333263397,0.0074217249639332294,-0.001859867013990879,-0.02421817183494568
0.01860879547894001,0.003910786937922239,-0.014299919828772545,0.007946757599711418,-0.001844150247052312,-0.024613264948129654
0.018388742581009865,0.0038051705341786146,-0.014095393940806389,0.007792881224304438,-0.0019916954915970564,-0.025448668748140335
0.01880864053964615,0.00379529083147645,-0.014240900054574013,0.007638817187398672,-0.0019683747086673975,-0.025989273563027382
0.01879127137362957,0.003765095490962267,-0.014026285149157047,0.0072267502546310425,-0.0019973646849393845,-0.02587297186255455
0.018914498388767242,0.0037209868896752596,-0.014226910658180714,0.007914047688245773,-0.0019630566239356995,-0.026197772473096848
0.01879718527197838,0.003712755860760808,-0.014078572392463684,0.008520746603608131,-0.0019289461197331548,-0.02676958590745926
0.019590644165873528,0.004113052040338516,-0.014721086248755455,0.00821622833609581,-0.001907093683257699,-0.026098718866705894
0.019812162965536118,0.0042597511783242226,-0.014194800518453121,0.008143496699631214,-0.0021589980460703373,-0.025692109018564224
0.019594619050621986,0.0037000810261815786,-0.01442944910377264,0.008150988258421421,-0.001985131995752454,-0.025852536782622337
0.01874418370425701,0.004104281775653362,-0.015096218325197697,0.008175497874617577,-0.0020758165046572685,-0.026438208296895027
0.018676405772566795,0.004143173340708017,-0.015176234766840935,0.007945188321173191,-0.0018675413448363543,-0.02682679519057274
0.01931784860789776,0.0035748076625168324,-0.014389852061867714,0.008310949429869652,-0.0018261332297697663,-0.027166372165083885
0.019367557018995285,0.0035939449444413185,-0.014629432931542397,0.008646296337246895,-0.0018252747831866145,-0.027205009013414383
0.019551513716578484,0.004242413677275181,-0.014784789644181728,0.007826348766684532,-0.0016258859541267157,-0.027180200442671776
0.019293909892439842,0.0040878793224692345,-0.014717897400259972,0.008024126291275024,-0.0016254966612905264,-0.026347311213612556
0.019924325868487358,0.003488824237138033,-0.014911928214132786,0.008476905524730682,-0.0018415424274280667,-0.028062758967280388
0.02044779248535633,0.00347967934794724,-0.015601475723087788,0.008520306088030338,-0.0021176303271204233,-0.028461553156375885
0.020057937130331993,0.003776285331696272,-0.014615201391279697,0.007998179644346237,-0.002206153469160199,-0.028318310156464577
0.019433598965406418,0.003962931223213673,-0.015050283633172512,0.008526892401278019,-0.0021471965592354536,-0.02760356105864048
0.020273203030228615,0.003946998156607151,-0.014608586207032204,0.009043216705322266,-0.002062910469248891,-0.02776462212204933
0.020273203030228615,0.003946998156607151,-0.014608586207032204,0.009043216705322266,-0.002062910469248891,-0.02776462212204933
0.01899360865354538,0.0033496874384582043,-0.015278790146112442,0.008469346910715103,-0.00212434702552855,-0.02795950323343277
0.01949787698686123,0.0032278632279485464,-0.014568314887583256,0.008250096812844276,-0.0019430965185165405,-0.02841522917151451
0.020193399861454964,0.0033379532396793365,-0.015429804101586342,0.008970308117568493,-0.0019023497588932514,-0.028379186987876892
0.02046462893486023,0.00366794946603477,-0.014857563190162182,0.008846934884786606,-0.0018129516392946243,-0.028564613312482834
0.020099686458706856,0.0034219487570226192,-0.014687495306134224,0.008958430029451847,-0.0015680243959650397,-0.02866530604660511
0.020444709807634354,0.0034783417358994484,-0.014673745259642601,0.008991261944174767,-0.0015926013002172112,-0.028818940743803978
0.02035781927406788,0.0033787800930440426,-0.015487887896597385,0.009111447259783745,-0.0019046978559345007,-0.02908219024538994
0.02015024609863758,0.003401180962100625,-0.014512118883430958,0.008554303087294102,-0.002132055116817355,-0.028780872002243996
0.02022184245288372,0.0036540322471410036,-0.015112853609025478,0.008244207128882408,-0.0025626136921346188,-0.02875562757253647
0.020908627659082413,0.003158030565828085,-0.014324003830552101,0.008698110468685627,-0.0023025507107377052,-0.029285511001944542
0.020816711708903313,0.0031005728524178267,-0.014774522744119167,0.009071522392332554,-0.002183121396228671,-0.029656410217285156
0.020331520587205887,0.003066904377192259,-0.014568064361810684,0.008917693048715591,-0.001909179612994194,-0.029678858816623688
0.02093081921339035,0.003395336912944913,-0.015195220708847046,0.009396468289196491,-0.001717741833999753,-0.030031315982341766
0.02083960920572281,0.0032394772861152887,-0.01457337848842144,0.009367275051772594,-0.001726966118440032,-0.029666734859347343
0.020692871883511543,0.0029308826196938753,-0.014822867698967457,0.009142331779003143,-0.0019335089018568397,-0.02993278205394745
0.020693834871053696,0.002898508682847023,-0.014745582826435566,0.009469635784626007,-0.0018915595719590783,-0.030115680769085884
0.020883291959762573,0.003070482285693288,-0.015065256506204605,0.0092689860612154,-0.0022006051149219275,-0.030395323410630226
0.021090181544423103,0.0033654735889285803,-0.014960182830691338,0.008573094382882118,-0.002083529019728303,-0.03036382794380188
0.02107187546789646,0.003168892115354538,-0.015015087090432644,0.009292647242546082,-0.0020421165972948074,-0.03043554164469242
0.021420611068606377,0.002656021388247609,-0.014819243922829628,0.009309658780694008,-0.002077652607113123,-0.029836488887667656
0.02094275876879692,0.00281860725954175,-0.015012122690677643,0.009635964408516884,-0.0022235908545553684,-0.03123111091554165
0.02092031203210354,0.0028241670224815607,-0.014810536056756973,0.009614238515496254,-0.0021895410027354956,-0.03163760155439377
0.021412072703242302,0.002532276092097163,-0.014979630708694458,0.00935679767280817,-0.0022882260382175446,-0.030820922926068306
0.021647417917847633,0.0020611132495105267,-0.014773217961192131,0.009609103202819824,-0.002189863007515669,-0.02980443276464939
0.021202843636274338,0.0016222629928961396,-0.014986015856266022,0.009316042996942997,-0.002130458364263177,-0.030695201829075813
0.021202843636274338,0.0016222629928961396,-0.014986015856266022,0.009316042996942997,-0.002130458364263177,-0.030695201829075813
0.021317152306437492,0.001162651926279068,-0.01457318477332592,0.009345305152237415,-0.0019770164508372545,-0.031131187453866005
0.02164093777537346,0.0010242509888485074,-0.014647829346358776,0.009727582335472107,-0.0019629662856459618,-0.031908683478832245
0.02159499004483223,0.0011465244460850954,-0.014448178932070732,0.009790798649191856,-0.0021170638501644135,-0.032966431230306625
0.021427709609270096,0.0018452162621542811,-0.014593787491321564,0.009442637674510479,-0.0021367392037063837,-0.032931528985500336
0.021454909816384315,0.0017535394290462136,-0.014520606957376003,0.009824363514780998,-0.0022231449838727713,-0.03135384991765022
0.021996887400746346,0.001930597354657948,-0.014627587981522083,0.009984004311263561,-0.0021956157870590687,-0.030852902680635452
0.02227584645152092,0.0016694182995706797,-0.014561728574335575,0.009537997655570507,-0.002311360789462924,-0.032133638858795166
0.022293243557214737,0.0015072007663547993,-0.014767448417842388,0.009560974314808846,-0.0024603719357401133,-0.032554980367422104
0.022718267515301704,0.001155299018137157,-0.014545085839927197,0.009911520406603813,-0.0024620594922453165,-0.03260313719511032
0.02260851301252842,0.0010867086239159107,-0.014993110671639442,0.010322344489395618,-0.0026274884585291147,-0.03261316940188408
0.02246784418821335,0.0011570198694244027,-0.014972694218158722,0.010073645040392876,-0.0025166398845613003,-0.03257244825363159
0.022045055404305458,0.0012306218268349767,-0.015918677672743797,0.009616424329578876,-0.0024135855492204428,-0.032594334334135056
0.021886257454752922,0.0013580492231994867,-0.01466816570609808,0.009195992723107338,-0.002424925332888961,-0.03295919671654701
0.021961085498332977,0.001293729292228818,-0.015043098479509354,0.009606042876839638,-0.002163003431633115,-0.03286462277173996
0.022555993869900703,0.0015377028612419963,-0.014594145119190216,0.009933365508913994,-0.002108877059072256,-0.032750390470027924
0.022204486653208733,0.0014152299845591187,-0.015268954448401928,0.009607668034732342,-0.0019323531305417418,-0.032759055495262146
0.022029941901564598,0.0013201694237068295,-0.01455591805279255,0.009568736888468266,-0.0019923385698348284,-0.03334547206759453
0.02244262956082821,0.0011460821842774749,-0.015382237732410431,0.010335275903344154,-0.0018669278360903263,-0.0338551364839077
0.023207027465105057,0.0010987366549670696,-0.01472774613648653,0.010108303278684616,-0.0020860075019299984,-0.03384973108768463
0.022582069039344788,0.0011679111048579216,-0.01551262941211462,0.010073489509522915,-0.0023988934699445963,-0.03339004144072533
0.022635893896222115,0.0014644187176600099,-0.01522486750036478,0.009983350522816181,-0.0025047925300896168,-0.03468548133969307
0.022321993485093117,0.0014205724000930786,-0.014988620765507221,0.009829746559262276,-0.0027069656644016504,-0.0354682058095932
0.022285640239715576,0.001382216694764793,-0.014958247542381287,0.010102178901433945,-0.0028269095346331596,-0.034350696951150894
0.022258799523115158,0.0014171147486194968,-0.015433434396982193,0.009311847388744354,-0.002383798360824585,-0.0333455353975296
0.023662440478801727,0.0013338684802874923,-0.01598670892417431,0.009594921953976154,-0.002116129267960787,-0.03487322852015495
0.02352265827357769,0.0012373932404443622,-0.015865594148635864,0.009928915649652481,-0.0020336543675512075,-0.03548429533839226
0.02352265827357769,0.0012373932404443622,-0.015865594148635864,0.009928915649652481,-0.0020336543675512075,-0.03548429533839226
0.02289278246462345,0.0012120652245357633,-0.015258965082466602,0.009561058133840561,-0.002201841678470373,-0.03613560274243355
0.022910354658961296,0.0011834211181849241,-0.01572950929403305,0.00992639735341072,-0.0022784469183534384,-0.034659210592508316
0.023357093334197998,0.001336961518973112,-0.015183739364147186,0.009573524817824364,-0.0027890317142009735,-0.03337254747748375
0.023645393550395966,0.00138888752553612,-0.01596865803003311,0.00951134692877531,-0.002645067172124982,-0.03482957184314728
0.023307396098971367,0.00166700326371938,-0.015219204127788544,0.009609001688659191,-0.0024113354738801718,-0.035528767853975296
0.023573266342282295,0.0015673217130824924,-0.01563398726284504,0.009945533238351345,-0.002120234537869692,-0.03560010716319084
0.023822618648409843,0.001448382856324315,-0.015349069610238075,0.00928337313234806,-0.002022084081545472,-0.03523159399628639
0.02418041229248047,0.001298432471230626,-0.015475206077098846,0.009155367501080036,-0.002089097397401929,-0.03536660969257355
0.02430061064660549,0.0011892035836353898,-0.016157228499650955,0.009615717455744743,-0.0023984250146895647,-0.03595384582877159
0.024290386587381363,0.0011357874609529972,-0.015875887125730515,0.009628565050661564,-0.0025359990540891886,-0.03634726628661156
0.02418331801891327,0.0011105078738182783,-0.01582007296383381,0.010143526829779148,-0.0026850500144064426,-0.036348432302474976
0.024097027257084846,0.0010736625408753753,-0.015494230203330517,0.010003143921494484,-0.002561272121965885,-0.035792168229818344
0.023943426087498665,0.0010928462725132704,-0.015751272439956665,0.009652919135987759,-0.0024430628400295973,-0.035921525210142136
0.024245083332061768,0.0010698337573558092,-0.015382058918476105,0.009983906522393227,-0.002461799653246999,-0.03648088872432709
0.02466025948524475,0.001191887422464788,-0.015966033563017845,0.009944239631295204,-0.00234055845066905,-0.03658245503902435
0.024712184444069862,0.0011323017533868551,-0.015476899221539497,0.009556331671774387,-0.0024256031028926373,-0.03656721115112305
0.024521568790078163,0.0010743670864030719,-0.0162604209035635,0.010099586099386215,-0.002349599963054061,-0.035383615642786026
0.0246408861130476,0.00093184964498505,-0.015606311149895191,0.010711264796555042,-0.002300899475812912,-0.0371607206761837
0.02402849867939949,0.0009227903792634606,-0.01580246165394783,0.010533901862800121,-0.002540167886763811,-0.037354011088609695
0.02469422109425068,0.0007668301113881171,-0.015695961192250252,0.010875770822167397,-0.002788535552099347,-0.0371055044233799
0.025041570886969566,0.0008679970051161945,-0.015975136309862137,0.010933923535048962,-0.0028808931820094585,-0.03717055171728134
0.02501363307237625,0.0009084627381525934,-0.01612398959696293,0.0106552978977561,-0.002993942704051733,-0.03715391829609871
0.0251051876693964,0.0013757513370364904,-0.015462975949048996,0.011047735810279846,-0.0029250949155539274,-0.037279531359672546
0.024950195103883743,0.0013369994703680277,-0.01629907637834549,0.010587968863546848,-0.0025322716683149338,-0.03713033348321915
0.024722997099161148,0.0012234103633090854,-0.015658218413591385,0.011631643399596214,-0.002414053538814187,-0.03719085454940796
0.025546904653310776,0.0009500719024799764,-0.015258404426276684,0.010534864850342274,-0.0025029256939888,-0.03712805360555649
0.025959718972444534,0.0008894172497093678,-0.01628560572862625,0.010712191462516785,-0.00243544252589345,-0.03765373304486275
0.025853652507066727,0.0008037681109271944,-0.01590817980468273,0.010875132866203785,-0.0026495184283703566,-0.03898024186491966
0.025215519592165947,0.0008149812929332256,-0.015901850536465645,0.010882641188800335,-0.00259328237734735,-0.03874633461236954
0.02543015591800213,0.000824672810267657,-0.01603633537888527,0.011584227904677391,-0.0024887241888791323,-0.037127651274204254
0.02543015591800213,0.000824672810267657,-0.01603633537888527,0.011584227904677391,-0.0024887241888791323,-0.037127651274204254
0.026040121912956238,0.0008170774090103805,-0.01607625186443329,0.01117592304944992,-0.002443303819745779,-0.03818890452384949
0.026201719418168068,0.0008321545319631696,-0.0166704710572958,0.011133475229144096,-0.0027878680266439915,-0.03850109875202179
0.02554215118288994,0.0009191947756335139,-0.016002662479877472,0.011311258189380169,-0.0029588239267468452,-0.03894282504916191
0.026068685576319695,0.0008633254910819232,-0.016179682686924934,0.011064347811043262,-0.0029526310972869396,-0.0403304249048233
0.026358604431152344,0.0011069228639826179,-0.015805961564183235,0.011527528055012226,-0.003108404343947768,-0.03862456977367401
0.026769977062940598,0.001038491609506309,-0.0165889710187912,0.011231951415538788,-0.0030381593387573957,-0.038412053138017654
0.026321273297071457,0.000931561749894172,-0.016473442316055298,0.01119777001440525,-0.00284471083432436,-0.039362672716379166
0.025855829939246178,0.0009136588196270168,-0.016416294500231743,0.01214243657886982,-0.002757458481937647,-0.03964207321405411
0.025986144319176674,0.0008218015427701175,-0.01631196402013302,0.011454976163804531,-0.0027602212503552437,-0.03994537517428398
0.027118081226944923,0.0007388174999505281,-0.01604359969496727,0.011747630313038826,-0.0027117375284433365,-0.0396401584148407
0.026820499449968338,0.0007607446750625968,-0.016885953024029732,0.011621838435530663,-0.0023756902664899826,-0.04021335765719414
0.027144592255353928,0.0007747756317257881,-0.016340356320142746,0.011401312425732613,-0.0021979035809636116,-0.040206391364336014
0.02726457640528679,0.0007885092636570334,-0.01660357043147087,0.011784812435507774,-0.0021320702508091927,-0.04023826867341995
0.027167515829205513,0.0009147775708697736,-0.01633194088935852,0.01145896315574646,-0.002403535647317767,-0.04096848890185356
0.02714502438902855,0.0009212014265358448,-0.016659792512655258,0.011803154833614826,-0.0030108713544905186,-0.040695954114198685
0.027155248448252678,0.0008013311889953911,-0.01701664924621582,0.011666868813335896,-0.003139832289889455,-0.04109063372015953
0.026881491765379906,0.0008124137530103326,-0.01615080051124096,0.011379136703908443,-0.0029374370351433754,-0.04000584036111832
0.027051255106925964,0.0008194991969503462,-0.016813350841403008,0.012026713229715824,-0.0027832938358187675,-0.04118942841887474
0.027453670278191566,0.0007975248154252768,-0.016225989907979965,0.01123963762074709,-0.0025313294027000666,-0.0418589748442173
0.02729187160730362,0.0008267514640465379,-0.016383551061153412,0.01198134757578373,-0.002469389233738184,-0.042536068707704544
0.027408340945839882,0.0008201503078453243,-0.016531722620129585,0.011469483375549316,-0.0026955078355968,-0.040320076048374176
0.02765975147485733,0.0007660937844775617,-0.01656128466129303,0.0115119069814682,-0.002648215740919113,-0.04137254133820534
0.0276330653578043,0.0008489489555358887,-0.01592426933348179,0.011411093175411224,-0.0025409283116459846,-0.04179532453417778
0.02787652425467968,0.0008582000155001879,-0.01631923019886017,0.011828474700450897,-0.0026339865289628506,-0.04341251030564308
0.028005661442875862,0.0008257523295469582,-0.01626584492623806,0.012033410370349884,-0.0027959635481238365,-0.04187433794140816
0.027809666469693184,0.0007635054062120616,-0.017271265387535095,0.011899682693183422,-0.0028648364823311567,-0.04072247073054314
0.027913030236959457,0.0007446585223078728,-0.017149299383163452,0.012098467908799648,-0.003071625716984272,-0.042215052992105484
0.027935832738876343,0.0007022354984655976,-0.01656494475901127,0.011630332097411156,-0.0031744670122861862,-0.04258788377046585
0.028250427916646004,0.0006512199179269373,-0.01709580235183239,0.012522229924798012,-0.003194642486050725,-0.04166308417916298
0.027966640889644623,0.0005741048371419311,-0.01675897091627121,0.01224280335009098,-0.002969870576635003,-0.043265312910079956
0.027966640889644623,0.0005741048371419311,-0.01675897091627121,0.01224280335009098,-0.002969870576635003,-0.043265312910079956
0.028102301061153412,0.0005984139279462397,-0.01759631372988224,0.012715697288513184,-0.0026530420873314142,-0.043363057076931
0.029256105422973633,0.0006082163890823722,-0.017165234312415123,0.012536243535578251,-0.0026452429592609406,-0.042730048298835754
0.02915302664041519,0.0005808114656247199,-0.017500685527920723,0.012775128707289696,-0.0026338868774473667,-0.04256695136427879
0.02818521484732628,0.0006049406947568059,-0.018127400428056717,0.012565268203616142,-0.002755647525191307,-0.04301026463508606
0.027935808524489403,0.0005621740710921586,-0.017499683424830437,0.012043832801282406,-0.0027298827189952135,-0.04328951612114906
0.029573796316981316,0.0006127782980911434,-0.01790705695748329,0.012976722791790962,-0.003080161986872554,-0.0432150661945343
0.02911999262869358,0.0006355402292683721,-0.01841898076236248,0.012591889128088951,-0.0033238972537219524,-0.04384713992476463
0.029243608936667442,0.0005791516159661114,-0.01772010698914528,0.012558529153466225,-0.0033357604406774044,-0.043874047696590424
0.02964998409152031,0.0005799375358037651,-0.017891038209199905,0.012187857180833817,-0.0033018027897924185,-0.04402881860733032
0.02963135577738285,0.000556025595869869,-0.017583349719643593,0.012127366848289967,-0.003139982232823968,-0.04427269846200943
0.029208820313215256,0.0005112598882988095,-0.017678359523415565,0.012310884892940521,-0.0030954156536608934,-0.043658673763275146
0.02843341790139675,0.00026882230304181576,-0.018167369067668915,0.012045365758240223,-0.00312187522649765,-0.045085012912750244
0.028816549107432365,0.00022755819372832775,-0.01813964731991291,0.01289606187492609,-0.0031377915292978287,-0.045027561485767365
0.029690545052289963,0.00020191495423205197,-0.01797208935022354,0.012632856145501137,-0.002960924757644534,-0.044454775750637054
0.02966231107711792,0.00024060378200374544,-0.015969056636095047,0.013005613349378109,-0.002640398684889078,-0.04362937808036804
0.029811790212988853,0.0002469219034537673,-0.01811736635863781,0.01235567219555378,-0.002626911737024784,-0.04557444155216217
0.029533492401242256,0.00022657730733044446,-0.019225720316171646,0.012558668851852417,-0.0029911836609244347,-0.04593844339251518
0.03000664710998535,0.00020903500262647867,-0.01870039291679859,0.012772329151630402,-0.0032018949277698994,-0.04368969053030014
0.029704798012971878,0.0001810024696169421,-0.018768317997455597,0.013430805876851082,-0.002891432261094451,-0.04567612707614899
0.029967576265335083,0.00016962899826467037,-0.017770325765013695,0.012677398510277271,-0.003078094217926264,-0.04762464389204979
0.02997683547437191,0.00015960060409270227,-0.017794396728277206,0.012532741762697697,-0.003243550891056657,-0.04446771368384361
0.030396608635783195,0.00015069180517457426,-0.018791871145367622,0.011947275139391422,-0.0031341449357569218,-0.044990506023168564
0.03020547702908516,0.00014272479165811092,-0.01860153302550316,0.012489115819334984,-0.0030001967679709196,-0.04657001420855522
0.03016405738890171,0.00013555855548474938,-0.018937917426228523,0.012621277943253517,-0.003216187469661236,-0.04718605801463127
0.030465031042695045,0.0001290773943765089,-0.018735304474830627,0.012436680495738983,-0.0030307916458696127,-0.04730843007564545
0.030565932393074036,0.000123187608551234,-0.01828768290579319,0.013273385353386402,-0.00317304115742445,-0.04752108082175255
0.030855495482683182,0.00011781241482822224,-0.01911429688334465,0.013097907416522503,-0.0033115167170763016,-0.0474570207297802
0.03137035295367241,0.00011288675159448758,-0.019356373697519302,0.013198747299611568,-0.0032167588360607624,-0.04750164970755577
0.03137035295367241,0.00011288675159448758,-0.019356373697519302,0.013198747299611568,-0.0032167588360607624,-0.04750164970755577
0.03116477280855179,0.00010835579450940713,-0.018637875095009804,0.012738572433590889,-0.003010989399626851,-0.04761172831058502
0.031140204519033432,0.00010417491284897551,-0.018933510407805443,0.013326524756848812,-0.003232476068660617,-0.047700315713882446
0.031433578580617905,0.00010030499106505886,-0.018662432208657265,0.013140550814568996,-0.0030045947059988976,-0.04734896123409271
0.03125287964940071,9.67117739492096e-05,-0.018694015219807625,0.0134013332426548,-0.0030794234480708838,-0.047904372215270996
0.031492069363594055,9.336751099908724e-05,-0.019363820552825928,0.013112042099237442,-0.003402827074751258,-0.04812075197696686
0.03132816404104233,9.024667087942362e-05,-0.019218068569898605,0.013257564976811409,-0.003298903116956353,-0.048516809940338135
0.03144720196723938,8.732788410270587e-05,-0.018914196640253067,0.013572722673416138,-0.0031255900394171476,-0.049543485045433044
0.030797075480222702,8.487430022796616e-05,-0.01891976036131382,0.013498067855834961,-0.003042092313989997,-0.04806459695100784
0.032346174120903015,-3.195079625584185e-05,-0.018880093470215797,0.013426164165139198,-0.003067898331210017,-0.047362130135297775
0.03291197493672371,-3.232943345210515e-05,-0.01947231963276863,0.013302957639098167,-0.003222669707611203,-0.048897694796323776
0.032686747610569,-1.072167833626736e-05,-0.019864238798618317,0.013516130857169628,-0.0034184728283435106,-0.05074083060026169
0.03154798597097397,-1.4384499991138e-07,-0.019224071875214577,0.01332849357277155,-0.0031874701380729675,-0.04979580268263817
0.031266942620277405,-1.929864268390702e-09,-0.01871146634221077,0.013849659822881222,-0.0031664844136685133,-0.048010073602199554
0.03260025754570961,-2.5891592689286647e-11,-0.018628092482686043,0.01346524152904749,-0.003267735941335559,-0.04833415150642395
0.031915076076984406,-3.473687537700748e-13,-0.01871068961918354,0.014239232987165451,-0.0031753128860145807,-0.04994755983352661
0.03224189579486847,-4.660395181067421e-15,-0.019040705636143684,0.01362310815602541,-0.003122997237369418,-0.04995802044868469
0.03331919014453888,-6.252515313478487e-17,-0.01943151466548443,0.01396546233445406,-0.0029767572414129972,-0.04956335201859474
0.032552193850278854,-8.388546125379886e-19,-0.019539527595043182,0.013773344457149506,-0.0031161089427769184,-0.04964933916926384
0.03215206414461136,-1.509908676456584e-22,-0.019440513104200363,0.013754557818174362,-0.0034714308567345142,-0.04937714710831642
0.03291574865579605,-2.025735245609214e-24,-0.01917596533894539,0.014057912863790989,-0.0037719765678048134,-0.04959165304899216
0.03336544707417488,-2.7177823580722655e-26,-0.01887933537364006,0.01415277924388647,-0.003420331049710512,-0.050273314118385315
0.032836634665727615,-3.6462519412540653e-28,-0.01906527951359749,0.0142747201025486,-0.00309708621352911,-0.050010908395051956
0.032871488481760025,-4.891912463941342e-30,-0.018777351826429367,0.014040553011000156,-0.003286336548626423,-0.04918814077973366
0.03281994163990021,-6.563124678508219e-32,-0.019244808703660965,0.014389383606612682,-0.0032727187499403954,-0.051623426377773285
0.03287225961685181,-8.805269105219778e-34,-0.019653839990496635,0.014291580766439438,-0.0035009505227208138,-0.05155234411358833
0.03287225961685181,-8.805269105219778e-34,-0.019653839990496635,0.014291580766439438,-0.0035009505227208138,-0.05155234411358833
0.03363784775137901,-1.1813392496738554e-35,-0.019024141132831573,0.014963014051318169,-0.0037109008990228176,-0.051406968384981155
0.033001240342855453,-1.5849174404418038e-37,-0.019283225759863853,0.014533741399645805,-0.0038416124880313873,-0.05074619874358177
0.033149685710668564,-2.1263695261234785e-39,-0.019953614100813866,0.01428635511547327,-0.0038686098996549845,-0.05213695764541626
0.032891564071178436,-2.8527634136724626e-41,-0.019550317898392677,0.014004861004650593,-0.003372489707544446,-0.05330941081047058
0.03331505507230759,-0.00010279834532411769,-0.019493697211146355,0.014851308427751064,-0.0030690974090248346,-0.05089512839913368
0.03223781660199165,-0.0002797938941512257,-0.02026357688009739,0.014749000780284405,-0.003008685540407896,-0.05186651274561882
0.03383353352546692,-0.00035336328437551856,-0.01956848055124283,0.014803613536059856,-0.003182273590937257,-0.05253198742866516
0.03423089534044266,-0.0003422190493438393,-0.018773237243294716,0.014450415968894958,-0.0034209254663437605,-0.054187312722206116
0.03335830569267273,-0.00032676412956789136,-0.019671380519866943,0.014935134910047054,-0.0033013278152793646,-0.052066076546907425
0.033294498920440674,-0.00031257764203473926,-0.020575672388076782,0.014243829064071178,-0.0033938665874302387,-0.052868254482746124
0.03320792317390442,-0.0002995713148266077,-0.01978565752506256,0.015034746378660202,-0.003712872974574566,-0.053111203014850616
0.03490101918578148,-0.00028760518762283027,-0.020096302032470703,0.014843940734863281,-0.003913664724677801,-0.05353239178657532
0.03519536182284355,-0.00046365862363018095,-0.02001454494893551,0.015057520940899849,-0.003913323860615492,-0.05360432714223862
0.033092059195041656,-0.0005028964369557798,-0.019676117226481438,0.014525170437991619,-0.003517755074426532,-0.05290084332227707
0.03314696624875069,-0.0005402525421231985,-0.020163092762231827,0.015004612505435944,-0.003364250296726823,-0.05335191264748573
0.03426138311624527,-0.0004942566738463938,-0.020379161462187767,0.014541699551045895,-0.003608240047469735,-0.05406273156404495
0.03414546698331833,-0.00045284072984941304,-0.019985033199191093,0.014916745945811272,-0.0037277943920344114,-0.05286172777414322
0.03469892218708992,-0.0004790357197634876,-0.01992705464363098,0.014688928611576557,-0.003672022605314851,-0.05431383103132248
0.03516498953104019,-0.00045230230898596346,-0.02024984359741211,0.015063882805407047,-0.0033015490043908358,-0.0547725073993206
0.033940427005290985,-0.0004520028305705637,-0.0198103878647089,0.015292268246412277,-0.004185245838016272,-0.05431027337908745
0.034673888236284256,-0.0004785636265296489,-0.02012178674340248,0.014966156333684921,-0.0042528267949819565,-0.05594733729958534
0.03548967093229294,-0.00043948061647824943,-0.020146068185567856,0.015063842758536339,-0.003955089021474123,-0.053789421916007996
0.03522998467087746,-0.00047936924966052175,-0.019701354205608368,0.015142149291932583,-0.003708957927301526,-0.05411901697516441
0.03479218855500221,-0.0004412540001794696,-0.020157186314463615,0.015405682846903801,-0.0032556818332523108,-0.05476662516593933
0.03493202477693558,-0.00045231918920762837,-0.019991299137473106,0.01608091965317726,-0.003113586688414216,-0.056402742862701416
0.03493202477693558,-0.00045231918920762837,-0.019991299137473106,0.01608091965317726,-0.003113586688414216,-0.056402742862701416
0.035341035574674606,-0.0004421623016241938,-0.020044930279254913,0.01589183509349823,-0.0033004414290189743,-0.05311651900410652
0.03514751419425011,-0.0004700434219557792,-0.020179880782961845,0.015994008630514145,-0.0036472370848059654,-0.05504125729203224
0.03612484410405159,-0.0006232501473277807,-0.01973028853535652,0.01583854667842388,-0.004117557313293219,-0.05626639723777771
0.03612484410405159,-0.0006232501473277807,-0.01973028853535652,0.01583854667842388,-0.004117557313293219,-0.05626639723777771
0.035694461315870285,-0.0005692553240805864,-0.019883807748556137,0.015329056419432163,-0.004006495699286461,-0.05565986409783363
0.0367286242544651,-0.000599660153966397,-0.020585838705301285,0.016153134405612946,-0.003779845079407096,-0.05618578940629959
0.036344364285469055,-0.0006236291374079883,-0.020115457475185394,0.015506401658058167,-0.0034518088214099407,-0.056286685168743134
0.036600369960069656,-0.0005812399322167039,-0.01913849264383316,0.016061410307884216,-0.0035349461250007153,-0.056411262601614
0.036560021340847015,-0.0007011612760834396,-0.019717849791049957,0.01617347076535225,-0.003324265591800213,-0.05634726956486702
0.036633703857660294,-0.0007255195523612201,-0.020549988374114037,0.015879761427640915,-0.003533208044245839,-0.05645821988582611
0.03667965531349182,-0.000713259621988982,-0.02004161663353443,0.015652593225240707,-0.003716456238180399,-0.056687481701374054
0.037307608872652054,-0.0007327678613364697,-0.019847474992275238,0.01534991804510355,-0.0038774535059928894,-0.05527208000421524
0.03743758425116539,-0.0007000992191024125,-0.02013968862593174,0.01579229347407818,-0.004375499673187733,-0.0572187677025795
0.03767777979373932,-0.0008766654063947499,-0.01996794529259205,0.015828808769583702,-0.004272717051208019,-0.057670168578624725
0.03727123141288757,-0.0008923659333959222,-0.019858021289110184,0.01591741293668747,-0.0036895719822496176,-0.0590953454375267
0.0378970168530941,-0.0008934532525017858,-0.02025487646460533,0.01550481840968132,-0.003101201029494405,-0.056108806282281876
0.03800574690103531,-0.00106694211717695,-0.020199835300445557,0.015522940084338188,-0.0033132885582745075,-0.05603861063718796
0.03813886269927025,-0.0010493042645975947,-0.01999516226351261,0.015085512772202492,-0.00422318559139967,-0.058149319142103195
0.039482392370700836,-0.0010369254741817713,-0.02001151442527771,0.015374627895653248,-0.0042207068763673306,-0.05965718254446983
0.03995142877101898,-0.001039669499732554,-0.02072213403880596,0.01609794609248638,-0.003924613352864981,-0.05668078735470772
0.03683355450630188,-0.001222491730004549,-0.020380955189466476,0.01610666513442993,-0.0034149501007050276,-0.05802396684885025
0.039302222430706024,-0.0014156027464196086,-0.020405136048793793,0.01641705632209778,-0.004148030187934637,-0.058133941143751144
0.03947863727807999,-0.0014699853491038084,-0.020826205611228943,0.016619691625237465,-0.004225944168865681,-0.058083657175302505
0.04089867323637009,-0.0014007504796609282,-0.020446302369236946,0.016268694773316383,-0.003945980686694384,-0.05936836823821068
0.03970904275774956,-0.0014705121284350753,-0.020644808188080788,0.016835175454616547,-0.003293059766292572,-0.059248555451631546
0.038456302136182785,-0.0014139798004180193,-0.020395316183567047,0.01693311706185341,-0.003127952106297016,-0.059167928993701935
0.04025455191731453,-0.0015418088296428323,-0.02136990800499916,0.017091315239667892,-0.0034462655894458294,-0.05857308581471443
0.040515072643756866,-0.0016905925003811717,-0.021017901599407196,0.017141714692115784,-0.003760657738894224,-0.058785438537597656
0.040613338351249695,-0.001591282314620912,-0.021703464910387993,0.017010947689414024,-0.004079130012542009,-0.05906292051076889
0.03993336483836174,-0.0016675841761752963,-0.021350592374801636,0.017458487302064896,-0.003996722865849733,-0.05842341110110283
0.03993336483836174,-0.0016675841761752963,-0.021350592374801636,0.017458487302064896,-0.003996722865849733,-0.05842341110110283
0.0402328185737133,-0.0014451892348006368,-0.020992841571569443,0.016796551644802094,-0.003517395118251443,-0.058399513363838196
0.0402328185737133,-0.0014451892348006368,-0.020992841571569443,0.016796551644802094,-0.003517395118251443,-0.058399513363838196
0.040624383836984634,-0.0015172198181971908,-0.021075628697872162,0.01700890250504017,-0.0034548582043498755,-0.05811092630028725
0.04110457003116608,-0.001682377653196454,-0.020941149443387985,0.016490744426846504,-0.0037026649806648493,-0.059090521186590195
0.040850233286619186,-0.002000729087740183,-0.020758841186761856,0.016934789717197418,-0.0038936594501137733,-0.061400216072797775
0.04111897200345993,-0.002551037585362792,-0.020670492202043533,0.01667078584432602,-0.003947503864765167,-0.05896453186869621
0.04091104120016098,-0.002420171396806836,-0.02104148082435131,0.016967501491308212,-0.003973763901740313,-0.05911742150783539
0.039197247475385666,-0.0024980457965284586,-0.02035074681043625,0.017156891524791718,-0.003970804158598185,-0.06090882420539856
0.041703157126903534,-0.002319327089935541,-0.021256817504763603,0.017218025401234627,-0.00389315327629447,-0.06157677248120308
0.04300452396273613,-0.0023013080935925245,-0.02125885710120201,0.017630429938435555,-0.003993113059550524,-0.0617779865860939
0.0408426895737648,-0.0026879666838794947,-0.020903244614601135,0.016706103459000587,-0.003959441091865301,-0.06130319461226463
0.04035419225692749,-0.0026157675310969353,-0.019887441769242287,0.016750512644648552,-0.0037677877116948366,-0.06137489154934883
0.04214979708194733,-0.0025298288092017174,-0.02051704004406929,0.016688864678144455,-0.0034696294460445642,-0.061672747135162354
0.041670847684144974,-0.0026519461534917355,-0.021077198907732964,0.01670362427830696,-0.0036410880275070667,-0.061639249324798584
0.04255910590291023,-0.002480036811903119,-0.021512137725949287,0.01723678782582283,-0.003851447021588683,-0.0618039071559906
0.04234549030661583,-0.002569745760411024,-0.021217169240117073,0.016890279948711395,-0.0038734059780836105,-0.06253457814455032
0.04131712764501572,-0.0027559297159314156,-0.02129635214805603,0.017265742644667625,-0.004000742919743061,-0.062476012855768204
0.04159829020500183,-0.0031247527804225683,-0.021523814648389816,0.0176869984716177,-0.003946186508983374,-0.061726395040750504
0.04190284386277199,-0.0030847962480038404,-0.02072921209037304,0.017350073903799057,-0.003849845612421632,-0.06352166086435318
