davideferrari95/blind_handover_controller/data/Test 193 - [2024-02-08 -- 11-30-10]/joint_states_data.csv
shoulder_pan_joint,shoulder_lift_joint,elbow_joint,wrist_1_joint,wrist_2_joint,wrist_3_joint
0.003308200277388096,-0.001629007514566183,-0.013161244802176952,0.01475629024207592,-0.0,0.0036563114263117313
0.003574890084564686,-0.0015931008383631706,-0.013537217862904072,0.014047825708985329,-0.0,0.0034460658207535744
0.003280528588220477,-0.001692744204774499,-0.013282331638038158,0.01505285408347845,-0.0,0.0031813711393624544
0.0035546948201954365,-0.0025876096915453672,-0.013522027991712093,0.014765342697501183,-0.0,0.0029477819334715605
0.00314601743593812,-0.002059562597423792,-0.013462679460644722,0.013819385319948196,-0.0,0.0033689141273498535
0.0033785547129809856,-0.0018209926784038544,-0.012830158695578575,0.014643468894064426,-0.0,0.0034650855232030153
0.0031937556341290474,-0.0015456394758075476,-0.013605988584458828,0.0139622762799263,-0.0,0.0036137390416115522
0.003193821059539914,-0.0015522229950875044,-0.012873244471848011,0.014536562375724316,-0.0,0.003360806731507182
0.0033218564931303263,-0.0016826307401061058,-0.0133958850055933,0.014157972298562527,-0.0,0.0035216999240219593
0.0033218564931303263,-0.0016826307401061058,-0.0133958850055933,0.014157972298562527,-0.0,0.0035216999240219593
0.003066720673814416,-0.001788815949112177,-0.01316947489976883,0.014674820937216282,-0.0,0.003715201746672392
0.003275468247011304,-0.001979990629479289,-0.013019070960581303,0.015207378193736076,-0.0,0.0035086090210825205
0.003275468247011304,-0.001979990629479289,-0.013019070960581303,0.015207378193736076,-0.0,0.0035086090210825205
0.003293904708698392,-0.0018385284347459674,-0.012859463691711426,0.014355676248669624,-0.0,0.003513052361086011
0.0033824308775365353,-0.0018244689563289285,-0.01340505387634039,0.01448515523225069,-0.0,0.0033384349662810564
0.0031611123122274876,-0.00161072111222893,-0.013101261109113693,0.014339551329612732,-0.0,0.0033019680995494127
0.002952253445982933,-0.001673035672865808,-0.013213545083999634,0.0148432282730937,-0.0,0.0034522225614637136
0.0030325117986649275,-0.0017589728813618422,-0.01265405211597681,0.014408946968615055,-0.0,0.0035533462651073933
0.0032416258472949266,-0.0017857628408819437,-0.013536417856812477,0.014703786000609398,-0.0,0.0033694724552333355
0.003509175032377243,-0.0016993721947073936,-0.012911641970276833,0.014021719805896282,-0.0,0.0030951988883316517
0.003317722585052252,-0.0018784112762659788,-0.01330635417252779,0.014480238780379295,-0.0,0.0034246051218360662
0.003082025097683072,-0.0017374786548316479,-0.013204026967287064,0.014110123738646507,-0.0,0.003888547420501709
0.0027951058000326157,-0.0019516372121870518,-0.013024400919675827,0.01451130211353302,-0.0,0.00356152281165123
0.003084070049226284,-0.00177493947558105,-0.013033241033554077,0.014054706320166588,-0.0,0.0035240538418293
0.003469879273325205,-0.0018034904496744275,-0.012916949577629566,0.014634588733315468,-0.0,0.00317746470682323
0.003333745524287224,-0.00180692074354738,-0.013117535039782524,0.014028164558112621,-0.0,0.0033577922731637955
0.00308193638920784,-0.0017650120425969362,-0.012806447222828865,0.014093108475208282,-0.0,0.003536921925842762
0.002899634651839733,-0.001772805699147284,-0.013611951842904091,0.013914610259234905,-0.0,0.0034414001274853945
0.0030182264745235443,-0.001888953265734017,-0.012633332051336765,0.014708200469613075,-0.0,0.00319191487506032
0.003218577243387699,-0.0017093594651669264,-0.01304087694734335,0.014477766118943691,-0.0,0.00305906031280756
0.003218577243387699,-0.0017093594651669264,-0.01304087694734335,0.014477766118943691,-0.0,0.00305906031280756
0.003598967334255576,-0.001713999779894948,-0.012458252720534801,0.014854648150503635,-0.0,0.003407508134841919
0.003352450206875801,-0.0017257045255973935,-0.013300376012921333,0.01415078155696392,-0.0,0.003361438401043415
0.0031389640644192696,-0.001660809270106256,-0.012695947661995888,0.014711618423461914,-0.0,0.0033672305289655924
0.0031030981335788965,-0.0017711977707222104,-0.012832160107791424,0.014050332829356194,-0.0,0.003371161874383688
0.0031750646885484457,-0.0019336846889927983,-0.012900413013994694,0.013718229718506336,-0.0,0.003203683067113161
0.0030670384876430035,-0.0017645563930273056,-0.013182945549488068,0.014312859624624252,-0.0,0.0034739894326776266
0.0032483586110174656,-0.0017321092309430242,-0.01232655718922615,0.014203712344169617,-0.0,0.0032886159606277943
0.003162244101986289,-0.0016964346868917346,-0.012918420135974884,0.014853322878479958,-0.0,0.0034820290748029947
0.003019253723323345,-0.0017349503468722105,-0.012560216709971428,0.014223135076463223,-0.0,0.0031578298658132553
0.0030626740772277117,-0.0015972807304933667,-0.013176525011658669,0.014228605665266514,-0.0,0.0031947947572916746
0.0031842845492064953,-0.0016898722387850285,-0.012910241261124611,0.012832656502723694,-0.0,0.0033837801311165094
0.0032258068677037954,-0.0017312067793682218,-0.013362632133066654,0.014176863245666027,-0.0,0.0036517868284136057
0.003355596913024783,-0.0016113040037453175,-0.013258124701678753,0.014546132646501064,-0.0,0.003392260055989027
0.003169052768498659,-0.0015401790151372552,-0.012949306517839432,0.015071993693709373,-0.0,0.0032821539789438248
0.002968179527670145,-0.0014441456878557801,-0.01316939014941454,0.014319101348519325,-0.0,0.0032957419753074646
0.0029985131695866585,-0.0013951293658465147,-0.01257767528295517,0.014253659173846245,-0.0,0.003231920301914215
0.0032304024789482355,-0.0015775562496855855,-0.013536273501813412,0.013508829288184643,-0.0,0.003255379619076848
0.003567175706848502,-0.0014889718731865287,-0.013055895455181599,0.01438205037266016,-0.0,0.0034798348788172007
0.003320548217743635,-0.0016376265557482839,-0.013247162103652954,0.013728460296988487,-0.0,0.003627446014434099
0.003534317249432206,-0.001520358375273645,-0.01273184921592474,0.013989895582199097,-0.0,0.003614364890381694
0.0034519992768764496,-0.001413163379766047,-0.013271955773234367,0.013635513372719288,-0.0,0.0035074518527835608
0.0034531964920461178,-0.001223385683260858,-0.01297653280198574,0.013948914594948292,-0.0,0.0035176158417016268
0.0036372076719999313,-0.0012788408203050494,-0.01304539106786251,0.013978859409689903,-0.0,0.003647297853603959
0.0037384345196187496,-0.0012632411671802402,-0.014861081726849079,0.014204414561390877,-0.0,0.0033563219476491213
0.0038032070733606815,-0.0014157098485156894,-0.012493858113884926,0.013726968318223953,-0.0,0.0030928903724998236
0.003353317966684699,-0.0014582000439986587,-0.012491726316511631,0.01401436422020197,-0.0,0.0029911838937550783
0.003353317966684699,-0.0014582000439986587,-0.012491726316511631,0.01401436422020197,-0.0,0.0029911838937550783
0.003283169586211443,-0.0015489314682781696,-0.012531793676316738,0.013727385550737381,-0.0,0.003063501324504614
0.0037137349136173725,-0.0015373647911474109,-0.013592714443802834,0.013530327938497066,-0.0,0.00349075673148036
0.0037137349136173725,-0.0015373647911474109,-0.013592714443802834,0.013530327938497066,-0.0,0.00349075673148036
0.0034290975891053677,-0.001595779205672443,-0.013565937988460064,0.01370068546384573,-0.0,0.0032833553850650787
0.0035262161400169134,-0.001491843955591321,-0.013266852125525475,0.013312051072716713,-0.0,0.0033053227234631777
0.003200600389391184,-0.0015639971243217587,-0.012877816334366798,0.013421018607914448,-0.0,0.003319666488096118
0.002979204524308443,-0.001447585062123835,-0.012765036895871162,0.013038678094744682,-0.0,0.0029964304994791746
0.0031077908352017403,-0.0014904550043866038,-0.013324628584086895,0.013435859233140945,-0.0,0.002978229196742177
0.0033689881674945354,-0.0015093287220224738,-0.012420651502907276,0.012974601238965988,-0.0,0.0032056812196969986
0.0034177834168076515,-0.0014963342109695077,-0.012945784255862236,0.013781136833131313,-0.0,0.003397743683308363
0.0031240310054272413,-0.0016376118874177337,-0.012435764074325562,0.013378064148128033,-0.0,0.0035697417333722115
0.0034464860800653696,-0.0015023278538137674,-0.012971026822924614,0.013448755256831646,-0.0,0.003738469909876585
0.0038236796390265226,-0.001588810351677239,-0.012546216137707233,0.013055938296020031,-0.0,0.0037957080639898777
0.0034405658952891827,-0.0015872514341026545,-0.013126911595463753,0.013385209254920483,-0.0,0.0034021837636828423
0.0031700741965323687,-0.0015359509270638227,-0.013240190222859383,0.01367461122572422,-0.0,0.0031056604348123074
0.003164091845974326,-0.0015487776836380363,-0.01222995761781931,0.013600252568721771,-0.0,0.0028594054747372866
0.0033815400674939156,-0.001460184110328555,-0.012721807695925236,0.013581108301877975,-0.0,0.002806135220453143
0.003409814089536667,-0.0013044184306636453,-0.011987649835646152,0.013257375918328762,-0.0,0.002951720030978322
0.0035219944547861814,-0.0013563638785853982,-0.01257250364869833,0.013685014098882675,-0.0,0.0032560008112341166
0.0037339222617447376,-0.0013258644612506032,-0.012330939061939716,0.013445377349853516,-0.0,0.0030099591240286827
0.0034668557345867157,-0.0015282935928553343,-0.012642806395888329,0.013679889030754566,-0.0,0.0030582197941839695
0.003495418466627598,-0.0015437181573361158,-0.012391000986099243,0.013217272236943245,-0.0,0.0034435840789228678
0.004187470767647028,-0.0014822948724031448,-0.012177899479866028,0.0133818993344903,-0.0,0.0033656866289675236
0.00410276185721159,-0.001555790426209569,-0.012419856153428555,0.012932278215885162,-0.0,0.003586068982258439
0.00410276185721159,-0.001555790426209569,-0.012419856153428555,0.012932278215885162,-0.0,0.003586068982258439
0.003577207215130329,-0.0013427336234599352,-0.012489951215684414,0.013076331466436386,-0.0,0.003430023556575179
0.0033669506665319204,-0.0013914683368057013,-0.012052756734192371,0.013323599472641945,-0.0,0.003478574100881815
0.0035812105052173138,-0.0013397937873378396,-0.011992298997938633,0.01342735905200243,-0.0,0.0033034624066203833
0.0037498297169804573,-0.0012881900183856487,-0.011866295710206032,0.013520545326173306,-0.0,0.0032397755421698093
0.003774049924686551,-0.0013983665267005563,-0.011474606581032276,0.013683526776731014,-0.0,0.003169315867125988
0.0038552607875317335,-0.0013228808529675007,-0.012372043915092945,0.01356598176062107,-0.0,0.003470692317932844
0.0038066664710640907,-0.0014502512058243155,-0.01163728628307581,0.01349976658821106,-0.0,0.0033428333699703217
0.0033047173637896776,-0.001331219682469964,-0.011764174327254295,0.013358828611671925,-0.0,0.0035310080274939537
0.003424237249419093,-0.0012527742655947804,-0.012128588743507862,0.01366383209824562,-0.0,0.003280999604612589
0.003636853536590934,-0.001140470732934773,-0.011879459023475647,0.013216102495789528,-0.0,0.0030880894046276808
0.003722841152921319,-0.0012206557439640164,-0.012182463891804218,0.013465399853885174,-0.0,0.0030918109696358442
0.0037116019520908594,-0.0012076543644070625,-0.01178415771573782,0.012858021073043346,-0.0,0.0033985357731580734
0.004034835379570723,-0.0015274445759132504,-0.012267284095287323,0.013187811709940434,-0.0,0.0036475842352956533
0.004076001234352589,-0.0014633359387516975,-0.011763473972678185,0.012890655547380447,-0.0,0.0034397467970848083
0.003531083697453141,-0.0013572641182690859,-0.011430444195866585,0.013330169022083282,-0.0,0.003463844768702984
0.003561823396012187,-0.001216514385305345,-0.011653926223516464,0.013102426193654537,-0.0,0.003244316205382347
0.003840962890535593,-0.001151861622929573,-0.011648213490843773,0.013059882447123528,-0.0,0.004023541230708361
0.004247510805726051,-0.0011072068009525537,-0.011941823177039623,0.012839755043387413,-0.0,0.004127254243940115
0.0036805118434131145,-0.0010895115556195378,-0.011452216655015945,0.012810159474611282,-0.0,0.003591416869312525
0.003516873810440302,-0.001141626969911158,-0.011288143694400787,0.013098067604005337,-0.0,0.0034958345349878073
0.0035779487807303667,-0.001216040225699544,-0.011738378554582596,0.012655213475227356,-0.0,0.0032761935144662857
0.004270248115062714,-0.001339065725915134,-0.010868282988667488,0.012999093160033226,-0.0,0.003411451820284128
0.004445130005478859,-0.0014923389535397291,-0.011323315091431141,0.011376619338989258,-0.0,0.003674429142847657
0.0042613716796040535,-0.001377407112158835,-0.010945199988782406,0.012939576990902424,-0.0,0.0038687256164848804
0.0035837204195559025,-0.0012342262780293822,-0.010664970614016056,0.01310227531939745,-0.0,0.003646468510851264
0.004105271305888891,-0.0011296962620690465,-0.011290619149804115,0.012210166081786156,-0.0,0.003398451954126358
0.004105271305888891,-0.0011296962620690465,-0.011290619149804115,0.012210166081786156,-0.0,0.003398451954126358
0.004033596720546484,-0.0010739569552242756,-0.010931096039712429,0.012659488245844841,-0.0,0.003306593047454953
0.004033596720546484,-0.0010739569552242756,-0.010931096039712429,0.012659488245844841,-0.0,0.003306593047454953
0.003943825140595436,-0.0011663093464449048,-0.010738594457507133,0.012468156404793262,-0.0,0.0033779956866055727
0.0038814006838947535,-0.0011583426967263222,-0.011358032003045082,0.012725391425192356,-0.0,0.0035738195292651653
0.004300584085285664,-0.0011962876887992024,-0.011348089203238487,0.012060172855854034,-0.0,0.0037597541231662035
0.004219577647745609,-0.0011512880446389318,-0.011699579656124115,0.012327000498771667,-0.0,0.0035028273705393076
0.0040454803965985775,-0.0009982449701055884,-0.012522817589342594,0.012357549741864204,-0.0,0.0035628380719572306
0.0039696055464446545,-0.0009812470525503159,-0.011784949339926243,0.012307443656027317,-0.0,0.0036475297529250383
0.004039538558572531,-0.0009666957193985581,-0.012301997281610966,0.01259367261081934,-0.0,0.0033212557900696993
0.004067062865942717,-0.0008710066322237253,-0.012169801630079746,0.012216385453939438,-0.0,0.0032896585762500763
0.003997574560344219,-0.0008231736137531698,-0.012231636792421341,0.012752060778439045,-0.0,0.003356281202286482
0.004117120988667011,-0.0008332990691997111,-0.012605195865035057,0.012319307774305344,-0.0,0.0034328140318393707
0.00412083650007844,-0.0008666329667903483,-0.01214441005140543,0.012498470954596996,-0.0,0.0036320060025900602
0.004299737047404051,-0.0009826448513194919,-0.012305078096687794,0.01200286578387022,-0.0,0.0034102993085980415
0.004009590949863195,-0.0010532389860600233,-0.011934342794120312,0.01197128277271986,-0.0,0.0035241080913692713
0.0042384774424135685,-0.0010334061225876212,-0.013059415854513645,0.012696096673607826,-0.0,0.003739548148587346
0.004221410024911165,-0.0010145102860406041,-0.012672489508986473,0.012086705304682255,-0.0,0.0038515564519912004
0.004552498459815979,-0.001024197437800467,-0.012847228907048702,0.012837717309594154,-0.0,0.003570758970454335
0.004141529556363821,-0.0010057358304038644,-0.012430649250745773,0.011941869743168354,-0.0,0.003384500974789262
0.004201317206025124,-0.0009889822686091065,-0.012081610038876534,0.011913008987903595,-0.0,0.0030272849835455418
0.004559762310236692,-0.000976775074377656,-0.012388629838824272,0.012188396416604519,-2.7979592687188415e-06,0.003180759958922863
0.004252140410244465,-0.0009343160782009363,-0.012090899981558323,0.011332185938954353,-1.826867475074323e-07,0.0033488089684396982
0.004520959220826626,-0.00093060452491045,-0.012914788909256458,0.011731413193047047,-1.1928137588768095e-08,0.0031687067821621895
0.004678279627114534,-0.0010116915218532085,-0.012016288936138153,0.011979425325989723,-7.788221734195133e-10,0.0030300654470920563
0.004692280199378729,-0.0011258196318522096,-0.012866907753050327,0.012188191525638103,-3.3202414342209385e-12,0.0032339105382561684
0.004732136148959398,-0.0010874586878344417,-0.012347551062703133,0.012151538394391537,-2.1678802687458837e-13,0.0034671456087380648
0.004732136148959398,-0.0010874586878344417,-0.012347551062703133,0.012151538394391537,-2.1678802687458837e-13,0.0034671456087380648
0.004613564349710941,-0.0010488666594028473,-0.012525959871709347,0.012592735700309277,-1.4154709136293252e-14,0.0034241110552102327
0.004466380923986435,-0.0008556352113373578,-0.012308680452406406,0.01257588155567646,-6.034374551058453e-17,0.0032734207343310118
0.004466380923986435,-0.0008556352113373578,-0.012308680452406406,0.01257588155567646,-6.034374551058453e-17,0.0032734207343310118
0.0051049902103841305,-0.0008614916005171835,-0.012195542454719543,0.011920426040887833,-3.940015113184006e-18,0.0033003322314471006
0.004522179719060659,-0.0008666939684189856,-0.012576660141348839,0.01203694473952055,-2.5725485071461086e-19,0.0033449477050453424
0.004439543467015028,-0.0008706660591997206,-0.012728407047688961,0.012341145426034927,-1.679690400191224e-20,0.003570711240172386
0.004327670205384493,-0.0008869447046890855,-0.01186290942132473,0.012045388109982014,-1.0967176978811802e-21,0.0037042805925011635
0.004455943126231432,-0.000842422537971288,-0.012064090929925442,0.012026006355881691,-7.160783892947866e-23,0.0033793530892580748
0.004588902462273836,-0.0007673085201531649,-0.012389334850013256,0.011464113369584084,-4.675479583201332e-24,0.0033358691725879908
0.0046445284970104694,-0.0007826335495337844,-0.01226805616170168,0.011498725041747093,-3.052753899065935e-25,0.0034533492289483547
0.004741089418530464,-0.0007621758268214762,-0.011732649989426136,0.011704619973897934,-1.9932299485126945e-26,0.003162841312587261
0.004602802451699972,-0.0007171365432441235,-0.011463847942650318,0.011627900414168835,-1.3014366636014777e-27,0.0032219081185758114
0.005084717180579901,-0.0006735085044056177,-0.012027536518871784,0.012212802655994892,-8.497451479969932e-29,0.003982324618846178
0.00497804768383503,-0.0007018587202765048,-0.011601617559790611,0.01193669531494379,-5.5482283877455556e-30,0.004026416689157486
0.004586415830999613,-0.0007164579583331943,-0.011933237314224243,0.012082417495548725,-3.6225966427652364e-31,0.0038144744466990232
0.005076419096440077,-0.0007141801761463284,-0.011304287239909172,0.011793441139161587,-2.365296818882784e-32,0.0036024502478539944
0.005476041231304407,-0.000678489392157644,-0.011899938806891441,0.01180163025856018,-1.5443698045690985e-33,0.003399275941774249
0.005010566674172878,-0.0007997991633601487,-0.01166112907230854,0.012562119401991367,-1.0083630461587295e-34,0.003423272864893079
0.004994785413146019,-0.0008159989956766367,-0.01122598722577095,0.011433170177042484,-6.583889762108677e-36,0.0036334828473627567
0.004822019953280687,-0.0008269877289421856,-0.011817548424005508,0.012010634876787663,-4.29880971001438e-37,0.0037797281984239817
0.004699481185525656,-0.0007323829922825098,-0.011828591115772724,0.012369373813271523,0.00012604081712197512,0.0037121872883290052
0.005196040030568838,-0.0007484115776605904,-0.011402597650885582,0.011888560838997364,0.00015928290667943656,0.0034756374079734087
0.005551004316657782,-0.0007272185175679624,-0.011773350648581982,0.011448709294199944,0.00015621661441400647,0.0033753414172679186
0.005071665160357952,-0.0006502959877252579,-0.011211678385734558,0.01112488191574812,0.0001793167321011424,0.0031881059985607862
0.0054740095511078835,-0.000668080523610115,-0.011821094900369644,0.011446008458733559,0.00017534222570247948,0.003419463522732258
0.005150459706783295,-0.0006054003024473786,-0.011372935958206654,0.010854722000658512,0.00016994430916383862,0.0037095469888299704
0.005466426257044077,-0.0005768805858679116,-0.012120546773076057,0.011035262607038021,0.00018641489441506565,0.0034773729275912046
0.005322725046426058,-0.0006009276839904487,-0.01126718521118164,0.011088864877820015,0.0001811631373129785,0.0034852733369916677
0.005248861853033304,-0.000557288178242743,-0.011784343048930168,0.011296064592897892,0.00019957382755819708,0.003611744148656726
0.005248861853033304,-0.000557288178242743,-0.011784343048930168,0.011296064592897892,0.00019957382755819708,0.003611744148656726
0.00545398099347949,-0.0005395431653596461,-0.011380919255316257,0.011355452239513397,0.00030983518809080124,0.0037182385567575693
0.0050542945973575115,-0.00049297243822366,-0.011145729571580887,0.01120999176055193,0.00038949193549342453,0.0037525708321481943
0.005296874791383743,-0.0005022825207561255,-0.011543774046003819,0.011785384267568588,0.0003648822312243283,0.003754724282771349
0.005183195695281029,-0.00048494257498532534,-0.011730502359569073,0.011635730043053627,0.00040073649142868817,0.003730236552655697
0.005369084887206554,-0.000510564015712589,-0.011562902480363846,0.011586982756853104,0.00037688110023736954,0.0035572524648159742
0.005681333132088184,-0.00047982705291360617,-0.011075281538069248,0.010957235470414162,0.0004033092118334025,0.003483865177258849
0.005141838453710079,-0.0005070168990641832,-0.011095148511230946,0.01168143842369318,0.0003855692339129746,0.0036309915594756603
0.005283444654196501,-0.00047593601630069315,-0.011801674962043762,0.012057480402290821,0.0003890622465405613,0.003757320810109377
0.005261484999209642,-0.0005422070971690118,-0.01116892509162426,0.011164200492203236,0.0003913081018254161,0.003988629672676325
0.005649323109537363,-0.00048789227730594575,-0.011659654788672924,0.01043976191431284,0.00037426871131174266,0.00396469933912158
0.005604344420135021,-0.0005244961357675493,-0.011251697316765785,0.010880162939429283,0.0004418663156684488,0.003868512576445937
0.005482150707393885,-0.00048110506031662226,-0.010841581039130688,0.01086410228163004,0.0004790540842805058,0.0037921566981822252
0.005896908231079578,-0.0004417778109200299,-0.01198723167181015,0.011053618974983692,0.000449206680059433,0.0036070162896066904
0.005251030903309584,-0.0004754297260660678,-0.011397813446819782,0.010448179207742214,0.0004661128332372755,0.003535680938512087
0.005700552370399237,-0.0004429050604812801,-0.011489984579384327,0.010230752639472485,0.0004487248952500522,0.003861970268189907
0.005721502937376499,-0.0004658533725887537,-0.01175654772669077,0.010526369325816631,0.0004639702965505421,0.004026344045996666
0.006045686546713114,-0.0004436849267221987,-0.011286634020507336,0.010440454818308353,0.0004488630802370608,0.0038988052401691675
0.005672401748597622,-0.0004180102259851992,-0.011544895358383656,0.010712366551160812,0.0004255562962498516,0.0038457324262708426
0.005596596281975508,-0.00039507256587967277,-0.011259586550295353,0.011055847629904747,0.0004958547069691122,0.0038124597631394863
0.005415176507085562,-0.0003807226021308452,-0.011336425319314003,0.01061342004686594,0.0005199297447688878,0.0041388850659132
0.006027307827025652,-0.0003515845746733248,-0.011683374643325806,0.010930008254945278,0.0005331339780241251,0.004143629223108292
0.0057556829415261745,-0.0003903860051650554,-0.011094910092651844,0.011325630359351635,0.000526030664332211,0.003998302388936281
0.0057270401157438755,-0.00036486765020526946,-0.01164818275719881,0.010477492585778236,0.000547876232303679,0.003492238000035286
0.005490077659487724,-0.00037904208875261247,-0.011003839783370495,0.0108606843277812,0.0006267169956117868,0.0035437368787825108
0.005683778319507837,-0.0003747432492673397,-0.010597349144518375,0.010518928989768028,0.0006429768400266767,0.004196128807961941
0.005712626036256552,-0.0003351079358253628,-0.010863852687180042,0.010335330851376057,0.0006923331529833376,0.003883039578795433
0.005712626036256552,-0.0003351079358253628,-0.010863852687180042,0.010335330851376057,0.0006923331529833376,0.003883039578795433
0.0055665806867182255,-0.00035823500365950167,-0.01122367475181818,0.01054769940674305,0.0006784378201700747,0.0037262598052620888
0.005704888142645359,-0.0003460794978309423,-0.010986125096678734,0.010069185867905617,0.0006567051168531179,0.0037257277872413397
0.00559279415756464,-0.00033027317840605974,-0.010526503436267376,0.010528318583965302,0.0006962257903069258,0.0038563476409763098
0.005808296613395214,-0.00037723255809396505,-0.011299156583845615,0.01031109131872654,0.0007250707130879164,0.00394502654671669
0.006286655552685261,-0.00035571205080486834,-0.010821465402841568,0.010575721971690655,0.0006658020429313183,0.004008980002254248
0.0057321107015013695,-0.0002866670547518879,-0.01104765385389328,0.01068046037107706,0.0006795073277316988,0.004003475420176983
0.005933457054197788,-0.00024609448155388236,-0.01139596663415432,0.009992474690079689,0.0006667795823886991,0.00443567568436265
0.005432950798422098,-0.00023008094285614789,-0.010718654841184616,0.01051507331430912,0.0006464036414399743,0.004151503089815378
0.0058712707832455635,-0.00021625372755806893,-0.011212026700377464,0.010336601175367832,0.0005976857501082122,0.004348254296928644
0.005892602726817131,-0.00020399809000082314,-0.01168181374669075,0.009813147597014904,0.0006065710913389921,0.004121665842831135
0.006072334013879299,-0.00019305679597891867,-0.011278689838945866,0.0100307771936059,0.0006323017296381295,0.003991231322288513
0.005918671377003193,-0.00018323026597499847,-0.01116986945271492,0.010369501076638699,0.0005775158060714602,0.004109736531972885
0.005647238343954086,-0.00017435449990443885,-0.010828482918441296,0.009632783010601997,0.0006031973171047866,0.004088297486305237
0.005837000906467438,-0.00016630036407150328,-0.011291063390672207,0.009979580529034138,0.0006134729483164847,0.003924502059817314
0.005899932235479355,-0.0001589567109476775,-0.01145818643271923,0.010103896260261536,0.0005821689264848828,0.003831971436738968
0.006121146958321333,-0.0001522345410194248,-0.010934779420495033,0.009698628447949886,0.0006383301806636155,0.004213355481624603
0.005797642283141613,-0.00014605779142584652,-0.011307801119983196,0.009940031915903091,0.0006728362641297281,0.004071787465363741
0.005696265958249569,-0.0001403630740242079,-0.01157725602388382,0.010439639911055565,0.000660004501696676,0.003957679495215416
0.00572197325527668,-0.00013509549899026752,-0.011277442798018456,0.010093485936522484,0.0006378831458278,0.003891558386385441
0.006394634954631329,-0.0001302091550314799,-0.011304359883069992,0.010093211196362972,0.0006590167176909745,0.0038982180412858725
0.006787068676203489,-0.00012566578516270965,-0.011640897020697594,0.0097579350695014,0.0006999836768954992,0.003922666423022747
0.005895839538425207,-0.00012142520427005365,-0.011441288515925407,0.009435763582587242,0.0007490548305213451,0.004279392771422863
0.005718959495425224,-0.00011747767712222412,-0.011195781640708447,0.010657098144292831,0.0007134123588912189,0.004402917809784412
0.005910335574299097,-0.00011375329631846398,-0.011280453763902187,0.010270609520375729,0.0007244226289913058,0.0045096962712705135
0.006372577045112848,-0.00011028153676306829,-0.011728551238775253,0.009086607955396175,0.0007299200515262783,0.00426121661439538
0.006539694033563137,-0.00010700365965021774,-0.011025004088878632,0.009603356011211872,0.0006826844764873385,0.004027242306619883
0.00643519964069128,-7.829514652257785e-05,-0.011686673387885094,0.010487799532711506,0.0007160587701946497,0.0038559867534786463
0.005744077265262604,-7.575454219477251e-05,-0.011843296699225903,0.009303340688347816,0.0007243604050017893,0.004032626748085022
0.006696758791804314,-7.172516052378342e-05,-0.01188508328050375,0.009398356080055237,0.0006846021860837936,0.004434625618159771
0.006527366582304239,-6.986919470364228e-05,-0.010995056480169296,0.009157096035778522,0.0007055398891679943,0.004421358462423086
0.006151578389108181,-6.810689228586853e-05,-0.011516135185956955,0.009239846840500832,0.0008547771722078323,0.004264859948307276
0.006151578389108181,-6.810689228586853e-05,-0.011516135185956955,0.009239846840500832,0.0008547771722078323,0.004264859948307276
0.006409375462681055,-6.64310427964665e-05,-0.011576452292501926,0.00972709245979786,0.0008799086208455265,0.0041105072014033794
0.006726832129061222,-6.483585457317531e-05,-0.012023217976093292,0.008706431835889816,0.0008271702681668103,0.004194839391857386
0.006714658346027136,-6.331549229798838e-05,-0.011582539416849613,0.007846388965845108,0.0008319136686623096,0.004308654926717281
0.006561058107763529,-6.186480459291488e-05,-0.011245808564126492,0.008707515895366669,0.000887128699105233,0.004541404545307159
0.006323269102722406,-6.047906572348438e-05,-0.011520272120833397,0.008545397780835629,0.000917934172321111,0.004636032041162252
0.006591713521629572,-5.915400470257737e-05,-0.011455485597252846,0.008215733803808689,0.0009171413257718086,0.004146983847022057
0.006643330678343773,3.7895722925895825e-05,-0.01139835175126791,0.008332357741892338,0.0009150105179287493,0.004264427814632654
0.006661524996161461,4.908542541670613e-05,-0.011888318695127964,0.008711325004696846,0.0012799542164430022,0.004166116006672382
0.006667916662991047,4.794214328285307e-05,-0.011254558339715004,0.008680184371769428,0.0013042540522292256,0.0044466727413237095
0.006776872090995312,4.6700450184289366e-05,-0.011623268947005272,0.008802774362266064,0.0012698140926659107,0.004566010553389788
0.007303543388843536,4.5519576815422624e-05,-0.011228063143789768,0.009349982254207134,0.0016048066318035126,0.004666187800467014
0.006960793398320675,4.4396841985872015e-05,-0.010859564878046513,0.0084824925288558,0.001508702291175723,0.004741704557090998
0.007307474035769701,6.41224833088927e-05,-0.011979606002569199,0.008035246282815933,0.001437200466170907,0.004669854883104563
0.006728360429406166,6.345293513732031e-05,-0.011996661312878132,0.008627640083432198,0.001326749799773097,0.004505609627813101
0.00690827053040266,6.200703501235694e-05,-0.011665199883282185,0.008528866805136204,0.001351374783553183,0.0043955594301223755
0.007167721167206764,6.0615097027039155e-05,-0.0118043702095747,0.007955493405461311,0.0013402538606896996,0.004449381958693266
0.006848952732980251,5.9284189774189144e-05,-0.011396382004022598,0.008248518221080303,0.0013373780529946089,0.004595694597810507
0.006739174015820026,5.801048973808065e-05,-0.012253607623279095,0.008779425173997879,0.0013536536134779453,0.004620465915650129
0.007269009482115507,5.679030800820328e-05,-0.011693032458424568,0.008542249910533428,0.0013171115424484015,0.004490025341510773
0.00800236128270626,6.781789124943316e-05,-0.011467387899756432,0.008078324608504772,0.0013070354470983148,0.004519963636994362
0.00721891550347209,7.257871038746089e-05,-0.011741462163627148,0.008509253151714802,0.0013282779837027192,0.004665256943553686
0.007265229243785143,7.122507668100297e-05,-0.011097095906734467,0.008400540798902512,0.0013016689335927367,0.0044861347414553165
0.007048882078379393,6.98443764122203e-05,-0.012304854579269886,0.007795196957886219,0.0013000888284295797,0.004525895696133375
0.0074383169412612915,6.85151171637699e-05,-0.011870473623275757,0.008035552687942982,0.0012390486663207412,0.0046130456030368805
0.007394932676106691,6.723542173858732e-05,-0.011578739620745182,0.008377804420888424,0.0011877910001203418,0.004747782833874226
0.007630048785358667,8.057462400756776e-05,-0.011386695317924023,0.008702903054654598,0.00126760418061167,0.004758408758789301
0.007630048785358667,8.057462400756776e-05,-0.011386695317924023,0.008702903054654598,0.00126760418061167,0.004758408758789301
0.007209281902760267,7.95849846326746e-05,-0.011670001782476902,0.008708106353878975,0.0011753753060474992,0.004364483058452606
0.008194257505238056,7.821419421816245e-05,-0.012032657861709595,0.00902500282973051,0.0010938093764707446,0.004231675993651152
0.007944253273308277,0.00018930046644527465,-0.011946156620979309,0.008049404248595238,0.0010739160934463143,0.004313705954700708
0.006870842073112726,0.00018313359760213643,-0.011352398432791233,0.007677975110709667,0.0010451494017615914,0.004310544580221176
0.007177561055868864,0.00017599135753698647,-0.01106608472764492,0.00818342249840498,0.000990695902146399,0.004411236848682165
0.007482327986508608,0.00019924185471609235,-0.011655864305794239,0.007959865964949131,0.0009238581405952573,0.004493267275393009
0.008113016374409199,0.00019581532978918403,-0.011382509022951126,0.007546374574303627,0.0008634732803329825,0.004663920495659113
0.0070536197163164616,0.00018901258590631187,-0.011760950088500977,0.00810531061142683,0.0008654044358991086,0.004671807866543531
0.008058052510023117,0.00021263520466163754,-0.011537096463143826,0.008546155877411366,0.0008698364836163819,0.004657279700040817
0.007713153958320618,0.00020608257909771055,-0.010909569449722767,0.007819709368050098,0.000873417709954083,0.0046968767419457436
0.007342587690800428,0.000226916978135705,-0.011771528981626034,0.007336065173149109,0.0010007040109485388,0.004678697790950537
0.007952968589961529,0.0002210507373092696,-0.010548053309321404,0.007418730296194553,0.0010415727738291025,0.004290516953915358
0.007887092418968678,0.00034329548361711204,-0.011497944593429565,0.007741488050669432,0.0010419833706691861,0.004126630257815123
0.007564853876829147,0.00037784842425026,-0.012168255634605885,0.007572586182504892,0.0012979941675439477,0.004225271288305521
0.00741959223523736,0.00041081150993704796,-0.011331452056765556,0.007025862578302622,0.001302999909967184,0.004496491979807615
0.008124603889882565,0.00038892196607775986,-0.011762196198105812,0.007372538559138775,0.0012581570772454143,0.004633428528904915
0.008171672001481056,0.00036288663977757096,-0.01129516027867794,0.007989778183400631,0.001209650537930429,0.004679311998188496
0.008210509084165096,0.00038992444751784205,-0.011441788636147976,0.007623355370014906,0.0011420270893722773,0.004719069693237543
0.007745462004095316,0.00037311026244424284,-0.011871829628944397,0.007308569736778736,0.0009800454135984182,0.00490095978602767
0.007806321606040001,0.0004005873925052583,-0.01123451441526413,0.0077050854451954365,0.0009594723233021796,0.004534086212515831
0.00818562787026167,0.00038188547478057444,-0.011296138167381287,0.007584200240671635,0.0009426475153304636,0.004494495689868927
0.008050406351685524,0.0004840374458581209,-0.011005482636392117,0.0071404618211090565,0.0008507964084856212,0.004457487259060144
0.007921883836388588,0.0005227884976193309,-0.012014131993055344,0.007142850663512945,0.0009244163520634174,0.004818590823560953
0.007905709557235241,0.0004796915454789996,-0.011812984012067318,0.007807751651853323,0.0009255550685338676,0.004859277047216892
0.008171012625098228,0.0005051473272033036,-0.011173160746693611,0.007610068656504154,0.001053397892974317,0.004764174576848745
0.008462592959403992,0.00047512093442492187,-0.011214938946068287,0.0068895346485078335,0.0011691979598253965,0.004501178860664368
0.00796613097190857,0.0005041113472543657,-0.011154531501233578,0.0071080997586250305,0.001129702664911747,0.004831658210605383
0.00796613097190857,0.0005041113472543657,-0.011154531501233578,0.0071080997586250305,0.001129702664911747,0.004831658210605383
0.008136644028127193,0.000566636212170124,-0.01184318121522665,0.0078152846544981,0.0010107164271175861,0.004908765200525522
0.008024313487112522,0.0006045556510798633,-0.011631329543888569,0.0072737932205200195,0.0009960202733054757,0.004933747462928295
0.008358264341950417,0.000624616164714098,-0.011689946986734867,0.007005148567259312,0.000980909913778305,0.004843190312385559
0.008219691924750805,0.0006310346070677042,-0.011543625965714455,0.007493738550692797,0.0009382988209836185,0.004798015113919973
0.008091883733868599,0.0006041122833266854,-0.010577719658613205,0.0074121360667049885,0.0008904848364181817,0.004776854068040848
0.007682871073484421,0.000717473856639117,-0.011932789348065853,0.006906808819621801,0.0009480335866101086,0.004918890539556742
0.008845408447086811,0.0007594427443109453,-0.011361991055309772,0.006744419690221548,0.000944117724429816,0.004963013343513012
0.008067182265222073,0.000768135825637728,-0.01097162440419197,0.007336994167417288,0.0009382894495502114,0.005724444054067135
0.007641897536814213,0.0007826079381629825,-0.010888299904763699,0.008119153790175915,0.0008899582899175584,0.005420748610049486
0.0085288779810071,0.0007262065191753209,-0.010711953043937683,0.007256539538502693,0.000979676959104836,0.0050453501753509045
0.008451982401311398,0.000943290360737592,-0.011279812082648277,0.006609826814383268,0.0009723876719363034,0.005141785833984613
0.007334212306886911,0.0009393686195835471,-0.011261634528636932,0.006759046111255884,0.0009009052300825715,0.005365853197872639
0.00884790439158678,0.0009342429111711681,-0.010823888704180717,0.007065216079354286,0.0008966036839410663,0.005555214360356331
0.009242836385965347,0.0008460944518446922,-0.011277544312179089,0.006872633937746286,0.0008926551090553403,0.005325377453118563
0.008078284561634064,0.000995294307358563,-0.010800850577652454,0.006825090851634741,0.0008914084173738956,0.004879454616457224
0.007989302277565002,0.0009817448444664478,-0.010946712456643581,0.007101248949766159,0.0008924494031816721,0.0048024957068264484
0.008421342819929123,0.00099935510661453,-0.011738094501197338,0.006983999162912369,0.0008933753706514835,0.005407655145972967
0.0087857311591506,0.0010913636069744825,-0.01098958682268858,0.0070186154916882515,0.0009329336462542415,0.005337650887668133
0.008901529014110565,0.0012376571539789438,-0.011271442286670208,0.006457737181335688,0.001040200819261372,0.005556853022426367
0.008670995011925697,0.001225713174790144,-0.01094359252601862,0.006495402194559574,0.001078908215276897,0.005453913472592831
0.008689112029969692,0.0017209079815074801,-0.011048022657632828,0.0064795310609042645,0.001356540946289897,0.005284759681671858
0.008900617249310017,0.001614160486496985,-0.011640516109764576,0.006462590303272009,0.0013777861604467034,0.00519729545339942
0.008884130977094173,0.001647648517973721,-0.010983585380017757,0.006378747057169676,0.0014787844847887754,0.005022856406867504
0.009281923063099384,0.0015428804326802492,-0.011221184395253658,0.006520193535834551,0.001586597296409309,0.004854016937315464
0.009195864200592041,0.0015481264563277364,-0.010808022692799568,0.006617701146751642,0.0013759088469669223,0.0049142963252961636
0.0088101327419281,0.0015963854966685176,-0.010880392044782639,0.007019705139100552,0.0012850624043494463,0.005140365567058325
0.009197445586323738,0.00179817876778543,-0.012025204487144947,0.006496685557067394,0.0010975402547046542,0.005212567746639252
0.009387655183672905,0.0019163810648024082,-0.011552118696272373,0.006370175164192915,0.0011362741934135556,0.004965289030224085
0.009387655183672905,0.0019163810648024082,-0.011552118696272373,0.006370175164192915,0.0011362741934135556,0.004965289030224085
0.009229803457856178,0.0021557535510510206,-0.010912253521382809,0.0064537678845226765,0.0011015523923560977,0.005431839730590582
0.009389284066855907,0.0018687082920223475,-0.010824043303728104,0.006332075223326683,0.0012166362721472979,0.005284406244754791
0.009185297414660454,0.0018643633229658008,-0.012146093882620335,0.006408815272152424,0.001243319595232606,0.004571245517581701
0.009084859862923622,0.002057076198980212,-0.011727040633559227,0.006027169059962034,0.0015634183073416352,0.005193388555198908
0.009921351447701454,0.002039961749687791,-0.011305569671094418,0.0061496407724916935,0.0015000180574133992,0.005538458935916424
0.009565175510942936,0.002456467133015394,-0.011555097065865993,0.006917300634086132,0.0014126594178378582,0.005554898176342249
0.009406285360455513,0.002407527295872569,-0.011229109950363636,0.006548590026795864,0.0013751399237662554,0.005991149693727493
0.009833027608692646,0.0025369864888489246,-0.011737285181879997,0.00582975335419178,0.0012804778525605798,0.005704441107809544
0.009372622705996037,0.002418958581984043,-0.011595872230827808,0.005520995706319809,0.001234703348018229,0.005311503075063229
0.009862496517598629,0.002262154361233115,-0.011238139122724533,0.005171285942196846,0.0012320787645876408,0.005059791263192892
0.00969281978905201,0.002289704279974103,-0.011316775344312191,0.0054374816827476025,0.0012224228121340275,0.0057035875506699085
0.009436901658773422,0.002065888373181224,-0.01094567310065031,0.005818413104861975,0.0011952836066484451,0.005992871709167957
0.009426934644579887,0.002039798302575946,-0.011633044108748436,0.005964288022369146,0.0014087557792663574,0.006154591683298349
0.009606552310287952,0.0020292147528380156,-0.012199513614177704,0.005449315067380667,0.0014982660068199039,0.005619863513857126
0.009684876538813114,0.002306097187101841,-0.011091038584709167,0.0050474293529987335,0.001970571232959628,0.005249033682048321
0.009709512814879417,0.0030436250381171703,-0.011651938781142235,0.005150661803781986,0.001833269838243723,0.005434962920844555
0.009771977551281452,0.0035544305574148893,-0.011506234295666218,0.00545787438750267,0.0017772646388038993,0.005987642798572779
0.009800591506063938,0.0037309981416910887,-0.012095795013010502,0.005588423926383257,0.0016640920657664537,0.005914848763495684
0.009522711858153343,0.003372016130015254,-0.012315616011619568,0.005217377562075853,0.0015213590813800693,0.005739585030823946
0.010198088362812996,0.003103065537288785,-0.011626819148659706,0.00520452531054616,0.0013612222392112017,0.005247751250863075
0.010081225074827671,0.0028194666374474764,-0.011853007599711418,0.0055271717719733715,0.0013097801711410284,0.005584222264587879
0.00983451772481203,0.0030484460294246674,-0.011076889000833035,0.00560346944257617,0.0012879704590886831,0.005492022726684809
0.010659019462764263,0.003402068978175521,-0.011792310513556004,0.005713228136301041,0.001408425043337047,0.0057112472131848335
0.009888418018817902,0.0037283767014741898,-0.01210604328662157,0.005412187892943621,0.0014654978876933455,0.0058684940449893475
0.009667887352406979,0.003879161784425378,-0.011761740781366825,0.004992499016225338,0.001713140169158578,0.005896762944757938
0.010096400044858456,0.0034703996498137712,-0.01213820930570364,0.004972787573933601,0.0016932400176301599,0.0054313428699970245
0.009685512632131577,0.004005128983408213,-0.011330489069223404,0.0055792625062167645,0.0015838624676689506,0.005565539468079805
0.009685512632131577,0.004005128983408213,-0.011330489069223404,0.0055792625062167645,0.0015838624676689506,0.005565539468079805
0.00985771045088768,0.004013038240373135,-0.011889484710991383,0.005192405078560114,0.0015183630166575313,0.005937536247074604
0.00985771045088768,0.004013038240373135,-0.011889484710991383,0.005192405078560114,0.0015183630166575313,0.005937536247074604
0.009631374850869179,0.004185849335044622,-0.012019948102533817,0.004858172964304686,0.0014528688043355942,0.005773968528956175
0.010184046812355518,0.004337182268500328,-0.011060735210776329,0.004818177316337824,0.0015009635826572776,0.005581294186413288
0.01019334327429533,0.004391930066049099,-0.01163849513977766,0.005219214130192995,0.0016557399649173021,0.005753711331635714
0.009453244507312775,0.004274260718375444,-0.011186092160642147,0.005501316394656897,0.0015610725386068225,0.00562436506152153
0.009914832189679146,0.00451264064759016,-0.011048373766243458,0.005102957133203745,0.0018231903668493032,0.005958185996860266
0.010213684290647507,0.004340134095400572,-0.011637696996331215,0.005092619452625513,0.0016992336604744196,0.00558381387963891
0.00978485681116581,0.004127619322389364,-0.011031306348741055,0.004927689675241709,0.0016634587664157152,0.005618510767817497
0.009790139272809029,0.00399920716881752,-0.010885512456297874,0.004825466778129339,0.0016910622362047434,0.005941037088632584
0.009945857338607311,0.004391765687614679,-0.010747362859547138,0.004868482239544392,0.0015808899188414216,0.005521133542060852
0.00969955325126648,0.004693010821938515,-0.010741611942648888,0.004786156117916107,0.001609383849427104,0.005968725308775902
0.009752467274665833,0.004821750335395336,-0.011449707671999931,0.004547807388007641,0.0015682005323469639,0.005568642634898424
0.009887360967695713,0.0052523016929626465,-0.011198869906365871,0.004233899060636759,0.001838874421082437,0.005975328851491213
0.009785163216292858,0.004966244101524353,-0.010797946713864803,0.004361181054264307,0.0017649433575570583,0.0059624952264130116
0.009833487682044506,0.005062997806817293,-0.011324053630232811,0.004589070565998554,0.001999265979975462,0.0056862132623791695
0.009848494082689285,0.00554440775886178,-0.011072428897023201,0.004666273947805166,0.001853431691415608,0.0058090039528906345
0.010515672154724598,0.005319715943187475,-0.011973376385867596,0.004627878312021494,0.0017742016352713108,0.006080136634409428
0.010191064327955246,0.0055372752249240875,-0.01198621280491352,0.004308427218347788,0.0017084666760638356,0.006360713858157396
0.009730696678161621,0.0056764124892652035,-0.010514015331864357,0.003910502418875694,0.0015527544310316443,0.006258256267756224
0.011379700154066086,0.005448050796985626,-0.011840293183922768,0.0037166127003729343,0.0015532425604760647,0.006366428919136524
0.012292349711060524,0.005581829231232405,-0.01158973015844822,0.004113899078220129,0.001486486755311489,0.0066070472821593285
0.011691617779433727,0.005506135523319244,-0.01165638118982315,0.003703310387209058,0.0016157880891114473,0.0063237389549613
0.011651956476271152,0.005700289737433195,-0.011242073029279709,0.0034730995539575815,0.0016230494948104024,0.006497220601886511
0.011689997278153896,0.0061433762311935425,-0.011070060543715954,0.0035517995711416006,0.0015287772985175252,0.00667866924777627
0.012264487333595753,0.005537006538361311,-0.011547410860657692,0.004195842891931534,0.0015709111467003822,0.0068551916629076
0.01148074958473444,0.006046541966497898,-0.01141378190368414,0.003999577835202217,0.001502076629549265,0.005937996320426464
0.01186038926243782,0.005525852087885141,-0.011555477045476437,0.00388448778539896,0.0016071974532678723,0.005709256045520306
0.01214752346277237,0.006052928511053324,-0.011489762924611568,0.003558688797056675,0.0016682334244251251,0.006318212952464819
0.01214752346277237,0.006052928511053324,-0.011489762924611568,0.003558688797056675,0.0016682334244251251,0.006318212952464819
0.011953040026128292,0.006132262293249369,-0.010297387838363647,0.0034248344600200653,0.0018873497610911727,0.006534936372190714
0.011856477707624435,0.006209850776940584,-0.010793854482471943,0.003545226529240608,0.0019754532258957624,0.006401185877621174
0.011905751191079617,0.0059889573603868484,-0.01025274209678173,0.0034328363835811615,0.001951742684468627,0.006197880953550339
0.011926420964300632,0.006441168487071991,-0.010922287590801716,0.003549175802618265,0.0018366407603025436,0.006162102799862623
0.011819904670119286,0.006756107322871685,-0.010548519901931286,0.0036906327586621046,0.001834278111346066,0.006567910313606262
0.012534967623651028,0.006575198378413916,-0.010129041969776154,0.003741544671356678,0.0018962231697514653,0.007017647847533226
0.011754557490348816,0.006367535796016455,-0.010579576715826988,0.003375236876308918,0.0019097611075267196,0.00630347291007638
0.012063762173056602,0.006394580006599426,-0.010369662195444107,0.0030891825444996357,0.0017331873532384634,0.006065964698791504
0.012353547848761082,0.0066450489684939384,-0.010742095299065113,0.0028473727870732546,0.0015799343818798661,0.006405409425497055
0.012030578218400478,0.006550457328557968,-0.011130762286484241,0.0029527100268751383,0.001538656186312437,0.007191523909568787
0.01231592521071434,0.006352296099066734,-0.009982858784496784,0.0029199477285146713,0.001371024758554995,0.00644755968824029
0.012036500498652458,0.006384324282407761,-0.009676814079284668,0.003227641573175788,0.0012751379981637,0.005901712458580732
0.012290045619010925,0.0069194575771689415,-0.01013070996850729,0.0031857085414230824,0.001340877846814692,0.006014477461576462
0.012401546351611614,0.006848557386547327,-0.010609088465571404,0.0031345835886895657,0.0014873625477775931,0.006296979263424873
0.012452174909412861,0.006560004781931639,-0.011453134939074516,0.0030620635952800512,0.001469735405407846,0.006789340637624264
0.012883463874459267,0.00709477998316288,-0.011250006034970284,0.002873204182833433,0.001746556255966425,0.006500305607914925
0.012275457382202148,0.00762464152649045,-0.010059774853289127,0.002677489072084427,0.0019042867934331298,0.006344181951135397
0.012815942987799644,0.0070916651748120785,-0.010387375019490719,0.0026574996300041676,0.0021986684296280146,0.006062055937945843
0.012270542792975903,0.006694550160318613,-0.010305140167474747,0.002935984870418906,0.0021880739368498325,0.006528696045279503
0.012935647740960121,0.006696613505482674,-0.009999839588999748,0.002966750878840685,0.0020820465870201588,0.0070002079010009766
0.012217503041028976,0.006929541006684303,-0.010711065493524075,0.0027080108411610126,0.0019660803955048323,0.006534842774271965
0.012319887056946754,0.0073988838121294975,-0.010873297229409218,0.0025403848849236965,0.0018174583092331886,0.006466562394052744
0.012566681019961834,0.006925027351826429,-0.009895296767354012,0.0027105265762656927,0.0018578623421490192,0.006640730891376734
0.012712474912405014,0.0071286424063146114,-0.010246453806757927,0.0027069495990872383,0.0021381357219070196,0.006850049830973148
0.012744525447487831,0.007536514662206173,-0.010436381213366985,0.002622588537633419,0.0019826581701636314,0.006769469939172268
0.01259563583880663,0.007925585843622684,-0.010396771132946014,0.0026480036322027445,0.002011070493608713,0.006896008271723986
0.0129679124802351,0.007162787020206451,-0.010817182250320911,0.002381232101470232,0.0018525681225582957,0.00691284891217947
0.01265512965619564,0.004655740689486265,-0.011135783977806568,0.0020084448624402285,0.0017058722442016006,0.006933595985174179
0.012947783805429935,0.0035420425701886415,-0.011214427649974823,0.0025584083050489426,0.001549073844216764,0.006709836423397064
0.012947783805429935,0.0035420425701886415,-0.011214427649974823,0.0025584083050489426,0.001549073844216764,0.006709836423397064
0.012970794923603535,0.0034976848401129246,-0.010235081426799297,0.002669466892257333,0.0016174911288544536,0.006553109269589186
0.013071673922240734,0.004416133277118206,-0.010835135355591774,0.0028130365535616875,0.0015233815647661686,0.00648730481043458
0.01248437725007534,0.00561041384935379,-0.010839308612048626,0.0024794579949229956,0.0017647533677518368,0.0072807688266038895
0.01323113776743412,0.0050042602233588696,-0.010000510141253471,0.002365172142162919,0.001941545750014484,0.006750443018972874
0.01293154526501894,0.004462198354303837,-0.01085220742970705,0.0021465218160301447,0.002266505965963006,0.00663661677390337
0.01346219889819622,0.004922979511320591,-0.010531570762395859,0.002050718991085887,0.0025832043029367924,0.006684714462608099
0.013018626719713211,0.004947609733790159,-0.010637902654707432,0.0020070625469088554,0.0023632445372641087,0.007149948738515377
0.01339417602866888,0.004935297649353743,-0.012059404514729977,0.0019162441603839397,0.002311097923666239,0.006991492584347725
0.013320817612111568,0.004894640296697617,-0.010239270515739918,0.0015801150584593415,0.0021078705321997404,0.006509947124868631
0.013495017774403095,0.004702054895460606,-0.011024042963981628,0.0012095891870558262,0.001947220996953547,0.006602715700864792
0.01349085383117199,0.004640102386474609,-0.011049754917621613,0.0010433194693177938,0.0018315205816179514,0.006730251479893923
0.013381559401750565,0.0047523509711027145,-0.010823308490216732,0.0009373219800181687,0.0018537071300670505,0.007160682696849108
0.013211858458817005,0.005092563107609749,-0.011524737812578678,0.0008660966414026916,0.001973475329577923,0.006842310540378094
0.01335825864225626,0.0049736713990569115,-0.011283069849014282,0.0008106078021228313,0.002060255268588662,0.006606181152164936
0.01367386244237423,0.004852420184761286,-0.011538002640008926,0.0008167911437340081,0.0022060100454837084,0.0065291328355669975
0.013505480252206326,0.0051032258197665215,-0.011557979509234428,0.0006908189970999956,0.0021367701701819897,0.006207585334777832
0.013629352673888206,0.005021634045988321,-0.010848430916666985,0.0006182489451020956,0.00205243076197803,0.00713000725954771
0.013564921915531158,0.004892557859420776,-0.01207803376019001,0.0006679279613308609,0.002065944019705057,0.007015039213001728
0.013882634229958057,0.005203167907893658,-0.011357374489307404,0.0006699782097712159,0.0022912961430847645,0.006796245463192463
0.013564501889050007,0.005171278491616249,-0.011009586974978447,0.000655579671729356,0.002315195044502616,0.007127435877919197
0.014091762714087963,0.0058448584750294685,-0.010987122543156147,0.000983437872491777,0.0024801217950880527,0.006606395356357098
0.01366253662854433,0.005339181516319513,-0.010719633661210537,0.0008821834926493466,0.0023907406721264124,0.006482990458607674
0.014115099795162678,0.004993871785700321,-0.011087766848504543,0.0008786707185208797,0.0023074429482221603,0.006863721646368504
0.01435029786080122,0.005573222413659096,-0.010748440399765968,0.0007957419147714972,0.002083072206005454,0.007282163016498089
0.01389376912266016,0.006001850124448538,-0.011535272002220154,0.0007532370509579778,0.0020964471623301506,0.0068518430925905704
0.01389376912266016,0.006001850124448538,-0.011535272002220154,0.0007532370509579778,0.0020964471623301506,0.0068518430925905704
0.014352813363075256,0.005570623558014631,-0.011324242688715458,0.0007703168666921556,0.0022075395099818707,0.006822654511779547
0.014081849716603756,0.005694994702935219,-0.01024817954748869,0.0007638311362825334,0.00219603069126606,0.006914607249200344
0.014609173871576786,0.005705701652914286,-0.010926296934485435,0.0007040998316369951,0.0021278117783367634,0.007268696557730436
0.014186969958245754,0.0058186850510537624,-0.010599137283861637,0.0007127667777240276,0.0021491926163434982,0.007113445084542036
0.01434310618788004,0.0063941869884729385,-0.010501056909561157,0.0007290341309271753,0.002228765282779932,0.0070606316439807415
0.014230507425963879,0.006295568309724331,-0.010762378573417664,0.0007474285084754229,0.0020934368949383497,0.006954890210181475
0.01474186684936285,0.00633303401991725,-0.010431881994009018,0.0006833819788880646,0.002421221463009715,0.00730918999761343
0.014208121225237846,0.00641491636633873,-0.010655518621206284,0.0006953676929697394,0.0025281752459704876,0.007562948856502771
0.014592373743653297,0.005936093162745237,-0.01098103541880846,0.0006369054899550974,0.002433093497529626,0.0070681325159966946
0.014445003122091293,0.006413883529603481,-0.010466649197041988,0.0005790748982690275,0.0022869580425322056,0.007215303368866444
0.014946980401873589,0.006542426533997059,-0.011054079048335552,0.0005303251673467457,0.0021980006713420153,0.007566438056528568
0.014013899490237236,0.006575694307684898,-0.010754724964499474,0.0005494071519933641,0.002281493740156293,0.007452269550412893
0.014757153578102589,0.006566199939697981,-0.010614492930471897,0.0005180662265047431,0.002204890362918377,0.007398820016533136
0.014638114720582962,0.0066292001865804195,-0.011467979289591312,0.00048377548228017986,0.002113386057317257,0.00752631388604641
0.01489932555705309,0.006980494596064091,-0.01066206581890583,0.0004533312749117613,0.0021294383332133293,0.00765196280553937
0.014771634712815285,0.006714827846735716,-0.010909181088209152,0.00042647175723686814,0.002167905680835247,0.0073895943351089954
0.015499528497457504,0.007257301826030016,-0.011171282269060612,0.0004026122624054551,0.002609298098832369,0.007904431782662868
0.014916780404746532,0.006745784543454647,-0.010571356862783432,0.0003812845970969647,0.0024337428621947765,0.007169918157160282
0.015359468758106232,0.007244148291647434,-0.011200064793229103,0.00036210176767781377,0.0023530598264187574,0.007384995464235544
0.015203937888145447,0.007154758553951979,-0.010685821995139122,0.00034475838765501976,0.002093720017001033,0.007436120416969061
0.014923191629350185,0.0067254165187478065,-0.010906062088906765,0.00032900055521167815,0.0020338152535259724,0.007439798675477505
0.014212626963853836,0.006725099869072437,-0.010915336199104786,0.00031462119659408927,0.0024661340285092592,0.007594803813844919
0.015529909171164036,0.00757637107744813,-0.010800966992974281,0.0002893304917961359,0.0029540681280195713,0.007808647118508816
0.015053187496960163,0.0070274691097438335,-0.010990510694682598,0.0002781505754683167,0.002756245667114854,0.007779973093420267
0.015053187496960163,0.0070274691097438335,-0.010990510694682598,0.0002781505754683167,0.002756245667114854,0.007779973093420267
0.015254034660756588,0.007257476449012756,-0.010642179287970066,0.00026780308689922094,0.002592839766293764,0.007728212978690863
0.01495812926441431,0.006843877490609884,-0.01129908487200737,0.00025819838629104197,0.0023250156082212925,0.007807474117726088
0.015494094230234623,0.007226414047181606,-0.010915856808423996,0.00024925859179347754,0.002349254908040166,0.007784594316035509
0.01527923159301281,0.007162855938076973,-0.010708680376410484,0.00024091727391351014,0.0023810691200196743,0.00809034239500761
0.015201344154775143,0.007148361299186945,-0.010954746045172215,0.0002331166760995984,0.0022744187153875828,0.0071441419422626495
0.015164727345108986,0.007341147866100073,-0.010245490819215775,0.00022580474615097046,0.0024276231415569782,0.007370520383119583
0.015697786584496498,0.007328702602535486,-0.010986151173710823,0.00021893766825087368,0.002543297130614519,0.007873822003602982
0.015357953496277332,0.0071648950688540936,-0.010984587483108044,0.00021247647237032652,0.0025742200668901205,0.007892061956226826
0.015655461698770523,0.006802402436733246,-0.010404510423541069,0.0002063853171421215,0.0027186262886971235,0.007519362028688192
0.014994621276855469,0.0072044250555336475,-0.010820149444043636,0.0002006339782383293,0.00283646397292614,0.00774001469835639
0.015494037419557571,0.007897598668932915,-0.010611675679683685,0.00019519447232596576,0.0028471508994698524,0.0076052481308579445
0.014990700408816338,0.006959335412830114,-0.010922467336058617,0.0001900419156299904,0.0027028541080653667,0.007315434981137514
0.015508580021560192,0.006656447425484657,-0.011181331239640713,0.00018515484407544136,0.0025895987637341022,0.007336574140936136
0.015752654522657394,0.00790899246931076,-0.010823599062860012,0.00018051244842354208,0.002406948944553733,0.007664026692509651
0.015574225224554539,0.007975740358233452,-0.011192617937922478,0.0001760974118951708,0.0024832410272210836,0.0076330676674842834
0.015541848726570606,0.007045993581414223,-0.011099721305072308,0.00017189318896271288,0.002634056145325303,0.007969839498400688
0.015362453646957874,0.007172921672463417,-0.010032394900918007,0.00016788470384199172,0.002477276371791959,0.007774148136377335
0.015774184837937355,0.008062404580414295,-0.0103434594348073,0.00016405950009357184,0.002544075483456254,0.008089223876595497
0.015432003885507584,0.007763498928397894,-0.010631299577653408,0.00016040439368225634,0.0026254102122038603,0.007826478220522404
0.015811055898666382,0.007556837517768145,-0.010306959971785545,0.00015690848522353917,0.002779956441372633,0.008059295825660229
0.015470759943127632,0.0076956977136433125,-0.010848225094377995,0.00015356196672655642,0.002684251870959997,0.008231570944190025
0.015470759943127632,0.0076956977136433125,-0.010848225094377995,0.00015356196672655642,0.002684251870959997,0.008231570944190025
0.01620078831911087,0.007715483661741018,-0.010242651216685772,0.0001340268354397267,0.002897061640396714,0.008225014433264732
0.016008825972676277,0.007888587191700935,-0.010592876933515072,0.00012903072638437152,0.002778706606477499,0.008222880773246288
0.016415614634752274,0.007737479638308287,-0.01075323112308979,0.00012380542466416955,0.002785960678011179,0.00825178250670433
0.016367804259061813,0.007736338768154383,-0.010968584567308426,0.00012141855404479429,0.0028231919277459383,0.008279341273009777
0.01658604107797146,0.008105702698230743,-0.01094762608408928,7.933226152090356e-05,0.0026742639020085335,0.00820876844227314
0.01663270592689514,0.008232329972088337,-0.010067666880786419,3.995156293967739e-05,0.0025652116164565086,0.008419969119131565
0.016449563205242157,0.00783747062087059,-0.010905006900429726,3.667622513603419e-05,0.0025260047987103462,0.00851545762270689
0.016593385487794876,0.008192578330636024,-0.01035735197365284,2.698589196370449e-05,0.0022389134392142296,0.008182274177670479
0.016885630786418915,0.007843656465411186,-0.01026502437889576,1.813287781260442e-05,0.0022825798951089382,0.008096558973193169
0.01681024208664894,0.00757563253864646,-0.010708627291023731,8.776775757723954e-06,0.0024830945767462254,0.007970895618200302
0.016436230391263962,0.00909338891506195,-0.010371746495366096,5.73060788155999e-07,0.0022922202479094267,0.008682133629918098
0.016882438212633133,0.008207284845411777,-0.010551409795880318,3.741677545576749e-08,0.002358723198994994,0.00836190301924944
0.01639140024781227,0.007888640277087688,-0.011057133786380291,2.4430479861337062e-09,0.002338051563128829,0.008126983419060707
0.017255211248993874,0.007958631962537766,-0.010404163971543312,1.5951356902021985e-10,0.002308811293914914,0.008614381775259972
0.016838151961565018,0.008038138039410114,-0.010764485225081444,1.0415096736438034e-11,0.002610844559967518,0.008503114804625511
0.016650384292006493,0.008725536055862904,-0.01084015890955925,-0.00031685439171269536,0.0028034548740833998,0.008334759622812271
0.01659262366592884,0.007979693822562695,-0.010374452918767929,-0.0015172002604231238,0.0026803778018802404,0.00850724708288908
0.016692178323864937,0.008013492450118065,-0.010669788345694542,-0.0017949732718989253,0.002510296879336238,0.007825493812561035
0.016963526606559753,0.008938395418226719,-0.010792342945933342,-0.0019268016330897808,0.0024039710406214,0.008799639530479908
0.01718185283243656,0.008670000359416008,-0.010526340454816818,-0.0017990514170378447,0.0022395304404199123,0.009259412996470928
0.01739688403904438,0.008062528446316719,-0.011585946194827557,-0.0016643103444948792,0.0024034427478909492,0.008692320436239243
0.017641810700297356,0.008328301832079887,-0.010506441816687584,-0.0016879639588296413,0.002417733194306493,0.008202454075217247
0.017283784225583076,0.008400322869420052,-0.010751358233392239,-0.0019171591848134995,0.0026562591083347797,0.008311457000672817
0.017657632008194923,0.008082384243607521,-0.011470983736217022,-0.0021899747662246227,0.0027716471813619137,0.008563692681491375
0.017973771318793297,0.00826860312372446,-0.01099406462162733,-0.002656363882124424,0.0027042096480727196,0.008320282213389874
0.01793477311730385,0.00900195725262165,-0.011534479446709156,-0.0032585705630481243,0.0026942843105643988,0.008319515734910965
0.017527086660265923,0.009313960559666157,-0.011270386166870594,-0.003371964208781719,0.0028054409194737673,0.008597408421337605
0.01737431064248085,0.008456327952444553,-0.010540520772337914,-0.0033160336315631866,0.0028323796577751637,0.008708943612873554
0.018059661611914635,0.008689552545547485,-0.010954231023788452,-0.003296359907835722,0.0027576617430895567,0.008675253950059414
0.017607849091291428,0.008233504369854927,-0.011054342612624168,-0.0029898514039814472,0.002585813868790865,0.008562345057725906
0.017607849091291428,0.008233504369854927,-0.011054342612624168,-0.0029898514039814472,0.002585813868790865,0.008562345057725906
0.017998993396759033,0.008971610106527805,-0.010952685959637165,-0.003988884389400482,0.0027284680400043726,0.008559159934520721
0.017998993396759033,0.008971610106527805,-0.010952685959637165,-0.003988884389400482,0.0027284680400043726,0.008559159934520721
0.017681492492556572,0.008254271000623703,-0.0120570482686162,-0.00392174394801259,0.0028383973985910416,0.008781657554209232
0.01837359368801117,0.008179137483239174,-0.011093261651694775,-0.0038310070522129536,0.002613054122775793,0.008461285382509232
0.018173832446336746,0.009104909375309944,-0.011824723333120346,-0.003432838711887598,0.002621905878186226,0.00831101555377245
0.018594127148389816,0.00885783601552248,-0.011360052973031998,-0.0034324838779866695,0.002683002268895507,0.008248861879110336
0.018689695745706558,0.008899673819541931,-0.01078194472938776,-0.0035840540658682585,0.0027474353555589914,0.008952908217906952
0.018115663900971413,0.008792114444077015,-0.011661997064948082,-0.0037432636599987745,0.0029282639734447002,0.008553621359169483
0.018791252747178078,0.008999784477055073,-0.012048914097249508,-0.004192203748971224,0.002780923852697015,0.008465904742479324
0.018084673210978508,0.008945457637310028,-0.011192436330020428,-0.004032590426504612,0.002824770985171199,0.00847166869789362
0.017790429294109344,0.008720917627215385,-0.011945260688662529,-0.003492652205750346,0.0027510719373822212,0.008757890202105045
0.018471410498023033,0.009675377979874611,-0.011467084288597107,-0.0035220254212617874,0.002906880574300885,0.008462515659630299
0.018267454579472542,0.008608308620750904,-0.01178598403930664,-0.004200343508273363,0.0032990758772939444,0.008303764276206493
0.01860431395471096,0.008259199559688568,-0.011561255902051926,-0.0048780059441924095,0.0035756141878664494,0.00902788620442152
0.01810549572110176,0.009260526858270168,-0.011900044046342373,-0.004670041147619486,0.0032373866997659206,0.009042671881616116
0.018003325909376144,0.008611556142568588,-0.0120081203058362,-0.0046232035383582115,0.0032738123554736376,0.008962852880358696
0.01905185729265213,0.008166789077222347,-0.011677734553813934,-0.004519612528383732,0.0032999985851347446,0.008910097181797028
0.019056271761655807,0.00908625591546297,-0.011059042997658253,-0.0045310198329389095,0.003161476459354162,0.00898694060742855
0.01853661797940731,0.008715812116861343,-0.011379692703485489,-0.004522356670349836,0.00322862365283072,0.008815967477858067
0.01888958550989628,0.008402317762374878,-0.011252835392951965,-0.004677684046328068,0.003291664645075798,0.00854950025677681
0.018898285925388336,0.00901079922914505,-0.011625334620475769,-0.004959406331181526,0.003069925820454955,0.009189650416374207
0.018557097762823105,0.008918864652514458,-0.011539867147803307,-0.005149455275386572,0.003011629218235612,0.008919846266508102
0.01868656650185585,0.008742278441786766,-0.01145848073065281,-0.004575544968247414,0.002898365492001176,0.008514282293617725
0.01867387257516384,0.008450079709291458,-0.01118524931371212,-0.004233837593346834,0.002588474890217185,0.008857639506459236
0.018571391701698303,0.008949920535087585,-0.010540326125919819,-0.003977694548666477,0.0026826204266399145,0.00913722813129425
0.01958795264363289,0.00917681585997343,-0.011574450880289078,-0.003940399736166,0.0030494031962007284,0.009193424135446548
0.019342822954058647,0.009025021456182003,-0.011417587287724018,-0.0045799450017511845,0.0032078742515295744,0.009370551444590092
0.019342822954058647,0.009025021456182003,-0.011417587287724018,-0.0045799450017511845,0.0032078742515295744,0.009370551444590092
0.019442128017544746,0.009653707966208458,-0.01176384650170803,-0.004811381455510855,0.003658318892121315,0.008887850679457188
0.018862636759877205,0.009201242588460445,-0.011516360566020012,-0.004636920057237148,0.003323520766571164,0.009497420862317085
0.018867388367652893,0.009110950864851475,-0.011404262855648994,-0.004521499387919903,0.0029225812759250402,0.009116052649915218
0.019289791584014893,0.009322229772806168,-0.011077337898314,-0.004421704448759556,0.002657293574884534,0.00898713804781437
0.01872718147933483,0.008616136386990547,-0.010792747139930725,-0.004349884577095509,0.002710281405597925,0.008869662880897522
0.019117899239063263,0.008805518038570881,-0.011043081060051918,-0.00466611934825778,0.003134453669190407,0.009250887669622898
0.019348269328475,0.009186064824461937,-0.01066658180207014,-0.005573047325015068,0.003604777390137315,0.009426596574485302
0.01915030926465988,0.00978915300220251,-0.011311700567603111,-0.005388288293033838,0.003530169138684869,0.009638814255595207
0.018919412046670914,0.008797607384622097,-0.011362622492015362,-0.005034610629081726,0.003424347611144185,0.009095543995499611
0.019218795001506805,0.009223864413797855,-0.01071108691394329,-0.005042033735662699,0.003388494485989213,0.009647105820477009
0.018920088186860085,0.00895283930003643,-0.011278824880719185,-0.004973599221557379,0.0033306232653558254,0.009279017336666584
0.019239606335759163,0.009205535985529423,-0.011334874667227268,-0.0052077085711061954,0.003131953766569495,0.009638654068112373
0.01928599551320076,0.009180483408272266,-0.011117145419120789,-0.005416880827397108,0.0034600154031068087,0.009518022648990154
0.018796920776367188,0.009073616936802864,-0.011180134490132332,-0.0052045248448848724,0.0033257927279919386,0.009200002066791058
0.01930556446313858,0.00877277459949255,-0.011117750778794289,-0.00527314143255353,0.0033923417795449495,0.010461399331688881
0.01951390691101551,0.008786202408373356,-0.011997603811323643,-0.005213017575442791,0.003217909950762987,0.009633997455239296
0.019051222130656242,0.009098325856029987,-0.011198645457625389,-0.005340473260730505,0.003203263971954584,0.009441347792744637
0.019378473982214928,0.008704017847776413,-0.011159430257976055,-0.005615648813545704,0.0031928331591188908,0.00982124637812376
0.02040497213602066,0.008927956223487854,-0.01123576145619154,-0.005998702719807625,0.003531541908159852,0.008592590689659119
0.019294220954179764,0.009286802262067795,-0.01098713930696249,-0.005436205770820379,0.003385010873898864,0.00966885406523943
0.019272342324256897,0.00927414745092392,-0.011428466998040676,-0.004984037019312382,0.003099895315244794,0.010388572700321674
0.019735189154744148,0.00846859160810709,-0.011133830063045025,-0.00514043727889657,0.002971191192045808,0.009250990115106106
0.019479423761367798,0.008979564532637596,-0.011280430480837822,-0.005305149592459202,0.002955804346129298,0.008982398547232151
0.01965351216495037,0.00937997829169035,-0.01184956543147564,-0.0055001708678901196,0.003090574638918042,0.009528174996376038
0.019981933757662773,0.009110575541853905,-0.011195206083357334,-0.005119101610034704,0.0030873275827616453,0.009508699178695679
0.020841633901000023,0.009782720357179642,-0.011344250291585922,-0.005020731594413519,0.003480530111119151,0.009749755263328552
0.020841633901000023,0.009782720357179642,-0.011344250291585922,-0.005020731594413519,0.003480530111119151,0.009749755263328552
0.020442556589841843,0.009347847662866116,-0.010999324731528759,-0.00573697779327631,0.0034146769903600216,0.00991829577833414
0.020877646282315254,0.009339998476207256,-0.011735771782696247,-0.0060721528716385365,0.0032706279307603836,0.009910406544804573
0.020600469782948494,0.009577452205121517,-0.011063049547374249,-0.006152895279228687,0.0032190270721912384,0.010354747995734215
0.019575968384742737,0.008994580246508121,-0.011063694022595882,-0.005568825174123049,0.003244156949222088,0.009668775834143162
0.020850393921136856,0.008977068588137627,-0.011705870740115643,-0.005793231539428234,0.003374713007360697,0.00950358621776104
0.021090086549520493,0.009366974234580994,-0.011055867187678814,-0.0059997569769620895,0.0032224839087575674,0.009499337524175644
0.02080359496176243,0.0090294498950243,-0.011219922453165054,-0.006278417073190212,0.003500919323414564,0.009896990843117237
0.020305972546339035,0.009128627367317677,-0.011004575528204441,-0.006307416595518589,0.0035684355534613132,0.010412069968879223
0.020988421514630318,0.009740362875163555,-0.011052873916924,-0.006107415072619915,0.003445857437327504,0.01029611099511385
0.02120101824402809,0.009259163402020931,-0.011587630026042461,-0.006229007616639137,0.0032968586310744286,0.01045696809887886
0.02104223519563675,0.009785514324903488,-0.010934166610240936,-0.006499890238046646,0.0032605298329144716,0.009643182158470154
0.021321596577763557,0.009790274314582348,-0.011302236467599869,-0.0061957016587257385,0.0033479623962193727,0.00942598469555378
0.021883649751544,0.00932019017636776,-0.01130000688135624,-0.006311414297670126,0.0033619289752095938,0.009562681429088116
0.021210549399256706,0.00945641752332449,-0.01056748814880848,-0.006418562028557062,0.00361443217843771,0.010216047056019306
0.020973464474081993,0.010122982785105705,-0.011194498278200626,-0.006325754802674055,0.003812895156443119,0.010156938806176186
0.021416643634438515,0.009723213501274586,-0.011206026189029217,-0.0067632682621479034,0.0038188903126865625,0.010599209927022457
0.02212144061923027,0.009251843206584454,-0.011061103083193302,-0.006705809384584427,0.003625245066359639,0.010116584599018097
0.021813897415995598,0.011211761273443699,-0.011354048736393452,-0.006444369442760944,0.003479928942397237,0.009984604083001614
0.021255575120449066,0.009415862150490284,-0.010950555093586445,-0.006088170688599348,0.0032041952945291996,0.009772895835340023
0.02179969660937786,0.009026778861880302,-0.011593783274292946,-0.006800799164921045,0.0030853741336613894,0.010625314898788929
0.021824492141604424,0.009663189761340618,-0.011538422666490078,-0.006883670575916767,0.0030576575081795454,0.0102066146209836
0.02168814279139042,0.00972767360508442,-0.011303800158202648,-0.006840807851403952,0.003140226937830448,0.009761042892932892
0.021732818335294724,0.009258156642317772,-0.011359837837517262,-0.0065910425037145615,0.0031303181312978268,0.010769745334982872
0.021732818335294724,0.009258156642317772,-0.011359837837517262,-0.0065910425037145615,0.0031303181312978268,0.010769745334982872
0.0221386905759573,0.00991964340209961,-0.010921871289610863,-0.006295426283031702,0.0034728350583463907,0.010685082525014877
0.021534975618124008,0.009807029739022255,-0.011016972362995148,-0.007135641295462847,0.0034757298417389393,0.010222668759524822
0.022963259369134903,0.010481242090463638,-0.010816747322678566,-0.006958518177270889,0.0035271302331238985,0.010428648442029953
0.022478217259049416,0.009900364093482494,-0.011488968506455421,-0.006724512204527855,0.0034207780845463276,0.00988437607884407
0.022540949285030365,0.009692845866084099,-0.010722641833126545,-0.007155122235417366,0.0034380066208541393,0.010671929456293583
0.02290652133524418,0.010820970870554447,-0.011004912666976452,-0.008055263198912144,0.003434045473113656,0.010245425626635551
0.02257097326219082,0.009770018048584461,-0.01181052252650261,-0.0077850413508713245,0.0032567286398261786,0.009638015180826187
0.022149784490466118,0.010051330551505089,-0.011000153608620167,-0.007011945825070143,0.0030916444957256317,0.010010194033384323
0.022526713088154793,0.010293840430676937,-0.011195678263902664,-0.007450792007148266,0.0033779731020331383,0.009832438081502914
0.0228695310652256,0.010190366767346859,-0.011050944216549397,-0.007703816518187523,0.00341742648743093,0.009811199270188808
0.02312059886753559,0.009755944833159447,-0.01090180967003107,-0.007081605028361082,0.003408862743526697,0.010009447112679482
0.02301272563636303,0.010115099139511585,-0.011618264950811863,-0.006681288592517376,0.0036271214485168457,0.010477252304553986
0.0225614532828331,0.009522664360702038,-0.010974726639688015,-0.006973101291805506,0.004110958892852068,0.009913497604429722
0.023244250565767288,0.00910147000104189,-0.011189351789653301,-0.007919215597212315,0.0042951577343046665,0.00986334215849638
0.023246902972459793,0.0097311707213521,-0.011266522109508514,-0.008162510581314564,0.00405790563672781,0.010083875618875027
0.023203132674098015,0.010265570133924484,-0.011153695173561573,-0.0077799721620976925,0.003519343212246895,0.010442713275551796
0.02263280190527439,0.009567842818796635,-0.011693216860294342,-0.0077673220075666904,0.0035137052182108164,0.010819116607308388
0.022896792739629745,0.010405823588371277,-0.011346004903316498,-0.008150741457939148,0.0036355529446154833,0.010482667945325375
0.023519860580563545,0.009319722652435303,-0.010960602201521397,-0.0077465735375881195,0.0037260332610458136,0.010470960289239883
0.023383919149637222,0.0094223627820611,-0.011845291592180729,-0.007505353540182114,0.004273719619959593,0.010582813993096352
0.023752329871058464,0.010695206001400948,-0.011308236047625542,-0.007822874933481216,0.004101225640624762,0.010676230303943157
0.02355670928955078,0.009841765277087688,-0.011777051724493504,-0.007870189845561981,0.0038746537175029516,0.010560697875916958
0.02361229620873928,0.009441756643354893,-0.011598476208746433,-0.007812791503965855,0.0037395567633211613,0.010579558089375496
0.02415688894689083,0.010145623236894608,-0.012160737998783588,-0.008133357390761375,0.0037962179630994797,0.010619309730827808
0.02415688894689083,0.010145623236894608,-0.012160737998783588,-0.008133357390761375,0.0037962179630994797,0.010619309730827808
0.023975592106580734,0.010248705744743347,-0.012216710485517979,-0.00811718963086605,0.0035183141008019447,0.010837978683412075
0.02435254119336605,0.009466339834034443,-0.011556034907698631,-0.007943068630993366,0.003758890787139535,0.011337462812662125
0.02435254119336605,0.009466339834034443,-0.011556034907698631,-0.007943068630993366,0.003758890787139535,0.011337462812662125
0.024720121175050735,0.009545154869556427,-0.012120909988880157,-0.008264251053333282,0.003912662155926228,0.010642467066645622
0.024967532604932785,0.010176830925047398,-0.011571412906050682,-0.008297464810311794,0.004405546467751265,0.01039304118603468
0.02490542270243168,0.00934723298996687,-0.010882486589252949,-0.008194591850042343,0.004211030434817076,0.010313318111002445
0.023050421848893166,0.009460781700909138,-0.011481651104986668,-0.008625994436442852,0.0039492202922701836,0.010113858617842197
0.024489987641572952,0.010242372751235962,-0.011553341522812843,-0.008861415088176727,0.0038901320658624172,0.010302919894456863
0.02519455924630165,0.010139836929738522,-0.013031098991632462,-0.008348803967237473,0.0038680103607475758,0.010768970474600792
0.02501266822218895,0.009600930847227573,-0.011852397583425045,-0.008042959496378899,0.003933268133550882,0.010881803929805756
0.024747997522354126,0.010160446166992188,-0.010747388005256653,-0.008393444120883942,0.0039886184968054295,0.011363772675395012
0.024932347238063812,0.009777807630598545,-0.012105774134397507,-0.008879418484866619,0.003976462874561548,0.011157755739986897
0.025628728792071342,0.009765800088644028,-0.011648307554423809,-0.008522363379597664,0.003943316638469696,0.010772192850708961
0.025622490793466568,0.010662022046744823,-0.011470749974250793,-0.00866237748414278,0.0034888754598796368,0.010899984277784824
0.025679582729935646,0.011186975985765457,-0.011599285528063774,-0.00904261413961649,0.003510849317535758,0.010745860636234283
0.02424282394349575,0.011882363818585873,-0.011744935065507889,-0.008995569311082363,0.0035967519506812096,0.010862581431865692
0.024326760321855545,0.011367810890078545,-0.012197552248835564,-0.008481292985379696,0.0035997629165649414,0.011174184270203114
0.02531413733959198,0.010580483824014664,-0.012092255055904388,-0.00869673676788807,0.0036637382581830025,0.010782149620354176
0.025287816300988197,0.011156728491187096,-0.011401472613215446,-0.009008011780679226,0.003830707399174571,0.010662463493645191
0.024964338168501854,0.010867448523640633,-0.011715910397469997,-0.008949480019509792,0.0044118864461779594,0.01072318758815527
0.024997416883707047,0.011082448996603489,-0.01168871857225895,-0.009303116239607334,0.004719680640846491,0.010817223228514194
0.025164231657981873,0.01154516451060772,-0.012111889198422432,-0.008979503065347672,0.004186458885669708,0.011517355218529701
0.025423238053917885,0.011342842131853104,-0.011364898644387722,-0.008336343802511692,0.004174865782260895,0.011005179956555367
0.02532907947897911,0.011349769309163094,-0.012137801386415958,-0.009443536400794983,0.004003758542239666,0.010921563021838665
0.025397876277565956,0.01097668893635273,-0.011827477253973484,-0.009558789432048798,0.0035438116174191236,0.01114441454410553
0.025060687214136124,0.011914804577827454,-0.011091213673353195,-0.008613784797489643,0.0034012352116405964,0.011541095562279224
0.02515476942062378,0.011484041810035706,-0.0118696428835392,-0.008559470064938068,0.0038517771754413843,0.011778456158936024
0.025048203766345978,0.011069294065237045,-0.012002149596810341,-0.00874655693769455,0.004125807899981737,0.01132128480821848
0.025048203766345978,0.011069294065237045,-0.012002149596810341,-0.00874655693769455,0.004125807899981737,0.01132128480821848
0.025598840788006783,0.01132622454315424,-0.011486480943858624,-0.0083429254591465,0.004446819890290499,0.011169841513037682
0.025655586272478104,0.010971763171255589,-0.010992362163960934,-0.009008611552417278,0.003830560250207782,0.01143070962280035
0.025486662983894348,0.011772628873586655,-0.011842940002679825,-0.00889506470412016,0.0036384044215083122,0.011933551169931889
0.025928592309355736,0.011700833216309547,-0.011281945742666721,-0.008969985879957676,0.0037284535355865955,0.011371375061571598
0.02533401921391487,0.011473188176751137,-0.01102843414992094,-0.009486516006290913,0.004048123490065336,0.011711256578564644
0.02535645104944706,0.011597076430916786,-0.011548236012458801,-0.010097472928464413,0.004103511571884155,0.011445893906056881
0.024319851770997047,0.011358381249010563,-0.011218440718948841,-0.010127161629498005,0.0035884040407836437,0.01130770891904831
0.026307594031095505,0.011693204753100872,-0.01148136891424656,-0.009860227815806866,0.004002603702247143,0.01173738669604063
0.02640403062105179,0.011154161766171455,-0.011325055733323097,-0.009768165647983551,0.004167607054114342,0.011651378124952316
0.0268766600638628,0.011371521279215813,-0.011383448727428913,-0.009239098988473415,0.00431520352140069,0.01148253120481968
0.026334084570407867,0.01166423037648201,-0.012263708747923374,-0.009366198442876339,0.004037646576762199,0.010627048090100288
0.025773614645004272,0.011198795400559902,-0.011350912973284721,-0.009870702400803566,0.0035383966751396656,0.011709463782608509
0.025983383879065514,0.011799939908087254,-0.011631378903985023,-0.0094526382163167,0.003592757973819971,0.012720469385385513
0.026659434661269188,0.011410948820412159,-0.011521058157086372,-0.009986245073378086,0.003888692008331418,0.011799064464867115
0.027045419439673424,0.011845284141600132,-0.011434642598032951,-0.010453960858285427,0.00394838210195303,0.01166763436049223
0.02618975192308426,0.011938860639929771,-0.011538702994585037,-0.010148459114134312,0.004323921166360378,0.011609089560806751
0.026458675041794777,0.011596638709306717,-0.010757979936897755,-0.01032427791506052,0.004621678497642279,0.01181263942271471
0.026875488460063934,0.012401172891259193,-0.011242571286857128,-0.010562443174421787,0.00464637903496623,0.012209764681756496
0.026588866487145424,0.012388881295919418,-0.010981555096805096,-0.009946965612471104,0.004247152712196112,0.011988850310444832
0.02608560398221016,0.011931808665394783,-0.010722826234996319,-0.010762166231870651,0.0035378902684897184,0.011616612784564495
0.026305899024009705,0.011873597279191017,-0.011255724355578423,-0.010489965789020061,0.003815271658822894,0.011732901446521282
0.0265769325196743,0.011999508365988731,-0.011067832820117474,-0.01027098298072815,0.004144814796745777,0.011835985817015171
0.02697897143661976,0.01184915192425251,-0.011297004297375679,-0.010754240676760674,0.004297017585486174,0.012004316784441471
0.027119895443320274,0.01175423339009285,-0.011676540598273277,-0.010706901550292969,0.004334207624197006,0.012045033276081085
0.0271774809807539,0.012574245221912861,-0.011250997893512249,-0.010204117745161057,0.0045198253355920315,0.012234083376824856
0.026751596480607986,0.012210807763040066,-0.011404326185584068,-0.009941493161022663,0.004639649298042059,0.012349575757980347
0.026567058637738228,0.013931270688772202,-0.0113367959856987,-0.009885253384709358,0.003501782426610589,0.012581351213157177
0.02682746760547161,0.011467888951301575,-0.011467327363789082,-0.010407987982034683,0.0034651129972189665,0.012061983346939087
0.02682746760547161,0.011467888951301575,-0.011467327363789082,-0.010407987982034683,0.0034651129972189665,0.012061983346939087
0.02668336033821106,0.011933114379644394,-0.010502061806619167,-0.010099327191710472,0.004579995758831501,0.012274786829948425
0.02675679884850979,0.012215063907206059,-0.010888648219406605,-0.010232953354716301,0.0048908935859799385,0.012256314046680927
0.026903817430138588,0.012632879428565502,-0.011012681759893894,-0.010233402252197266,0.004597024992108345,0.012526581063866615
0.02687765657901764,0.012632247060537338,-0.010636154562234879,-0.010159374214708805,0.004477278329432011,0.012551815249025822
0.026848716661334038,0.012075966224074364,-0.011910002678632736,-0.010089853778481483,0.004074221942573786,0.012539112009108067
0.027392884716391563,0.012171100825071335,-0.011293144896626472,-0.010128825902938843,0.004278572276234627,0.012671595439314842
0.027187172323465347,0.012035626918077469,-0.011165967211127281,-0.010421514511108398,0.004158722702413797,0.012271888554096222
0.02679743431508541,0.012831829488277435,-0.011195897124707699,-0.010549920611083508,0.00444820336997509,0.012296176515519619
0.027789780870079994,0.012724748812615871,-0.010941903106868267,-0.010723891668021679,0.00451674684882164,0.012432086281478405
0.027562016621232033,0.01331180240958929,-0.011403948068618774,-0.01049740705639124,0.004394189920276403,0.01260463334619999
0.027385834604501724,0.013020074926316738,-0.011209765449166298,-0.010569600388407707,0.004371408838778734,0.012692163698375225
0.027616312727332115,0.012921848334372044,-0.011104152537882328,-0.01057606004178524,0.0046323067508637905,0.01200175005942583
0.027975773438811302,0.01293831318616867,-0.011948483064770699,-0.010755341500043869,0.004388128407299519,0.012500863522291183
0.02772882580757141,0.013312415219843388,-0.011254200711846352,-0.011191240511834621,0.004459558520466089,0.012652049772441387
0.02750743180513382,0.013385079801082611,-0.012091081589460373,-0.01064479723572731,0.00419433182105422,0.013003727421164513
0.02769392728805542,0.013025389984250069,-0.011628535576164722,-0.010499340482056141,0.004402322228997946,0.012727494351565838
0.028160566464066505,0.013270789757370949,-0.01122343447059393,-0.010751101188361645,0.005032666027545929,0.013409039005637169
0.028107544407248497,0.012982053682208061,-0.011789344251155853,-0.010833741165697575,0.00503110233694315,0.013078560121357441
0.02792271040380001,0.013433337211608887,-0.011635085567831993,-0.011617130599915981,0.004837698768824339,0.012999240309000015
0.027815887704491615,0.013351572677493095,-0.012031583115458488,-0.011265701614320278,0.004651728086173534,0.012915155850350857
0.028139900416135788,0.013837342150509357,-0.011607283726334572,-0.011517918668687344,0.004797292407602072,0.01298617385327816
0.0279993899166584,0.013311244547367096,-0.01100753340870142,-0.011875174008309841,0.004654533229768276,0.011780236847698689
0.027972042560577393,0.014146385714411736,-0.011780058965086937,-0.011324524879455566,0.004593090619891882,0.012673997320234776
0.027999429032206535,0.013646361418068409,-0.012432856485247612,-0.011267055757343769,0.0045018685050308704,0.013424817472696304
0.02873733453452587,0.013919125311076641,-0.011469128541648388,-0.011439814232289791,0.004089237190783024,0.012821805663406849
0.029238084331154823,0.013891463167965412,-0.011010104790329933,-0.011889555491507053,0.004322153050452471,0.012876652181148529
0.029238084331154823,0.013891463167965412,-0.011010104790329933,-0.011889555491507053,0.004322153050452471,0.012876652181148529
0.02861751988530159,0.01376903336495161,-0.012285197153687477,-0.011424371972680092,0.004456710536032915,0.012895924039185047
0.027658600360155106,0.013783170841634274,-0.011840537190437317,-0.012171996757388115,0.004288872703909874,0.012916595675051212
0.02886800467967987,0.013729164376854897,-0.012027443386614323,-0.012882709503173828,0.0045072222128510475,0.012714942917227745
0.02938457764685154,0.013628147542476654,-0.012445518746972084,-0.012487159110605717,0.0045290119014680386,0.012729243375360966
0.028451401740312576,0.014225495979189873,-0.012042058631777763,-0.012780815362930298,0.004337160382419825,0.012754064984619617
0.029688652604818344,0.013355293311178684,-0.012191475369036198,-0.012177175842225552,0.0043978821486234665,0.013151061721146107
0.03012503683567047,0.013693406246602535,-0.011918358504772186,-0.012703281827270985,0.004181491211056709,0.01315715629607439
0.02945903316140175,0.013467470183968544,-0.012586393393576145,-0.01232980191707611,0.004479927476495504,0.013017203658819199
0.029373882338404655,0.013974458910524845,-0.011847132816910744,-0.012779702432453632,0.004425307270139456,0.012924671173095703
0.029264362528920174,0.013603756204247475,-0.011567356996238232,-0.012433657422661781,0.004415945615619421,0.013133049011230469
0.03020121157169342,0.014046338386833668,-0.012226201593875885,-0.012417087331414223,0.004576679319143295,0.013000627979636192
0.030582569539546967,0.013686600141227245,-0.011573988944292068,-0.012694885022938251,0.0048904819414019585,0.013163094408810139
0.028797024860978127,0.014164329506456852,-0.012244987301528454,-0.013675377704203129,0.00458206981420517,0.013005484826862812
0.03086562640964985,0.013831851072609425,-0.013823563233017921,-0.01342859584838152,0.004573754500597715,0.012893292121589184
0.030644401907920837,0.014549264684319496,-0.011813796125352383,-0.012352988123893738,0.004507401958107948,0.013127723708748817
0.030238086357712746,0.013712052255868912,-0.011327982880175114,-0.01284979097545147,0.004246050957590342,0.0131386648863554
0.030487094074487686,0.014563340693712234,-0.011547042988240719,-0.012927081435918808,0.004701487720012665,0.013701395131647587
0.030804360285401344,0.013640709221363068,-0.012776479125022888,-0.013584224507212639,0.004814005922526121,0.013224729336798191
0.03080563433468342,0.014153501950204372,-0.011772180907428265,-0.01332031935453415,0.004820819944143295,0.013102495111525059
0.030288061127066612,0.013807971961796284,-0.011776844039559364,-0.013912259601056576,0.004604358691722155,0.013119162060320377
0.031135940924286842,0.014571314677596092,-0.011920705437660217,-0.013045658357441425,0.004415843635797501,0.013468743301928043
0.031165514141321182,0.013832949101924896,-0.011921757832169533,-0.012809205800294876,0.004548263270407915,0.01360260508954525
0.030972877517342567,0.014323290437459946,-0.012060845270752907,-0.013105111196637154,0.0046615274623036385,0.013918612152338028
0.03122592531144619,0.0143144391477108,-0.011780773289501667,-0.013388261198997498,0.004726137965917587,0.013650932349264622
0.0312640555202961,0.014272591099143028,-0.01238327194005251,-0.012804694473743439,0.004621754866093397,0.013470477424561977
0.03251686319708824,0.013904564082622528,-0.012057644315063953,-0.01251185778528452,0.004959253594279289,0.013338928110897541
0.03117702715098858,0.014374902471899986,-0.012217006646096706,-0.013566052541136742,0.004609754309058189,0.01378432847559452
0.03117702715098858,0.014374902471899986,-0.012217006646096706,-0.013566052541136742,0.004609754309058189,0.01378432847559452
0.031599804759025574,0.014473293907940388,-0.011518098413944244,-0.014166626147925854,0.004407498519867659,0.013401186093688011
0.03248308226466179,0.014053905382752419,-0.011932412162423134,-0.013683734461665154,0.004616185091435909,0.013454741798341274
0.03174900263547897,0.014588643796741962,-0.011744900606572628,-0.014091080985963345,0.004813777282834053,0.01363296527415514
0.032054539769887924,0.01413496769964695,-0.01209864392876625,-0.01349763385951519,0.004787316080182791,0.014141845516860485
0.03265787288546562,0.014295132830739021,-0.011760331690311432,-0.014149956405162811,0.004557063803076744,0.013492128811776638
0.032954245805740356,0.0140818627551198,-0.011613229289650917,-0.014340586960315704,0.00460343062877655,0.015065913088619709
0.03188375383615494,0.01446964219212532,-0.0123385488986969,-0.01468558982014656,0.004729903303086758,0.014476589858531952
0.032101184129714966,0.014582023024559021,-0.01172657310962677,-0.014372261241078377,0.004830388817936182,0.013930696062743664
0.03324437886476517,0.014659060165286064,-0.012092838063836098,-0.014565172605216503,0.005180793348699808,0.013246540911495686
0.032567109912633896,0.014340781606733799,-0.012019172310829163,-0.013673380948603153,0.00513854343444109,0.013300585560500622
0.0317673459649086,0.014665348455309868,-0.011801273562014103,-0.013639308512210846,0.0050843991339206696,0.013278921134769917
0.03237998113036156,0.014222978614270687,-0.011792215518653393,-0.013589108362793922,0.005232050083577633,0.013903605751693249
0.03230190649628639,0.01442651730030775,-0.011629333719611168,-0.013768483884632587,0.005020690616220236,0.013871285133063793
0.0326736681163311,0.014429906383156776,-0.012203125283122063,-0.013898123987019062,0.0055885822512209415,0.014470401220023632
0.032593414187431335,0.015149927698075771,-0.011849320493638515,-0.013964158482849598,0.005308541934937239,0.014377014711499214
0.03267952427268028,0.014740543439984322,-0.011715909466147423,-0.014253946952521801,0.004919053986668587,0.01456950232386589
0.03270715847611427,0.014555825851857662,-0.012017934583127499,-0.01412117388099432,0.005035486537963152,0.014043234288692474
0.03266286477446556,0.014817776158452034,-0.012076866813004017,-0.014107482507824898,0.005004366859793663,0.014336968772113323
0.03282778337597847,0.015404533594846725,-0.012134239077568054,-0.014332086779177189,0.004648303147405386,0.014022848568856716
0.03310643881559372,0.015111167915165424,-0.011698196642100811,-0.01462489739060402,0.004991493653506041,0.014285515062510967
0.033245716243982315,0.015399244613945484,-0.011858942918479443,-0.014489024877548218,0.004973241128027439,0.014506252482533455
0.03319783881306648,0.01528937742114067,-0.011723456904292107,-0.014631267637014389,0.0049031442031264305,0.014465630985796452
0.033413104712963104,0.0155184930190444,-0.01114221103489399,-0.014441009610891342,0.004703360144048929,0.014105471782386303
0.03276561573147774,0.015091745182871819,-0.012036148458719254,-0.014842822216451168,0.004487467464059591,0.014252164401113987
0.03213001787662506,0.015487815253436565,-0.012099563144147396,-0.01518731564283371,0.004924089647829533,0.014152128249406815
0.03339676186442375,0.015157071873545647,-0.011415277607738972,-0.014684262685477734,0.005074218846857548,0.014536946080625057
0.03287430852651596,0.015564133413136005,-0.011419202201068401,-0.014422152191400528,0.005200757645070553,0.014694691635668278
0.033118076622486115,0.015808844938874245,-0.012252269312739372,-0.01486788410693407,0.00533225666731596,0.014619315043091774
0.033118076622486115,0.015808844938874245,-0.012252269312739372,-0.01486788410693407,0.00533225666731596,0.014619315043091774
0.03298921138048172,0.015517001040279865,-0.011432511731982231,-0.014726422727108002,0.005730200558900833,0.015172377228736877
0.03271523490548134,0.015461360104382038,-0.01221261266618967,-0.014600218273699284,0.005296865478157997,0.014768272638320923
0.03258907049894333,0.01604255847632885,-0.011687266640365124,-0.014385275542736053,0.005221033003181219,0.014790079556405544
0.03293520212173462,0.01581563614308834,-0.011499457061290741,-0.014833592809736729,0.005414991173893213,0.014335280284285545
0.032583825290203094,0.016218002885580063,-0.012531645596027374,-0.014941343106329441,0.005692526698112488,0.014550477266311646
0.032707300037145615,0.015861064195632935,-0.011649367399513721,-0.015179214999079704,0.005385747645050287,0.01436726376414299
0.032502248883247375,0.016581734642386436,-0.01186286099255085,-0.014544317498803139,0.005190117750316858,0.014910842292010784
0.03244832903146744,0.015777993947267532,-0.011712711304426193,-0.015066766180098057,0.004918907769024372,0.014672180637717247
0.03347024694085121,0.015822913497686386,-0.01140320673584938,-0.014925293624401093,0.005038414150476456,0.01470915973186493
0.033142175525426865,0.01603732258081436,-0.012302287854254246,-0.01570478267967701,0.005503609776496887,0.014649683609604836
0.032016854733228683,0.016057122498750687,-0.0116128446534276,-0.014823476783931255,0.005404885858297348,0.014036244712769985
0.031698524951934814,0.01630367338657379,-0.012392817996442318,-0.016401296481490135,0.005419229622930288,0.014824534766376019
0.03298545256257057,0.016209308058023453,-0.012371174059808254,-0.01604713313281536,0.005434692371636629,0.015121140517294407
0.03305203467607498,0.016477731987833977,-0.012009368278086185,-0.015413903631269932,0.0053106192499399185,0.014992695301771164
0.03416343778371811,0.015499046072363853,-0.012457539327442646,-0.015177390538156033,0.005491318181157112,0.01507349032908678
0.03355726599693298,0.015941249206662178,-0.01184319518506527,-0.015210673213005066,0.005642710253596306,0.015084546059370041
0.03287472575902939,0.015255799517035484,-0.012369256466627121,-0.015479479916393757,0.005389344412833452,0.015097899362444878
0.032136257737874985,0.016819220036268234,-0.012190917506814003,-0.015233791433274746,0.005098255351185799,0.015032723546028137
0.03288663178682327,0.01615007035434246,-0.012029262259602547,-0.01593967154622078,0.004977554548531771,0.015242807567119598
0.03371882438659668,0.016071444377303123,-0.012281856499612331,-0.015541600994765759,0.005517599638551474,0.015190262347459793
0.033367883414030075,0.016362259164452553,-0.011977159418165684,-0.015634587034583092,0.005601998418569565,0.015217438340187073
0.03328666090965271,0.015917496755719185,-0.012618057429790497,-0.015338491648435593,0.006004446651786566,0.015486713498830795
0.03347016125917435,0.016014833003282547,-0.0124496566131711,-0.015898972749710083,0.0054015666246414185,0.015239537693560123
0.03295645862817764,0.01561927329748869,-0.012605635449290276,-0.015660468488931656,0.005041579250246286,0.015083719044923782
0.03334219381213188,0.016503306105732918,-0.012405277229845524,-0.015859244391322136,0.005024774465709925,0.015179038979113102
0.033464256674051285,0.016046468168497086,-0.012805270962417126,-0.015995608642697334,0.005497966893017292,0.015768762677907944
0.033464256674051285,0.016046468168497086,-0.012805270962417126,-0.015995608642697334,0.005497966893017292,0.015768762677907944
0.034091558307409286,0.015842311084270477,-0.012423624284565449,-0.016281403601169586,0.005431290715932846,0.01535667385905981
0.03392123058438301,0.016165098175406456,-0.012894269078969955,-0.016234328970313072,0.0055703651160001755,0.01510913111269474
0.0332980714738369,0.016337623819708824,-0.012269258499145508,-0.016817767173051834,0.005083510186523199,0.015342247672379017
0.034288033843040466,0.016007063910365105,-0.013059589080512524,-0.016397908329963684,0.005076357629150152,0.01497092004865408
0.03509650379419327,0.01666349545121193,-0.012603321112692356,-0.0167002622038126,0.005022936966270208,0.015041782520711422
0.033951617777347565,0.016034049913287163,-0.012618323788046837,-0.016620080918073654,0.005823824554681778,0.014935597777366638
0.03340104594826698,0.01658105105161667,-0.01273414958268404,-0.016406476497650146,0.005443746689707041,0.015086481347680092
0.034563492983579636,0.016338566318154335,-0.013132268562912941,-0.017002053558826447,0.004983276594430208,0.014931628480553627
0.03409041464328766,0.016350215300917625,-0.013160068541765213,-0.017035627737641335,0.005172230303287506,0.014823389239609241
0.034586284309625626,0.016579141840338707,-0.013321664184331894,-0.01750469021499157,0.005180676467716694,0.01479614619165659
0.036144692450761795,0.016147544607520103,-0.013067378662526608,-0.01679031364619732,0.005756498780101538,0.015124273486435413
0.03511231020092964,0.016759339720010757,-0.012562419287860394,-0.01703803613781929,0.005899566691368818,0.01525125838816166
0.03362593054771423,0.015729691833257675,-0.01368036586791277,-0.01746305450797081,0.005914339795708656,0.01520739309489727
0.03487464785575867,0.016227154061198235,-0.012869124300777912,-0.01701759733259678,0.005541026126593351,0.01539971586316824
0.03575557842850685,0.01626655086874962,-0.012522175908088684,-0.017332207411527634,0.005884117446839809,0.015223287977278233
0.035967882722616196,0.01640719547867775,-0.012270747683942318,-0.01706119067966938,0.005452380515635014,0.015390065498650074
0.035486552864313126,0.016493821516633034,-0.013084618374705315,-0.017273804172873497,0.005642684176564217,0.015295949764549732
0.03532515838742256,0.016181154176592827,-0.013073201291263103,-0.017182473093271255,0.005809688474982977,0.014583882875740528
0.035500720143318176,0.01679021492600441,-0.012344191782176495,-0.01678290404379368,0.005762633867561817,0.015498033724725246
