davideferrari95/blind_handover_controller/data/Test 21 - [2024-02-07 -- 14-18-19]/joint_states_data.csv
shoulder_pan_joint,shoulder_lift_joint,elbow_joint,wrist_1_joint,wrist_2_joint,wrist_3_joint
-0.00957657303661108,-0.02609679289162159,0.014411179348826408,0.010240395553410053,0.0031593069434165955,-0.010805809870362282
-0.008823045529425144,-0.02610447071492672,0.013863667845726013,0.01063780952244997,0.002637752564623952,-0.011105365119874477
-0.008823045529425144,-0.02610447071492672,0.013863667845726013,0.01063780952244997,0.002637752564623952,-0.011105365119874477
-0.00919821672141552,-0.026176411658525467,0.01431067381054163,0.010963142849504948,0.002360137179493904,-0.011187107302248478
-0.009681436233222485,-0.025990545749664307,0.013780987821519375,0.010492231696844101,0.002248893491923809,-0.011199826374650002
-0.009517360478639603,-0.025972982868552208,0.013882264494895935,0.010774924419820309,0.0021803253330290318,-0.010507040657103062
-0.009517360478639603,-0.025972982868552208,0.013882264494895935,0.010774924419820309,0.0021803253330290318,-0.010507040657103062
-0.00983041524887085,-0.02602347359061241,0.013947827741503716,0.010919020511209965,0.002417663810774684,-0.01083619985729456
-0.00983041524887085,-0.02602347359061241,0.013947827741503716,0.010919020511209965,0.002417663810774684,-0.01083619985729456
-0.00936825294047594,-0.025959055870771408,0.013707256875932217,0.011483625508844852,0.002312944969162345,-0.011014197021722794
-0.009354309178888798,-0.02613813802599907,0.014326473698019981,0.011445121839642525,0.002359062433242798,-0.011022144928574562
-0.009470582939684391,-0.02598845399916172,0.014060183428227901,0.012049672193825245,0.0021442777942866087,-0.010794396512210369
-0.009139967150986195,-0.025904955342411995,0.014139113016426563,0.010790135711431503,0.0019102763617411256,-0.011287786066532135
-0.009139967150986195,-0.025904955342411995,0.014139113016426563,0.010790135711431503,0.0019102763617411256,-0.011287786066532135
-0.009203781373798847,-0.025808606296777725,0.013715850189328194,0.010471043176949024,0.0020257928408682346,-0.010387477464973927
-0.009210276417434216,-0.02497350610792637,0.013686666265130043,0.010779956355690956,0.002032363321632147,-0.010418148711323738
-0.009363009594380856,-0.025152763351798058,0.014003584161400795,0.010769633576273918,0.0018361001275479794,-0.010591334663331509
-0.009637443348765373,-0.025932878255844116,0.013621489517390728,0.010324781760573387,0.0018325308337807655,-0.010921094566583633
-0.009156064130365849,-0.026996664702892303,0.013547203503549099,0.010285248048603535,0.0017309512477368116,-0.010334977880120277
-0.009267449378967285,-0.02679266408085823,0.01262336689978838,0.010695132426917553,0.0017908405279740691,-0.01061938889324665
-0.008979403413832188,-0.025577537715435028,0.013259396888315678,0.010511265136301517,0.0017635943368077278,-0.010387691669166088
-0.009194355458021164,-0.024959376081824303,0.012855562381446362,0.010588633827865124,0.0019566172268241644,-0.010174710303544998
-0.009512990713119507,-0.025675605982542038,0.01351456344127655,0.010272904299199581,0.0019060901831835508,-0.010271362960338593
-0.009539073333144188,-0.026189392432570457,0.012888720259070396,0.010412760078907013,0.0021877693943679333,-0.010787597857415676
-0.008560709655284882,-0.025508763268589973,0.013104566372931004,0.010586761869490147,0.0020631474908441305,-0.010098239406943321
-0.00914943777024746,-0.025395093485713005,0.01270757894963026,0.010506714694201946,0.0019459531176835299,-0.01033435482531786
-0.008885925635695457,-0.02585294470191002,0.0124594671651721,0.01017694640904665,0.0018000233685597777,-0.010392503812909126
-0.008775707334280014,-0.02595534920692444,0.013076822273433208,0.010643023066222668,0.0016929332632571459,-0.010035139508545399
-0.009177052415907383,-0.02567831426858902,0.01275060884654522,0.010566240176558495,0.0015407662140205503,-0.010461075231432915
-0.009163277223706245,-0.024741709232330322,0.013003124855458736,0.010530490428209305,0.001528214430436492,-0.010887375101447105
-0.009163277223706245,-0.024741709232330322,0.013003124855458736,0.010530490428209305,0.001528214430436492,-0.010887375101447105
-0.009128889068961143,-0.025256024673581123,0.01226350199431181,0.010464854538440704,0.0015659790951758623,-0.010267538949847221
-0.008661126717925072,-0.026340676471590996,0.013050374574959278,0.009836556389927864,0.0014981013955548406,-0.010133812204003334
-0.009829840622842312,-0.025881852954626083,0.012367531657218933,0.010611630976200104,0.001629647333174944,-0.010654730722308159
-0.008554074913263321,-0.02573981136083603,0.013028114102780819,0.011122899129986763,0.0016895134467631578,-0.010496538132429123
-0.008524943143129349,-0.02563786692917347,0.01271560788154602,0.010472833178937435,0.0019024264765903354,-0.010041244328022003
-0.008997123688459396,-0.02612350881099701,0.012663315050303936,0.010883282870054245,0.0018305155681446195,-0.009859561920166016
-0.009049441665410995,-0.026247406378388405,0.012901690788567066,0.010774591006338596,0.0016984435496851802,-0.009916119277477264
-0.008577981032431126,-0.026411037892103195,0.012536094523966312,0.010818934999406338,0.0016481513157486916,-0.010192802175879478
-0.008700483478605747,-0.02698596566915512,0.012472815811634064,0.010969789698719978,0.0014677875442430377,-0.01055235881358385
-0.008282016962766647,-0.026581617072224617,0.012696783058345318,0.011656487360596657,0.001524692284874618,-0.010315293446183205
-0.008404470048844814,-0.026257790625095367,0.013493699952960014,0.011397333815693855,0.0014970939373597503,-0.010250823572278023
-0.00851763691753149,-0.026340315118432045,0.013871081173419952,0.010970404371619225,0.0016481425845995545,-0.009932857938110828
-0.008786182850599289,-0.026244567707180977,0.01335076056420803,0.011080767028033733,0.0017472559120506048,-0.010092969052493572
-0.008492634631693363,-0.02595953457057476,0.013333471491932869,0.010646801441907883,0.001883425284177065,-0.009721837006509304
-0.00853722169995308,-0.02608196996152401,0.013527622446417809,0.011170515790581703,0.001700997818261385,-0.009773245081305504
-0.008527292869985104,-0.025867782533168793,0.01318524219095707,0.01131398044526577,0.0014188260538503528,-0.010034175589680672
-0.00866369903087616,-0.02629372477531433,0.013737032189965248,0.011468391865491867,0.001294005080126226,-0.010916629806160927
-0.008243164978921413,-0.02642759308218956,0.013365923427045345,0.012157275341451168,0.0012160022743046284,-0.00972262304276228
-0.00866406038403511,-0.026419280096888542,0.013896137475967407,0.011874974705278873,0.0011536278761923313,-0.00986606813967228
-0.008381026796996593,-0.02692599594593048,0.013198812492191792,0.011900623328983784,0.0009954111883416772,-0.01003865897655487
-0.008491212502121925,-0.026712438091635704,0.013676272705197334,0.01248166710138321,0.0009256011107936502,-0.00998886488378048
-0.008299662731587887,-0.026728875935077667,0.013254240155220032,0.012019426561892033,0.000936145952437073,-0.010552517138421535
-0.008446590974926949,-0.026254523545503616,0.0138026662170887,0.011907964944839478,0.0009485789341852069,-0.010398397222161293
-0.00783129595220089,-0.026201441884040833,0.013172582723200321,0.012540838681161404,0.0011433078907430172,-0.010387333109974861
-0.008114224299788475,-0.026730414479970932,0.01358742918819189,0.01323078852146864,0.0010296262335032225,-0.010094031691551208
-0.008114224299788475,-0.026730414479970932,0.01358742918819189,0.01323078852146864,0.0010296262335032225,-0.010094031691551208
-0.008377221412956715,-0.0268904659897089,0.013049334287643433,0.012520119547843933,0.0010038388427346945,-0.01042109914124012
-0.008210806176066399,-0.026437563821673393,0.013089942745864391,0.012365702539682388,0.000988909974694252,-0.010064715519547462
-0.007977994158864021,-0.02503442019224167,0.013513900339603424,0.012567365542054176,0.0009102305048145354,-0.009991862811148167
-0.00825504306703806,-0.025796201080083847,0.013136829249560833,0.01152790803462267,0.0009813378565013409,-0.009871470741927624
-0.008317474275827408,-0.026185540482401848,0.01297831255942583,0.011749299243092537,0.0009744720300659537,-0.010502461344003677
-0.00776267796754837,-0.026038365438580513,0.012925863265991211,0.011613667942583561,0.0009175632148981094,-0.01013700570911169
-0.007593322545289993,-0.025836439803242683,0.013527194038033485,0.011948687955737114,0.0010691670468077064,-0.010018539614975452
-0.00774215767160058,-0.026062283664941788,0.012892249040305614,0.01168016903102398,0.0010492034489288926,-0.010232841596007347
-0.007783048320561647,-0.02553725242614746,0.012603620067238808,0.01228417456150055,0.0009538498125039041,-0.009990833699703217
-0.00747703155502677,-0.024812806397676468,0.013159682042896748,0.0120054567232728,0.0009161023190245032,-0.010450264438986778
-0.008213461376726627,-0.025082772597670555,0.01239395048469305,0.012436172924935818,0.0008419628138653934,-0.010314632207155228
-0.00841253250837326,-0.02567164972424507,0.012642479501664639,0.012133492156863213,0.000783343450166285,-0.01033234316855669
-0.007822336629033089,-0.026086099445819855,0.012294861488044262,0.012147216126322746,0.0007423429633490741,-0.01024675089865923
-0.007582989055663347,-0.025918392464518547,0.012356427498161793,0.012157795019447803,0.0007077781483530998,-0.010294489562511444
-0.007901552133262157,-0.026062222197651863,0.012859882786870003,0.011823253706097603,0.000683047401253134,-0.00992592517286539
-0.007721366360783577,-0.025955908000469208,0.01232771947979927,0.012368675321340561,0.0006601730710826814,-0.010013287886977196
-0.0073420763947069645,-0.025885099545121193,0.012502414174377918,0.012107433751225471,0.0005824719555675983,-0.010006016120314598
-0.007753259036689997,-0.025900548323988914,0.011919409036636353,0.012270517647266388,0.0006034370162524283,-0.01030112337321043
-0.007724287454038858,-0.025820212438702583,0.012527721002697945,0.012008065357804298,0.0006329027819447219,-0.010787650011479855
-0.008143792860209942,-0.025669433176517487,0.012259588576853275,0.011911916546523571,0.000657726195640862,-0.01026415266096592
-0.007854880765080452,-0.025725392624735832,0.012293846346437931,0.012265819124877453,0.0006171567947603762,-0.010023984126746655
-0.008072902448475361,-0.02578120119869709,0.01248104590922594,0.011973419226706028,0.0007792459218762815,-0.01041939202696085
-0.008072902448475361,-0.02578120119869709,0.01248104590922594,0.011973419226706028,0.0007792459218762815,-0.01041939202696085
-0.007824854925274849,-0.026205696165561676,0.01302946638315916,0.012258718721568584,0.0007078989874571562,-0.010529369115829468
-0.007699101231992245,-0.026205692440271378,0.011952929198741913,0.012943489477038383,0.0007163504487834871,-0.01031191274523735
-0.007699101231992245,-0.026205692440271378,0.011952929198741913,0.012943489477038383,0.0007163504487834871,-0.01031191274523735
-0.007894754409790039,-0.026260558515787125,0.01172714028507471,0.012949631549417973,0.0006540851318277419,-0.01049052644520998
-0.0071212067268788815,-0.02600938081741333,0.012166447937488556,0.013192488811910152,0.0006718541262671351,-0.010241120122373104
-0.007076863665133715,-0.02567041479051113,0.01153029315173626,0.01342670526355505,0.0006192088476382196,-0.010516878217458725
-0.007294571027159691,-0.025950521230697632,0.011845450848340988,0.013234191574156284,0.0005656455759890378,-0.010164034552872181
-0.008137018419802189,-0.025875991210341454,0.011573633179068565,0.013215580023825169,0.0005042984266765416,-0.010621675290167332
-0.007737402804195881,-0.02539370395243168,0.011993597261607647,0.012719881720840931,0.0005376494373194873,-0.010329124517738819
-0.007755040656775236,-0.025661872699856758,0.011905038729310036,0.013052591122686863,0.0005542492144741118,-0.010743222199380398
-0.007796639110893011,-0.025555970147252083,0.011662651784718037,0.012905231676995754,0.0005268572713248432,-0.010957685299217701
-0.007855400443077087,-0.025919083505868912,0.012442192994058132,0.013040393590927124,0.0005520184058696032,-0.01026887260377407
-0.007730754092335701,-0.026261473074555397,0.011431468650698662,0.012887604534626007,0.0006369457696564496,-0.010263095609843731
-0.007874851115047932,-0.02569788694381714,0.011639454402029514,0.012744532898068428,0.0005953010404482484,-0.01068846508860588
-0.007893629372119904,-0.02598532661795616,0.011778965592384338,0.012666886672377586,0.0005281197954900563,-0.010440533980727196
-0.007845641113817692,-0.024406177923083305,0.011621832847595215,0.012715626507997513,0.0005128303891979158,-0.010364426299929619
-0.007173894438892603,-0.02563263103365898,0.01112658903002739,0.012049776501953602,0.0005359671195037663,-0.010197622701525688
-0.007105609402060509,-0.026043500751256943,0.011817138642072678,0.012492304667830467,0.0005023780395276845,-0.010343391448259354
-0.008087324909865856,-0.025339718908071518,0.011886839754879475,0.01215774193406105,0.0005232543335296214,-0.011731799691915512
-0.007638845127075911,-0.024607235565781593,0.011950904503464699,0.012691403739154339,0.0004951242008246481,-0.010328375734388828
-0.006945934612303972,-0.024113105610013008,0.011449561454355717,0.012998970225453377,0.0004637317033484578,-0.01063764188438654
-0.00668922858312726,-0.023931806907057762,0.010809787549078465,0.0131078427657485,0.00043369707418605685,-0.010140365920960903
-0.007264283485710621,-0.025152524933218956,0.011320468038320541,0.013195047155022621,0.0003971178666688502,-0.01007142849266529
-0.007498624734580517,-0.024113381281495094,0.011552846059203148,0.01308057364076376,0.0003649890422821045,-0.010244881734251976
-0.0070253945887088776,-0.02383972331881523,0.011600781232118607,0.013397485949099064,0.0003703202528413385,-0.010363003239035606
-0.006834546569734812,-0.024258580058813095,0.011711617931723595,0.013092463836073875,0.0003745490685105324,-0.010622469708323479
-0.006951282732188702,-0.02540421299636364,0.01069650985300541,0.01294712070375681,0.0003806105814874172,-0.010998068377375603
-0.007272893097251654,-0.024332119151949883,0.011924462392926216,0.01254273857921362,0.0003837752155959606,-0.010400163009762764
-0.007478451356291771,-0.02331920713186264,0.011346204206347466,0.012641188688576221,0.0003886476915795356,-0.010598137974739075
-0.006884193513542414,-0.023526892066001892,0.011019140481948853,0.012310110963881016,0.00039099680725485086,-0.010505156591534615
-0.006884193513542414,-0.023526892066001892,0.011019140481948853,0.012310110963881016,0.00039099680725485086,-0.010505156591534615
-0.007564743515104055,-0.024164682254195213,0.011427083984017372,0.012590710073709488,0.0003723082481883466,-0.010415799915790558
-0.0070616817101836205,-0.024514151737093925,0.010661166161298752,0.01251263078302145,0.00042238790774717927,-0.010316994972527027
-0.007123490329831839,-0.024246683344244957,0.01079356949776411,0.012148596346378326,0.0004074797034263611,-0.010450044646859169
-0.0070358398370444775,-0.024061396718025208,0.011257539503276348,0.012470056302845478,0.00037502526538446546,-0.010665824636816978
-0.006732867565006018,-0.02384078875184059,0.01084586139768362,0.012406153604388237,0.0004059986677020788,-0.010870328173041344
-0.007047338876873255,-0.023988734930753708,0.011404218152165413,0.013134073466062546,0.00038517292705364525,-0.010288933292031288
-0.007087362930178642,-0.024314748123288155,0.010786540806293488,0.012966349720954895,0.00036001316038891673,-0.010311263613402843
-0.006515353452414274,-0.02429061196744442,0.01058376394212246,0.013115158304572105,0.0003375319065526128,-0.010789226740598679
-0.007087466772645712,-0.02488917112350464,0.011081846430897713,0.01301573682576418,0.0003176688333041966,-0.010608239099383354
-0.006755898706614971,-0.02452903613448143,0.010191015899181366,0.012663213536143303,0.0003000121214427054,-0.01020639855414629
-0.007005693856626749,-0.02455291897058487,0.010585741139948368,0.01299807708710432,0.00028421604656614363,-0.01062078308314085
-0.0064901686273515224,-0.024096941575407982,0.010492020286619663,0.013521755114197731,0.0002571389777585864,-0.010196293704211712
-0.007183311507105827,-0.02410585805773735,0.011241230182349682,0.012607208453118801,0.0002454479690641165,-0.010295597836375237
-0.0071018533781170845,-0.024434171617031097,0.01145441085100174,0.013060697354376316,0.0002347741392441094,-0.010224760510027409
-0.006749287713319063,-0.024298518896102905,0.010462540201842785,0.012635301798582077,0.00022499026090372354,-0.01062371488660574
-0.006262838374823332,-0.02454548515379429,0.010795364156365395,0.013190111145377159,0.00021598945022560656,-0.010256865993142128
-0.006451024208217859,-0.024030309170484543,0.0105252955108881,0.01251447107642889,0.00023994361981749535,-0.010555475950241089
-0.007236198056489229,-0.023953430354595184,0.01016354188323021,0.012511827982962132,0.00023316584702115506,-0.01082216389477253
-0.0075232586823403835,-0.02388548105955124,0.010666711255908012,0.012656224891543388,0.00022497563622891903,-0.010986984707415104
-0.00702704768627882,-0.024105576798319817,0.010064239613711834,0.01250032614916563,0.0002172262902604416,-0.010982787236571312
-0.006328646093606949,-0.02441522851586342,0.010460404679179192,0.012623004615306854,0.00020998570835217834,-0.010944376699626446
-0.006578759290277958,-0.023822352290153503,0.010999917052686214,0.012463005259633064,0.0002032114571193233,-0.010926258750259876
-0.006800651550292969,-0.023681102320551872,0.011246839538216591,0.01260098721832037,0.00019686087034642696,-0.01113270502537489
-0.006687821354717016,-0.023551052436232567,0.011581719852983952,0.012435766868293285,0.00019089525449089706,-0.011099924333393574
-0.006091922987252474,-0.02365257404744625,0.01138651929795742,0.012431461364030838,0.00018528067448642105,-0.010854114778339863
-0.0061671556904911995,-0.02368270605802536,0.010332081466913223,0.01225969847291708,0.00017998706607613713,-0.011035189963877201
-0.006529783830046654,-0.02431071177124977,0.010787655599415302,0.011916828341782093,0.00017498707165941596,-0.010880853049457073
-0.006365704815834761,-0.024445340037345886,0.010266058146953583,0.012628979980945587,0.0001702576846582815,-0.010922634974122047
-0.006365704815834761,-0.024445340037345886,0.010266058146953583,0.012628979980945587,0.0001702576846582815,-0.010922634974122047
-0.006217850372195244,-0.023378053680062294,0.010563268326222897,0.012540647760033607,0.00016577733913436532,-0.010939575731754303
-0.006480466108769178,-0.023376714438199997,0.010911415331065655,0.012896223925054073,0.00016152668104041368,-0.010857845656573772
-0.006216872483491898,-0.023357918485999107,0.010203446261584759,0.013166595250368118,0.00015748852456454188,-0.011067299172282219
-0.006457175128161907,-0.023516211658716202,0.010259394533932209,0.012967625632882118,0.00015364740102086216,-0.011203539557754993
-0.006294918712228537,-0.02335408702492714,0.010830063372850418,0.013060855679214,0.0001499892387073487,-0.011157129891216755
-0.00647988636046648,-0.02371324598789215,0.011066374368965626,0.012887992896139622,0.00014650123193860054,-0.011457637883722782
-0.005687416065484285,-0.023298131301999092,0.010527818463742733,0.013242455199360847,0.00014317178283818066,-0.011051504872739315
-0.005949494894593954,-0.023230891674757004,0.010827619582414627,0.012787164188921452,0.00013999021030031145,-0.011263533495366573
-0.005915544461458921,-0.0240614116191864,0.01066155731678009,0.012721080332994461,0.0001340334420092404,-0.011424105614423752
-0.006403055507689714,-0.02324637770652771,0.01011335477232933,0.01333869993686676,0.00013124113320373,-0.011342963203787804
-0.005736085586249828,-0.02280847355723381,0.009952235966920853,0.013218551874160767,0.00012856280955020338,-0.012156341224908829
-0.005826791748404503,-0.022525781765580177,0.01073750015348196,0.013301055878400803,0.00012599168985616416,-0.011335453949868679
-0.005899796262383461,-0.022739509120583534,0.010076457634568214,0.01291710790246725,0.00012352137127891183,-0.011219930835068226
-0.006000898312777281,-0.023303279653191566,0.010512995533645153,0.01296557392925024,0.00012114610581193119,-0.011343113146722317
-0.005844723898917437,-0.02305390127003193,0.010047796182334423,0.013062989339232445,0.00011886040010722354,-0.011642019264400005
-0.005704231560230255,-0.022876905277371407,0.009676872752606869,0.012710570357739925,0.00011665936472127214,-0.012070138938724995
-0.006088764872401953,-0.02316346764564514,0.010853125713765621,0.01289000641554594,0.00011453840852482244,-0.011364701204001904
-0.005542879458516836,-0.023398667573928833,0.010474411770701408,0.01250315923243761,5.7787812693277374e-05,-0.011331978254020214
-0.0058296481147408485,-0.023442234843969345,0.009580641984939575,0.01303649228066206,3.918655056622811e-05,-0.011419626884162426
-0.005498532205820084,-0.023282986134290695,0.009842073544859886,0.01266517024487257,3.7241963582346216e-05,-0.011548055335879326
-0.005756352096796036,-0.024642882868647575,0.010496492497622967,0.01286278385668993,3.6414479836821556e-05,-0.011200577020645142
-0.005418603308498859,-0.022877955809235573,0.010581240989267826,0.012845379300415516,3.568762986105867e-05,-0.011390244588255882
-0.005862338934093714,-0.023001953959465027,0.009416764602065086,0.012893015518784523,3.49935180565808e-05,-0.01148020476102829
-0.005221596919000149,-0.023505354300141335,0.009921355172991753,0.013313086703419685,3.432614539633505e-05,-0.011816618032753468
-0.005221596919000149,-0.023505354300141335,0.009921355172991753,0.013313086703419685,3.432614539633505e-05,-0.011816618032753468
-0.005604792386293411,-0.02300151251256466,0.009802824817597866,0.014050117693841457,3.3065018214983866e-05,-0.011960567906498909
-0.005604792386293411,-0.02300151251256466,0.009802824817597866,0.014050117693841457,3.3065018214983866e-05,-0.011960567906498909
-0.005332851782441139,-0.023006519302725792,0.010604950599372387,0.013800576329231262,3.2468578865518793e-05,-0.011745297349989414
-0.005356219597160816,-0.023119397461414337,0.00879750307649374,0.013460593298077583,3.1893287086859345e-05,-0.011415217071771622
-0.005075377877801657,-0.023053310811519623,0.009267709217965603,0.013128410093486309,3.133799327770248e-05,-0.011936355382204056
-0.004889443516731262,-0.022719506174325943,0.009455946274101734,0.013674505054950714,3.080174792557955e-05,-0.012452703900635242
-0.0050607360899448395,-0.022767987102270126,0.009600582532584667,0.01261851005256176,3.0283525120466948e-05,-0.012257658876478672
-0.0049631018191576,-0.02294936031103134,0.009305811487138271,0.012766644358634949,2.9782446290482767e-05,-0.012395087629556656
-0.005353604443371296,-0.022851431742310524,0.009326908737421036,0.012484736740589142,2.9297700166353025e-05,-0.012585396878421307
-0.0048581077717244625,-0.022998470813035965,0.00884780753403902,0.01294300239533186,2.8828468202846125e-05,-0.012930790893733501
-0.005295777227729559,-0.022832224145531654,0.008769217878580093,0.012709242291748524,2.8374037356115878e-05,-0.012406335212290287
-0.004976604133844376,-0.022552862763404846,0.009290095418691635,0.013530098833143711,1.3813894838676788e-05,-0.012296818196773529
-0.004560618195682764,-0.022834092378616333,0.008489835076034069,0.013279101811349392,1.3550349649449345e-05,-0.01217171922326088
-0.004427697509527206,-0.022964786738157272,0.008348257280886173,0.013272546231746674,1.33457979245577e-05,-0.011958837509155273
-0.004676525481045246,-0.02297510951757431,0.009136684238910675,0.012423859909176826,1.3150546692486387e-05,-0.01227627694606781
-0.00473311822861433,-0.022561106830835342,0.008578685112297535,0.013106612488627434,1.2961150787305087e-05,-0.01208336278796196
-0.0046804179437458515,-0.022846810519695282,0.008146815001964569,0.012908073142170906,1.2777139090758283e-05,-0.01272791437804699
-0.004589028190821409,-0.023282941430807114,0.008730368688702583,0.013028789311647415,1.644569465497625e-06,-0.012817304581403732
-0.004595490172505379,-0.02282588742673397,0.008914118632674217,0.01348738744854927,1.0737862510268315e-07,-0.012861613184213638
-0.004525454714894295,-0.022650115191936493,0.007972465828061104,0.0134162288159132,7.011056624151024e-09,-0.01212506927549839
-0.004730924963951111,-0.02360483631491661,0.007966306060552597,0.01310862135142088,4.577719037168748e-10,-0.01242876797914505
-0.0047006611712276936,-0.023536954075098038,0.009375885128974915,0.012467220425605774,2.988923691882306e-11,-0.012441657483577728
-0.004894547164440155,-0.02306518517434597,0.008613870479166508,0.012821677140891552,1.951553502133052e-12,-0.012566757388412952
-0.004311351105570793,-0.02294286899268627,0.00823783129453659,0.01210804283618927,1.2742251372967195e-13,-0.012767619453370571
-0.004437563940882683,-0.021986015141010284,0.00832103006541729,0.012508177198469639,8.319779530563919e-15,-0.012708996422588825
-0.004560267552733421,-0.02234943024814129,0.008261820301413536,0.012005787342786789,5.432221343484433e-16,-0.012701843865215778
-0.0042250193655490875,-0.023053547367453575,0.00830262340605259,0.012068630196154118,3.5468521975706114e-17,-0.012549095787107944
-0.00426507880911231,-0.022653471678495407,0.008482640609145164,0.01231146790087223,2.3158410173524605e-18,-0.012579377740621567
-0.004910290706902742,-0.022032517939805984,0.008835033513605595,0.012172059156000614,1.512078792669604e-19,-0.012651851400732994
-0.0048294952139258385,-0.022181926295161247,0.00773738045245409,0.012971370480954647,9.872794814081055e-21,-0.012492956593632698
-0.004665214102715254,-0.022625474259257317,0.007538492325693369,0.01274888589978218,6.446230024684074e-22,-0.01289021223783493
-0.004665214102715254,-0.022625474259257317,0.007538492325693369,0.01274888589978218,6.446230024684074e-22,-0.01289021223783493
-0.0042398227378726006,-0.022407062351703644,0.008096425794064999,0.013074918650090694,4.2089276012170853e-23,-0.013076765462756157
-0.003967437893152237,-0.02162851206958294,0.008239535614848137,0.012913636863231659,2.7481292947542454e-24,-0.013478439301252365
-0.0038045234978199005,-0.02153155580163002,0.007602383382618427,0.013148138299584389,1.7943319216592338e-25,-0.013171063736081123
-0.00410394137725234,-0.02144964598119259,0.007683623116463423,0.01286484207957983,1.1715705333759659e-26,-0.013726634904742241
-0.003977504093199968,-0.021797358989715576,0.007503923960030079,0.01328327413648367,-0.00026984669966623187,-0.012585330754518509
-0.00370087125338614,-0.022210104390978813,0.007514919154345989,0.013953868299722672,-0.00041610936750657856,-0.012932952493429184
-0.0035477615892887115,-0.02188638597726822,0.00819986779242754,0.013572362251579762,-0.0004486163379624486,-0.01304108090698719
-0.0036060272250324488,-0.021789804100990295,0.007947769947350025,0.013422569260001183,-0.00043128084507770836,-0.013267071917653084
-0.003564440179616213,-0.022267285734415054,0.0071639553643763065,0.01295069046318531,-0.00042657332960516214,-0.01326166745275259
-0.003663974581286311,-0.022041214630007744,0.00729382922872901,0.012643549591302872,-0.0004566152929328382,-0.013721305876970291
-0.003912570420652628,-0.02185025066137314,0.008128462359309196,0.012943524867296219,-0.0006654532626271248,-0.013942794874310493
-0.0035094688646495342,-0.021805470809340477,0.007760217413306236,0.012547502294182777,-0.0007451617857441306,-0.014036846347153187
-0.0035772810224443674,-0.022314472123980522,0.007382737938314676,0.012519830837845802,-0.0007656851084902883,-0.013336227275431156
-0.003677080851048231,-0.02344098873436451,0.0070660850033164024,0.012339547276496887,-0.0007158377557061613,-0.013721293769776821
-0.003685910487547517,-0.02146061323583126,0.007443330250680447,0.01263144426047802,-0.0009355917572975159,-0.01368862297385931
-0.0032883095555007458,-0.021351272240281105,0.007885996252298355,0.012539506889879704,-0.0007945940014906228,-0.013918912969529629
-0.0034725822042673826,-0.022448770701885223,0.0073276180773973465,0.012238933704793453,-0.0008012141915969551,-0.013362118974328041
-0.0032431369181722403,-0.022114941850304604,0.006927544716745615,0.012481098994612694,-0.0007046897662803531,-0.01375078596174717
-0.003230994800105691,-0.022073984146118164,0.00741454167291522,0.012824979610741138,-0.0007129081641323864,-0.013925229199230671
-0.0033314235042780638,-0.02219005674123764,0.007763047236949205,0.013217355124652386,-0.0006960344035178423,-0.014256257563829422
-0.003395759267732501,-0.02209150418639183,0.007081021089106798,0.012806913815438747,-0.000672125956043601,-0.014144368469715118
-0.0031729168258607388,-0.021827608346939087,0.006808274891227484,0.013112309388816357,-0.0005808190908282995,-0.01392335630953312
-0.003014166373759508,-0.02121242880821228,0.006935993675142527,0.01282910630106926,-0.0005871392204426229,-0.013796030543744564
-0.002775005530565977,-0.02134830877184868,0.007085643708705902,0.012330509722232819,-0.0005500068073160946,-0.013969804160296917
-0.0028728831093758345,-0.021883945912122726,0.006742631085216999,0.012259372510015965,-0.0005778903141617775,-0.014117361046373844
-0.002921193605288863,-0.021747421473264694,0.006544915959239006,0.011556576006114483,-0.0006049117655493319,-0.014347672462463379
-0.002921193605288863,-0.021747421473264694,0.006544915959239006,0.011556576006114483,-0.0006049117655493319,-0.014347672462463379
-0.0029295010026544333,-0.021672610193490982,0.006716733332723379,0.012065849266946316,-0.0008458131342194974,-0.014789758250117302
-0.002604900626465678,-0.02147023007273674,0.0064515406265854836,0.012555550783872604,-0.0009355497895739973,-0.014710919931530952
-0.0025853579863905907,-0.02190089225769043,0.006284157745540142,0.012840810231864452,-0.0012743721017614007,-0.013972828164696693
-0.002429116517305374,-0.02136095240712166,0.006658982951194048,0.013352558948099613,-0.0015847486210986972,-0.013895082287490368
-0.002503557363525033,-0.02161368355154991,0.006922102067619562,0.013431181199848652,-0.0015380214899778366,-0.014063771814107895
-0.0024219651240855455,-0.021828660741448402,0.006535762455314398,0.013111339882016182,-0.0013879563193768263,-0.014152337796986103
-0.002378984587267041,-0.022108476608991623,0.0065339840948581696,0.01277677807956934,-0.0012570999097079039,-0.014049374498426914
-0.002631962299346924,-0.021469274535775185,0.0067718676291406155,0.013021458871662617,-0.0011856909841299057,-0.01442348025739193
-0.0022118608467280865,-0.0207842905074358,0.006083110347390175,0.013648766092956066,-0.0010269000194966793,-0.015057343989610672
-0.0019982727244496346,-0.02120348811149597,0.00663461210206151,0.013228452764451504,-0.0009610063279978931,-0.014600980095565319
-0.0019399222219362855,-0.021626655012369156,0.006708922795951366,0.013309896923601627,-0.0010439616162329912,-0.014815731905400753
-0.002258666092529893,-0.02171402797102928,0.006198094692081213,0.01298059057444334,-0.001540759694762528,-0.014636922627687454
-0.00204253988340497,-0.02079181559383869,0.006040041334927082,0.012929996475577354,-0.0017189171630889177,-0.015165567398071289
-0.0022136219777166843,-0.021350879222154617,0.006579911336302757,0.012901338748633862,-0.002249168697744608,-0.015397010371088982
-0.0019283646252006292,-0.021060531958937645,0.006642631255090237,0.01251145638525486,-0.0020621521398425102,-0.015287884511053562
-0.0015174519503489137,-0.021359002217650414,0.006643340922892094,0.012548777274787426,-0.0016624360578134656,-0.015296543017029762
-0.0015571595868095756,-0.02104460448026657,0.006393717136234045,0.012196787633001804,-0.001571905449964106,-0.015659449622035027
-0.0014422177337110043,-0.021278761327266693,0.006364795845001936,0.01249890960752964,-0.001434746547602117,-0.015397509559988976
-0.0014137458056211472,-0.020400600507855415,0.006390501745045185,0.01224282942712307,-0.0012513912515714765,-0.01524954754859209
-0.0013515077298507094,-0.020575812086462975,0.006530980579555035,0.013082933612167835,-0.001158625353127718,-0.015272638760507107
-0.0012842959258705378,-0.02100507728755474,0.006608618423342705,0.012909813784062862,-0.0011982345022261143,-0.01642061397433281
-0.001184899709187448,-0.021412452682852745,0.005638230126351118,0.013007867150008678,-0.00133619480766356,-0.015439573675394058
-0.0012584030628204346,-0.021221965551376343,0.006078462582081556,0.012778475880622864,-0.0014715137658640742,-0.014373203739523888
-0.0012339033419266343,-0.020900268107652664,0.006978040095418692,0.012686976231634617,-0.0013978509232401848,-0.01489391177892685
-0.0011802425142377615,-0.020941181108355522,0.006308844778686762,0.013055253773927689,-0.0014625341864302754,-0.015560926869511604
-0.001151455333456397,-0.02096993289887905,0.005937153939157724,0.012642662040889263,-0.0014388556592166424,-0.01594042219221592
-0.001151455333456397,-0.02096993289887905,0.005937153939157724,0.012642662040889263,-0.0014388556592166424,-0.01594042219221592
-0.0011069014435634017,-0.020802777260541916,0.006037801969796419,0.01321327593177557,-0.0014672367833554745,-0.015568478032946587
-0.0009560256730765104,-0.02074206992983818,0.006008834578096867,0.01302191149443388,-0.0014238874427974224,-0.016043027862906456
-0.0009435500833205879,-0.0208963081240654,0.006378441583365202,0.013389887288212776,-0.0014216997660696507,-0.016404831781983376
-0.0008488333551213145,-0.020903225988149643,0.006909736432135105,0.013217457570135593,-0.0013480019988492131,-0.016446245834231377
-0.0007166716386564076,-0.02052946202456951,0.0060538300313055515,0.012699387967586517,-0.0014122435823082924,-0.016237832605838776
-0.0007363438489846885,-0.020950794219970703,0.005778080318123102,0.012934339232742786,-0.0014156891265884042,-0.01606167107820511
-0.0006520508322864771,-0.021613696590065956,0.006605714093893766,0.012386378832161427,-0.0018014017259702086,-0.016243500635027885
-0.0006746199796907604,-0.02003077045083046,0.006361728999763727,0.012897090055048466,-0.0016892333514988422,-0.016142388805747032
-0.0005583950551226735,-0.021233873441815376,0.005718535743653774,0.01287900097668171,-0.001573406858369708,-0.01639292947947979
-0.0005773389711976051,-0.021055622026324272,0.005756612401455641,0.012393484823405743,-0.0014388372655957937,-0.016420839354395866
-0.0005419281078502536,-0.020798617973923683,0.005740040447562933,0.012800950556993484,-0.0012538150185719132,-0.016281958669424057
-0.0005040872492827475,-0.02094981260597706,0.005816090852022171,0.012583079747855663,-0.001277887262403965,-0.01680096611380577
-0.00047109968727454543,-0.021137584000825882,0.00621813116595149,0.012686613947153091,-0.001215976313687861,-0.016448212787508965
-0.0004421626799739897,-0.020775081589818,0.005438908003270626,0.013197453692555428,-0.0011020892998203635,-0.01623762585222721
-0.0004165770369581878,-0.020498143509030342,0.0049681272357702255,0.01275070384144783,-0.0010228333994746208,-0.016228722408413887
-0.00034704283461906016,-0.020391331985592842,0.005607916973531246,0.013094642199575901,-0.00108279415871948,-0.016750836744904518
-0.0003206764522474259,-0.02030165307223797,0.00558952521532774,0.012647292576730251,-0.0010950210271403193,-0.017060941085219383
-0.00029931965400464833,-0.020576070994138718,0.006027965806424618,0.013039213605225086,-0.0012559156166389585,-0.016838375478982925
-0.00028064846992492676,-0.020559875294566154,0.0052969674579799175,0.012601405382156372,-0.0012860377319157124,-0.016863003373146057
-0.0002641711907926947,-0.02040393278002739,0.005154914688318968,0.012567078694701195,-0.0012248092098161578,-0.016757482662796974
-0.0002495208173058927,-0.020212890580296516,0.005040994379669428,0.012662900611758232,-0.0011650872183963656,-0.016723446547985077
-0.0002364108368055895,-0.020284293219447136,0.006055294070392847,0.012914584018290043,-0.001171856769360602,-0.017103413119912148
-0.00019516947213560343,-0.020600082352757454,0.005523886997252703,0.012859986163675785,-0.0011377556947991252,-0.01702980510890484
0.0001557692012283951,-0.020082660019397736,0.00530219916254282,0.012472039088606834,-0.0011214338010177016,-0.017077524214982986
0.0004490528372116387,-0.01996721141040325,0.004972751252353191,0.012371251359581947,-0.0012600552290678024,-0.01653149165213108
0.002444328274577856,-0.020067337900400162,0.004782428033649921,0.012268507853150368,-0.0012147536035627127,-0.01695927418768406
0.001529515953734517,-0.01986740529537201,0.004770572297275066,0.012992046773433685,-0.001179949613288045,-0.017428383231163025
0.001529515953734517,-0.01986740529537201,0.004770572297275066,0.012992046773433685,-0.001179949613288045,-0.017428383231163025
0.0007386620854958892,-0.019673574715852737,0.005658235866576433,0.01265522837638855,-0.0012789758620783687,-0.017570199444890022
-0.00018699682550504804,-0.019699271768331528,0.004904244095087051,0.012979750521481037,-0.0015657269395887852,-0.017585985362529755
-0.00018699682550504804,-0.019699271768331528,0.004904244095087051,0.012979750521481037,-0.0015657269395887852,-0.017585985362529755
-2.508800889700069e-06,-0.019163429737091064,0.004947827663272619,0.012734811753034592,-0.0014799193013459444,-0.017606541514396667
0.0009160827612504363,-0.01919161155819893,0.004809626843780279,0.012854102067649364,-0.0012804948491975665,-0.017641564831137657
0.002214238978922367,-0.01945052295923233,0.004517311695963144,0.01237641740590334,-0.0011790781281888485,-0.01757017895579338
0.0015918033896014094,-0.019292885437607765,0.004684074781835079,0.012938661500811577,-0.0010249229380860925,-0.017567917704582214
0.0008493198547512293,-0.019282883033156395,0.00479850685223937,0.012779531069099903,-0.0009686251287348568,-0.017649035900831223
0.0005625191843137145,-0.0191021915525198,0.004780344665050507,0.012802917510271072,-0.0013784265611320734,-0.018218811601400375
0.0002935774391517043,-0.018535621464252472,0.004407568369060755,0.012815102934837341,-0.0014507389860227704,-0.018038926646113396
0.00038555817445740104,-0.018535885959863663,0.004384368192404509,0.01267173606902361,-0.0015551463002339005,-0.01890244148671627
0.0004540008376352489,-0.01832999289035797,0.004841758869588375,0.012215406633913517,-0.001501136226579547,-0.017385253682732582
0.001204014290124178,-0.01891162618994713,0.004752670414745808,0.012607425451278687,-0.0013726784382015467,-0.017336588352918625
0.0009761074907146394,-0.018504004925489426,0.004832035396248102,0.012375418096780777,-0.0013071215944364667,-0.01839713379740715
0.0008021703688427806,-0.018078332766890526,0.004852586425840855,0.012428496032953262,-0.0012686314294114709,-0.018393343314528465
0.0006806534947827458,-0.018469510599970818,0.0047985864803195,0.012067168951034546,-0.0013644479913637042,-0.0181750301271677
0.0006946934154257178,-0.018122011795639992,0.00449291430413723,0.011963794939219952,-0.0018156978767365217,-0.01838509552180767
0.0007183871930465102,-0.018443996086716652,0.0049093347042799,0.012422462925314903,-0.001865747501142323,-0.01846417598426342
0.0007447380339726806,-0.019026026129722595,0.005433281883597374,0.012704570777714252,-0.0016106351977214217,-0.01878119632601738
0.0005968818441033363,-0.0181229617446661,0.004801361355930567,0.013165673241019249,-0.0013410804094746709,-0.01916109025478363
0.0006209060666151345,-0.018204133957624435,0.004472972359508276,0.012406032532453537,-0.0012404985027387738,-0.018922101706266403
0.0007100654765963554,-0.017625199630856514,0.004514687694609165,0.012638353742659092,-0.0011798462364822626,-0.018182305619120598
0.0006830286583863199,-0.017666731029748917,0.004558952990919352,0.012337303720414639,-0.0010467070387676358,-0.01778256706893444
0.00115984829608351,-0.01813584752380848,0.004283486399799585,0.012637105770409107,-0.0011361389188095927,-0.01816842146217823
0.0011321782367303967,-0.0183285903185606,0.004473949782550335,0.013003875501453876,-0.0014630446676164865,-0.01845984160900116
0.0011007277062162757,-0.018482107669115067,0.004577114246785641,0.012906018644571304,-0.0019474144792184234,-0.018652349710464478
0.0010926856193691492,-0.017561860382556915,0.004641495645046234,0.013565408997237682,-0.0018256857292726636,-0.01913786493241787
0.0010597186628729105,-0.017873473465442657,0.0046163760125637054,0.012927263975143433,-0.0016893954016268253,-0.01893308386206627
0.0010597186628729105,-0.017873473465442657,0.0046163760125637054,0.012927263975143433,-0.0016893954016268253,-0.01893308386206627
0.0010290335630998015,-0.018499385565519333,0.0046674469485878944,0.012941094115376472,-0.0015060130972415209,-0.019064782187342644
0.0010106798727065325,-0.01813965104520321,0.004193820990622044,0.01225303579121828,-0.0013886485248804092,-0.019499454647302628
0.0009314978960901499,-0.017722193151712418,0.003904459998011589,0.01280812919139862,-0.0012371703051030636,-0.020496079698204994
0.001167943817563355,-0.018266843631863594,0.004126725718379021,0.012705099768936634,-0.001273931236937642,-0.020254584029316902
0.002036416670307517,-0.018138986080884933,0.004397258162498474,0.012909739278256893,-0.001898649032227695,-0.019322998821735382
0.002502775052562356,-0.01839049719274044,0.004112231079488993,0.011855954304337502,-0.0022914675064384937,-0.01932826079428196
0.0021427071187645197,-0.01786390133202076,0.0043079131282866,0.013032308779656887,-0.0021305731497704983,-0.019232196733355522
0.001817438518628478,-0.017910974100232124,0.004242280498147011,0.013120065443217754,-0.0019952640868723392,-0.019689004868268967
0.001789492554962635,-0.017758112400770187,0.004004763439297676,0.012954173609614372,-0.001841475022956729,-0.02041931450366974
0.0019674485083669424,-0.017456810921430588,0.0038353411946445704,0.01217647548764944,-0.0017098109237849712,-0.020493192598223686
0.0024819006212055683,-0.017971597611904144,0.00429837079718709,0.012769465334713459,-0.0016929428093135357,-0.020222052931785583
0.0025392980314791203,-0.017829716205596924,0.004106167703866959,0.01203344576060772,-0.0015141544863581657,-0.01989910379052162
0.0029651587828993797,-0.017611095681786537,0.003919160459190607,0.01207271683961153,-0.0013897650642320514,-0.02011750638484955
0.0029915152117609978,-0.017918843775987625,0.00391703424975276,0.012258222326636314,-0.001376322121359408,-0.019987866282463074
0.0029526641592383385,-0.017751727253198624,0.00391709478572011,0.012155373580753803,-0.0012445773463696241,-0.020100310444831848
0.00278083817102015,-0.017671240493655205,0.00379180908203125,0.012665895745158195,-0.00117024895735085,-0.020579876378178596
0.0030221540946513414,-0.0177301075309515,0.0033732703886926174,0.012107049115002155,-0.0012324866838753223,-0.020700642839074135
0.0033701981883496046,-0.017621906474232674,0.0036199288442730904,0.012323383241891861,-0.0012967538787052035,-0.020427877083420753
0.0033258269540965557,-0.018048178404569626,0.00378697132691741,0.012470307759940624,-0.0014622689923271537,-0.02009415440261364
0.0034824854228645563,-0.017680346965789795,0.0037515382282435894,0.012269758619368076,-0.0014354076702147722,-0.02030761167407036
0.003702575108036399,-0.01769033819437027,0.0037243973929435015,0.01263884175568819,-0.0015723921824246645,-0.021152911707758904
0.0034698382951319218,-0.01811920665204525,0.003312133951112628,0.012429395690560341,-0.0015899479622021317,-0.021290048956871033
0.004117913544178009,-0.017333462834358215,0.0034683251287788153,0.01296241208910942,-0.001724781934171915,-0.02036273665726185
0.004162728786468506,-0.01749514415860176,0.0036722002550959587,0.012742496095597744,-0.001786274602636695,-0.020237110555171967
0.00435839407145977,-0.01774376817047596,0.003337546717375517,0.013336663134396076,-0.0019689167384058237,-0.020495513454079628
0.004270222969353199,-0.01749657653272152,0.0030682727228850126,0.012939829379320145,-0.0019854330457746983,-0.02058935910463333
0.004404324106872082,-0.018104130402207375,0.003215576522052288,0.013001302257180214,-0.0020387631375342607,-0.020932920277118683
0.004404324106872082,-0.018104130402207375,0.003215576522052288,0.013001302257180214,-0.0020387631375342607,-0.020932920277118683
0.00441115302965045,-0.017274558544158936,0.003251622198149562,0.012502648867666721,-0.0019945274107158184,-0.022420281544327736
0.004487079568207264,-0.017781272530555725,0.00355369970202446,0.012601169757544994,-0.0018070709193125367,-0.02087252028286457
0.004355325363576412,-0.017488352954387665,0.004248510580509901,0.013053183443844318,-0.0016479409532621503,-0.020348185673356056
0.004670210648328066,-0.016716156154870987,0.003609848441556096,0.012210541404783726,-0.001517385826446116,-0.021091878414154053
0.005107084754854441,-0.017477449029684067,0.0031360560096800327,0.012690066359937191,-0.0014108746545389295,-0.022013872861862183
0.004930527415126562,-0.017302660271525383,0.002909078961238265,0.01303552184253931,-0.0013302343431860209,-0.021649697795510292
0.005120156332850456,-0.01689947210252285,0.003035434056073427,0.012777982279658318,-0.0015281465603038669,-0.020764756947755814
0.005442887078970671,-0.016206562519073486,0.0029071702156215906,0.012731393799185753,-0.00152769242413342,-0.021067118272185326
0.0060681067407131195,-0.017263220623135567,0.0026924845296889544,0.012591148726642132,-0.001899912254884839,-0.021829497069120407
0.005448986776173115,-0.01728908158838749,0.002766141202300787,0.012409673072397709,-0.0018302429234609008,-0.022222226485610008
0.0052715931087732315,-0.017376592382788658,0.002902178792282939,0.012793831527233124,-0.0019409016240388155,-0.022160788998007774
0.005591314751654863,-0.016754262149333954,0.0030037802644073963,0.012345975264906883,-0.0017757349414750934,-0.022365093231201172
0.006128332577645779,-0.016230886802077293,0.0027721181977540255,0.013174030929803848,-0.0017274117562919855,-0.022155949845910072
0.006300142500549555,-0.016359468922019005,0.0025467537343502045,0.013013030402362347,-0.0017511744517832994,-0.022487705573439598
0.00614301860332489,-0.01581387408077717,0.002555904444307089,0.013269292190670967,-0.001957185100764036,-0.0222499780356884
0.0065467385575175285,-0.016158755868673325,0.0023442949168384075,0.012247614562511444,-0.0019513004226610065,-0.02225359156727791
0.0067894235253334045,-0.01597217284142971,0.0025359473656862974,0.01200795080512762,-0.0018917848356068134,-0.022519370540976524
0.006605715956538916,-0.016432661563158035,0.0024190018884837627,0.01302006933838129,-0.0017468900186941028,-0.022824475541710854
0.007022780831903219,-0.0165262371301651,0.002295269863680005,0.012457729317247868,-0.0016434367280453444,-0.02295818366110325
0.006653381045907736,-0.016539717093110085,0.0023272819817066193,0.013216900639235973,-0.0016981113003566861,-0.02248746156692505
0.006644779350608587,-0.01639985479414463,0.0022483656648546457,0.012861971743404865,-0.0015858759870752692,-0.022583235055208206
0.0073706223629415035,-0.01589800789952278,0.0024687363766133785,0.012895378284156322,-0.0016941479407250881,-0.023054281249642372
0.00780341774225235,-0.016284694895148277,0.002608292503282428,0.012813905254006386,-0.001692744786851108,-0.02318328432738781
0.007213630247861147,-0.016040362417697906,0.0024001444689929485,0.01323380321264267,-0.001749507850036025,-0.022734494879841805
0.006927093490958214,-0.01671702042222023,0.0021422929130494595,0.013043125160038471,-0.0015949779190123081,-0.022797249257564545
0.008172516711056232,-0.015594663098454475,0.002044162480160594,0.01315491832792759,-0.001565704238601029,-0.022802572697401047
0.007870943285524845,-0.015979131683707237,0.002344368491321802,0.013097982853651047,-0.001589686842635274,-0.02295379526913166
0.007870943285524845,-0.015979131683707237,0.002344368491321802,0.013097982853651047,-0.001589686842635274,-0.02295379526913166
0.007883116602897644,-0.016122333705425262,0.002380575053393841,0.013051262125372887,-0.0015636024763807654,-0.0233597494661808
0.007636124733835459,-0.015933098271489143,0.002516343956813216,0.013221337459981441,-0.0018265903927385807,-0.023198425769805908
0.008041039109230042,-0.01631174050271511,0.001980703556910157,0.012796699069440365,-0.001973772654309869,-0.02292003482580185
0.008429531008005142,-0.016167383641004562,0.0019042937783524394,0.01330606546252966,-0.002212031278759241,-0.023120762780308723
0.00837947428226471,-0.01658426970243454,0.0020768374670296907,0.012485142797231674,-0.002235288731753826,-0.023652728646993637
0.008204295299947262,-0.01594775915145874,0.0020189585629850626,0.013030916452407837,-0.0022434121929109097,-0.023698674514889717
0.0081692049279809,-0.01654992438852787,0.002079801633954048,0.01279162336140871,-0.002115450333803892,-0.023574404418468475
0.008719222620129585,-0.01629401184618473,0.0020531092304736376,0.012775499373674393,-0.0019351128721609712,-0.02375675179064274
0.009488945826888084,-0.01641678996384144,0.0018332245526835322,0.012718651443719864,-0.0019042199710384011,-0.023648837581276894
0.009051209315657616,-0.016663670539855957,0.0017076925141736865,0.01286638155579567,-0.0018206409877166152,-0.02369922772049904
0.008628598414361477,-0.017002107575535774,0.001689945813268423,0.012287069112062454,-0.0018083069007843733,-0.023693649098277092
0.008515807799994946,-0.01615719124674797,0.0015959942247718573,0.012922560796141624,-0.001838158001191914,-0.023583732545375824
0.0090445252135396,-0.016308221966028214,0.0018900614231824875,0.012547223828732967,-0.001741709653288126,-0.023693596944212914
0.00902884267270565,-0.01601005159318447,0.0017145612509921193,0.012894788756966591,-0.0017183246091008186,-0.023618778213858604
0.009102475829422474,-0.016855940222740173,0.0018056591507047415,0.012542041949927807,-0.001738809165544808,-0.02365535870194435
0.009366564452648163,-0.016934070736169815,0.0017573845107108355,0.013082142919301987,-0.0016402050387114286,-0.02387235127389431
0.009232482872903347,-0.01650136150419712,0.0015573789132758975,0.012880762107670307,-0.0016103265807032585,-0.024020841345191002
0.009044048376381397,-0.016785385087132454,0.0014235583366826177,0.012683788314461708,-0.0016564192483201623,-0.024020714685320854
0.010399687103927135,-0.016509853303432465,0.0014403447275981307,0.012751125730574131,-0.001826667576096952,-0.023953961208462715
0.009935442358255386,-0.016882188618183136,0.0013341140002012253,0.01236745622009039,-0.0017716303700581193,-0.0238485150039196
0.009302702732384205,-0.016666971147060394,0.0014541879063472152,0.012654321268200874,-0.0019466596422716975,-0.023962225764989853
0.009792746044695377,-0.016720902174711227,0.0013924860395491123,0.012529131956398487,-0.0019848255906254053,-0.02434156835079193
0.010057378560304642,-0.016812290996313095,0.001573435147292912,0.012952972203493118,-0.002350485185161233,-0.024803373962640762
0.009881561622023582,-0.01617008075118065,0.0014400306390598416,0.012780915014445782,-0.0022033737041056156,-0.02468307875096798
0.0101480009034276,-0.016620978713035583,0.0012865186436101794,0.013260021805763245,-0.0021325331181287766,-0.024770032614469528
0.00987524725496769,-0.016400819644331932,0.0011348746484145522,0.013622994534671307,-0.0019375310512259603,-0.024393415078520775
0.009999849833548069,-0.016573602333664894,0.0009018225828185678,0.013082608580589294,-0.0018138183513656259,-0.024280406534671783
0.009999849833548069,-0.016573602333664894,0.0009018225828185678,0.013082608580589294,-0.0018138183513656259,-0.024280406534671783
0.010770788416266441,-0.016366394236683846,0.0008987367618829012,0.012836235575377941,-0.0016748305642977357,-0.024368109181523323
0.010341758839786053,-0.01629774086177349,0.0010113843018189073,0.011575475335121155,-0.0016877356683835387,-0.025254838168621063
0.01005955133587122,-0.016713697463274002,0.0011202587047591805,0.013517478480935097,-0.0016680320259183645,-0.02509412355720997
0.010751291178166866,-0.016196049749851227,0.001223045284859836,0.013299503363668919,-0.0016160497907549143,-0.024928539991378784
0.010645103640854359,-0.01685803197324276,0.0010714957024902105,0.013615178875625134,-0.0016025929944589734,-0.024582043290138245
0.009007742628455162,-0.016436021775007248,0.0010413234122097492,0.012903246097266674,-0.0015358468517661095,-0.0242494884878397
0.009923437610268593,-0.016225935891270638,0.0009139902540482581,0.013003375381231308,-0.0015412236098200083,-0.024785665795207024
0.009322739206254482,-0.0158197283744812,0.0008224437478929758,0.012570724822580814,-0.001551321242004633,-0.025382600724697113
0.010936233215034008,-0.01599189080297947,0.000603049760684371,0.01286260224878788,-0.0016181542305275798,-0.025494033470749855
0.010936233215034008,-0.01599189080297947,0.000603049760684371,0.01286260224878788,-0.0016181542305275798,-0.025494033470749855
0.00982566736638546,-0.015677720308303833,0.000475508306408301,0.012657140381634235,-0.0015631067799404263,-0.026767069473862648
0.010487559251487255,-0.015228689648211002,0.00043004084727726877,0.012158355675637722,-0.0016737979603931308,-0.025462567806243896
0.010773176327347755,-0.015834055840969086,0.0004615094803739339,0.012601921334862709,-0.0022954829037189484,-0.024805951863527298
0.010305143892765045,-0.015598127618432045,0.00043308857129886746,0.01275939866900444,-0.0028594532050192356,-0.025050519034266472
0.01004761178046465,-0.0164626557379961,0.0004010336706414819,0.012758937664330006,-0.0029004570096731186,-0.025565069168806076
0.01002423744648695,-0.01589238829910755,0.0003326314326841384,0.012410694733262062,-0.0026853529270738363,-0.02612176537513733
0.01040616724640131,-0.015290829353034496,0.00029125894070602953,0.012356624007225037,-0.0022717320825904608,-0.02672097645699978
0.01068435050547123,-0.014741092920303345,0.00027329844306223094,0.012200910598039627,-0.0021201944909989834,-0.02617703564465046
0.010942128486931324,-0.015325064770877361,0.0003030260559171438,0.012089384719729424,-0.0018234190065413713,-0.02638331428170204
0.010572397150099277,-0.015106058679521084,0.00026042331592179835,0.012431112118065357,-0.0016778330318629742,-0.026356782764196396
0.010708537884056568,-0.01437669899314642,0.00023139537370298058,0.012295890599489212,-0.0016198441153392196,-0.02656949684023857
0.01082914974540472,-0.015170322731137276,0.00021987751824781299,0.012530135922133923,-0.0016935456078499556,-0.026908425614237785
0.011160625144839287,-0.014841190539300442,0.00014192666276358068,0.012174484319984913,-0.0017689646920189261,-0.027213603258132935
0.011834898963570595,-0.015049065463244915,-0.00017704485799185932,0.012258520349860191,-0.0018889006460085511,-0.026541946455836296
0.01140189915895462,-0.015080045908689499,-0.0002466757723595947,0.01314637903124094,-0.0017041510436683893,-0.026381224393844604
0.011305339634418488,-0.014614232815802097,-0.001506709959357977,0.013115150853991508,-0.0016175206983461976,-0.027410676702857018
0.011242788285017014,-0.014004980213940144,-0.0010841923067346215,0.013595124706625938,-0.0015871374635025859,-0.0275252852588892
0.011242788285017014,-0.014004980213940144,-0.0010841923067346215,0.013595124706625938,-0.0015871374635025859,-0.0275252852588892
0.011314264498651028,-0.014405478723347187,-0.0007807235233485699,0.012570624239742756,-0.0017939961981028318,-0.026663614436984062
0.011187534779310226,-0.014323562383651733,-0.00048768558190204203,0.01280394196510315,-0.001925712451338768,-0.026001356542110443
0.011112144216895103,-0.014649034477770329,-0.0005415871855802834,0.01203698106110096,-0.0023832323495298624,-0.026220982894301414
0.01153046078979969,-0.014747552573680878,-0.00028075845330022275,0.011972255073487759,-0.0021702491212636232,-0.027174701914191246
0.011034061200916767,-0.014824053272604942,-0.0002748271799646318,0.012241852469742298,-0.0020689580123871565,-0.027165308594703674
0.011178755201399326,-0.014155360870063305,-0.00035639849375002086,0.012405955232679844,-0.0018554136622697115,-0.026827726513147354
0.011480720713734627,-0.014898444525897503,-0.0004170918255113065,0.013547168113291264,-0.0018615210428833961,-0.027711551636457443
0.01134673785418272,-0.014439847320318222,-0.0003773751959670335,0.013212439604103565,-0.0022893219720572233,-0.028549140319228172
0.010945676825940609,-0.014398746192455292,-0.0006665847613476217,0.012676829472184181,-0.002456056419759989,-0.02621188573539257
0.01169757079333067,-0.014544018544256687,-0.00046992674469947815,0.012689505703747272,-0.002190310973674059,-0.027179770171642303
0.011861766688525677,-0.014366083778440952,-0.00041173375211656094,0.01283068023622036,-0.001944019109942019,-0.028200794011354446
0.012090732343494892,-0.016523092985153198,-0.00021038218983449042,0.013553416356444359,-0.0018610302358865738,-0.028176482766866684
0.011885218322277069,-0.013553991913795471,-0.00016638300439808518,0.01360838022083044,-0.001794007490389049,-0.027631158009171486
0.01177195180207491,-0.01424979418516159,-0.00027842464623972774,0.01327300351113081,-0.0017991113709285855,-0.027412645518779755
0.012052485719323158,-0.014367988333106041,-0.00035878189373761415,0.013306351378560066,-0.0018866938771679997,-0.02737889438867569
0.011827335692942142,-0.01473807543516159,-0.0003207580011803657,0.01309199072420597,-0.001901571755297482,-0.027249885722994804
0.011382521130144596,-0.014135136269032955,-0.00038087976281531155,0.013423198834061623,-0.0022228453308343887,-0.027645351365208626
0.011765745468437672,-0.01446843147277832,-0.0005495084333233535,0.013168243691325188,-0.0023792278952896595,-0.027516605332493782
0.011529837734997272,-0.013999388553202152,-0.0005765226087532938,0.013165492564439774,-0.002334448043256998,-0.027288418263196945
0.01199287548661232,-0.014409055933356285,-0.0006130735855549574,0.012845478020608425,-0.002145815407857299,-0.027270415797829628
0.01194579154253006,-0.013901874423027039,-0.0006325138965621591,0.013466096483170986,-0.002140776952728629,-0.028126142919063568
0.011908910237252712,-0.014158090576529503,-0.0006572002312168479,0.013050422072410583,-0.00207270635291934,-0.02824784815311432
0.012659922242164612,-0.014113412238657475,-0.0007793930126354098,0.01323248352855444,-0.0020685605704784393,-0.028037244454026222
0.011578330770134926,-0.014083784073591232,-0.000874425342772156,0.013358316384255886,-0.002274572616443038,-0.027971778064966202
0.01188755314797163,-0.01371194701641798,-0.000882607011590153,0.013332942500710487,-0.002597299637272954,-0.027884511277079582
0.011769680306315422,-0.013561305589973927,-0.000884740671608597,0.013213847763836384,-0.002713332651183009,-0.027814097702503204
0.012230701744556427,-0.013189222663640976,-0.0010047240648418665,0.01296122744679451,-0.002765681128948927,-0.028467901051044464
0.01236609648913145,-0.013274535536766052,-0.001012285239994526,0.013282104395329952,-0.002388005843386054,-0.02850656770169735
0.012120223604142666,-0.013438140042126179,-0.0010866437805816531,0.012794754467904568,-0.002190694911405444,-0.028343109413981438
0.012120223604142666,-0.013438140042126179,-0.0010866437805816531,0.012794754467904568,-0.002190694911405444,-0.028343109413981438
0.012842444702982903,-0.012996012344956398,-0.001146043767221272,0.013064127415418625,-0.0019598451908677816,-0.028288813307881355
0.012906676158308983,-0.013186490163207054,-0.0012912938836961985,0.012327335774898529,-0.0019066251115873456,-0.028492465615272522
0.01277207862585783,-0.012942406348884106,-0.0012659544590860605,0.012945787981152534,-0.0020249923691153526,-0.02887146733701229
0.012631860561668873,-0.013552019372582436,-0.0013370215892791748,0.01275593787431717,-0.0021185397636145353,-0.028758231550455093
0.012819495983421803,-0.013084928505122662,-0.001402641530148685,0.012826544232666492,-0.00244731898419559,-0.028743162751197815
0.012972298078238964,-0.013050529174506664,-0.0013486859388649464,0.01307749468833208,-0.002484044525772333,-0.028879307210445404
0.012976163998246193,-0.012578770518302917,-0.0014165734173730016,0.013307417742908001,-0.0023703710176050663,-0.029325036332011223
0.012787333689630032,-0.012885486707091331,-0.001365769188851118,0.013403392396867275,-0.00198614620603621,-0.02936207875609398
0.01329749170690775,-0.012244210578501225,-0.0019102327059954405,0.013140572234988213,-0.0020139068365097046,-0.029416469857096672
0.013257940299808979,-0.012530866079032421,-0.002122449455782771,0.011346698738634586,-0.002064038533717394,-0.029215246438980103
0.013229135423898697,-0.01221864391118288,-0.002063214546069503,0.013297293335199356,-0.0024428863544017076,-0.029433773830533028
0.012825113721191883,-0.012429590336978436,-0.0017458000220358372,0.013495396822690964,-0.002613262739032507,-0.029554935172200203
0.013452596962451935,-0.012046987190842628,-0.0017632649978622794,0.013298582285642624,-0.002564145252108574,-0.029590018093585968
0.013445022515952587,-0.012098290026187897,-0.0017995595699176192,0.012863796204328537,-0.0025680146645754576,-0.029504818841814995
0.013563553802669048,-0.011804196052253246,-0.0018705804832279682,0.012791246175765991,-0.0023701624013483524,-0.029710443690419197
0.013489319942891598,-0.011546208523213863,-0.0022233501076698303,0.013387540355324745,-0.002378333592787385,-0.029342710971832275
0.013797835446894169,-0.01221607718616724,-0.002134436508640647,0.01355636678636074,-0.0023604114539921284,-0.029516801238059998
0.014081090688705444,-0.011821931228041649,-0.0024419291876256466,0.013549280352890491,-0.0022627522703260183,-0.030860567465424538
0.013943776488304138,-0.011924338527023792,-0.0027360033709555864,0.012994256801903248,-0.00244756112806499,-0.031218666583299637
0.013909980654716492,-0.011541170999407768,-0.0026541119441390038,0.013222825713455677,-0.0024613237474113703,-0.030610209330916405
0.013339917175471783,-0.010826588608324528,-0.002709583379328251,0.013007625937461853,-0.0023312848061323166,-0.02928808331489563
0.014117426238954067,-0.01131843775510788,-0.0029803623910993338,0.013444289565086365,-0.0022414368577301502,-0.029538780450820923
0.014117426238954067,-0.01131843775510788,-0.0029803623910993338,0.013444289565086365,-0.0022414368577301502,-0.029538780450820923
0.014029423706233501,-0.011282765306532383,-0.0030568107031285763,0.013345456682145596,-0.0021381962578743696,-0.030908938497304916
0.013987667858600616,-0.011736891232430935,-0.002825774485245347,0.013937711715698242,-0.002255815314128995,-0.030716480687260628
0.01464337669312954,-0.010863648727536201,-0.003468739567324519,0.013415168970823288,-0.0021769236773252487,-0.03178143873810768
0.014111249707639217,-0.011242911219596863,-0.0038564070127904415,0.013086897321045399,-0.002322073560208082,-0.030679825693368912
0.01430558692663908,-0.011047068983316422,-0.0035241316072642803,0.013148055411875248,-0.0022972903680056334,-0.02942822314798832
0.01430558692663908,-0.011047068983316422,-0.0035241316072642803,0.013148055411875248,-0.0022972903680056334,-0.02942822314798832
0.014026245102286339,-0.010979232378304005,-0.0034841052256524563,0.013191930949687958,-0.0024478842969983816,-0.030213000252842903
0.01453380100429058,-0.011550700291991234,-0.003724468871951103,0.01298484019935131,-0.0025948360562324524,-0.031091902405023575
0.014352625235915184,-0.010474410839378834,-0.0039247870445251465,0.013204473070800304,-0.0025684142019599676,-0.031200790777802467
0.014576761052012444,-0.01059781201183796,-0.003963076043874025,0.01319621317088604,-0.0025517120957374573,-0.03114395961165428
0.014447590336203575,-0.01086923386901617,-0.004333998076617718,0.01354066003113985,-0.0022901229094713926,-0.030708346515893936
0.014564107172191143,-0.011061711236834526,-0.00394120067358017,0.01377622690051794,-0.002240959322080016,-0.03120211325585842
0.015000737272202969,-0.010693258605897427,-0.003542459337040782,0.013271537609398365,-0.0022757386323064566,-0.03144575655460358
0.014620868489146233,-0.01082541048526764,-0.003448926378041506,0.013539864681661129,-0.002479205373674631,-0.030909767374396324
0.014967675320804119,-0.011241891421377659,-0.0036404964048415422,0.013055642135441303,-0.0023807690013200045,-0.03135872259736061
0.01507642213255167,-0.010578950867056847,-0.004344259388744831,0.013345413841307163,-0.002485515782609582,-0.0311262309551239
0.015119231306016445,-0.010943186469376087,-0.004141001962125301,0.013467344455420971,-0.0024148731026798487,-0.03159366920590401
0.015101388096809387,-0.01158379577100277,-0.0041481866501271725,0.01380957942456007,-0.002283942885696888,-0.0325944684445858
0.015328424051404,-0.011647560633718967,-0.004107750952243805,0.013681817799806595,-0.0022698964457958937,-0.03175804764032364
0.01533901784569025,-0.011531515046954155,-0.004353431053459644,0.013904583640396595,-0.0021737823262810707,-0.031201405450701714
0.015177617780864239,-0.011528740637004375,-0.004623816814273596,0.013714862056076527,-0.002328924834728241,-0.03033498488366604
0.015352792106568813,-0.011261596344411373,-0.004544572439044714,0.013226117007434368,-0.002576109254732728,-0.031932514160871506
0.014941184781491756,-0.011322609148919582,-0.004357843194156885,0.012937862426042557,-0.0027236430905759335,-0.031662482768297195
0.015228650532662868,-0.01072756852954626,-0.004311846103519201,0.012926246970891953,-0.002622210653498769,-0.03217171132564545
0.01520827692002058,-0.01113554835319519,-0.004794192034751177,0.013027913868427277,-0.0025320344138890505,-0.03293699398636818
0.01520827692002058,-0.01113554835319519,-0.004794192034751177,0.013027913868427277,-0.0025320344138890505,-0.03293699398636818
0.015296111814677715,-0.010955954901874065,-0.00544376764446497,0.012912346981465816,-0.0023076392244547606,-0.031994011253118515
0.015524882823228836,-0.011173194274306297,-0.004907671827822924,0.013509356416761875,-0.0024867583997547626,-0.031290844082832336
0.015524882823228836,-0.011173194274306297,-0.004907671827822924,0.013509356416761875,-0.0024867583997547626,-0.031290844082832336
0.015476186759769917,-0.011095737107098103,-0.004664300475269556,0.013270859606564045,-0.0021574869751930237,-0.03190632164478302
0.01591349206864834,-0.011541222222149372,-0.004871143028140068,0.013564820401370525,-0.002014912199229002,-0.03181206434965134
0.01591349206864834,-0.011541222222149372,-0.004871143028140068,0.013564820401370525,-0.002014912199229002,-0.03181206434965134
0.01635451428592205,-0.011241856031119823,-0.005850076209753752,0.01352071762084961,-0.0018525217892602086,-0.03175982087850571
0.01606001891195774,-0.010796532966196537,-0.004870784003287554,0.014079257845878601,-0.002247860888019204,-0.03204669430851936
0.01606001891195774,-0.010796532966196537,-0.004870784003287554,0.014079257845878601,-0.002247860888019204,-0.03204669430851936
0.015643233433365822,-0.011085983365774155,-0.004798175301402807,0.01376256626099348,-0.0024163087364286184,-0.03211149200797081
0.014161305502057076,-0.0115566560998559,-0.0056881168857216835,0.013734469190239906,-0.0024533593095839024,-0.032588228583335876
0.016247522085905075,-0.011142213828861713,-0.006091301329433918,0.013331977650523186,-0.0025580518413335085,-0.03269733488559723
0.0166904516518116,-0.011145031079649925,-0.006308328825980425,0.013499656692147255,-0.0023263460025191307,-0.03235558792948723
0.016315395012497902,-0.010864443145692348,-0.0054613579995930195,0.013101696036756039,-0.0022275398951023817,-0.03248990327119827
0.01629571057856083,-0.010909569449722767,-0.005917008500546217,0.01290555763989687,-0.0021703452803194523,-0.032318972051143646
0.016829222440719604,-0.010639689862728119,-0.0067329928278923035,0.013625082559883595,-0.002464462071657181,-0.032918330281972885
0.01689683087170124,-0.010986965149641037,-0.00692528672516346,0.013545510359108448,-0.0024235413875430822,-0.033532194793224335
0.01707051694393158,-0.01104806363582611,-0.006357819773256779,0.01425416860729456,-0.0025405276101082563,-0.03363721817731857
0.016683172434568405,-0.01098230667412281,-0.006065107882022858,0.013912120833992958,-0.002408887492492795,-0.03311656787991524
0.017027635127305984,-0.011338023468852043,-0.006142415106296539,0.013264752924442291,-0.002261350629851222,-0.03291427716612816
0.016718044877052307,-0.011156896129250526,-0.0068886117078363895,0.013723531737923622,-0.0023541327100247145,-0.033242929726839066
0.016728844493627548,-0.010800638236105442,-0.006884394679218531,0.014528738334774971,-0.0024203285574913025,-0.03355628624558449
0.016767514869570732,-0.011050797067582607,-0.006698620039969683,0.013718454167246819,-0.0023358892649412155,-0.034033965319395065
0.01629417948424816,-0.010836821049451828,-0.0063891103491187096,0.013863868080079556,-0.0022995085455477238,-0.03373059630393982
0.017208533361554146,-0.011068237945437431,-0.007291100453585386,0.013541217893362045,-0.0022619368974119425,-0.03361884132027626
0.017630238085985184,-0.011301838792860508,-0.007582937367260456,0.013668259605765343,-0.0023342559579759836,-0.03401067107915878
0.017804421484470367,-0.010639613494277,-0.007101449649780989,0.01375511847436428,-0.0024074073880910873,-0.03443931043148041
0.01799466833472252,-0.0115254707634449,-0.00657466659322381,0.013655743561685085,-0.0023904533591121435,-0.034488167613744736
0.017857292667031288,-0.01105542667210102,-0.007243655622005463,0.013496486470103264,-0.002757058944553137,-0.034454185515642166
0.018199043348431587,-0.011114747263491154,-0.007635124027729034,0.012984009459614754,-0.002923249499872327,-0.03343123197555542
0.017792707309126854,-0.011718329042196274,-0.00752785662189126,0.013575646094977856,-0.002979735843837261,-0.03428515046834946
0.01739211194217205,-0.01123929861932993,-0.006830058991909027,0.013265909627079964,-0.0028352539520710707,-0.0349382683634758
0.01822108030319214,-0.011144536547362804,-0.0074571724981069565,0.013663983903825283,-0.00268735084682703,-0.03587087243795395
0.018270395696163177,-0.01076777745038271,-0.008214225061237812,0.013393177650868893,-0.00254050106741488,-0.03553139418363571
0.018346421420574188,-0.01082729734480381,-0.007603702135384083,0.013626578263938427,-0.0023218882270157337,-0.033532023429870605
0.018346421420574188,-0.01082729734480381,-0.007603702135384083,0.013626578263938427,-0.0023218882270157337,-0.033532023429870605
0.01867058500647545,-0.010711880400776863,-0.008030268363654613,0.013032334856688976,-0.0018281107768416405,-0.03483860194683075
0.018817851319909096,-0.0111573850736022,-0.007931092754006386,0.013064202852547169,-0.0020217737182974815,-0.034591399133205414
0.018884526565670967,-0.01141260378062725,-0.008313486352562904,0.013309783302247524,-0.002120445016771555,-0.03564796224236488
0.018884526565670967,-0.01141260378062725,-0.008313486352562904,0.013309783302247524,-0.002120445016771555,-0.03564796224236488
0.018560200929641724,-0.010411868803203106,-0.007837070152163506,0.013526245951652527,-0.002578482497483492,-0.03514119237661362
0.019587598741054535,-0.010442966595292091,-0.008437764830887318,0.013918199576437473,-0.002478075446560979,-0.03373764082789421
0.019016092643141747,-0.010477446019649506,-0.008473842404782772,0.013624404557049274,-0.0025324542075395584,-0.03566576540470123
0.01909855380654335,-0.010874028317630291,-0.008202426135540009,0.014014022424817085,-0.002507286611944437,-0.035987164825201035
0.018971530720591545,-0.010610961355268955,-0.008494017645716667,0.013682523742318153,-0.00243346462957561,-0.03551401570439339
0.019309431314468384,-0.010679381899535656,-0.007768566254526377,0.013775896281003952,-0.0024441583082079887,-0.0356372594833374
0.01953362487256527,-0.010585692711174488,-0.00823415070772171,0.013255028054118156,-0.002259188564494252,-0.035580914467573166
0.019709020853042603,-0.010253412649035454,-0.008753384463489056,0.014022697694599628,-0.0022672531194984913,-0.0355035662651062
0.019731445237994194,-0.011244752444326878,-0.008668185211718082,0.013573545031249523,-0.002326552290469408,-0.03556937351822853
0.020058250054717064,-0.010674158111214638,-0.007579442113637924,0.014299159869551659,-0.002287238137796521,-0.03571214899420738
0.0202526543289423,-0.00990381371229887,-0.006734046619385481,0.013920679688453674,-0.002472216496244073,-0.03615483269095421
0.019788431003689766,-0.010510365478694439,-0.007988512516021729,0.01421789638698101,-0.002602871973067522,-0.035823654383420944
0.019997023046016693,-0.010507451370358467,-0.008640897460281849,0.0134436609223485,-0.002579601015895605,-0.035252925008535385
0.020121213048696518,-0.010021626017987728,-0.007871896028518677,0.013916348107159138,-0.0026359977200627327,-0.036691635847091675
0.02014634944498539,-0.010809287428855896,-0.007779983803629875,0.01353822648525238,-0.0025774037931114435,-0.03711472079157829
0.02019481174647808,-0.010727474465966225,-0.008398317731916904,0.014446827583014965,-0.002439906122162938,-0.03555447980761528
0.020584238693118095,-0.009971627965569496,-0.007965488359332085,0.01419756468385458,-0.0025448580272495747,-0.03477397933602333
0.02063150517642498,-0.010830745100975037,-0.007947904989123344,0.014446770772337914,-0.002748121740296483,-0.0364672988653183
0.020560963079333305,-0.010491078719496727,-0.008231348358094692,0.013911348767578602,-0.0027649637777358294,-0.036393504589796066
0.020560963079333305,-0.010491078719496727,-0.008231348358094692,0.013911348767578602,-0.0027649637777358294,-0.036393504589796066
0.0213240347802639,-0.010179519653320312,-0.00814757589250803,0.013711914420127869,-0.0023476690985262394,-0.03733547776937485
0.02109580487012863,-0.010885142721235752,-0.008168520405888557,0.013671476393938065,-0.0022395749110728502,-0.036166027188301086
0.020368600264191628,-0.010209095664322376,-0.009607456624507904,0.013215022161602974,-0.0023358066100627184,-0.03595970571041107
0.021506380289793015,-0.010364754125475883,-0.00860808975994587,0.013876717537641525,-0.002612897427752614,-0.037069905549287796
0.021686546504497528,-0.010115680284798145,-0.008457077667117119,0.013797150924801826,-0.0026418601628392935,-0.03763115406036377
0.021686546504497528,-0.010115680284798145,-0.008457077667117119,0.013797150924801826,-0.0026418601628392935,-0.03763115406036377
0.02173457480967045,-0.010108868591487408,-0.00911344401538372,0.014363550581037998,-0.0029132601339370012,-0.037556953728199005
0.021009745076298714,-0.009794708341360092,-0.009264209307730198,0.014517770148813725,-0.0027002638671547174,-0.03751913830637932
0.020957179367542267,-0.010190354660153389,-0.00898000504821539,0.014415809884667397,-0.0026417120825499296,-0.037941865622997284
0.02105189859867096,-0.010038340464234352,-0.009579438716173172,0.014101686887443066,-0.0028512224089354277,-0.038211390376091
0.021617025136947632,-0.009460687637329102,-0.009593922644853592,0.014070895500481129,-0.003097270615398884,-0.037711650133132935
0.02213558368384838,-0.010024423711001873,-0.00951237790286541,0.01409298274666071,-0.0028762752190232277,-0.038044702261686325
0.021571531891822815,-0.00997213926166296,-0.009712611325085163,0.014147679321467876,-0.002425283892080188,-0.038177717477083206
0.021617485210299492,-0.009488348849117756,-0.009262814186513424,0.013841093517839909,-0.002145172329619527,-0.038122523576021194
0.022060295566916466,-0.010074089281260967,-0.009316678158938885,0.01367934700101614,-0.002012384356930852,-0.03835064917802811
0.02304435521364212,-0.01003539189696312,-0.009666863828897476,0.013139935210347176,-0.0023695160634815693,-0.03864654153585434
0.022408287972211838,-0.009492069482803345,-0.009595545008778572,0.014092596247792244,-0.003029057988896966,-0.03878239169716835
0.022329730913043022,-0.010105980560183525,-0.00979082565754652,0.014274715445935726,-0.003008955391123891,-0.03853536397218704
0.022019807249307632,-0.009719780646264553,-0.009814243763685226,0.01440738420933485,-0.0030597413424402475,-0.03842942416667938
0.021836746484041214,-0.009422048926353455,-0.00959708634763956,0.014080035500228405,-0.0029321112670004368,-0.03850606456398964
0.022316887974739075,-0.009227920323610306,-0.009738177061080933,0.01403009332716465,-0.002592254662886262,-0.03921779245138168
0.022579176351428032,-0.010178381577134132,-0.009943055920302868,0.01399290468543768,-0.002571961609646678,-0.039308980107307434
0.022779617458581924,-0.009334920905530453,-0.010006868280470371,0.014220400713384151,-0.0026191130746155977,-0.03896639123558998
0.02243703417479992,-0.008622212335467339,-0.009510955773293972,0.013740050606429577,-0.002785022370517254,-0.03915734216570854
0.02257191576063633,-0.009197667241096497,-0.010594505816698074,0.01366947777569294,-0.0027470046188682318,-0.03912552818655968
0.022560542449355125,-0.00893373042345047,-0.009910358116030693,0.013165157288312912,-0.0027307148557156324,-0.03980618342757225
0.022935310378670692,-0.008966328576207161,-0.009968814440071583,0.013887446373701096,-0.0025874972343444824,-0.039238154888153076
0.022505301982164383,-0.009234833531081676,-0.010202287696301937,0.0142047218978405,-0.0025630719028413296,-0.04002849757671356
0.022700807079672813,-0.008711868897080421,-0.010619115084409714,0.014865818433463573,-0.002727638930082321,-0.04089178889989853
0.02260562777519226,-0.008744790218770504,-0.010089696384966373,0.014384494163095951,-0.00259405723772943,-0.03929317742586136
0.02299591526389122,-0.008829550817608833,-0.010253717191517353,0.01457385253161192,-0.0024992558173835278,-0.03805197775363922
0.022926297038793564,-0.00878649577498436,-0.01045895367860794,0.014119626022875309,-0.0026943630073219538,-0.038882430642843246
0.02284139022231102,-0.008353945799171925,-0.010806730017066002,0.014447910711169243,-0.0029668486677110195,-0.040452804416418076
0.02284758910536766,-0.008457358926534653,-0.01067891251295805,0.01433580368757248,-0.0029743346385657787,-0.042479533702135086
0.02284758910536766,-0.008457358926534653,-0.01067891251295805,0.01433580368757248,-0.0029743346385657787,-0.042479533702135086
0.022744830697774887,-0.008879320695996284,-0.01011747308075428,0.014725279994308949,-0.002760526491329074,-0.04088389128446579
0.022975001484155655,-0.00878728274255991,-0.011151721701025963,0.014260299503803253,-0.0026585347950458527,-0.03905589133501053
0.023156698793172836,-0.008367683738470078,-0.011139146983623505,0.014720678329467773,-0.002454553497955203,-0.04059964045882225
0.023156698793172836,-0.008367683738470078,-0.011139146983623505,0.014720678329467773,-0.002454553497955203,-0.04059964045882225
0.024389738216996193,-0.008488393388688564,-0.010236050933599472,0.01464751921594143,-0.002452018205076456,-0.04066042974591255
0.02401973307132721,-0.008233080618083477,-0.010355286300182343,0.014757951721549034,-0.002419586293399334,-0.040464192628860474
0.023756099864840508,-0.008455511182546616,-0.011592908762395382,0.014252379536628723,-0.002686923136934638,-0.04102397710084915
0.023386787623167038,-0.007973745465278625,-0.010898263193666935,0.014621668495237827,-0.002891046227887273,-0.04092135280370712
0.023588357493281364,-0.00795786827802658,-0.011198080144822598,0.014670453034341335,-0.0028996975161135197,-0.040933314710855484
0.023120127618312836,-0.008298972621560097,-0.010687414556741714,0.014961387030780315,-0.0027641926426440477,-0.04073159396648407
0.024247970432043076,-0.008237499743700027,-0.010354901663959026,0.014517925679683685,-0.002660135505720973,-0.04125595465302467
0.025044573470950127,-0.0075528426095843315,-0.011648687534034252,0.014884810894727707,-0.0025236087385565042,-0.04100695997476578
0.024632161483168602,-0.007928119041025639,-0.01104394905269146,0.014319922775030136,-0.0024124630726873875,-0.04219039902091026
0.02426682785153389,-0.008308613672852516,-0.011046156287193298,0.014648067764937878,-0.0024295425973832607,-0.04272240772843361
0.023342911154031754,-0.008308603428304195,-0.011052891612052917,0.014659377746284008,-0.0021879486739635468,-0.04102737456560135
0.024132223799824715,-0.007673688232898712,-0.010767989791929722,0.01468751486390829,-0.0020949100144207478,-0.039529573172330856
0.024614213034510612,-0.007580704055726528,-0.011183908209204674,0.014678058214485645,-0.0019498411566019058,-0.04131803289055824
0.02468549646437168,-0.009093319065868855,-0.011786279268562794,0.01492030918598175,-0.0020244221668690443,-0.04297110065817833
0.024744508787989616,-0.007181842811405659,-0.010512891225516796,0.01490267924964428,-0.0023173480294644833,-0.04378730431199074
0.024933312088251114,-0.007044372148811817,-0.011899223551154137,0.014527089893817902,-0.002732370048761368,-0.04155747592449188
0.025360379368066788,-0.007809382397681475,-0.011431918479502201,0.014427865855395794,-0.0030077563133090734,-0.04140860587358475
0.02531280554831028,-0.008297261781990528,-0.011480409651994705,0.014566775411367416,-0.0031502668280154467,-0.042835187166929245
0.02480524405837059,-0.007910420186817646,-0.012792942114174366,0.014883213676512241,-0.003072410821914673,-0.0432918444275856
0.02435656078159809,-0.008192284032702446,-0.010452046990394592,0.014812476933002472,-0.002914766315370798,-0.042937807738780975
0.02506120316684246,-0.007898254320025444,-0.010976864956319332,0.014899135567247868,-0.0028262764681130648,-0.042629897594451904
0.02597811259329319,-0.008070065639913082,-0.01087932102382183,0.015050969086587429,-0.002847034716978669,-0.04340618476271629
0.026040375232696533,-0.007344734389334917,-0.011096816509962082,0.015351825393736362,-0.002593500539660454,-0.043520085513591766
0.026040375232696533,-0.007344734389334917,-0.011096816509962082,0.015351825393736362,-0.002593500539660454,-0.043520085513591766
0.025813095271587372,-0.007758765015751123,-0.01137862540781498,0.01475026085972786,-0.0023683507461100817,-0.04300481081008911
0.02543179877102375,-0.008563878946006298,-0.010824675671756268,0.014981217682361603,-0.0022858111187815666,-0.04300112649798393
0.02525991015136242,-0.00786750577390194,-0.010830759070813656,0.014699296094477177,-0.0024370811879634857,-0.04304559528827667
0.025758635252714157,-0.006984123028814793,-0.010742416605353355,0.014587833546102047,-0.003099211258813739,-0.04243845120072365
0.024737941101193428,-0.008055539801716805,-0.011200954206287861,0.01388078648597002,-0.0030019301921129227,-0.04314553737640381
0.026024507358670235,-0.008435406722128391,-0.010468707419931889,0.014141642488539219,-0.0027202568016946316,-0.04387599229812622
0.02691318467259407,-0.007857349701225758,-0.011062812991440296,0.014721856452524662,-0.002527061617001891,-0.043363213539123535
0.02655094675719738,-0.007663043215870857,-0.011913190595805645,0.014682170003652573,-0.0024265276733785868,-0.04398171231150627
0.026690591126680374,-0.0075652338564395905,-0.010631238110363483,0.015611816197633743,-0.0025696817319840193,-0.044215478003025055
0.02653740905225277,-0.0077297319658100605,-0.01098343450576067,0.015129695646464825,-0.0026449982542544603,-0.04363227263092995
0.026691889390349388,-0.007375431712716818,-0.010971946641802788,0.015274751000106335,-0.002980663673952222,-0.04337427392601967
0.026879537850618362,-0.007361445110291243,-0.01075948216021061,0.014774862676858902,-0.0032396186143159866,-0.04361756891012192
0.027429332956671715,-0.00757729122415185,-0.011127951554954052,0.014950917102396488,-0.0031531041022390127,-0.04304894432425499
0.0278540700674057,-0.0074201007373631,-0.010755151510238647,0.015157610177993774,-0.0030398122034966946,-0.044549111276865005
0.026692744344472885,-0.007505492307245731,-0.011013670824468136,0.015617684461176395,-0.002830927260220051,-0.044277265667915344
0.026846276596188545,-0.007719152141362429,-0.011958974413573742,0.015043257735669613,-0.0029215137474238873,-0.04247986525297165
0.027234608307480812,-0.007982089184224606,-0.011440872214734554,0.014892781153321266,-0.002946128835901618,-0.04332707077264786
0.027436209842562675,-0.00746752368286252,-0.011523115448653698,0.014214256778359413,-0.0030999830923974514,-0.04305115342140198
0.02783062495291233,-0.007388468366116285,-0.011165420524775982,0.014238971285521984,-0.0032329107634723186,-0.04564677178859711
0.02773166447877884,-0.008151551708579063,-0.011062043718993664,0.013923763297498226,-0.00299454084597528,-0.0455886535346508
0.027780795469880104,-0.00826341938227415,-0.01108282059431076,0.014255912974476814,-0.003043878823518753,-0.04336552694439888
0.028152136132121086,-0.00751507980749011,-0.010523545555770397,0.014329055324196815,-0.0027555322740226984,-0.04416963458061218
0.02821258455514908,-0.007707469630986452,-0.01131804846227169,0.015316028147935867,-0.0025877945590764284,-0.044583190232515335
0.028639882802963257,-0.007611502893269062,-0.011536086909472942,0.015011747367680073,-0.0026620987337082624,-0.04494434595108032
0.02836713194847107,-0.007469590287655592,-0.011201263405382633,0.014474882744252682,-0.0027857888489961624,-0.04500468447804451
0.028459548950195312,-0.007177092134952545,-0.011744354851543903,0.01470731757581234,-0.0030746483244001865,-0.04500860348343849
0.028459548950195312,-0.007177092134952545,-0.011744354851543903,0.01470731757581234,-0.0030746483244001865,-0.04500860348343849
0.0288358423858881,-0.007343738339841366,-0.011799692176282406,0.015125220641493797,-0.00325992563739419,-0.04532812163233757
0.02899685502052307,-0.007517526857554913,-0.011767635121941566,0.015040111728012562,-0.003542918711900711,-0.0456102155148983
0.02982325293123722,-0.007884439080953598,-0.011315337382256985,0.015176917426288128,-0.0032287081703543663,-0.0453399233520031
0.026824845001101494,-0.007302456069737673,-0.011511511169373989,0.014849127270281315,-0.0033344232942909002,-0.04428176209330559
0.029540548101067543,-0.007428955286741257,-0.011521387845277786,0.01528834830969572,-0.0031775659881532192,-0.04558010771870613
0.030273843556642532,-0.007463113870471716,-0.012344570830464363,0.014480167999863625,-0.0027439172845333815,-0.04712394252419472
0.029448604211211205,-0.007081822492182255,-0.01180124282836914,0.014299198985099792,-0.002660378348082304,-0.047717779874801636
0.029801448807120323,-0.007376395165920258,-0.011168130673468113,0.014211260713636875,-0.002689458429813385,-0.04511582851409912
0.030637186020612717,-0.00743203004822135,-0.011943737976253033,0.014777358621358871,-0.002782554365694523,-0.04518682509660721
0.030048897489905357,-0.007500038482248783,-0.012180274352431297,0.015001341700553894,-0.0032076931092888117,-0.0457940511405468
0.02937682718038559,-0.006986148189753294,-0.01161818578839302,0.015566750429570675,-0.0032328981906175613,-0.047740694135427475
0.02938978187739849,-0.007148645352572203,-0.011674840934574604,0.01493071299046278,-0.0033219563774764538,-0.047538477927446365
0.03078433871269226,-0.007707296404987574,-0.011366266757249832,0.014855663292109966,-0.0032278576400130987,-0.045363545417785645
0.030959701165556908,-0.007426016498357058,-0.012225478887557983,0.014492039568722248,-0.0029880008660256863,-0.046621233224868774
0.030863367021083832,-0.006652353797107935,-0.011995178647339344,0.015239546075463295,-0.0029085767455399036,-0.047202132642269135
0.030951013788580894,-0.006755588110536337,-0.012456633150577545,0.01487549114972353,-0.002731433603912592,-0.046157706528902054
0.03120829351246357,-0.007208988070487976,-0.012226196005940437,0.015657568350434303,-0.0028203418478369713,-0.047753993421792984
0.03118579275906086,-0.007568124681711197,-0.011991342529654503,0.015262209810316563,-0.002949912566691637,-0.04787757247686386
0.03134126588702202,-0.006958367768675089,-0.012762587517499924,0.015217282809317112,-0.0034175622276961803,-0.047533176839351654
0.03138568997383118,-0.0066247181966900826,-0.011707838624715805,0.0147739602252841,-0.003333550877869129,-0.047370780259370804
0.03138241544365883,-0.0068242475390434265,-0.012317516840994358,0.014978144317865372,-0.003509984817355871,-0.04764830693602562
0.03130032867193222,-0.006845520343631506,-0.01206895150244236,0.014760136604309082,-0.0031950841657817364,-0.04750260338187218
0.03175721317529678,-0.006757989525794983,-0.012425717897713184,0.015158851630985737,-0.0033732280135154724,-0.0479554645717144
0.03141311556100845,-0.00642164284363389,-0.012512537650763988,0.014787249267101288,-0.0035318948794156313,-0.04793770611286163
0.0317566804587841,-0.006550872232764959,-0.012459422461688519,0.014971442520618439,-0.0033978973515331745,-0.0485055036842823
0.0317566804587841,-0.006550872232764959,-0.012459422461688519,0.014971442520618439,-0.0033978973515331745,-0.0485055036842823
0.03210737556219101,-0.006671680137515068,-0.012856691144406796,0.015075569972395897,-0.0031434616539627314,-0.0484875813126564
0.03193744644522667,-0.006642831023782492,-0.012364997528493404,0.01514039933681488,-0.003027325263246894,-0.04803432896733284
0.03147326037287712,-0.006668808404356241,-0.01280300784856081,0.015330033376812935,-0.002962007187306881,-0.049075592309236526
0.033922404050827026,-0.00634088134393096,-0.013030975125730038,0.016037162393331528,-0.0034018431324511766,-0.04818416014313698
0.033194538205862045,-0.006465577054768801,-0.014418435283005238,0.01547637302428484,-0.0034290675539523363,-0.0496211014688015
0.03132064640522003,-0.006813330110162497,-0.014841197989881039,0.016332298517227173,-0.003294051857665181,-0.05007178708910942
0.03242960572242737,-0.006103130988776684,-0.014302995055913925,0.01587209291756153,-0.003281337209045887,-0.047289349138736725
0.03360126167535782,-0.0063405586406588554,-0.014566757716238499,0.01599038764834404,-0.003137322375550866,-0.04842767119407654
0.03318539634346962,-0.006676208693534136,-0.014362625777721405,0.016414333134889603,-0.003123857080936432,-0.04921557009220123
0.034132540225982666,-0.006304637994617224,-0.014401060529053211,0.016475269570946693,-0.0030875883530825377,-0.05141212046146393
0.03323701024055481,-0.005962000228464603,-0.014490329660475254,0.01597566343843937,-0.003153418656438589,-0.04821338877081871
0.03297027200460434,-0.005879814736545086,-0.015154078602790833,0.015307348221540451,-0.0030807899311184883,-0.049322664737701416
0.03235592693090439,-0.006412609480321407,-0.015035996213555336,0.015283733606338501,-0.0031852342654019594,-0.05049436539411545
0.033122994005680084,-0.006277292501181364,-0.015453633852303028,0.014712288044393063,-0.003309006802737713,-0.05029694363474846
0.0337088368833065,-0.006372088100761175,-0.015287119895219803,0.015235173515975475,-0.0035617018584161997,-0.05065850913524628
0.033210378140211105,-0.005216389428824186,-0.01568727008998394,0.014943700283765793,-0.0036866720765829086,-0.05043863505125046
0.033608730882406235,-0.004235453903675079,-0.014917033724486828,0.015425283461809158,-0.0036996386479586363,-0.050574179738759995
0.033608730882406235,-0.004235453903675079,-0.014917033724486828,0.015425283461809158,-0.0036996386479586363,-0.050574179738759995
0.033297136425971985,-0.004877622704952955,-0.015228562988340855,0.014874461106956005,-0.0033791072200983763,-0.050920721143484116
0.033096157014369965,-0.005184735171496868,-0.014801268465816975,0.014884847216308117,-0.0031069417018443346,-0.0506787970662117
0.033251140266656876,-0.005470259580761194,-0.015465062111616135,0.014425516128540039,-0.00302339275367558,-0.050615474581718445
0.03370761498808861,-0.005586864892393351,-0.0148584870621562,0.015001249499619007,-0.003163058077916503,-0.05066592991352081
0.03392885625362396,-0.0050112963654100895,-0.016053086146712303,0.014923395588994026,-0.003583307610824704,-0.05163057893514633
0.0335778072476387,-0.005226484499871731,-0.01528878416866064,0.016020437702536583,-0.003909495659172535,-0.0510859340429306
0.03411058336496353,-0.005172132048755884,-0.015308830887079239,0.015998274087905884,-0.004045071545988321,-0.052113231271505356
0.033044811338186264,-0.005411581136286259,-0.015115194022655487,0.015968583524227142,-0.003536612493917346,-0.05030439794063568
0.034328632056713104,-0.005726040806621313,-0.015606138855218887,0.01580176316201687,-0.003076141932979226,-0.04962678626179695
0.034579258412122726,-0.005231866613030434,-0.015872174873948097,0.01554517075419426,-0.0029343583155423403,-0.05093475431203842
0.03409632295370102,-0.005065376870334148,-0.01552488747984171,0.015241689048707485,-0.00334444222971797,-0.051645390689373016
0.03427378088235855,-0.0049932487308979034,-0.015052414499223232,0.015762565657496452,-0.0036330732982605696,-0.049066346138715744
0.034586500376462936,-0.005118148867040873,-0.015861080959439278,0.015409654937684536,-0.004137240815907717,-0.05096668750047684
0.03474137932062149,-0.004956857766956091,-0.015238277614116669,0.016280561685562134,-0.003665006021037698,-0.051844872534275055
0.03485752269625664,-0.004677812568843365,-0.01539129763841629,0.015928994864225388,-0.003578279633074999,-0.05188744142651558
0.03465761989355087,-0.004588905721902847,-0.015085524879395962,0.01581474021077156,-0.00365526438690722,-0.05109640955924988
0.03491240739822388,-0.0047779688611626625,-0.01570463553071022,0.01558000035583973,-0.003315641777589917,-0.05095409229397774
0.035498011857271194,-0.00497001688927412,-0.015742020681500435,0.01619870774447918,-0.00319619826041162,-0.05167964845895767
0.03525521606206894,-0.004695201758295298,-0.01565149985253811,0.016597621142864227,-0.0032353613059967756,-0.05066366493701935
0.03516140952706337,-0.004790182691067457,-0.015249619260430336,0.016362331807613373,-0.0034930878318846226,-0.05143868550658226
0.03500679135322571,-0.004762354772537947,-0.015513823367655277,0.016821688041090965,-0.0036788340657949448,-0.05097993463277817
0.03628985583782196,-0.0048539889976382256,-0.01596842333674431,0.01632053777575493,-0.0036990116350352764,-0.049473024904727936
0.03733465448021889,-0.004323392640799284,-0.015833215788006783,0.01626014895737171,-0.0036936202086508274,-0.05191657692193985
0.03517688438296318,-0.004390704911202192,-0.016124671325087547,0.015549013391137123,-0.0037202308885753155,-0.052288297563791275
0.034744743257761,-0.004721536301076412,-0.015227969735860825,0.016102004796266556,-0.004019796848297119,-0.052136894315481186
0.035891737788915634,-0.004734320100396872,-0.01596163772046566,0.01625087670981884,-0.004086650442332029,-0.051297999918460846
0.03552350774407387,-0.004700716584920883,-0.01562773995101452,0.016039710491895676,-0.003690270707011223,-0.05217563360929489
0.03552350774407387,-0.004700716584920883,-0.01562773995101452,0.016039710491895676,-0.003690270707011223,-0.05217563360929489
0.03624623641371727,-0.004535835701972246,-0.016195351257920265,0.01608159951865673,-0.0036404563579708338,-0.05346222594380379
0.03539576381444931,-0.004255122505128384,-0.015961499884724617,0.01586379110813141,-0.003311343025416136,-0.05160542577505112
0.03505076840519905,-0.004435989540070295,-0.016362937167286873,0.016287125647068024,-0.0027449054177850485,-0.05186498165130615
0.034745458513498306,-0.004629210568964481,-0.016322040930390358,0.016030803322792053,-0.0026991076301783323,-0.05251549184322357
0.0360860750079155,-0.004833610728383064,-0.015963053330779076,0.016494562849402428,-0.0030677884351462126,-0.053907282650470734
0.03636856749653816,-0.004665770102292299,-0.016597503796219826,0.016423305496573448,-0.0035418213810771704,-0.053077101707458496
0.03571377694606781,-0.004604039713740349,-0.016014471650123596,0.016412314027547836,-0.003396910848096013,-0.05292901396751404
0.03705378994345665,-0.00425847340375185,-0.016438651829957962,0.016187794506549835,-0.003546058898791671,-0.053287193179130554
0.03589870035648346,-0.004659533500671387,-0.016129879280924797,0.016708461567759514,-0.0034450404345989227,-0.05358307808637619
0.036661695688962936,-0.004734506364911795,-0.016063299030065536,0.014838378876447678,-0.0032922958489507437,-0.05311238765716553
0.03617698326706886,-0.004749557934701443,-0.01635824888944626,0.016991026699543,-0.0033002651762217283,-0.052896082401275635
0.03660443052649498,-0.004627085756510496,-0.01670326478779316,0.017221055924892426,-0.0034671591129153967,-0.053767334669828415
0.03660719469189644,-0.0046510593965649605,-0.015952473506331444,0.017015447840094566,-0.00367727130651474,-0.05305198207497597
0.036243416368961334,-0.004466347396373749,-0.016504263505339622,0.016710666939616203,-0.0037995409220457077,-0.052762068808078766
0.03648556396365166,-0.004404355771839619,-0.016253188252449036,0.016396164894104004,-0.003716399660333991,-0.0547465980052948
0.03658544644713402,-0.004671807866543531,-0.017004646360874176,0.01671963557600975,-0.0035811136476695538,-0.054064542055130005
0.03828391060233116,-0.004781646654009819,-0.01628372259438038,0.01637728326022625,-0.003396230284124613,-0.05272999405860901
0.03699459880590439,-0.00460798479616642,-0.016394207254052162,0.016530221328139305,-0.003545318264514208,-0.0547868013381958
0.03613172844052315,-0.004353713244199753,-0.01684899814426899,0.01655198074877262,-0.0037827061023563147,-0.05417763814330101
0.03754028305411339,-0.0040382277220487595,-0.01629251055419445,0.0164991095662117,-0.0038622531574219465,-0.05265502259135246
0.03728357329964638,-0.004151143599301577,-0.01703806035220623,0.016694175079464912,-0.004108337685465813,-0.05325307324528694
0.03876049816608429,-0.004030287265777588,-0.016332395374774933,0.01630624383687973,-0.003957259003072977,-0.056226860731840134
0.038464754819869995,-0.0043464661575853825,-0.016431385651230812,0.016761047765612602,-0.003543445374816656,-0.0542348176240921
0.0370175763964653,-0.004121315199881792,-0.01604609750211239,0.01634262502193451,-0.0031427994836121798,-0.05217234045267105
0.0370175763964653,-0.004121315199881792,-0.01604609750211239,0.01634262502193451,-0.0031427994836121798,-0.05217234045267105
0.036905717104673386,-0.0044191572815179825,-0.016735129058361053,0.016380250453948975,-0.0034170181024819613,-0.05483771860599518
0.038063883781433105,-0.004358334932476282,-0.01644691452383995,0.01631535030901432,-0.00351082906126976,-0.054525867104530334
0.038063883781433105,-0.004358334932476282,-0.01644691452383995,0.01631535030901432,-0.00351082906126976,-0.054525867104530334
0.03788433596491814,-0.004101214464753866,-0.01689676195383072,0.016676170751452446,-0.0036071017384529114,-0.054071757942438126
0.038319699466228485,-0.003903777804225683,-0.01663726009428501,0.01667299121618271,-0.003686159150674939,-0.05428117886185646
0.03796663507819176,-0.004023583605885506,-0.01719263754785061,0.017157655209302902,-0.003833341645076871,-0.05413740873336792
0.03798498585820198,-0.004095663316547871,-0.017492862418293953,0.016476159915328026,-0.00387808820232749,-0.054194290190935135
0.038254860788583755,-0.004017217550426722,-0.017068207263946533,0.017084190621972084,-0.003775468561798334,-0.05450058355927467
0.037940338253974915,-0.004171096254140139,-0.01757299341261387,0.017148755490779877,-0.003657907247543335,-0.054457757622003555
0.038127124309539795,-0.00403557950630784,-0.017145909368991852,0.017066068947315216,-0.003269488224759698,-0.05481903627514839
0.03840767219662666,-0.0037027597427368164,-0.017358262091875076,0.0170181505382061,-0.0031970238778740168,-0.05380416661500931
0.03866094723343849,-0.0034175810869783163,-0.017489079385995865,0.017340444028377533,-0.0035338974557816982,-0.05558866262435913
0.03860793262720108,-0.003938054665923119,-0.018395129591226578,0.017086679115891457,-0.003995158709585667,-0.056728292256593704
0.03721620514988899,-0.004161863122135401,-0.018190186470746994,0.01674623228609562,-0.004086990840733051,-0.0543590672314167
0.038885023444890976,-0.0043359678238630295,-0.017969785258173943,0.01670006290078163,-0.00429490115493536,-0.05392798036336899
0.039218563586473465,-0.004084383603185415,-0.017912987619638443,0.0163626316934824,-0.00408205995336175,-0.055755604058504105
0.03851515054702759,-0.003961774520576,-0.01693701557815075,0.016730399802327156,-0.0035007300321012735,-0.057289596647024155
0.03907562792301178,-0.003956286236643791,-0.01785709336400032,0.01671152003109455,-0.003396631684154272,-0.05417429283261299
0.039015401154756546,-0.003371360246092081,-0.018733622506260872,0.016672564670443535,-0.00354337808676064,-0.05520430579781532
0.0385616309940815,-0.003387612057849765,-0.018019376322627068,0.016968172043561935,-0.003682842943817377,-0.05537231266498566
0.03952789679169655,-0.00366734666749835,-0.01800484023988247,0.016549276188015938,-0.003748350776731968,-0.05516380816698074
0.03902948647737503,-0.0037718142848461866,-0.01797514595091343,0.01693156734108925,-0.003857814474031329,-0.054362498223781586
0.03878214955329895,-0.00373856327496469,-0.018440773710608482,0.016670577228069305,-0.003919315990060568,-0.05592963844537735
0.03887322545051575,-0.003738643601536751,-0.01873386651277542,0.01683223433792591,-0.003859221702441573,-0.05561176314949989
0.0396355465054512,-0.003695657942444086,-0.018067842349410057,0.01641964726150036,-0.0037761118728667498,-0.05584324896335602
0.040428727865219116,-0.0035745007917284966,-0.01819124072790146,0.016435973346233368,-0.003700192552059889,-0.05558043345808983
