davideferrari95/blind_handover_controller/data/Test 250 - [2024-02-08 -- 12-39-29]/joint_states_data.csv
shoulder_pan_joint,shoulder_lift_joint,elbow_joint,wrist_1_joint,wrist_2_joint,wrist_3_joint
0.005031229928135872,0.007388981059193611,-0.010362516157329082,0.002677312819287181,-0.0010196478106081486,0.0043563381768763065
0.005245153792202473,0.007360421121120453,-0.01085740514099598,0.0024463641457259655,-0.0011452578473836184,0.004437095485627651
0.005245153792202473,0.007360421121120453,-0.01085740514099598,0.0024463641457259655,-0.0011452578473836184,0.004437095485627651
0.004821816459298134,0.008013911545276642,-0.0113778505474329,0.002668345347046852,-0.0015851191710680723,0.004128925036638975
0.004818295128643513,0.0075384085066616535,-0.010693666525185108,0.0028042932972311974,-0.001571493223309517,0.0042032646015286446
0.004904396366328001,0.007380588445812464,-0.010537475347518921,0.003310187254101038,-0.0013739985879510641,0.004897200968116522
0.004758218303322792,0.007408265955746174,-0.010842026211321354,0.003242647275328636,-0.0012646786635741591,0.004772530868649483
0.004705208353698254,0.00798211432993412,-0.010886253789067268,0.003133150516077876,-0.0012362332781776786,0.004454892594367266
0.004720785189419985,0.007489753421396017,-0.010745679959654808,0.0029447160195559263,-0.0012020374415442348,0.004081939812749624
0.004713385831564665,0.007328852079808712,-0.011427043937146664,0.00246758502908051,-0.0010507646948099136,0.00418073870241642
0.004616113845258951,0.007388709578663111,-0.010941753163933754,0.002370741916820407,-0.0009409880149178207,0.004187288694083691
0.004539595916867256,0.00785495713353157,-0.0102429473772645,0.0026748261880129576,-0.0009172327700071037,0.0043679894879460335
0.004546834621578455,0.007500131614506245,-0.011541493237018585,0.002651357324793935,-0.0009135036380030215,0.004537864122539759
0.0043989564292132854,0.0073648313991725445,-0.01111479289829731,0.002677188254892826,-0.0009116494911722839,0.0046785734593868256
0.004618465434759855,0.008094788528978825,-0.011054051108658314,0.0028181783854961395,-0.0010039251064881682,0.004383750259876251
0.00472518615424633,0.008439186960458755,-0.011772368103265762,0.002898343140259385,-0.0010403816122561693,0.004446214064955711
0.005060652736574411,0.0077171544544398785,-0.011334188282489777,0.002755827270448208,-0.001040702685713768,0.004820206202566624
0.004915959667414427,0.0074524348601698875,-0.011419637128710747,0.0027234996668994427,-0.0013209949247539043,0.0049155536107718945
0.004568587057292461,0.007933050394058228,-0.011005374602973461,0.00290660816244781,-0.0013231504708528519,0.004642517771571875
0.004785624798387289,0.007708639372140169,-0.010899610817432404,0.003164525143802166,-0.001295269001275301,0.004432725254446268
0.005454515106976032,0.007279111538082361,-0.010862835682928562,0.0030731274746358395,-0.0014178510755300522,0.005058099050074816
0.005333715584129095,0.007343811448663473,-0.010646872222423553,0.002960080513730645,-0.0013460770715028048,0.005362378433346748
0.005758221261203289,0.007879560813307762,-0.011188974604010582,0.002743797143921256,-0.0012890504440292716,0.0055670104920864105
0.005398578010499477,0.007607067935168743,-0.011035988107323647,0.0029035559855401516,-0.0012747920118272305,0.005784286186099052
0.005886970087885857,0.007154559250921011,-0.010835392400622368,0.0030195824801921844,-0.0012491249945014715,0.006093813572078943
0.006042815744876862,0.007213866803795099,-0.011097762733697891,0.002932031638920307,-0.0012127545196563005,0.005663707852363586
0.005856208968907595,0.007573532406240702,-0.010775038972496986,0.0029164960142225027,-0.0012574931606650352,0.005618777591735125
0.005948069505393505,0.008011962287127972,-0.01084926724433899,0.00297351460903883,-0.0012726472923532128,0.0055799903348088264
0.0057985978201031685,0.007693401072174311,-0.0113395219668746,0.0030965961050242186,-0.0014172279043123126,0.0057841576635837555
0.00623843539506197,0.0067841787822544575,-0.010789941996335983,0.0030741391237825155,-0.0015638824552297592,0.006180115044116974
0.006322492845356464,0.007302920334041119,-0.010717589408159256,0.0029010139405727386,-0.001501831109635532,0.0057073235511779785
0.006322492845356464,0.007302920334041119,-0.010717589408159256,0.0029010139405727386,-0.001501831109635532,0.0057073235511779785
0.0063554816879332066,0.007625493686646223,-0.010928061790764332,0.0028163809329271317,-0.0015221021603792906,0.005470611155033112
0.006355518940836191,0.0076467543840408325,-0.011759604327380657,0.002848548348993063,-0.001405263552442193,0.005806908942759037
0.007056165486574173,0.007060246076434851,-0.01117874588817358,0.0026113619096577168,-0.0012467576889321208,0.006841984577476978
0.0069478657096624374,0.007441450841724873,-0.010988960973918438,0.0026278416626155376,-0.0011350371642038226,0.006682448089122772
0.0068754879757761955,0.007164440583437681,-0.011692012660205364,0.0026462313253432512,-0.0009729841840453446,0.00629821140319109
0.007091174833476543,0.006998095195740461,-0.011118178255856037,0.0027059647254645824,-0.0009534704149700701,0.006275071296840906
0.0069777765311300755,0.007162152323871851,-0.012047805823385715,0.0026292051188647747,-0.0008921995176933706,0.006302753929048777
0.007915387861430645,0.007193542551249266,-0.011328245513141155,0.002940101083368063,-0.0008390876464545727,0.006524876691401005
0.0075680529698729515,0.006627642083913088,-0.011055156588554382,0.00277783814817667,-0.000761219474952668,0.00669186282902956
0.007533065043389797,0.006863587070256472,-0.011352786794304848,0.0026964552234858274,-0.000800225418061018,0.006548114120960236
0.008063120767474174,0.007380540948361158,-0.0109980134293437,0.002701369347050786,-0.000827071547973901,0.006597469560801983
0.008381914347410202,0.007543356157839298,-0.011376741342246532,0.002703350270166993,-0.0012629689881578088,0.006807325873523951
0.008230744861066341,0.007380312774330378,-0.009948676452040672,0.002423924161121249,-0.001292811124585569,0.007340682670474052
0.007421837653964758,0.006938720587641001,-0.01136041060090065,0.0025022111367434263,-0.0012301915558055043,0.006734833121299744
0.007629366125911474,0.007450579199939966,-0.012039843015372753,0.0027193769346922636,-0.0010825832141563296,0.006365442648530006
0.007939965464174747,0.007946080528199673,-0.010320017114281654,0.002886364469304681,-0.0009606844978407025,0.006019596941769123
0.007764736656099558,0.006807241588830948,-0.010523214936256409,0.0028386616613715887,-0.0009460778092034161,0.00633541913703084
0.007272830232977867,0.006562191527336836,-0.010976853780448437,0.0029062156099826097,-0.001003031968139112,0.006418958771973848
0.0073897093534469604,0.006700186524540186,-0.01078945491462946,0.002868247451260686,-0.0009376335656270385,0.0060271224938333035
0.00808123592287302,0.00729732308536768,-0.012087292969226837,0.0028338939882814884,-0.0009285976993851364,0.006123334635049105
0.007864761166274548,0.007535167969763279,-0.01135239377617836,0.002676295815035701,-0.0009323921403847635,0.005717339459806681
0.0069188931956887245,0.007104591466486454,-0.009860538877546787,0.0029183768201619387,-0.0009187214891426265,0.005944864358752966
0.007231162395328283,0.0066498322412371635,-0.010735216550529003,0.003034063382074237,-0.0009156705345958471,0.006203640718013048
0.007324960082769394,0.007091002073138952,-0.011011220514774323,0.0030562360771000385,-0.0008946827729232609,0.005828267429023981
0.007324960082769394,0.007091002073138952,-0.011011220514774323,0.0030562360771000385,-0.0008946827729232609,0.005828267429023981
0.0070501998998224735,0.006754712201654911,-0.00986806582659483,0.0032694318797439337,-0.0008272870909422636,0.005376062821596861
0.006935525219887495,0.007310207933187485,-0.010455882176756859,0.0035735846031457186,-0.000828159914817661,0.005571114365011454
0.006935525219887495,0.007310207933187485,-0.010455882176756859,0.0035735846031457186,-0.000828159914817661,0.005571114365011454
0.006686036009341478,0.007206656504422426,-0.010562172159552574,0.003626718884333968,-0.0008554626838304102,0.00570723507553339
0.006854900624603033,0.007000975776463747,-0.010694309137761593,0.0033842939883470535,-0.0009427129407413304,0.005797417834401131
0.007509228773415089,0.006821826566010714,-0.010566097684204578,0.003429415402933955,-0.0009421694558113813,0.0060303350910544395
0.007049246691167355,0.007225712761282921,-0.01045285351574421,0.0036869007162749767,-0.0008881893008947372,0.005879291333258152
0.006608061492443085,0.007590423338115215,-0.010158451274037361,0.0039014010690152645,-0.0010701317805796862,0.005925928242504597
0.0063512870110571384,0.0069017414934933186,-0.010688967071473598,0.003495729761198163,-0.0010515693575143814,0.005932004190981388
0.0068123964592814445,0.006813826039433479,-0.01041075587272644,0.003557745832949877,-0.001063627889379859,0.006015492137521505
0.007011313922703266,0.00685778446495533,-0.010332580655813217,0.0033995951525866985,-0.0010508706327527761,0.006113043520599604
0.00672806054353714,0.007570129819214344,-0.010788318701088428,0.003311979817226529,-0.0010652441997081041,0.0062317256815731525
0.006549493409693241,0.006921432912349701,-0.010412605479359627,0.0033757146447896957,-0.0010012093698605895,0.00695668812841177
0.006164761260151863,0.006962610874325037,-0.011157418601214886,0.003392525715753436,-0.0009211318101733923,0.006552133243530989
0.006818537134677172,0.00704240845516324,-0.010441538877785206,0.003548023058101535,-0.0008072191849350929,0.006449454464018345
0.007100709713995457,0.00732034957036376,-0.010376648046076298,0.003680943278595805,-0.0007156160427257419,0.005797525402158499
0.006878023501485586,0.007516195066273212,-0.010568864643573761,0.0033944384194910526,-0.0006425213068723679,0.005778827704489231
0.0062221139669418335,0.007131108082830906,-0.010363909415900707,0.0034984725061804056,-0.0006546984659507871,0.005645852070301771
0.006312145851552486,0.00735520152375102,-0.009957016445696354,0.0037204280961304903,-0.0006090175593271852,0.005805506370961666
0.00664135068655014,0.007646253798156977,-0.010954420082271099,0.0034235685598105192,-0.0005620705196633935,0.0056856777518987656
0.006518991198390722,0.006952350493520498,-0.010358663275837898,0.003156078979372978,-0.0005220404709689319,0.005721006076782942
0.006148365326225758,0.007397622801363468,-0.01009703055024147,0.0030749505385756493,-0.0004083217936567962,0.0054490892216563225
0.006495972629636526,0.006636857986450195,-0.01002475805580616,0.003188371891155839,-0.0003703079710248858,0.00566092086955905
0.006798306945711374,0.006705231033265591,-0.009935480542480946,0.0034335486125200987,-0.00034186296397820115,0.005953968036919832
0.006512966472655535,0.007027122657746077,-0.00978667102754116,0.0036306637339293957,-0.00031769086490385234,0.005556057672947645
0.006512966472655535,0.007027122657746077,-0.00978667102754116,0.0036306637339293957,-0.00031769086490385234,0.005556057672947645
0.006327076815068722,0.006880817469209433,-0.010601989924907684,0.0033203663770109415,-0.0003519234887789935,0.00581204891204834
0.005977405235171318,0.0074410876259207726,-0.009729500859975815,0.0034335667733103037,-0.0003145489317830652,0.005665120668709278
0.005977405235171318,0.0074410876259207726,-0.009729500859975815,0.0034335667733103037,-0.0003145489317830652,0.005665120668709278
0.006147055421024561,0.006840303540229797,-0.009970747865736485,0.0034266093280166388,-0.00031636370113119483,0.005642178002744913
0.006147055421024561,0.006840303540229797,-0.009970747865736485,0.0034266093280166388,-0.00031636370113119483,0.005642178002744913
0.00595138082280755,0.0073764813132584095,-0.00939009990543127,0.0035107689909636974,-0.0002841876703314483,0.006050871219485998
0.00595138082280755,0.0073764813132584095,-0.00939009990543127,0.0035107689909636974,-0.0002841876703314483,0.006050871219485998
0.006330852396786213,0.007169014308601618,-0.009753450751304626,0.0036615764256566763,-0.00027192194829694927,0.006052935495972633
0.006431588903069496,0.0070539359003305435,-0.010698791593313217,0.0034209375735372305,-0.0002953702933155,0.005282803438603878
0.006318859755992889,0.0069572580978274345,-0.010038367472589016,0.0034578442573547363,-0.00028590246802195907,0.00523030711337924
0.006486439611762762,0.007318540941923857,-0.010228694416582584,0.0036691937129944563,-0.0002751234278548509,0.005220561753958464
0.006217841990292072,0.007327202707529068,-0.01086342427879572,0.004177406430244446,-0.00026552259805612266,0.006164108403027058
0.006535390391945839,0.007259792648255825,-0.009532994590699673,0.0041838036850094795,-0.0002530295751057565,0.006138480734080076
0.006354258395731449,0.007369205355644226,-0.009713980369269848,0.003990300465375185,-0.00023970579786691815,0.005853329785168171
0.006255357526242733,0.00777544965967536,-0.010527938604354858,0.003440899308770895,-0.00026997586246579885,0.005520613864064217
0.006069302558898926,0.007137333042919636,-0.009329884313046932,0.003174897748976946,-0.00025975139578804374,0.00550032826140523
0.006754301022738218,0.006691804155707359,-0.010292870923876762,0.0033887377940118313,-0.0002785236283671111,0.005665914621204138
0.006950313691049814,0.006680033635348082,-0.010108046233654022,0.003611168125644326,-0.0002759326889645308,0.005940553732216358
0.006412038113921881,0.006951038260012865,-0.009614798240363598,0.004037356935441494,-0.00026495399652048945,0.005482570733875036
0.006466084625571966,0.00718273501843214,-0.010760089382529259,0.004222124349325895,-0.00025429861852899194,0.005355477333068848
0.006381715647876263,0.0067242346704006195,-0.009992907755076885,0.004043038003146648,-0.00026152521604672074,0.005208640359342098
0.0072974893264472485,0.006528513040393591,-0.009877500124275684,0.003898722119629383,-0.00026775270816870034,0.00533849885687232
0.006454163230955601,0.0065802535973489285,-0.011160273104906082,0.0034545394591987133,-0.00025915709557011724,0.0052007343620061874
0.006324048154056072,0.00688483752310276,-0.010246925987303257,0.0035724597983062267,-0.0002502176503185183,0.005314340814948082
0.006508837919682264,0.0069026462733745575,-0.009726942516863346,0.0037235438358038664,-0.000320278835715726,0.00522581534460187
0.0063932910561561584,0.006656099110841751,-0.010510346852242947,0.004217842593789101,-0.0003231358714401722,0.005152709782123566
0.006502425763756037,0.0068885525688529015,-0.009933131746947765,0.004163467790931463,-0.00030305737163871527,0.005252521019428968
0.006615139544010162,0.007517122197896242,-0.009481526911258698,0.004019249230623245,-0.0002840296656358987,0.005134777631610632
0.006630902178585529,0.006947341375052929,-0.010587451048195362,0.0035450956784188747,-0.00026716553838923573,0.0058215525932610035
0.006310177966952324,0.006369900424033403,-0.009875885210931301,0.003553288523107767,-0.0002521869319025427,0.005515288561582565
0.0068815466947853565,0.006160396616905928,-0.010192593559622765,0.003924275748431683,-0.00023879915534052998,0.005259361583739519
0.007295873016119003,0.007489736657589674,-0.010268878191709518,0.004052439704537392,-0.0002582796150818467,0.005097768735140562
0.007295873016119003,0.007489736657589674,-0.010268878191709518,0.004052439704537392,-0.0002582796150818467,0.005097768735140562
0.007219898048788309,0.006961657200008631,-0.010319781489670277,0.003964832052588463,-0.00024714291794225574,0.005285048391669989
0.007029911037534475,0.006301369983702898,-0.01012909784913063,0.003929671831429005,-0.00023636719561181962,0.005640808958560228
0.007405003532767296,0.006398369092494249,-0.009746674448251724,0.003981523681432009,-0.0002264554932480678,0.005916302558034658
0.00764179602265358,0.006906169466674328,-0.010630046017467976,0.003910871688276529,-0.0002441160031594336,0.0056096529588103294
0.007142188958823681,0.006802372634410858,-0.010918145067989826,0.00387335242703557,-0.0002431335742585361,0.005383677780628204
0.007155279628932476,0.006141704972833395,-0.010195983573794365,0.0038620203267782927,-0.00023462933313567191,0.005268576554954052
0.007811094168573618,0.006105693057179451,-0.011196807026863098,0.0038839566987007856,-0.00022623837867286056,0.005582555662840605
0.007412542123347521,0.006470274645835161,-0.011729597114026546,0.0038440704811364412,-0.00021839658438693732,0.005322870798408985
0.007098201662302017,0.006712836213409901,-0.010085031390190125,0.0038681072182953358,-0.0002110784553224221,0.0051817866042256355
0.00715159997344017,0.006187836639583111,-0.010454090312123299,0.004250745754688978,-0.00020423484966158867,0.005545536056160927
0.007741897366940975,0.006484075915068388,-0.010200262069702148,0.0042418381199240685,-0.00019782113668043166,0.005148293916136026
0.0074773612432181835,0.006219036411494017,-0.010425301268696785,0.003960675559937954,-0.00019179822993464768,0.005205431953072548
0.007147427648305893,0.006524582393467426,-0.010992071591317654,0.0040540327318012714,-0.00018613117572385818,0.005161121487617493
0.007426255848258734,0.0066534304060041904,-0.010106554254889488,0.004082573112100363,-0.0001807891094358638,0.005128864198923111
0.007834382355213165,0.006771661341190338,-0.01091635599732399,0.004397653043270111,-0.0001757455465849489,0.004887706600129604
0.007666106801480055,0.006044193636626005,-0.011205787770450115,0.004573164042085409,-0.0001709755597403273,0.004902886692434549
0.00725250830873847,0.005940166302025318,-0.010186582803726196,0.004727368243038654,-0.00016645788855385035,0.005159648135304451
0.007423184812068939,0.0063051339238882065,-0.010832399129867554,0.004773848690092564,-0.00017934270726982504,0.005325832404196262
0.007598967757076025,0.006048829760402441,-0.010333334095776081,0.004858138971030712,-0.0001802970073185861,0.005347346421331167
0.008226164616644382,0.006106621120125055,-0.010223010554909706,0.0048811836168169975,-0.00017623927851673216,0.0053677805699408054
0.007767110597342253,0.005892117507755756,-0.009667463600635529,0.004813105333596468,-0.0001720509899314493,0.004651134368032217
0.00788162276148796,0.006017794832587242,-0.010342837311327457,0.00464583421126008,-0.00016803693142719567,0.004576764535158873
0.007713231723755598,0.0064598736353218555,-0.01075085811316967,0.004340559709817171,-0.00016420456813648343,0.0047027054242789745
0.008170980960130692,0.0065291752107441425,-0.010756978765130043,0.004765446297824383,-0.00016054304433055222,0.005144554655998945
0.007920858450233936,0.006115961819887161,-0.010083107277750969,0.00493552815169096,-0.00015704132965765893,0.005010205786675215
0.0077584125101566315,0.006247721146792173,-0.010571718215942383,0.004450561478734016,-0.0001536889758426696,0.00460420548915863
0.0080379918217659,0.006362277548760176,-0.01083496492356062,0.0043889861553907394,-0.00015047680062707514,0.0045353444293141365
0.0080379918217659,0.006362277548760176,-0.01083496492356062,0.0043889861553907394,-0.00015047680062707514,0.0045353444293141365
0.007552190683782101,0.006377187091857195,-0.010463093407452106,0.004506577737629414,-0.00014443931286223233,0.005033086519688368
0.007591675966978073,0.006158425472676754,-0.010597552172839642,0.0044336398132145405,-0.00014159857528284192,0.004951393231749535
0.008200190961360931,0.0058577642776072025,-0.01040841918438673,0.004640187136828899,-0.00013886748638469726,0.0051834168843925
0.008198653347790241,0.00622466579079628,-0.01014444138854742,0.004685195162892342,-0.00013623974518850446,0.004942236002534628
0.007891540415585041,0.006296999286860228,-0.009874990209937096,0.005004748236387968,-0.00013370956003200263,0.004700943827629089
0.007701773662120104,0.005922531709074974,-0.009870677255094051,0.004603520035743713,-0.00013127170677762479,0.005008752923458815
0.00804770365357399,0.006262610666453838,-0.010640304535627365,0.00450487295165658,-0.00012892117956653237,0.004992791451513767
0.007762972731143236,0.006329521536827087,-0.010524820536375046,0.004403590690344572,-0.00012665330723393708,0.00494634173810482
0.008541714400053024,0.006239519454538822,-0.009811928495764732,0.00445593660697341,-0.00012446391338016838,0.00547728780657053
0.007970607839524746,0.0063146729953587055,-0.01075220387428999,0.004448400344699621,-0.0001223488652613014,0.005359330214560032
0.008188694715499878,0.0065917037427425385,-0.009937349706888199,0.004567943047732115,-0.00012030450307065621,0.00492815999314189
0.008079384453594685,0.006168720778077841,-0.00999275129288435,0.004166453145444393,-0.00011832739255623892,0.0046858699060976505
0.008236121386289597,0.006061390042304993,-0.010859182104468346,0.004367234650999308,-0.00011641415767371655,0.0046594832092523575
0.008627980016171932,0.0066240145824849606,-0.010248721577227116,0.004180974792689085,-0.00011456187348812819,0.004379892256110907
0.007875422947108746,0.0065654427744448185,-0.0103920828551054,0.004421995487064123,-0.00011276756413280964,0.004505943041294813
0.008157697506248951,0.005749241914600134,-0.01033171359449625,0.004830643534660339,-0.00011102859571110457,0.004847761709243059
0.008245875127613544,0.005912634544074535,-0.010062518529593945,0.004936384968459606,-0.00010934243618976325,0.0047692302614450455
0.0083285141736269,0.006302428897470236,-0.010524878278374672,0.004755055997520685,-0.00010770677181426436,0.004475696012377739
0.008859793655574322,0.0066116126254200935,-0.01056237518787384,0.004816477186977863,-0.00010611936886562034,0.004544890020042658
0.008187820203602314,0.006388767622411251,-0.010773271322250366,0.0043791220523417,-0.00010457797179697081,0.004521215334534645
0.008205661550164223,0.006324206944555044,-0.0105973519384861,0.00444258376955986,-0.0001030807543429546,0.004559646360576153
0.008125118911266327,0.006230269558727741,-0.010698718950152397,0.00475220987573266,-0.00010162583930650726,0.004787113983184099
0.008788328617811203,0.006815676111727953,-0.010111287236213684,0.005118741653859615,-0.00010021140042226762,0.004531440325081348
0.008591600693762302,0.006627109833061695,-0.010666105896234512,0.004879023879766464,-9.883573511615396e-05,0.0044853342697024345
0.00819598138332367,0.006376531906425953,-0.010200143791735172,0.004740078467875719,-9.749737364472821e-05,0.004623314365744591
0.008422334678471088,0.005950060207396746,-0.01035012025386095,0.004618092440068722,-9.61947807809338e-05,0.004723235499113798
0.008609744720160961,0.006355541758239269,-0.010244674049317837,0.0049225627444684505,-9.492653771303594e-05,0.004275327082723379
0.008585736155509949,0.006667097564786673,-0.010390719398856163,0.005279349163174629,-9.36912911129184e-05,0.004431919660419226
0.008585736155509949,0.006667097564786673,-0.010390719398856163,0.005279349163174629,-9.36912911129184e-05,0.004431919660419226
0.008831128478050232,0.006053726188838482,-0.010460814461112022,0.00521577475592494,-9.131479600910097e-05,0.004195950459688902
0.008566966280341148,0.006303835194557905,-0.010228484869003296,0.005066020879894495,-9.017121192300692e-05,0.004235764499753714
0.008716296404600143,0.006306824274361134,-0.01105482317507267,0.004508723504841328,-8.905590220820159e-05,0.004757406190037727
0.008887017145752907,0.0069435350596904755,-0.01117200218141079,0.004932293202728033,-8.796784095466137e-05,0.0045327311381697655
0.008916613645851612,0.006507445592433214,-0.009886331856250763,0.005414353683590889,-7.883542275521904e-05,0.0045997328124940395
0.008846824988722801,0.00628728698939085,-0.010016294196248055,0.005403251852840185,-7.531825394835323e-05,0.004279947839677334
0.008652148768305779,0.00620795926079154,-0.010204853489995003,0.00517895445227623,-7.426227966789156e-05,0.0042709833942353725
0.00947330892086029,0.006755134090781212,-0.010364672169089317,0.004599215462803841,-7.338626164710149e-05,0.004175687674432993
0.009023121558129787,0.006720598787069321,-0.011191412806510925,0.00457190303131938,-7.25405479897745e-05,0.003973806742578745
0.008740302175283432,0.0068274629302322865,-0.010220672003924847,0.0047544860281050205,-7.171474862843752e-05,0.004327427130192518
0.00910840556025505,0.006263035349547863,-0.009634826332330704,0.005122610367834568,-7.090762665029615e-05,0.004598819650709629
0.009790019132196903,0.006161978468298912,-0.010490498505532742,0.005453902762383223,-7.011843990767375e-05,0.004251844249665737
0.009131092578172684,0.006862799637019634,-0.010428354144096375,0.005090049467980862,-4.647144669434056e-05,0.0038696846459060907
0.009298378601670265,0.006903845351189375,-0.00994779821485281,0.004771239589899778,-2.4205201043514535e-05,0.003999718464910984
0.009363616816699505,0.005928496364504099,-0.01050935685634613,0.004669661168009043,-2.2488300601253286e-05,0.004194158595055342
0.009818312712013721,0.00592048792168498,-0.010431841015815735,0.004665608052164316,-2.2119558707345277e-05,0.004083271138370037
0.009375513531267643,0.006282697897404432,-0.010141739621758461,0.005059032700955868,-1.6460810002172366e-05,0.004118819255381823
0.009510420262813568,0.0071432748809456825,-0.01021274272352457,0.005455933045595884,-1.1152993465657346e-05,0.004046582151204348
0.01027523260563612,0.006401875056326389,-0.010524237528443336,0.005089523270726204,-1.0687120266084094e-05,0.0038438811898231506
0.010071719996631145,0.006211364641785622,-0.01015961728990078,0.004720424301922321,-1.054018775903387e-05,0.0037878993898630142
0.009511380456387997,0.005703324917703867,-0.010597108863294125,0.004692309536039829,-1.0416771146992687e-05,0.0038655928801745176
0.009480416774749756,0.006314402911812067,-0.009695790708065033,0.004330145660787821,-1.029749728331808e-05,0.0038362860213965178
0.009182091802358627,0.006745960563421249,-0.010503264144062996,0.004319691099226475,-6.723529963892361e-07,0.0037138150073587894
0.01028452254831791,0.006615520920604467,-0.01008621510118246,0.0047064232639968395,-4.389984908925726e-08,0.0034923588391393423
0.009746424853801727,0.005876783747226,-0.00982728786766529,0.004917914513498545,-2.8663464934908234e-09,0.003574712434783578
0.009410924278199673,0.005975395906716585,-0.01043772418051958,0.004802619572728872,-1.8715193284002396e-10,0.003748818766325712
0.009870444424450397,0.006920950021594763,-0.010435590520501137,0.004499410279095173,-1.2219682730962855e-11,0.0037581147626042366
0.009870444424450397,0.006920950021594763,-0.010435590520501137,0.004499410279095173,-1.2219682730962855e-11,0.0037581147626042366
0.009657788090407848,0.006303931120783091,-0.010350584052503109,0.004431606736034155,-5.209442360994132e-14,0.0035205716267228127
0.010792838409543037,0.00646671699360013,-0.010454002767801285,0.00466232979670167,-3.401393572114125e-15,0.0035435413010418415
0.009965353645384312,0.0064903320744633675,-0.009729500859975815,0.0048238374292850494,-2.22086691874598e-16,0.0032116612419486046
0.009248224087059498,0.006488060113042593,-0.010304453782737255,0.00502553628757596,-1.4500674661401588e-17,0.0032990158069878817
0.010588166303932667,0.006183025427162647,-0.010872243903577328,0.004949199501425028,-9.467905155378892e-19,0.0030711146537214518
0.010032749734818935,0.006002138834446669,-0.010044503025710583,0.004807654768228531,-6.181865807020575e-20,0.00338744861073792
0.009301906451582909,0.0060801198706030846,-0.010532017797231674,0.004820522852241993,-4.036317060141646e-21,0.003622429445385933
0.010442312806844711,0.006552280392497778,-0.010105920024216175,0.005471385549753904,0.0004928390262648463,0.003586654318496585
0.01004874613136053,0.006623733323067427,-0.010122493840754032,0.005634470842778683,0.0006189023843035102,0.003399789333343506
0.009482857771217823,0.0063809617422521114,-0.010880205780267715,0.00567571260035038,0.0005833164905197918,0.0029138114769011736
0.010091027244925499,0.006166067440062761,-0.011021874845027924,0.005358322057873011,0.0006040269508957863,0.0027267057448625565
0.009995594620704651,0.006363611202687025,-0.01039842702448368,0.005240930709987879,0.0005606482736766338,0.0028209781739860773
0.009629062376916409,0.006755925249308348,-0.010590456426143646,0.0049367984756827354,0.0005510465707629919,0.0030966170597821474
0.009987925179302692,0.006637399550527334,-0.010544680058956146,0.0050863358192145824,0.0005420337547548115,0.0034170120488852262
0.010359984822571278,0.006228235550224781,-0.010581821203231812,0.005350735504180193,0.0005060440162196755,0.0034804001916199923
0.00934797152876854,0.006286491174250841,-0.010560988448560238,0.005163189023733139,0.0004751548985950649,0.003447584807872772
0.009765718132257462,0.00672572199255228,-0.010071206837892532,0.004958850797265768,0.00047364606871269643,0.003354191081598401
0.01048552431166172,0.00627853674814105,-0.010892798192799091,0.005252521950751543,0.00043138486216776073,0.0033037997782230377
0.009299098514020443,0.006077397149056196,-0.01055583544075489,0.005211717449128628,0.00046167007531039417,0.0030244034714996815
0.009782364591956139,0.006467742379754782,-0.010658697225153446,0.005488897208124399,0.00043379998533055186,0.0030087351333349943
0.010364396497607231,0.006628813222050667,-0.010930088348686695,0.0057973130606114864,0.00040208117570728064,0.0029569186735898256
0.009765696711838245,0.006416724994778633,-0.010754222981631756,0.005322625860571861,0.00043223242391832173,0.00298425299115479
0.01006396021693945,0.0065407645888626575,-0.011064151301980019,0.005062431562691927,0.00040801195427775383,0.002913134638220072
0.010207233019173145,0.006640376057475805,-0.010898752138018608,0.004961605649441481,0.0003834152012132108,0.0030010773334652185
0.01006457582116127,0.006738472729921341,-0.010589358396828175,0.004864272195845842,0.0003865727921947837,0.0029484331607818604
0.010825511068105698,0.006345910485833883,-0.01101432554423809,0.005159929394721985,0.00038890939322300255,0.0030805757269263268
0.010089154355227947,0.006585026625543833,-0.010920675471425056,0.005065234377980232,0.0003704157716128975,0.0030344505794346333
0.010089154355227947,0.006585026625543833,-0.010920675471425056,0.005065234377980232,0.0003704157716128975,0.0030344505794346333
0.00997862871736288,0.006372496485710144,-0.01087640319019556,0.005113690160214901,0.0003801110142376274,0.003038158407434821
0.00997862871736288,0.006372496485710144,-0.01087640319019556,0.005113690160214901,0.0003801110142376274,0.003038158407434821
0.010694906115531921,0.0067098201252520084,-0.011799126863479614,0.004347759298980236,0.00036226463271304965,0.002862342167645693
0.010406098328530788,0.006510764826089144,-0.011469350196421146,0.005182133987545967,0.0003816622484009713,0.0025578183121979237
0.010090514086186886,0.006240698974579573,-0.010459085926413536,0.0054879034869372845,0.00037216750206425786,0.0024903370067477226
0.00990478228777647,0.0061728134751319885,-0.011252089403569698,0.005653069820255041,0.000395746435970068,0.0028943561483174562
0.010264839045703411,0.006096323020756245,-0.01044418103992939,0.00524749793112278,0.00038082123501226306,0.0027382392436265945
0.009854809381067753,0.006499303504824638,-0.01032791193574667,0.005039494950324297,0.0003620591596700251,0.002735517453402281
0.010709519498050213,0.006461768411099911,-0.010849984362721443,0.0050156912766397,0.0004545619012787938,0.00261680968105793
0.01024849247187376,0.00642748037353158,-0.010619739070534706,0.005209850613027811,0.00042820602538995445,0.002334822900593281
0.009658072143793106,0.006651044357568026,-0.01123099122196436,0.00532871950417757,0.0004647828172892332,0.0022777067497372627
0.01047470048069954,0.006309167947620153,-0.01127353310585022,0.0049747382290661335,0.0004323679022490978,0.002538443310186267
0.010261896066367626,0.006605599075555801,-0.010249622166156769,0.004987793508917093,0.0004496310430113226,0.002674510469660163
0.0102061927318573,0.0066886041313409805,-0.01091932412236929,0.005396533757448196,0.0004339163424447179,0.0028483793139457703
0.01014404371380806,0.00611419091001153,-0.011010835878551006,0.006050453521311283,0.00040687882574275136,0.0027806004509329796
0.009886596351861954,0.006045174319297075,-0.010754846036434174,0.005804838612675667,0.00043305521830916405,0.002401087200269103
0.01071254350244999,0.006786351557821035,-0.011915674433112144,0.00582753773778677,0.00041160761611536145,0.002210312057286501
0.010499621741473675,0.007018160540610552,-0.01053268276154995,0.005408302415162325,0.00045784644316881895,0.002252307953312993
0.010220649652183056,0.006613354664295912,-0.009568649344146252,0.005080772563815117,0.00046684438711963594,0.002274928381666541
0.00994847435504198,0.006174991838634014,-0.011374419555068016,0.005678321234881878,0.00046459349687211215,0.0027041344437748194
0.01045025885105133,0.006494566332548857,-0.011486961506307125,0.0058931526727974415,0.0004826777148991823,0.00267571653239429
0.010324263013899326,0.006929644849151373,-0.011399149894714355,0.005862209014594555,0.0005124161252751946,0.0024496119003742933
0.010830939747393131,0.006751649547368288,-0.011347782798111439,0.005339947063475847,0.0004935299511998892,0.0020412402227520943
0.01036655344069004,0.00623514736071229,-0.010942215099930763,0.005183486267924309,0.00046463211765512824,0.0019432887202128768
0.010172487236559391,0.006144385319203138,-0.011632271111011505,0.005110495258122683,0.0005787100526504219,0.0019506083335727453
0.010099079459905624,0.006367734633386135,-0.011358458548784256,0.005754462443292141,0.0005991910584270954,0.0019361015874892473
0.010089004412293434,0.006363341584801674,-0.011607193388044834,0.0053499070927500725,0.0005609908839687705,0.0023332610726356506
0.010089004412293434,0.006363341584801674,-0.011607193388044834,0.0053499070927500725,0.0005609908839687705,0.0023332610726356506
0.010199859738349915,0.005579004064202309,-0.011304977349936962,0.00506189838051796,0.0005377487977966666,0.0025150214787572622
0.010089731775224209,0.005766460206359625,-0.01115399319678545,0.004900166764855385,0.0004997685900889337,0.002175707370042801
0.009931698441505432,0.005859586875885725,-0.011409953236579895,0.005775627680122852,0.0004930890863761306,0.001441749045625329
0.009931698441505432,0.005859586875885725,-0.011409953236579895,0.005775627680122852,0.0004930890863761306,0.001441749045625329
0.009931698441505432,0.005859586875885725,-0.011409953236579895,0.005775627680122852,0.0004930890863761306,0.001441749045625329
0.009913559071719646,0.006153583526611328,-0.011381587013602257,0.005359080620110035,0.0004557281790766865,0.0014731494011357427
0.01025916077196598,0.005962260067462921,-0.011595575138926506,0.005222158972173929,0.00048593312385492027,0.001667147851549089
0.009967107325792313,0.0062355948612093925,-0.011019312776625156,0.005432944279164076,0.00045473891077563167,0.0017461469396948814
0.010841352865099907,0.006544788368046284,-0.010476430878043175,0.006491899490356445,0.00041998131200671196,0.002465814584866166
0.010336999781429768,0.005924114026129246,-0.010955126024782658,0.006157147232443094,0.0003896919952239841,0.0024859874974936247
0.00995540153235197,0.0056321462616324425,-0.01080272812396288,0.005702146328985691,0.00036344840191304684,0.0024249174166470766
0.0102947186678648,0.005576643627136946,-0.011534662917256355,0.005117098335176706,0.00039331422885879874,0.00234803999774158
0.010404237546026707,0.006235724780708551,-0.011425156146287918,0.004958628211170435,0.00037343514850363135,0.0020766612142324448
0.010364258661866188,0.006020292639732361,-0.011063804849982262,0.005722661968320608,0.0003527425869833678,0.0018757689977064729
0.01126721128821373,0.005803417414426804,-0.011628217995166779,0.006046895869076252,0.0003340463154017925,0.0017714535351842642
0.010386097244918346,0.005979315843433142,-0.011087553575634956,0.006026552990078926,0.00031722168205305934,0.001614584238268435
0.009863429702818394,0.0057677519507706165,-0.011347749270498753,0.006107301916927099,0.00032307658693753183,0.001639335765503347
0.010230524465441704,0.0063193971291184425,-0.011794503778219223,0.00542632769793272,0.00032791952253319323,0.0015633852453902364
0.010209847241640091,0.006615046411752701,-0.011409648694097996,0.005484393332153559,0.0003148558607790619,0.001713850419037044
0.009762914851307869,0.00643012672662735,-0.011737480759620667,0.005757495295256376,0.0003017413255292922,0.0016146369744092226
0.010610281489789486,0.006151137407869101,-0.011259364895522594,0.00613408861681819,0.0002896072110161185,0.0017104122089222074
0.010153863579034805,0.006392197217792273,-0.011256827041506767,0.005954721011221409,0.00026872559101320803,0.0017495962092652917
0.00977245531976223,0.006860408466309309,-0.011803561821579933,0.005729286000132561,0.0002455269277561456,0.00187773781362921
0.010657214559614658,0.006161682307720184,-0.011431274004280567,0.005445208866149187,0.000232289225095883,0.0018049620557576418
0.010283281095325947,0.0050722952000796795,-0.012047715485095978,0.005795750766992569,0.0002208487130701542,0.0016934588784351945
0.010283281095325947,0.0050722952000796795,-0.012047715485095978,0.005795750766992569,0.0002208487130701542,0.0016934588784351945
0.009823913685977459,0.004886766895651817,-0.011503961868584156,0.0059619504027068615,0.00021051194926258177,0.0017075914656743407
0.010172229260206223,0.004979943390935659,-0.011201650835573673,0.006017711013555527,0.00020110170589759946,0.0015429152408614755
0.009648215025663376,0.0053300620056688786,-0.011419229209423065,0.005425280425697565,0.00018459890270605683,0.00130697141867131
0.01013266108930111,0.0052916123531758785,-0.011984243057668209,0.005740301217883825,0.0002103770966641605,0.0012793976347893476
0.010469644330441952,0.005454530939459801,-0.0117109976708889,0.00566573441028595,0.00020456199126783758,0.001261128461919725
0.010153104551136494,0.005093909800052643,-0.012021295726299286,0.005925736855715513,0.0001972302998183295,0.001370340003632009
0.010915783233940601,0.005459550768136978,-0.01133668515831232,0.005572093650698662,0.0001902883086586371,0.0013220590772107244
0.010769286192953587,0.00527630839496851,-0.011078542098402977,0.005658966954797506,0.00018381077097728848,0.0014654138358309865
0.011211547069251537,0.005016565788537264,-0.011712105013430119,0.006121472455561161,0.00017775948799680918,0.0013827566290274262
0.010273457504808903,0.005196822807192802,-0.011629016138613224,0.006214852444827557,0.00019698018149938434,0.001307973638176918
0.010102869011461735,0.005009512882679701,-0.011727818287909031,0.006000841036438942,0.00019432668341323733,0.0011708616511896253
0.010819709859788418,0.005303850397467613,-0.011572952382266521,0.005567151587456465,0.00018872832879424095,0.0010803480399772525
0.010860181413590908,0.0050750719383358955,-0.010972920805215836,0.005613064859062433,0.00018325273413211107,0.0009341805125586689
0.00995317380875349,0.005258553195744753,-0.011716132052242756,0.005671560298651457,0.0001780734455678612,0.0009211775613948703
0.010968002490699291,0.005548997316509485,-0.01157368253916502,0.005923464894294739,0.00017317831225227565,0.0009099043090827763
0.011762420646846294,0.005150448065251112,-0.011932708323001862,0.006323138251900673,0.00016854485147632658,0.0008122120052576065
0.011964158155024052,0.004945076536387205,-0.011805102229118347,0.005915572866797447,0.00018603104399517179,0.0007929564453661442
0.011889563873410225,0.005298486445099115,-0.011485475115478039,0.006049227435141802,0.00018273633031640202,0.0008051566546782851
0.011547247879207134,0.005383914802223444,-0.011867133900523186,0.006274405866861343,0.00017830410797614604,0.0008162524318322539
0.012252453714609146,0.005485067144036293,-0.011515762656927109,0.006108760833740234,0.0001740008156048134,0.0009458164568059146
0.010168341919779778,0.005427232943475246,-0.011715960688889027,0.0058336700312793255,0.00016989522555377334,0.0009835181990638375
0.012341603636741638,0.005596216302365065,-0.012065613642334938,0.0056394534185528755,0.00016597856301814318,0.000983172096312046
0.012341603636741638,0.005596216302365065,-0.012065613642334938,0.0056394534185528755,0.00016597856301814318,0.000983172096312046
0.012470710091292858,0.0052216690964996815,-0.011562568135559559,0.005475164856761694,0.0001622383133508265,0.0009725035633891821
0.01174400094896555,0.004938503261655569,-0.01216278225183487,0.0052522942423820496,0.0001586630241945386,0.0009311642497777939
0.012228564359247684,0.005240836180746555,-0.011580404825508595,0.005675600375980139,0.00015524186892434955,0.0008342044893652201
0.012132195755839348,0.00543770007789135,-0.01168209221214056,0.006903286091983318,0.0001522404490970075,0.0008098927792161703
0.012503045611083508,0.005101574584841728,-0.011810685507953167,0.006778310053050518,0.00014460578677244484,0.0007311679073609412
0.012442597188055515,0.005190967116504908,-0.012251332402229309,0.006848209071904421,0.00013569781731348485,0.0006708719884045422
0.012559148482978344,0.005297169089317322,-0.01181638240814209,0.007101441267877817,0.00013172441686037928,0.0006076613208279014
0.012119323946535587,0.005580659955739975,-0.011784601025283337,0.00704461382701993,0.00012797789531759918,0.0005542412400245667
0.012143942527472973,0.005411373917013407,-0.011700120754539967,0.006565341725945473,0.00012108994269510731,0.0005361202638596296
0.012143942527472973,0.005411373917013407,-0.011700120754539967,0.006565341725945473,0.00012108994269510731,0.0005361202638596296
0.012436903081834316,0.005311128683388233,-0.012401683256030083,0.0066320342011749744,0.00011791667202487588,0.0004746130434796214
0.012311894446611404,0.005264114122837782,-0.012011957354843616,0.0066156028769910336,0.00013485999079421163,0.0004095502954442054
0.012394985184073448,0.005725733004510403,-0.012722612358629704,0.006101616658270359,0.00013425560609903187,0.0004434910661075264
0.0124112069606781,0.005818869918584824,-0.012546652927994728,0.0062547833658754826,0.0001311737287323922,0.00044736324343830347
0.012292945757508278,0.005541655234992504,-0.012093980796635151,0.006684117019176483,0.00012807427265215665,0.0004464895464479923
0.012595619075000286,0.005118201486766338,-0.012422403320670128,0.006457146257162094,0.00012510761735029519,0.0004705274768639356
0.012346602976322174,0.005786519031971693,-0.012668789364397526,0.006039703264832497,0.0001222746941493824,0.00044840460759587586
0.012702821753919125,0.005504898726940155,-0.01304728165268898,0.005954401101917028,0.00011956717207795009,0.00042254794971086085
0.012654944323003292,0.005866759456694126,-0.012496331706643105,0.0064255306497216225,0.00011697694571921602,0.00039956209366209805
0.012816710397601128,0.005639651790261269,-0.012320461682975292,0.0066912127658724785,0.00011449661542428657,0.0004845710936933756
0.012890695594251156,0.005481871776282787,-0.01210053265094757,0.007144621107727289,0.00011211923992959782,0.0004450340347830206
0.01272833812981844,0.005220465362071991,-0.012536493130028248,0.007085646502673626,0.00010983866377500817,0.0004054423770867288
0.012950271368026733,0.0057677640579640865,-0.012836848385632038,0.0071250274777412415,0.00010764894250314683,0.0003719328378792852
0.01246516965329647,0.005495607387274504,-0.012476925738155842,0.007046878803521395,0.00010554488108027726,0.00034351705107837915
0.01281486451625824,0.005864797160029411,-0.0128931300714612,0.007116663735359907,0.00010352148092351854,0.0003191370633430779
0.012534406036138535,0.005330989137291908,-0.012187667191028595,0.0072110844776034355,0.00010157418728340417,0.0002979892888106406
0.012857732363045216,0.005242976825684309,-0.012477405369281769,0.0070213740691542625,9.969881648430601e-05,0.0003066621138714254
0.012857732363045216,0.005242976825684309,-0.012477405369281769,0.0070213740691542625,9.969881648430601e-05,0.0003066621138714254
0.01283794455230236,0.005552541930228472,-0.012764707207679749,0.00726650794968009,9.789144678507e-05,0.0003138737811241299
0.013183770701289177,0.006170318461954594,-0.01274458970874548,0.007384827360510826,9.614841837901622e-05,0.0002981761354021728
0.01240442506968975,0.006038064602762461,-0.012629291974008083,0.007360304705798626,9.446640615351498e-05,0.00028266917797736824
0.01273907907307148,0.005157505162060261,-0.01237362902611494,0.007546016480773687,9.127296652877703e-05,0.00025587945128791034
0.012656454928219318,0.005924820899963379,-0.011953270062804222,0.007695262786000967,8.975586388260126e-05,0.00024430008488707244
0.012863824144005775,0.005480009596794844,-0.012913835234940052,0.00716165266931057,8.82883759913966e-05,0.0002337233891012147
0.01303422823548317,0.006152613554149866,-0.01245032250881195,0.0067735398188233376,8.6868109065108e-05,0.0002240249450551346
0.013206387870013714,0.005882444325834513,-0.012820695526897907,0.007184453308582306,9.607146785128862e-05,0.0002150998479919508
0.012861904688179493,0.00574964564293623,-0.012728097848594189,0.007587688975036144,9.7947362519335e-05,0.00020685835625045002
0.013097682036459446,0.005216734949499369,-0.012418130412697792,0.006990374997258186,9.666466212365776e-05,0.00019922535284422338
0.013445752672851086,0.005851197987794876,-0.01236693374812603,0.006957083474844694,9.521803440293297e-05,0.0001921356306411326
0.013204612769186497,0.0055379197001457214,-0.01190447248518467,0.00680922158062458,9.380119445268065e-05,0.00015871087089180946
0.013443000614643097,0.005968793760985136,-0.013066398911178112,0.0072232200764119625,9.242514352081344e-05,0.0001497425400884822
0.012890431098639965,0.005408337339758873,-0.012230553664267063,0.007233111187815666,9.108886297326535e-05,0.00014468633162323385
0.013260926119983196,0.005318148992955685,-0.012974826619029045,0.007459057029336691,8.979063568403944e-05,0.0001401634217472747
0.01310013234615326,0.0054990556091070175,-0.012517676688730717,0.007006410509347916,8.852886821841821e-05,0.00013592820323538035
0.013428909704089165,0.005660636816173792,-0.012185689993202686,0.007351509295403957,8.730206900509074e-05,0.00013194240455050021
0.01321355625987053,0.005859341938048601,-0.012597505003213882,0.007540575228631496,8.610884833615273e-05,0.00012818365939892828
0.013568193651735783,0.005403120536357164,-0.012257441878318787,0.0075635528191924095,8.494775829603896e-05,0.00012463309394661337
0.013520916923880577,0.005417250096797943,-0.012831823900341988,0.0075722793117165565,8.381759107578546e-05,9.864658932201564e-05
0.013200941495597363,0.005561747122555971,-0.012267105281352997,0.007631398271769285,8.271711703855544e-05,9.45792198763229e-05
0.013318094424903393,0.0057631246745586395,-0.012691030278801918,0.007128371391445398,8.164512109942734e-05,9.206402319250628e-05
0.013318094424903393,0.0057631246745586395,-0.012691030278801918,0.007128371391445398,8.164512109942734e-05,9.206402319250628e-05
0.013786060735583305,0.005754497833549976,-0.012577013112604618,0.0073059662245213985,8.06005482445471e-05,8.976208482636139e-05
0.01386607252061367,0.005731846205890179,-0.012598877772688866,0.007566755171865225,7.958243804750964e-05,6.856399704702199e-05
0.013961239717900753,0.005455855280160904,-0.012560831382870674,0.007705829106271267,7.858966273488477e-05,6.431145448004827e-05
0.014336147345602512,0.005590749438852072,-0.01201100554317236,0.007519353646785021,7.762138557154685e-05,6.264796684263274e-05
0.01392578985542059,0.005497752223163843,-0.01267265435308218,0.007451142184436321,7.667668251087889e-05,-3.560807090252638e-05
0.013605269603431225,0.006433592643588781,-0.012706604786217213,0.00781800877302885,7.485459354938939e-05,-7.099405775079504e-05
0.013958335854113102,0.0056715114042162895,-0.012494640424847603,0.007549636531621218,7.39756433176808e-05,-9.124994539888576e-05
0.013340605422854424,0.005806934554129839,-0.012385840527713299,0.007361546624451876,7.311710942303762e-05,-0.0001071694860002026
0.014391141012310982,0.0058333128690719604,-0.012709097005426884,0.007491417229175568,7.227826426969841e-05,-0.0001099656437872909
0.013955831527709961,0.005978641100227833,-0.012312624603509903,0.007572599686682224,7.145846029743552e-05,-0.0006276928470470011
0.014773848466575146,0.00590486591681838,-0.0127122076228261,0.007334751542657614,7.065702084219083e-05,-0.000666602689307183
0.014278633520007133,0.005771298427134752,-0.01222479622811079,0.007128878030925989,6.98733638273552e-05,-0.0006679586949758232
0.014413046650588512,0.005906464532017708,-0.012280507013201714,0.007481277454644442,9.000455975183286e-06,-0.0006902809254825115
0.013998567126691341,0.005518110003322363,-0.012156708166003227,0.00782610010355711,5.876655109204876e-07,-0.0006692707538604736
0.014647108502686024,0.0059239561669528484,-0.012772852554917336,0.0074236332438886166,3.8370362887008014e-08,-0.0007551906746812165
0.014269625768065453,0.006365758366882801,-0.012869026511907578,0.007273357827216387,2.5053104035777096e-09,-0.000781814509537071
0.014924968592822552,0.005804300773888826,-0.012005153112113476,0.007761021144688129,1.635788865472776e-10,-0.0007823034538887441
0.014548839069902897,0.005875024478882551,-0.012352178804576397,0.00833089929074049,1.0680531979667673e-11,-0.0007948746788315475
0.014932903461158276,0.005982944276183844,-0.011943533085286617,0.007862373255193233,6.973624152098457e-13,-0.0008948691538535058
0.014316740445792675,0.0060758814215660095,-0.012169023975729942,0.007951457053422928,4.5532784628214e-14,-0.0010589332086965442
0.015230314806103706,0.006229546386748552,-0.01203419454395771,0.007953586056828499,2.972965366184084e-15,-0.0010821629548445344
0.014711936935782433,0.00591588020324707,-0.012245251797139645,0.007644787896424532,1.9411338908685533e-16,-0.0014978128019720316
0.014870763756334782,0.006122181192040443,-0.01230176817625761,0.007413018960505724,1.267421685549265e-17,-0.0015310426242649555
0.014638281427323818,0.005724672693759203,-0.01203112117946148,0.007318870630115271,8.275357315297543e-19,-0.0014329851837828755
0.014951569028198719,0.005813394673168659,-0.012443986721336842,0.008100036531686783,5.403216785734829e-20,-0.001364968833513558
0.015370810404419899,0.005805691704154015,-0.012012514285743237,0.008238604292273521,3.527914407325509e-21,-0.001372793223708868
0.015370810404419899,0.005805691704154015,-0.012012514285743237,0.008238604292273521,3.527914407325509e-21,-0.001372793223708868
0.015354006551206112,0.005728865507990122,-0.012632927857339382,0.008072011172771454,2.303475862729272e-22,-0.0013465300435200334
0.015135751105844975,0.005875031463801861,-0.012211392633616924,0.007969026453793049,9.820078772304268e-25,-0.001605913508683443
0.015187549404799938,0.006208501290529966,-0.012192669324576855,0.007837620563805103,6.411809668639479e-26,-0.0019334094831719995
0.015123055316507816,0.005825531203299761,-0.011864794418215752,0.007600812707096338,4.186453238756822e-27,-0.0021525658667087555
0.015333003364503384,0.0058409529738128185,-0.013090929016470909,0.00802348367869854,2.7334545552168183e-28,-0.00195659464225173
0.015250233933329582,0.005882823374122381,-0.012410852126777172,0.008225760422647,1.784750552593591e-29,-0.0018177140736952424
0.015522048808634281,0.005887552630156279,-0.012929725460708141,0.008217225782573223,1.1653145697441665e-30,-0.001748818438500166
0.014857306145131588,0.006120665930211544,-0.01301366277039051,0.00767715135589242,7.60867106758298e-32,-0.0017022821120917797
0.01570155844092369,0.006133844144642353,-0.013058941811323166,0.007679240312427282,4.967917939141323e-33,-0.001978448824957013
0.015696361660957336,0.0059873610734939575,-0.013078424148261547,0.008726130239665508,3.243695157091262e-34,-0.002265376504510641
0.01589963398873806,0.006278221029788256,-0.012732284143567085,0.008201164193451405,2.1179011723389403e-35,-0.0022047446109354496
0.01561257429420948,0.0058425129391252995,-0.013175824657082558,0.008014011196792126,1.3828380946674334e-36,-0.0020727759692817926
0.015862299129366875,0.006423259153962135,-0.012324323877692223,0.008374863304197788,9.028944356230164e-38,-0.0020060925744473934
0.015795055776834488,0.005984676536172628,-0.013397401198744774,0.008082658983767033,5.895255632922184e-39,-0.0020604305900633335
0.016143567860126495,0.005680358037352562,-0.011627905070781708,0.008132808841764927,3.84918471269991e-40,-0.0027087880298495293
0.01618296466767788,0.006039950996637344,-0.01342603750526905,0.00836257915943861,2.5132287957665594e-41,-0.0035283644683659077
0.0156690813601017,0.005480661988258362,-0.013624781742691994,0.008938958868384361,1.6409205017243608e-42,-0.0034922976046800613
0.01615043357014656,0.006049613002687693,-0.01319002266973257,0.008588981814682484,1.064986832886861e-43,-0.0033027702011168003
0.01590380072593689,0.006217894610017538,-0.013078986667096615,0.008061930537223816,7.006492321624085e-45,-0.0031868238002061844
0.016238760203123093,0.0058999378234148026,-0.013727501966059208,0.008566225878894329,0.0,-0.003050420433282852
0.016249023377895355,0.005535759497433901,-0.013809151947498322,0.008977380581200123,0.0,-0.0034263099078089
0.01654411107301712,0.0059479656629264355,-0.012881769798696041,0.0082151610404253,0.0,-0.0032909007277339697
0.016166169196367264,0.006186416372656822,-0.013201514258980751,0.008196446113288403,0.0,-0.0031544447410851717
0.016200333833694458,0.00637550326064229,-0.01297385897487402,0.008382728323340416,0.0,-0.00300364731810987
0.016200333833694458,0.00637550326064229,-0.01297385897487402,0.008382728323340416,0.0,-0.00300364731810987
0.016537483781576157,0.005983012728393078,-0.01331332977861166,0.008155708201229572,0.0,-0.0028694833163172007
0.01618059352040291,0.005982295610010624,-0.013076494447886944,0.008159835822880268,0.0,-0.0028529397677630186
0.016671227291226387,0.005924551282078028,-0.013524367474019527,0.007933043874800205,0.0,-0.0032177951652556658
0.016690265387296677,0.0061979955062270164,-0.01372260507196188,0.008108207955956459,0.0,-0.004267790354788303
0.01686149835586548,0.004637247417122126,-0.013378703035414219,0.008770960383117199,1.1652574357867707e-05,-0.004010057542473078
0.01662423089146614,0.003968216944485903,-0.013477643951773643,0.00912004616111517,7.608298346895026e-07,-0.003822150407359004
0.01669965125620365,0.004522643517702818,-0.013146935030817986,0.00941702164709568,4.967674982481185e-08,-0.003843906568363309
0.016671855002641678,0.005207558162510395,-0.0134605523198843,0.00927842129021883,3.243536328412233e-09,-0.003934171982109547
0.01744609698653221,0.005621148273348808,-0.013474958017468452,0.009600389748811722,2.1177976039510327e-10,-0.004036078229546547
0.01674971543252468,0.005173188634216785,-0.012921497225761414,0.009506436064839363,1.382770460633953e-11,-0.004023849498480558
0.01697203516960144,0.004702353850007057,-0.013904568739235401,0.008954232558608055,9.028503313891767e-13,-0.004022947046905756
0.01725391298532486,0.004623015411198139,-0.013254227116703987,0.008290582336485386,5.894967131624129e-14,-0.004349509719759226
0.017215484753251076,0.004939766600728035,-0.013615986332297325,0.008606882765889168,3.848992251222899e-15,-0.004294791258871555
0.01784559153020382,0.005059380549937487,-0.013334794901311398,0.008415707387030125,2.513117108350355e-16,-0.004467757418751717
0.017172563821077347,0.005396529100835323,-0.014085804112255573,0.008737917058169842,1.6408857911830765e-17,-0.004584485199302435
0.017391908913850784,0.00511450320482254,-0.013043035753071308,0.008654884994029999,1.0713811831836622e-18,-0.004137717187404633
0.01718468777835369,0.004611162934452295,-0.013827797025442123,0.008341068401932716,6.995353995496436e-20,-0.004143546801060438
0.015252717770636082,0.004502770956605673,-0.013296026736497879,0.008272696286439896,4.567466775906208e-21,-0.004246937111020088
0.018391747027635574,0.004679250065237284,-0.01352430135011673,0.009040559642016888,2.9822294560657073e-22,-0.004547016695141792
0.018011709675192833,0.005185945425182581,-0.013481982052326202,0.00907314196228981,1.947182764363931e-23,-0.004630926996469498
0.017672047019004822,0.005522741936147213,-0.013924202881753445,0.008687122724950314,1.2713713263811303e-24,-0.0046077752485871315
0.017864719033241272,0.005089728161692619,-0.01377012487500906,0.009175837971270084,8.301145711488193e-26,-0.004486056976020336
0.017639311030507088,0.004952584393322468,-0.014182529412209988,0.009401298128068447,5.420055279339578e-27,-0.004582086578011513
0.01829712465405464,0.004712637513875961,-0.013689578510820866,0.009073754772543907,3.5389087913561844e-28,-0.004573679994791746
0.017979705706238747,0.0048479423858225346,-0.013880981132388115,0.00930858589708805,2.3106544623944146e-29,-0.005067592952400446
0.017979705706238747,0.0048479423858225346,-0.013880981132388115,0.00930858589708805,2.3106544623944146e-29,-0.005067592952400446
0.018088236451148987,0.004685869440436363,-0.013868693262338638,0.009547939524054527,1.5086922682634317e-30,-0.005231080111116171
0.01860124245285988,0.004938191268593073,-0.013420256786048412,0.00932365283370018,9.850682038951522e-32,-0.005217387340962887
0.01839088648557663,0.005439444445073605,-0.014057436026632786,0.009138057008385658,6.431791543605042e-33,-0.005249516107141972
0.01754264160990715,0.004967814777046442,-0.01372596900910139,0.009526178240776062,4.199499945238182e-34,-0.004630113486200571
0.01818256266415119,0.004812384489923716,-0.013757431879639626,0.008910479955375195,2.741973447776489e-35,-0.004519597627222538
0.018315058201551437,0.005074315704405308,-0.013614760711789131,0.009609686210751534,1.1689463633581905e-37,-0.005115702748298645
0.01876305788755417,0.005517211742699146,-0.013340102508664131,0.009401539340615273,7.632385083311694e-39,-0.005183826666325331
0.018413687124848366,0.005647212732583284,-0.013766199350357056,0.008859454654157162,4.983395689724417e-40,-0.005023673176765442
0.018673032522201538,0.005099618807435036,-0.013514197431504726,0.009380897507071495,3.253815034162225e-41,-0.005040766671299934
0.018672870472073555,0.0048350379802286625,-0.013935626484453678,0.009455016814172268,2.1243684719164227e-42,-0.005108678713440895
0.018261650577187538,0.005107857286930084,-0.013580349273979664,0.009305230341851711,1.3872854796815689e-43,-0.005738063715398312
0.01866808347404003,0.005507129244506359,-0.014284578152000904,0.009550781920552254,8.407790785948902e-45,-0.005723955575376749
0.01888793148100376,0.0053318943828344345,-0.013962819240987301,0.009819659404456615,0.0,-0.005666193552315235
0.01880536414682865,0.005695296451449394,-0.014321035705506802,0.009644153527915478,0.0,-0.005275558680295944
0.01922912709414959,0.005246438551694155,-0.013688935898244381,0.009571392089128494,0.0,-0.004988215863704681
0.018719321116805077,0.00538295553997159,-0.014574151486158371,0.00968078337609768,0.0,-0.005627279169857502
0.018865007907152176,0.005503606051206589,-0.013957757502794266,0.009588053449988365,0.0,-0.005644199904054403
0.019575560465455055,0.0052315411157906055,-0.01447540894150734,0.01004491001367569,0.0,-0.005958579480648041
0.019475847482681274,0.005376285407692194,-0.014064528048038483,0.010382132604718208,0.0,-0.005717866588383913
0.01882355473935604,0.005161659326404333,-0.014518246054649353,0.009851817972958088,0.0,-0.005833102855831385
0.01956082135438919,0.0051141707226634026,-0.014375927858054638,0.01006636954843998,0.0,-0.006035804282873869
0.019591720774769783,0.005459728185087442,-0.014333891682326794,0.010558640584349632,0.0,-0.00598993431776762
0.018948933109641075,0.004978745244443417,-0.013912548311054707,0.009916896931827068,0.0,-0.005983640439808369
0.019688131287693977,0.005336046684533358,-0.01424791757017374,0.010128016583621502,0.0,-0.005872367415577173
0.019485244527459145,0.0053082420490682125,-0.014348139055073261,0.010098272003233433,0.0,-0.005828015971928835
0.019464712589979172,0.005373060237616301,-0.014226206578314304,0.009673352353274822,0.0,-0.005933742504566908
0.019740423187613487,0.0053589497692883015,-0.014089610427618027,0.010385544039309025,0.0,-0.005955939181149006
0.019646236672997475,0.005152240861207247,-0.014537506736814976,0.010204112157225609,0.0,-0.006292320787906647
0.019284063950181007,0.005270340014249086,-0.014653576537966728,0.010276022367179394,0.0,-0.006155740935355425
0.019284063950181007,0.005270340014249086,-0.014653576537966728,0.010276022367179394,0.0,-0.006155740935355425
0.020227404311299324,0.0054062288254499435,-0.014416119083762169,0.01038960088044405,-6.825321179348975e-05,-0.006200856529176235
0.019565314054489136,0.005582330282777548,-0.014708660542964935,0.01077362708747387,-0.00031531151034869254,-0.006429298315197229
0.01988764852285385,0.00546486908569932,-0.014907085336744785,0.010937793180346489,-0.00035582203418016434,-0.006462953053414822
0.019929155707359314,0.005056164693087339,-0.01485463697463274,0.010272323153913021,-0.0003482118190731853,-0.00632837601006031
0.020102879032492638,0.004822042305022478,-0.014700943604111671,0.010396501049399376,-0.00035466469125822186,-0.006488834507763386
0.02014792338013649,0.005142991431057453,-0.015349304303526878,0.009897627867758274,-0.00035904007381759584,-0.00688441377133131
0.02026022970676422,0.005512615665793419,-0.01482824794948101,0.009922510012984276,-0.00034119904739782214,-0.006590787786990404
0.02018253691494465,0.005059240851551294,-0.015465110540390015,0.01032593660056591,-0.0003237632045056671,-0.006741570774465799
0.020379453897476196,0.00524244224652648,-0.015111812390387058,0.010553043335676193,-0.00034891098039224744,-0.0068171462044119835
0.0204934012144804,0.005053523927927017,-0.015353512950241566,0.009952734224498272,-0.0003353292413521558,-0.006465831771492958
0.02036997117102146,0.005037741269916296,-0.014614605344831944,0.01079598255455494,-0.00032071725581772625,-0.006396797485649586
0.020388798788189888,0.005343473982065916,-0.015553426928818226,0.010766569525003433,-0.00040632905438542366,-0.006609329022467136
0.020028166472911835,0.005323912017047405,-0.015002784319221973,0.009924027137458324,-0.0004451008571777493,-0.00672281626611948
0.02100200206041336,0.005047941580414772,-0.016166849061846733,0.010605061426758766,-0.0004538364300969988,-0.007161343470215797
0.020941151306033134,0.005326620303094387,-0.015762394294142723,0.010220001451671124,-0.00045281575876288116,-0.007079062983393669
0.020597537979483604,0.0050993142649531364,-0.016085192561149597,0.009895561262965202,-0.0004538252542261034,-0.006844040006399155
0.02081170678138733,0.005556476768106222,-0.0160735584795475,0.010556597262620926,-0.00045247917296364903,-0.007183155044913292
0.021278532221913338,0.005191883072257042,-0.015493553131818771,0.010286602191627026,-0.0005363738164305687,-0.007084498181939125
0.02082345075905323,0.004535754676908255,-0.01588371954858303,0.010212828405201435,-0.0005724309594370425,-0.007946960628032684
0.020060298964381218,0.00428954279050231,-0.015612680464982986,0.01076685544103384,-0.0005138584529049695,-0.007855013012886047
0.020865177735686302,0.004511063452810049,-0.01619929075241089,0.010396057739853859,-0.00046152216964401305,-0.007834222167730331
0.020974688231945038,0.004626835696399212,-0.015419459901750088,0.01062780525535345,-0.0004962459206581116,-0.006951334420591593
0.020884813740849495,0.004648822825402021,-0.016205569729208946,0.011222530156373978,-0.0004590940079651773,-0.007026744540780783
0.020492088049650192,0.004613419994711876,-0.016136879101395607,0.011053910478949547,-0.0004751984670292586,-0.00697515020146966
0.020489579066634178,0.005227033048868179,-0.016117719933390617,0.011222817935049534,-0.00045682070776820183,-0.00714691448956728
0.021017076447606087,0.004579304251819849,-0.0158030167222023,0.010844145901501179,-0.00045652841799892485,-0.006760038901120424
0.021397287026047707,0.004497681278735399,-0.01565568707883358,0.010092544369399548,-0.0004549359146039933,-0.00709935836493969
0.021397287026047707,0.004497681278735399,-0.01565568707883358,0.010092544369399548,-0.0004549359146039933,-0.00709935836493969
0.020990682765841484,0.0047355713322758675,-0.016129905357956886,0.010223296470940113,-0.00040587547118775547,-0.007909459061920643
0.02095850184559822,0.0046981568448245525,-0.016679979860782623,0.010480363853275776,-0.00037439976586028934,-0.007608816027641296
0.0207491647452116,0.004736964590847492,-0.01572812721133232,0.011052554473280907,-0.0004054322780575603,-0.007802331354469061
0.02078564651310444,0.004408031236380339,-0.016308685764670372,0.011115558445453644,-0.0003846786275971681,-0.0077414619736373425
0.021049199625849724,0.004365474451333284,-0.015631480142474174,0.01101573184132576,-0.0003595807938836515,-0.00817648135125637
0.02109305001795292,0.004614798817783594,-0.016178980469703674,0.010570211336016655,-0.00038943131221458316,-0.00830839853733778
0.02138088457286358,0.004685461055487394,-0.0159712266176939,0.0100224819034338,-0.00036996506969444454,-0.008351251482963562
0.021358110010623932,0.004703905899077654,-0.015600242651998997,0.010524678975343704,-0.0003928649821318686,-0.008372020907700062
0.021184738725423813,0.004442526958882809,-0.016240181401371956,0.010207070037722588,-0.00037853600224480033,-0.008327028714120388
0.021254263818264008,0.004495659843087196,-0.016180459409952164,0.010450872592628002,-0.0004762712924275547,-0.008312979713082314
0.021437477320432663,0.004589235410094261,-0.016670284792780876,0.011062459088861942,-0.0005031414330005646,-0.00812582578510046
0.021279796957969666,0.0046411617659032345,-0.016011275351047516,0.010771825909614563,-0.0004788962542079389,-0.007869163528084755
0.021394157782197,0.00468329107388854,-0.01639142632484436,0.011074252426624298,-0.00044108432484790683,-0.007818091660737991
0.021119682118296623,0.0042776083573699,-0.01573103293776512,0.011160260066390038,-0.0004407751257531345,-0.008349640294909477
0.02155962586402893,0.004338640253990889,-0.016066009178757668,0.010596876963973045,-0.00044008647091686726,-0.008581853471696377
0.021254103630781174,0.005161981098353863,-0.016553696244955063,0.011024928651750088,-0.00041318315197713673,-0.008286925964057446
0.021139727905392647,0.00504238810390234,-0.01588907651603222,0.010850070975720882,-0.00042866155854426324,-0.0081630302593112
0.02130132168531418,0.004811386577785015,-0.016078470274806023,0.010750104673206806,-0.0004166066355537623,-0.008410568349063396
0.021507810801267624,0.004887182731181383,-0.01604306511580944,0.01133609376847744,-0.0004243708390276879,-0.008873727172613144
0.021792881190776825,0.004852767568081617,-0.016543107107281685,0.011204620823264122,-0.0004154696362093091,-0.00873237568885088
0.02180645801126957,0.004807260353118181,-0.016068046912550926,0.011116813868284225,-0.00044805719517171383,-0.008641216903924942
0.021280113607645035,0.0049688369035720825,-0.016076307743787766,0.01116158440709114,-0.00042210769606754184,-0.008657553233206272
0.021242665126919746,0.005350104533135891,-0.016096556559205055,0.010830097831785679,-0.0003920377348549664,-0.008558563888072968
0.022671600803732872,0.0049129268154501915,-0.016635868698358536,0.011758832260966301,-0.0004221756535116583,-0.008779534138739109
0.022018108516931534,0.004500517621636391,-0.01656815968453884,0.01192738302052021,-0.0004484323726501316,-0.008892830461263657
0.0216648168861866,0.005079865455627441,-0.015836093574762344,0.011576224118471146,-0.00042933993972837925,-0.009370612911880016
0.022076856344938278,0.004918574821203947,-0.016432132571935654,0.01155222300440073,-0.0005440758541226387,-0.008846690878272057
0.022076856344938278,0.004918574821203947,-0.016432132571935654,0.01155222300440073,-0.0005440758541226387,-0.008846690878272057
0.02211753837764263,0.004886883310973644,-0.016276974231004715,0.011832990683615208,-0.0005326138925738633,-0.009216672740876675
0.021892238408327103,0.004918359685689211,-0.016003603115677834,0.011688848957419395,-0.0005573511589318514,-0.009571135975420475
0.022490959614515305,0.004455908667296171,-0.016270486637949944,0.011291207745671272,-0.0005209315568208694,-0.009436160326004028
0.02335463836789131,0.004602115135639906,-0.016438990831375122,0.011553521268069744,-0.0005410914309322834,-0.009349892847239971
0.02295798622071743,0.004614974372088909,-0.016024528071284294,0.011406558565795422,-0.000510816287714988,-0.009106962010264397
0.022577162832021713,0.004814867861568928,-0.01627480238676071,0.011502116918563843,-0.0005609279032796621,-0.009123545140028
0.02152608148753643,0.005236211232841015,-0.015700826421380043,0.011610186658799648,-0.0005862003308720887,-0.009040306322276592
0.022643117234110832,0.004874305333942175,-0.016059396788477898,0.012260009534657001,-0.0005502488929778337,-0.009217189624905586
0.023166410624980927,0.004920420702546835,-0.015763478353619576,0.01210051216185093,-0.0005618353607133031,-0.008967992849647999
0.023321274667978287,0.004892615135759115,-0.01679288223385811,0.011707642115652561,-0.0005332105210982263,-0.008914586156606674
0.02271479181945324,0.004846637602895498,-0.016161559149622917,0.012360108084976673,-0.0005268140812404454,-0.009043985046446323
0.022970888763666153,0.005142913665622473,-0.01611480861902237,0.011588413268327713,-0.0005199484876357019,-0.009741327725350857
0.02384924329817295,0.0054911840707063675,-0.016390837728977203,0.011977199465036392,-0.0005778296035714447,-0.009224915876984596
0.023864448070526123,0.00499090738594532,-0.015999972820281982,0.012285444885492325,-0.0006163989310152829,-0.009494801983237267
0.023845374584197998,0.004675739910453558,-0.016585664823651314,0.01176399365067482,-0.0006525714416056871,-0.009455138817429543
0.02308495156466961,0.005125137977302074,-0.016116837039589882,0.011728049255907536,-0.000678836542647332,-0.009453377686440945
0.02328580617904663,0.005047264508903027,-0.01648861914873123,0.011381980031728745,-0.001050072256475687,-0.00920120533555746
0.023469988256692886,0.00548376701772213,-0.016345135867595673,0.011665062047541142,-0.0009685230907052755,-0.00889062974601984
0.024075323715806007,0.005206521134823561,-0.01662605255842209,0.011551154777407646,-0.0009540995815768838,-0.009177946485579014
0.024073699489235878,0.005341708194464445,-0.017191912978887558,0.011660958640277386,-0.0009227762348018587,-0.009082440286874771
0.024149110540747643,0.005088243167847395,-0.01629609614610672,0.01201721839606762,-0.0008416968048550189,-0.009208537638187408
0.024137267842888832,0.00510910851880908,-0.016910020262002945,0.011817781254649162,-0.0007550601148977876,-0.009565776214003563
0.024148091673851013,0.005023797042667866,-0.01638912595808506,0.012268892489373684,-0.0006834448431618512,-0.010000190697610378
0.02398921735584736,0.00524746673181653,-0.017012780532240868,0.011854322627186775,-0.0005782180232927203,-0.009207125753164291
0.02421455830335617,0.005039336625486612,-0.016661278903484344,0.011717530898749828,-0.0005112334620207548,-0.009444129653275013
0.024612650275230408,0.004868754651397467,-0.016605179756879807,0.012600832618772984,-0.0005259895697236061,-0.00939052551984787
0.023912789300084114,0.0050739748403429985,-0.01716901920735836,0.012287218123674393,-0.0004980581579729915,-0.00913968775421381
0.023912789300084114,0.0050739748403429985,-0.01716901920735836,0.012287218123674393,-0.0004980581579729915,-0.00913968775421381
0.02520996518433094,0.004902651999145746,-0.016955817118287086,0.012721621431410313,-0.0005130806821398437,-0.00925442948937416
0.02418297901749611,0.005317294970154762,-0.016291549429297447,0.012232379987835884,-0.0005039937095716596,-0.009328683838248253
0.024857236072421074,0.0051736654713749886,-0.016800377517938614,0.012358731590211391,-0.0004850014520343393,-0.009129983372986317
0.024894235655665398,0.004752619657665491,-0.017246676608920097,0.012190795503556728,-0.0004807914374396205,-0.00835595652461052
0.02498001419007778,0.0047624907456338406,-0.01718194968998432,0.012278004549443722,-0.00043947319500148296,-0.00853738933801651
0.025322118774056435,0.0048667932860553265,-0.017184607684612274,0.011967280879616737,-0.0004593738412950188,-0.009000791236758232
0.02559857815504074,0.005177084356546402,-0.016471806913614273,0.012719149701297283,-0.0004400848411023617,-0.008467505685985088
0.025503531098365784,0.00548493443056941,-0.017212770879268646,0.012297979556024075,-0.0004667006141971797,-0.008569619618356228
0.025460436940193176,0.005130396224558353,-0.01706937700510025,0.012447889894247055,-0.0004885009839199483,-0.009019815362989902
0.025353150442242622,0.004873268306255341,-0.016583304852247238,0.012559735216200352,-0.0005718224565498531,-0.008762492798268795
0.02545260451734066,0.005240182857960463,-0.016889959573745728,0.011798832565546036,-0.0006502082105726004,-0.008376934565603733
0.02550904080271721,0.005191318690776825,-0.01664656028151512,0.012178068049252033,-0.0006312973564490676,-0.00882306694984436
0.026100343093276024,0.005421220790594816,-0.01737712323665619,0.012385903857648373,-0.0006500064046122134,-0.008439180441200733
0.02605186030268669,0.005201701540499926,-0.016920853406190872,0.012827974744141102,-0.0005993958911858499,-0.008370566181838512
0.025712231174111366,0.005296029150485992,-0.016874931752681732,0.012704730965197086,-0.0006206325488165021,-0.008826544508337975
0.026634272187948227,0.005243183579295874,-0.01718880981206894,0.012729297392070293,-0.0006449653301388025,-0.008908320218324661
0.026583442464470863,0.004967513494193554,-0.016992580145597458,0.012539317831397057,-0.000686362967826426,-0.009215561673045158
0.026348168030381203,0.005440221168100834,-0.017336145043373108,0.011915096081793308,-0.0006601862260140479,-0.009035524912178516
0.026675965636968613,0.00517119700089097,-0.016578616574406624,0.012970575131475925,-0.0006635296740569174,-0.009015149436891079
0.02667824737727642,0.005346248857676983,-0.016700733453035355,0.012294049374759197,-0.0006204415112733841,-0.0091636274009943
0.026105843484401703,0.00487492885440588,-0.017103319987654686,0.01233089528977871,-0.0006411779322661459,-0.009737726300954819
0.0266888290643692,0.004625855945050716,-0.016850797459483147,0.011714517138898373,-0.0005932963686063886,-0.009259271435439587
0.026932595297694206,0.004454175475984812,-0.0177847258746624,0.012096952646970749,-0.0005483959103003144,-0.00959873665124178
0.026932595297694206,0.004454175475984812,-0.0177847258746624,0.012096952646970749,-0.0005483959103003144,-0.00959873665124178
0.027343982830643654,0.005221353843808174,-0.017042750492691994,0.012371636927127838,-0.0004988106084056199,-0.010380777530372143
0.027343982830643654,0.005221353843808174,-0.017042750492691994,0.012371636927127838,-0.0004988106084056199,-0.010380777530372143
0.0254585649818182,0.005038152914494276,-0.017224200069904327,0.01295215543359518,-0.0005272371927276254,-0.00984946545213461
0.026981867849826813,0.0048737660981714725,-0.016901593655347824,0.012364435009658337,-0.0004899271880276501,-0.00946750771254301
0.02738635055720806,0.004632072057574987,-0.0168899018317461,0.012094147503376007,-0.00048405706183984876,-0.009926137514412403
0.02700219489634037,0.0046214391477406025,-0.016883697360754013,0.012323354370892048,-0.0004497750196605921,-0.009337110444903374
0.02809229865670204,0.004772698041051626,-0.017032455652952194,0.012952999211847782,-0.0004716206749435514,-0.009449438191950321
0.028604933992028236,0.005219651386141777,-0.017091112211346626,0.012271258048713207,-0.0004492557782214135,-0.009540080092847347
0.027878791093826294,0.0047636376693844795,-0.01754814013838768,0.012891960330307484,-0.00046331185149028897,-0.009635909460484982
0.026734760031104088,0.004601971711963415,-0.016440268605947495,0.012185433879494667,-0.00043378278496675193,-0.010202690958976746
0.026722492650151253,0.00437232805415988,-0.01729506254196167,0.01233791746199131,-0.00047015369636937976,-0.010256759822368622
0.0274167712777853,0.004492817912250757,-0.017081115394830704,0.0124508086591959,-0.00043695553904399276,-0.0099433409050107
0.0270522627979517,0.004679350648075342,-0.017044320702552795,0.012867976911365986,-0.000404516002163291,-0.009998414665460587
0.026861965656280518,0.00512275192886591,-0.017272915691137314,0.013076243922114372,-0.0004304955655243248,-0.009897025302052498
0.02717210352420807,0.005421597044914961,-0.01653323508799076,0.012470519170165062,-0.0004098696808796376,-0.010332569479942322
0.027263103052973747,0.004668016918003559,-0.017386116087436676,0.012722550891339779,-0.0004364921187516302,-0.009792533703148365
0.026794228702783585,0.004472296219319105,-0.016783036291599274,0.012350514531135559,-0.0005028852028772235,-0.009588041342794895
0.027247272431850433,0.004626947455108166,-0.017154766246676445,0.013118374161422253,-0.000526322633959353,-0.010341265238821507
0.027233118191361427,0.004808328114449978,-0.017617205157876015,0.013350225053727627,-0.00051934301154688,-0.010045912116765976
0.02711082249879837,0.004782954230904579,-0.017129480838775635,0.012773055583238602,-0.0005500954575836658,-0.009831666946411133
0.027415383607149124,0.004721394274383783,-0.01767120324075222,0.013559569604694843,-0.0005734324804507196,-0.010062376037240028
0.027618777006864548,0.004695237148553133,-0.01686592772603035,0.014381753280758858,-0.0005393482861109078,-0.010193480178713799
0.027310563251376152,0.004569036420434713,-0.01744101382791996,0.013824851252138615,-0.0006452816305682063,-0.010408127680420876
0.027441799640655518,0.004275856539607048,-0.01789209246635437,0.013716376386582851,-0.0006074286648072302,-0.010273358784615993
0.027188995853066444,0.004457552917301655,-0.016817208379507065,0.01313905231654644,-0.000630284717772156,-0.009861002676188946
0.027884701266884804,0.004547616466879845,-0.01790437661111355,0.013243084773421288,-0.0005757124745287001,-0.01048334315419197
0.02757471427321434,0.004743273835629225,-0.018259134143590927,0.013511255383491516,-0.0006014820537529886,-0.011083187535405159
0.02728472836315632,0.004775685723870993,-0.018052540719509125,0.013858502730727196,-0.0006118822493590415,-0.010283926501870155
0.02667185850441456,0.004838848952203989,-0.017782479524612427,0.013893423601984978,-0.0005807821871712804,-0.009966072626411915
0.02793169766664505,0.004560545086860657,-0.01709757372736931,0.013823910616338253,-0.0005863901460543275,-0.010035865008831024
0.02793169766664505,0.004560545086860657,-0.01709757372736931,0.013823910616338253,-0.0005863901460543275,-0.010035865008831024
0.02751191146671772,0.00483598792925477,-0.017727257683873177,0.013538745231926441,-0.000514049141202122,-0.010363198816776276
0.02751191146671772,0.00483598792925477,-0.017727257683873177,0.013538745231926441,-0.000514049141202122,-0.010363198816776276
0.026605525985360146,0.00526626268401742,-0.01754545420408249,0.013423999771475792,-0.0005320778000168502,-0.010164127685129642
0.02719809114933014,0.005034392233937979,-0.017810044810175896,0.013628008775413036,-0.000542641500942409,-0.010320640169084072
0.028305048123002052,0.004763198550790548,-0.018034175038337708,0.013170015998184681,-0.0005355210159905255,-0.009970518760383129
0.027630720287561417,0.004357826430350542,-0.01710386760532856,0.012796241790056229,-0.0006330817122943699,-0.010309462435543537
0.027630720287561417,0.004357826430350542,-0.01710386760532856,0.012796241790056229,-0.0006330817122943699,-0.010309462435543537
0.028670595958828926,0.00445791007950902,-0.018037838861346245,0.013270154595375061,-0.0006493282853625715,-0.010397037491202354
0.02825143001973629,0.004655343014746904,-0.01894710585474968,0.01348178181797266,-0.0006090527749620378,-0.010358341969549656
0.02769734151661396,0.0046811155043542385,-0.01801600120961666,0.014431471936404705,-0.0006305010174401104,-0.010315647348761559
0.027730077505111694,0.004499176517128944,-0.018214130774140358,0.014078447595238686,-0.0007365170167759061,-0.010329418815672398
0.02789340354502201,0.00452415319159627,-0.018132032826542854,0.014455309137701988,-0.000679849530570209,-0.010120262391865253
0.02830040268599987,0.004239384550601244,-0.017728907987475395,0.014323191717267036,-0.0007034055306576192,-0.010467302985489368
0.028401298448443413,0.004533151164650917,-0.018305176869034767,0.01446647010743618,-0.0006287762080319226,-0.010140462778508663
0.028517229482531548,0.004676033277064562,-0.018067536875605583,0.014123828150331974,-0.0005635350826196373,-0.010499725118279457
0.028523433953523636,0.004707564599812031,-0.018112678080797195,0.013696719892323017,-0.0005834525800310075,-0.010478722862899303
0.02810584381222725,0.004806394223123789,-0.018293628469109535,0.013952836394309998,-0.0005430609453469515,-0.010425664484500885
0.028148643672466278,0.00468367850407958,-0.017496738582849503,0.014448224566876888,-0.0005351494182832539,-0.010735605843365192
0.028560476377606392,0.004413185641169548,-0.01810174621641636,0.014687887392938137,-0.0005275375442579389,-0.011047914624214172
0.028737571090459824,0.004550973419100046,-0.01828918233513832,0.014360206201672554,-0.0004934350727126002,-0.010947623290121555
0.028905311599373817,0.004628967493772507,-0.017652161419391632,0.014017284847795963,-0.00044074552715756,-0.011384645476937294
0.02902965247631073,0.004686055239289999,-0.018123144283890724,0.01424219086766243,-0.0004385581414680928,-0.010773108340799809
0.02874794974923134,0.005183708388358355,-0.018217867240309715,0.014048422686755657,-0.00043790446943603456,-0.010131288319826126
0.02907608076930046,0.00460834801197052,-0.01834767311811447,0.013827168382704258,-0.0004702512815129012,-0.010144181549549103
0.02928749844431877,0.0043724458664655685,-0.018584834411740303,0.013813504949212074,-0.0005002315156161785,-0.010457751341164112
0.02928749844431877,0.0043724458664655685,-0.018584834411740303,0.013813504949212074,-0.0005002315156161785,-0.010457751341164112
0.02949437126517296,0.00475917337462306,-0.018220504745841026,0.014340179041028023,-0.000784439907874912,-0.010784167796373367
0.028906727209687233,0.004559163469821215,-0.018001114949584007,0.015383406542241573,-0.0007226875750347972,-0.010614778846502304
0.028906727209687233,0.004559163469821215,-0.018001114949584007,0.015383406542241573,-0.0007226875750347972,-0.010614778846502304
0.02908843569457531,0.0046385726891458035,-0.018474850803613663,0.015211489982903004,-0.0006512434920296073,-0.010558782145380974
0.029348090291023254,0.005019847769290209,-0.018200712278485298,0.014732993207871914,-0.0006686075939796865,-0.010727078653872013
0.029232501983642578,0.004484948702156544,-0.018003350123763084,0.014280354604125023,-0.000616437871940434,-0.011185744777321815
0.029025696218013763,0.004510762169957161,-0.01863141544163227,0.013850613497197628,-0.0005718713509850204,-0.010669441893696785
0.029296671971678734,0.004459237679839134,-0.018042823299765587,0.013879982754588127,-0.00053359882440418,-0.010683391243219376
0.029518457129597664,0.0047514475882053375,-0.018172437325119972,0.014347938820719719,-0.00047869604895822704,-0.011077051982283592
0.029835833236575127,0.0053487843833863735,-0.01847625896334648,0.014602774754166603,-0.00043272360926494,-0.010792904533445835
0.02973567135632038,0.004756147973239422,-0.01798488199710846,0.014935947023332119,-0.00039472771459259093,-0.011535956524312496
0.029752608388662338,0.004514120053499937,-0.01863301359117031,0.014609425328671932,-0.00042545757605694234,-0.0115414559841156
0.029866941273212433,0.004482283256947994,-0.01889123022556305,0.014151060953736305,-0.0004022695648018271,-0.01058973278850317
0.029865864664316177,0.004505652468651533,-0.018269356340169907,0.014188898727297783,-0.00042885541915893555,-0.010826106183230877
0.029974177479743958,0.004655079450458288,-0.01828242465853691,0.014326853677630424,-0.0004084396059624851,-0.012233654037117958
0.030346624553203583,0.004550923127681017,-0.01812838762998581,0.01446484588086605,-0.000384016428142786,-0.010368894785642624
0.03119959495961666,0.004650513641536236,-0.018573008477687836,0.015158896334469318,-0.00036197336157783866,-0.01057758741080761
0.031270209699869156,0.004899426829069853,-0.0189181137830019,0.014434457756578922,-0.0003878236748278141,-0.010865234769880772
0.030018649995326996,0.004816760774701834,-0.018341999500989914,0.014250785112380981,-0.00037081362097524107,-0.01100283581763506
0.02972395531833172,0.004693771246820688,-0.018358105793595314,0.014265417121350765,-0.0003504595370031893,-0.011308470740914345
0.03087950311601162,0.0044165607541799545,-0.018591005355119705,0.01477797795087099,-0.0003236676857341081,-0.011459196917712688
0.030762696638703346,0.004440987482666969,-0.01827036775648594,0.014252811670303345,-0.00035399349872022867,-0.011887823231518269
0.030959459021687508,0.004776457324624062,-0.018941577523946762,0.014434199780225754,-0.00033888331381604075,-0.011492573656141758
0.03184852376580238,0.004781775642186403,-0.018969088792800903,0.01454194262623787,-0.0003653286839835346,-0.011451813392341137
0.03184852376580238,0.004781775642186403,-0.018969088792800903,0.01454194262623787,-0.0003653286839835346,-0.011451813392341137
0.03100944496691227,0.004491863306611776,-0.018320031464099884,0.014979791827499866,-0.000375761475879699,-0.011808116920292377
0.030176399275660515,0.00491282157599926,-0.020110327750444412,0.015625493600964546,-0.00036240811459720135,-0.012194394133985043
0.030176399275660515,0.00491282157599926,-0.020110327750444412,0.015625493600964546,-0.00036240811459720135,-0.012194394133985043
0.029720574617385864,0.004535354673862457,-0.019311698153614998,0.01563107594847679,-0.000527135853189975,-0.011964339762926102
0.03164324536919594,0.004655213560909033,-0.01902727410197258,0.015382538549602032,-0.0005403765244409442,-0.012103306129574776
0.03200627863407135,0.004772464744746685,-0.019517526030540466,0.015970496460795403,-0.0005501485429704189,-0.011875275522470474
0.03163332864642143,0.004721999168395996,-0.019624100998044014,0.015534338541328907,-0.0005423639086075127,-0.011852908879518509
0.03163332864642143,0.004721999168395996,-0.019624100998044014,0.015534338541328907,-0.0005423639086075127,-0.011852908879518509
0.031580761075019836,0.00428666640073061,-0.018898164853453636,0.015362627804279327,-0.0006553287385031581,-0.011985045857727528
0.031580761075019836,0.00428666640073061,-0.018898164853453636,0.015362627804279327,-0.0006553287385031581,-0.011985045857727528
0.03140202909708023,0.004528609104454517,-0.01999671384692192,0.015365734696388245,-0.0006581377238035202,-0.011559927836060524
0.03087821789085865,0.004519760608673096,-0.019509252160787582,0.015289152972400188,-0.0006371273193508387,-0.011847845278680325
0.03133980557322502,0.004329110495746136,-0.01994827389717102,0.015330194495618343,-0.0006583775393664837,-0.011699519120156765
0.03167867660522461,0.0046036457642912865,-0.020094871520996094,0.01550691295415163,-0.000607964291702956,-0.011656071990728378
0.03148077800869942,0.004530907142907381,-0.018990518525242805,0.015402451157569885,-0.0006245928816497326,-0.011933312751352787
0.0315583162009716,0.004426334518939257,-0.019125813618302345,0.0159551203250885,-0.0006056072888895869,-0.011977972462773323
0.03147156536579132,0.004860354121774435,-0.020373255014419556,0.015502458438277245,-0.0005374490865506232,-0.011994506232440472
0.03300710394978523,0.004485111217945814,-0.018837502226233482,0.015571448020637035,-0.00052641611546278,-0.011833216063678265
0.03285887837409973,0.004495513159781694,-0.018858376890420914,0.014985213987529278,-0.0005174219259060919,-0.011578475125133991
0.03103591687977314,0.004452161490917206,-0.02036150172352791,0.015609903261065483,-0.0005481013213284314,-0.011812776327133179
0.031446389853954315,0.004656645469367504,-0.019617537036538124,0.015420297160744667,-0.0005621442687697709,-0.011771371588110924
0.03242179751396179,0.004729175474494696,-0.019275542348623276,0.0157681405544281,-0.000537062413059175,-0.012140786275267601
0.03199132904410362,0.004361732862889767,-0.019770093262195587,0.015411369502544403,-0.0005499393446370959,-0.011895792558789253
0.03222361207008362,0.004529625177383423,-0.01954290270805359,0.015913253650069237,-0.0004985277773812413,-0.012032204307615757
0.03222361207008362,0.004529625177383423,-0.01954290270805359,0.015913253650069237,-0.0004985277773812413,-0.012032204307615757
0.032685935497283936,0.004475290421396494,-0.01946597546339035,0.016037562862038612,-0.0005265835206955671,-0.012206729501485825
0.03305559977889061,0.004221136681735516,-0.019831616431474686,0.015907451510429382,-0.0005492076161317527,-0.012454412877559662
0.03162025287747383,0.004514886531978846,-0.01913589797914028,0.01565297320485115,-0.0005504360306076705,-0.01210094802081585
0.0331435389816761,0.004408661741763353,-0.01944982260465622,0.015634171664714813,-0.0006349071045406163,-0.012091393582522869
0.03273777291178703,0.004523870535194874,-0.019426019862294197,0.015568575821816921,-0.0005941305425949395,-0.011724377982318401
0.03273777291178703,0.004523870535194874,-0.019426019862294197,0.015568575821816921,-0.0005941305425949395,-0.011724377982318401
0.03199339285492897,0.0044116978533566,-0.019545981660485268,0.01609930954873562,-0.0005270233377814293,-0.011950169689953327
0.032625772058963776,0.004023096524178982,-0.019884606823325157,0.01585264317691326,-0.0005746460519731045,-0.012463407590985298
0.03278755769133568,0.004276242572814226,-0.019509529694914818,0.015730228275060654,-0.0005445927963592112,-0.01226012222468853
0.03275854140520096,0.004590669646859169,-0.019727475941181183,0.016071179881691933,-0.0005689837853424251,-0.01209972146898508
0.03273051977157593,0.004702327772974968,-0.01960400864481926,0.016037950292229652,-0.0005681967595592141,-0.012326422147452831
0.03277398645877838,0.004208702128380537,-0.01922646164894104,0.015694893896579742,-0.000588253780733794,-0.01228933036327362
0.03266485035419464,0.004285660572350025,-0.01964823715388775,0.01590556465089321,-0.0005741462227888405,-0.0125735467299819
0.032951608300209045,0.004549359902739525,-0.019905701279640198,0.015599430538713932,-0.000563712848816067,-0.011900483630597591
0.033534202724695206,0.004157870542258024,-0.019361454993486404,0.016039147973060608,-0.00055247254204005,-0.011739632114768028
0.033396996557712555,0.0044232700020074844,-0.019458424299955368,0.015496714040637016,-0.0005730538978241384,-0.012171466834843159
0.03355270251631737,0.004083728883415461,-0.019521115347743034,0.01583785191178322,-0.0005388906574808061,-0.012270349077880383
0.033584486693143845,0.004347854293882847,-0.01936984620988369,0.015753375366330147,-0.0005049558239988983,-0.01244667824357748
0.03312642127275467,0.0041526793502271175,-0.01987367309629917,0.01624036580324173,-0.0005408491706475616,-0.012298253364861012
0.03326598182320595,0.004945229738950729,-0.020027531310915947,0.016487985849380493,-0.0004884404479525983,-0.012235566042363644
0.034109730273485184,0.004876148886978626,-0.01998211443424225,0.01615629531443119,-0.00044092940515838563,-0.01293433178216219
0.034097135066986084,0.004317812621593475,-0.019539278000593185,0.016430720686912537,-0.000476114044431597,-0.01253074686974287
0.033891938626766205,0.004001738037914038,-0.01939784735441208,0.016065731644630432,-0.0004419813631102443,-0.012505871243774891
0.033809762448072433,0.004271490033715963,-0.019779665395617485,0.016480691730976105,-0.00040881309541873634,-0.012500746175646782
0.033545542508363724,0.004345788154751062,-0.019805502146482468,0.016443759202957153,-0.0004389313398860395,-0.012605149298906326
0.03352038562297821,0.004225187469273806,-0.020466377958655357,0.016576746478676796,-0.0004139219527132809,-0.012396054342389107
0.034339096397161484,0.004147270694375038,-0.020123349502682686,0.017138171941041946,-0.00044028504635207355,-0.01255120150744915
0.03433145955204964,0.004445815458893776,-0.019386915490031242,0.016643399372696877,-0.00041809442336671054,-0.013040101155638695
0.03384195268154144,0.004195915535092354,-0.019260745495557785,0.017071185633540154,-0.00039534797542728484,-0.01316138543188572
0.03408978134393692,0.004350688308477402,-0.019522668793797493,0.016537565737962723,-0.00037608761340379715,-0.01319743413478136
0.03408978134393692,0.004350688308477402,-0.019522668793797493,0.016537565737962723,-0.00037608761340379715,-0.01319743413478136
0.03359810262918472,0.0042791347950696945,-0.019409488886594772,0.016212711110711098,-0.00038192651118151844,-0.012793533504009247
0.0351879820227623,0.004121820442378521,-0.020325684919953346,0.015451647341251373,-0.0003856149560306221,-0.012965499423444271
0.03570234775543213,0.004014128353446722,-0.02068878337740898,0.016031570732593536,-0.00041389564285054803,-0.012976703234016895
0.033531975001096725,0.004332995507866144,-0.019791046157479286,0.017604311928153038,-0.00042179838055744767,-0.013249472714960575
0.03484785556793213,0.003703066613525152,-0.02070143260061741,0.017709946259856224,-0.00040295624057762325,-0.013070453889667988
0.03429495915770531,0.0035778461024165154,-0.020817391574382782,0.016964683309197426,-0.0005749028059653938,-0.013055839575827122
0.035215187817811966,0.003699331544339657,-0.019888782873749733,0.017322329804301262,-0.0005227889632806182,-0.013314436189830303
0.03601275011897087,0.0038819597102701664,-0.020961560308933258,0.01759279891848564,-0.0005377089837566018,-0.01338157244026661
0.03507145866751671,0.003920267336070538,-0.02036270499229431,0.017378022894263268,-0.000508190190885216,-0.01360025629401207
0.03369510918855667,0.003830359084531665,-0.01952032558619976,0.017306406050920486,-0.0005226087523624301,-0.013696911744773388
0.03497055172920227,0.004170137457549572,-0.019656136631965637,0.01681966707110405,-0.000498894602060318,-0.013648422434926033
0.035769715905189514,0.0043047089129686356,-0.02046526037156582,0.017295746132731438,-0.0005248751258477569,-0.013778473250567913
0.03530400991439819,0.004057278856635094,-0.020137617364525795,0.016904355958104134,-0.0005469687166623771,-0.014113059267401695
0.03537051007151604,0.0034126359969377518,-0.020154893398284912,0.016642387956380844,-0.000580080144573003,-0.014124688692390919
0.03507721424102783,0.004004458896815777,-0.020273482427001,0.016864173114299774,-0.0006121436599642038,-0.013959296979010105
0.03529268503189087,0.004164841491729021,-0.02003312297165394,0.016860811039805412,-0.0006388326291926205,-0.013737796805799007
0.035723768174648285,0.004021708387881517,-0.020209668204188347,0.017973508685827255,-0.0010619180975481868,-0.013643918558955193
0.03517484664916992,0.003807490924373269,-0.020397255197167397,0.018265534192323685,-0.0011495744111016393,-0.014046499505639076
0.03488004580140114,0.003940183203667402,-0.020615721121430397,0.017973866313695908,-0.0011176727712154388,-0.013734829612076283
0.03504451736807823,0.004107055254280567,-0.020174279808998108,0.017786221578717232,-0.0011767972027882934,-0.013812546618282795
0.03536171093583107,0.004006557632237673,-0.020240481942892075,0.017478305846452713,-0.0009931486565619707,-0.013452735729515553
0.0354999415576458,0.004269672092050314,-0.020102201029658318,0.017730241641402245,-0.0009673515451140702,-0.013693481683731079
0.036273758858442307,0.004483808763325214,-0.01998216286301613,0.01753893494606018,-0.0008285958901979029,-0.013590349815785885
0.035744260996580124,0.00430405093356967,-0.02044016681611538,0.01720617339015007,-0.0007186405709944665,-0.013639414682984352
0.03452320396900177,0.003974987659603357,-0.020484235137701035,0.017151134088635445,-0.0007110726437531412,-0.013781039044260979
0.03559572249650955,0.0043179928325116634,-0.02038859762251377,0.016964532434940338,-0.0006600304623134434,-0.013942980207502842
0.03559572249650955,0.0043179928325116634,-0.02038859762251377,0.016964532434940338,-0.0006600304623134434,-0.013942980207502842
0.03499513864517212,0.004401928745210171,-0.019772373139858246,0.0171255674213171,-0.0006613603909499943,-0.014086771756410599
0.03520403802394867,0.004296737257391214,-0.019741803407669067,0.01726541481912136,-0.0006234563770703971,-0.013963514007627964
0.03684088960289955,0.004433707799762487,-0.020010871812701225,0.01726110279560089,-0.0005290901171974838,-0.014154101721942425
0.03582252189517021,0.0041766781359910965,-0.020024629309773445,0.01739334873855114,-0.0004363063781056553,-0.01417517103254795
0.036296967417001724,0.004001282155513763,-0.01999017968773842,0.017181655392050743,-0.0005276634474284947,-0.014216668903827667
0.036296967417001724,0.004001282155513763,-0.01999017968773842,0.017181655392050743,-0.0005276634474284947,-0.014216668903827667
0.03597274795174599,0.004377806093543768,-0.01986362226307392,0.017101118341088295,-0.0005030533066019416,-0.013968100771307945
0.035725295543670654,0.004126915708184242,-0.020216412842273712,0.01697341911494732,-0.0007424185168929398,-0.014119438827037811
0.035725295543670654,0.004126915708184242,-0.020216412842273712,0.01697341911494732,-0.0007424185168929398,-0.014119438827037811
0.03583867475390434,0.004046336282044649,-0.020133882761001587,0.01731262542307377,-0.0007127715507522225,-0.014528367668390274
0.03649907559156418,0.0044073062017560005,-0.02030402608215809,0.01756311021745205,-0.0006831263308413327,-0.014685132540762424
0.03634108230471611,0.004229912534356117,-0.020193303003907204,0.017655272036790848,-0.0006190546555444598,-0.014788361266255379
0.03582145273685455,0.004401927348226309,-0.019688680768013,0.017919423058629036,-0.0006385550950653851,-0.014391951262950897
0.03629660978913307,0.004275622311979532,-0.020279893651604652,0.01745261251926422,-0.0005909934407100081,-0.014262459240853786
0.03646770864725113,0.003982963971793652,-0.02042653225362301,0.01801765151321888,-0.0005610496154986322,-0.014325687661767006
0.03655608743429184,0.004174977075308561,-0.0199922826141119,0.018095334991812706,-0.0005030274041928351,-0.014182055369019508
0.03648369014263153,0.004227867349982262,-0.020527144894003868,0.01754031702876091,-0.0005305001977831125,-0.014196783304214478
0.03659672290086746,0.004320258740335703,-0.02065156400203705,0.01798076368868351,-0.0004926762776449323,-0.014821246266365051
0.03732047602534294,0.004181775730103254,-0.02012796700000763,0.01806592382490635,-0.0005220728926360607,-0.014765985310077667
0.03707795962691307,0.004443786107003689,-0.020251231268048286,0.017689527943730354,-0.0005200384184718132,-0.015162106603384018
0.03696657344698906,0.004635116085410118,-0.021105004474520683,0.017787573859095573,-0.0005139531567692757,-0.015023480169475079
0.03765859082341194,0.004693632014095783,-0.02139512076973915,0.01765657216310501,-0.00048159383004531264,-0.014373217709362507
0.03703878074884415,0.004310560878366232,-0.020487669855356216,0.01826799102127552,-0.000514413695782423,-0.014219597913324833
0.03726144880056381,0.0042042299173772335,-0.02071893773972988,0.019005220383405685,-0.0005168398492969573,-0.014458316378295422
0.037181559950113297,0.004244862589985132,-0.020920250564813614,0.017779454588890076,-0.0005507999449037015,-0.014768419787287712
0.03722861409187317,0.0044257789850234985,-0.02043793722987175,0.017930498346686363,-0.0005432647885754704,-0.015065559186041355
0.03746611997485161,0.004638143815100193,-0.020340386778116226,0.01784944348037243,-0.0005692464765161276,-0.015007928013801575
0.037440989166498184,0.004724226891994476,-0.021327029913663864,0.017131520435214043,-0.0007607153384014964,-0.014534440822899342
0.038104161620140076,0.004447515122592449,-0.02113363705575466,0.018407398834824562,-0.000799013243522495,-0.014121240004897118
0.038104161620140076,0.004447515122592449,-0.02113363705575466,0.018407398834824562,-0.000799013243522495,-0.014121240004897118
0.03818746656179428,0.004143706522881985,-0.020726889371871948,0.018734540790319443,-0.0007116911001503468,-0.014243319630622864
0.03813083842396736,0.004625137895345688,-0.022413697093725204,0.01882895641028881,-0.0006560395704582334,-0.015018667094409466
0.039323750883340836,0.0047176373191177845,-0.0220346637070179,0.0182090662419796,-0.0006744401762261987,-0.01520286500453949
0.036654941737651825,0.004584884271025658,-0.020985526964068413,0.019556615501642227,-0.0006779166869819164,-0.014706573449075222
0.036654941737651825,0.004584884271025658,-0.020985526964068413,0.019556615501642227,-0.0006779166869819164,-0.014706573449075222
0.036654941737651825,0.004584884271025658,-0.020985526964068413,0.019556615501642227,-0.0006779166869819164,-0.014706573449075222
0.03832843527197838,0.004592550452798605,-0.02186163328588009,0.019059276208281517,-0.0006532581755891442,-0.015015686862170696
0.03906724974513054,0.004620376043021679,-0.02214544080197811,0.018799815326929092,-0.000656783115118742,-0.01500850822776556
0.03948234021663666,0.004407824948430061,-0.021871292963624,0.017735837027430534,-0.0006196018657647073,-0.015210973098874092
0.03808797523379326,0.004466212820261717,-0.022038239985704422,0.018156081438064575,-0.0006733781774528325,-0.01536853238940239
