davideferrari95/blind_handover_controller/data/Test 153 - [2024-02-08 -- 10-57-55]/joint_states_data.csv
shoulder_pan_joint,shoulder_lift_joint,elbow_joint,wrist_1_joint,wrist_2_joint,wrist_3_joint
-0.009607547894120216,-0.033292897045612335,-0.0053074839524924755,0.037246834486722946,-0.0,-0.010248644277453423
-0.008755980990827084,-0.032323796302080154,-0.0046796733513474464,0.039068445563316345,-0.0,-0.010198448784649372
-0.008755980990827084,-0.032323796302080154,-0.0046796733513474464,0.039068445563316345,-0.0,-0.010198448784649372
-0.00893340352922678,-0.032047711312770844,-0.0041844528168439865,0.038824062794446945,-0.0,-0.01002692710608244
-0.009674791246652603,-0.03204509988427162,-0.004902349319308996,0.03840765729546547,-0.0,-0.00982761476188898
-0.010137340985238552,-0.03184415400028229,-0.005179667379707098,0.03823007643222809,-0.0,-0.009909434244036674
-0.009508244693279266,-0.03137154504656792,-0.004995898809283972,0.03786102309823036,-0.0,-0.010287504643201828
-0.009571204893290997,-0.032937947660684586,-0.005130662117153406,0.0372631661593914,-0.0,-0.010544892400503159
-0.009150479920208454,-0.032718680799007416,-0.0053315297700464725,0.03711853548884392,-0.0,-0.009961272589862347
-0.009836059994995594,-0.032013580203056335,-0.005434998776763678,0.0367838479578495,-0.0,-0.009830701164901257
-0.009810544550418854,-0.03157958388328552,-0.0051595112308859825,0.03642426058650017,-0.0,-0.010077519342303276
-0.009170479141175747,-0.031850796192884445,-0.005342044867575169,0.036578740924596786,-0.0,-0.009816095232963562
-0.009288184344768524,-0.031491946429014206,-0.005690393038094044,0.03681087866425514,-0.0,-0.009938986971974373
-0.009478084743022919,-0.03177853301167488,-0.00620715506374836,0.03680090978741646,-0.0,-0.009912081062793732
-0.009530084207654,-0.03275291621685028,-0.005624446552246809,0.03757651150226593,-0.0,-0.010503334924578667
-0.009649123065173626,-0.0321391224861145,-0.005741450935602188,0.036479637026786804,-0.0,-0.011635912582278252
-0.009585059247910976,-0.030971582978963852,-0.005484541412442923,0.03624550253152847,-0.0,-0.009683212265372276
-0.009180482476949692,-0.030891021713614464,-0.006199351511895657,0.037023935467004776,-0.0,-0.009483722038567066
-0.009613976813852787,-0.03193877637386322,-0.00675044022500515,0.037299931049346924,-0.0,-0.00970437191426754
-0.010134591720998287,-0.03151702508330345,-0.006570104509592056,0.03685135766863823,-0.0,-0.009806731715798378
-0.010134591720998287,-0.03151702508330345,-0.006570104509592056,0.03685135766863823,-0.0,-0.009806731715798378
-0.009211821481585503,-0.03144288808107376,-0.005800750106573105,0.036603894084692,-0.0,-0.010256321169435978
-0.0096617192029953,-0.03172919899225235,-0.0064626093953847885,0.03623640909790993,-0.0,-0.0101701058447361
-0.009988922625780106,-0.03089435026049614,-0.0076402174308896065,0.036444034427404404,-0.0,-0.00962253101170063
-0.009317518211901188,-0.03131686896085739,-0.007049659267067909,0.03758253529667854,-0.0,-0.009567787870764732
-0.009191645309329033,-0.0310975294560194,-0.006249851081520319,0.03635575994849205,-0.0,-0.009886056184768677
-0.00989618431776762,-0.03127404674887657,-0.006180804688483477,0.035238105803728104,-0.0,-0.009887173771858215
-0.009014452807605267,-0.03153732046484947,-0.006849640514701605,0.03596238046884537,-0.0,-0.009711570106446743
-0.00943963136523962,-0.031385406851768494,-0.007054245099425316,0.03578800708055496,-0.0,-0.009835661388933659
-0.009567317552864552,-0.03140644356608391,-0.0073028551414608955,0.035524796694517136,-0.0,-0.009654532186686993
-0.00912305898964405,-0.03164062276482582,-0.006646310910582542,0.03673020750284195,-0.0,-0.009185198694467545
-0.008897808380424976,-0.031491734087467194,-0.006469629239290953,0.03638029098510742,-0.0,-0.009763703681528568
-0.00961275678128004,-0.031588975340127945,-0.0071622757241129875,0.035142768174409866,-0.0,-0.009799908846616745
-0.010506619699299335,-0.03103983961045742,-0.007202978245913982,0.03554100915789604,-0.0,-0.009939013980329037
-0.009912265464663506,-0.031127329915761948,-0.006845736410468817,0.03741757571697235,-0.0,-0.009948221035301685
-0.009701340459287167,-0.03099035657942295,-0.007520331535488367,0.035999834537506104,-0.0,-0.009770321659743786
-0.009131768718361855,-0.03071170672774315,-0.007421799004077911,0.035672448575496674,-0.0,-0.010006352327764034
-0.009518569335341454,-0.0309583880007267,-0.00747052812948823,0.036320760846138,-0.0,-0.009866905398666859
-0.009437264874577522,-0.03097323141992092,-0.006773577071726322,0.0364886075258255,-0.0,-0.010302381590008736
-0.009099911898374557,-0.031131286174058914,-0.007171169389039278,0.03648272901773453,-0.0,-0.009877894073724747
-0.009584109298884869,-0.031208118423819542,-0.008161183446645737,0.03576946631073952,-0.0,-0.009350325912237167
-0.009589433670043945,-0.031301822513341904,-0.007931660860776901,0.036235611885786057,-0.0,-0.009543808177113533
-0.009891773574054241,-0.031049756333231926,-0.006941007450222969,0.036251239478588104,-0.0,-0.009768468327820301
-0.009891773574054241,-0.031049756333231926,-0.006941007450222969,0.036251239478588104,-0.0,-0.009768468327820301
-0.009786387905478477,-0.031021973118185997,-0.007888971827924252,0.03581652417778969,-0.0,-0.009425610303878784
-0.009786387905478477,-0.031021973118185997,-0.007888971827924252,0.03581652417778969,-0.0,-0.009425610303878784
-0.009359545074403286,-0.03138241544365883,-0.00805229227989912,0.035555627197027206,-0.0,-0.009806063957512379
-0.009598786942660809,-0.030383916571736336,-0.007173823658376932,0.036233413964509964,-0.0,-0.01039124745875597
-0.00982281006872654,-0.030427686870098114,-0.00806308165192604,0.037189655005931854,-0.0,-0.009952577762305737
-0.009311900474131107,-0.03074602596461773,-0.008119730278849602,0.0360417477786541,-0.0,-0.009911567904055119
-0.009379873052239418,-0.030305366963148117,-0.007919163443148136,0.034584324806928635,-0.0,-0.01002642884850502
-0.00962056964635849,-0.03025640919804573,-0.007592932786792517,0.03512212261557579,-6.793939633098489e-07,-0.009741241112351418
-0.009196121245622635,-0.030243778601288795,-0.007923929020762444,0.035486042499542236,-4.435957379200772e-08,-0.009836028330028057
-0.009065128862857819,-0.0294429212808609,-0.007962506264448166,0.035465456545352936,-2.896362927273799e-09,-0.010137947276234627
-0.00930739939212799,-0.030070021748542786,-0.008142185397446156,0.036474257707595825,-1.8911180954539475e-10,-0.009903829544782639
-0.00911062490195036,-0.030382759869098663,-0.007716928608715534,0.03650425374507904,-1.2347649812338712e-11,-0.009863311424851418
-0.009477589279413223,-0.030155111104249954,-0.008073519915342331,0.03523697704076767,-8.06213331771416e-13,-0.009849498979747295
-0.009691903367638588,-0.03032672591507435,-0.007937181740999222,0.03329754248261452,-5.2639970426213503e-14,-0.00990911666303873
-0.009234192781150341,-0.029416702687740326,-0.007709677796810865,0.03515841066837311,-2.244124325895215e-16,-0.009931856766343117
-0.010166099295020103,-0.029994303360581398,-0.008754764683544636,0.03460308909416199,-1.4652528478254073e-17,-0.009932435117661953
-0.009171591140329838,-0.029338404536247253,-0.007972684688866138,0.034495506435632706,-9.567054125526795e-19,-0.009677175432443619
-0.009665594436228275,-0.02993375062942505,-0.007473753299564123,0.03428363427519798,-6.246602383475653e-20,-0.009266013279557228
-0.009677908383309841,-0.030966483056545258,-0.008577575907111168,0.03410162404179573,-4.0785852624288956e-21,-0.009336510673165321
-0.009204511530697346,-0.02962486259639263,-0.008571078069508076,0.03437891602516174,-2.6630245269415875e-22,-0.009731397032737732
-0.009065547958016396,-0.028831524774432182,-0.00786353088915348,0.03491146117448807,-1.7387646087992723e-23,-0.00998229905962944
-0.009527974762022495,-0.029195571318268776,-0.008310784585773945,0.034711286425590515,-1.1352889745335928e-24,-0.009369410574436188
-0.010043785907328129,-0.030003169551491737,-0.00819405447691679,0.03429337218403816,-7.412627022034479e-26,-0.0095710139721632
-0.00889602955430746,-0.029855459928512573,-0.007978511974215508,0.03452752158045769,-4.8399158762835665e-27,-0.00948289968073368
-0.009920565411448479,-0.029527777805924416,-0.007758235093206167,0.03477984294295311,-3.1601192973065333e-28,-0.009700939990580082
-0.009615709073841572,-0.029192004352808,-0.007900510914623737,0.034587983042001724,-2.0633321060774513e-29,-0.009914513677358627
-0.009283873252570629,-0.02898995764553547,-0.008749785833060741,0.03463277965784073,-1.3472084026808018e-30,-0.01035264227539301
-0.009497469291090965,-0.02914765290915966,-0.007144543807953596,0.03436746820807457,-8.79630709955491e-32,-0.009394533932209015
-0.009497469291090965,-0.02914765290915966,-0.007144543807953596,0.03436746820807457,-8.79630709955491e-32,-0.009394533932209015
-0.008686280809342861,-0.02889612875878811,-0.005270159337669611,0.03405577316880226,-3.7500039920419417e-34,-0.009422270581126213
-0.008686280809342861,-0.02889612875878811,-0.005270159337669611,0.03405577316880226,-3.7500039920419417e-34,-0.009422270581126213
-0.009477535262703896,-0.02854219079017639,-0.0064003043808043,0.0336012989282608,-2.448484421211079e-35,-0.009729228913784027
-0.009473196230828762,-0.02931089513003826,-0.006468238774687052,0.03333112597465515,-1.598685590217365e-36,-0.009900018572807312
-0.009086181409657001,-0.030027903616428375,-0.006121417507529259,0.033091433346271515,-1.0438274502833105e-37,-0.010283036157488823
-0.008876439183950424,-0.02895013615489006,-0.005316943395882845,0.03346096724271774,-6.815447696788826e-39,-0.00940624438226223
-0.009682036004960537,-0.028641514480113983,-0.005405381787568331,0.0328943133354187,-4.450005442263819e-40,-0.008353164419531822
-0.008738575503230095,-0.02900257520377636,-0.005960773676633835,0.032429274171590805,-2.905592365777508e-41,-0.008780661970376968
-0.008426956832408905,-0.02941885031759739,-0.0064055961556732655,0.033415596932172775,-1.8973581206958023e-42,-0.009467417374253273
-0.008902602829039097,-0.028882140293717384,-0.005588586907833815,0.033244162797927856,-1.233142648605839e-43,-0.010300343856215477
-0.008980502374470234,-0.028771521523594856,-0.005335556343197823,0.03346708416938782,-8.407790785948902e-45,-0.009965553879737854
-0.008524765260517597,-0.029440350830554962,-0.005041309632360935,0.03442102670669556,-0.0,-0.009511960670351982
-0.008886481635272503,-0.02864847145974636,-0.005891718901693821,0.03201565518975258,-0.0,-0.01027012336999178
-0.008271055296063423,-0.028028331696987152,-0.005025605671107769,0.032479751855134964,-0.0,-0.009802823886275291
-0.008267149329185486,-0.028694234788417816,-0.005140538327395916,0.03373014181852341,-0.0,-0.009960775263607502
-0.008389962837100029,-0.028721388429403305,-0.005193464457988739,0.03347188979387283,8.819128561299294e-05,-0.009692649357020855
-0.007755014579743147,-0.02861226350069046,-0.006044420879334211,0.033898670226335526,0.00011257345613557845,-0.009502848610281944
-0.0067552682012319565,-0.028609424829483032,-0.005721705965697765,0.0336083360016346,0.00011151995568070561,-0.010145965963602066
-0.007192693650722504,-0.028407162055373192,-0.005691188387572765,0.032682426273822784,0.00012508642976172268,-0.01009038183838129
-0.007836607284843922,-0.028167856857180595,-0.005242418963462114,0.03202330321073532,0.00012727142893709242,-0.009902387857437134
-0.007673970423638821,-0.028218703344464302,-0.00576813193038106,0.03275619447231293,0.00012466846965253353,-0.00988722126930952
-0.007148474920541048,-0.02847146801650524,-0.005434921011328697,0.033088359981775284,0.00014083275164011866,-0.010357220657169819
-0.007341393269598484,-0.02893557958304882,-0.005907060578465462,0.03314143419265747,0.00013896406744606793,-0.009520472027361393
-0.0075657120905816555,-0.028520148247480392,-0.00558548653498292,0.03332149237394333,0.00015045900363475084,-0.009544266387820244
-0.008041620254516602,-0.02835942804813385,-0.00576895521953702,0.032360538840293884,0.00015187053941190243,-0.01046138908714056
-0.008041620254516602,-0.02835942804813385,-0.00576895521953702,0.032360538840293884,0.00015187053941190243,-0.01046138908714056
-0.0070477621629834175,-0.028547292575240135,-0.005539604928344488,0.03298058733344078,0.00014902642578817904,-0.01018489245325327
-0.007105184253305197,-0.028540443629026413,-0.005675663240253925,0.03245246410369873,0.000358408346073702,-0.009714985266327858
-0.00718653341755271,-0.028363900259137154,-0.005404363851994276,0.03304941952228546,0.00035966571886092424,-0.009870470501482487
-0.007212839554995298,-0.028344139456748962,-0.0059126815758645535,0.0316905677318573,0.0003348503087181598,-0.00986559223383665
-0.007150540128350258,-0.028155595064163208,-0.00542472954839468,0.03206879645586014,0.00036974280374124646,-0.009798632003366947
-0.007373459171503782,-0.028456248342990875,-0.005298445001244545,0.032328151166439056,0.0003495870332699269,-0.009993349201977253
-0.007069589104503393,-0.0282968170940876,-0.005028978455811739,0.031986795365810394,0.00032855497556738555,-0.010004369542002678
-0.007113142404705286,-0.02849644236266613,-0.005256666801869869,0.03164731711149216,0.0003097178996540606,-0.010043390095233917
-0.00712684728205204,-0.02813667804002762,-0.005616733338683844,0.031151002272963524,0.0003383599396329373,-0.010138077661395073
-0.007400682661682367,-0.028169041499495506,-0.005505230277776718,0.03160616755485535,0.0003239228099118918,-0.010246949270367622
-0.007401179522275925,-0.028169823810458183,-0.005523800849914551,0.032289374619722366,0.00030826160218566656,-0.010014533065259457
-0.007185727823525667,-0.027886852622032166,-0.005317471921443939,0.032216791063547134,0.0002938902471214533,-0.009738470427691936
-0.007016333751380444,-0.028169268742203712,-0.0057958983816206455,0.031311798840761185,0.00031041642068885267,-0.009954346343874931
-0.0071233827620744705,-0.028188049793243408,-0.005945176351815462,0.03182374686002731,0.0003065218625124544,-0.010665761306881905
-0.007417149841785431,-0.02759746089577675,-0.005468479357659817,0.03245669603347778,0.0002830451703630388,-0.009583801031112671
-0.007376327179372311,-0.02794874832034111,-0.005744375754147768,0.03370339050889015,0.0002797515771817416,-0.009291416965425014
-0.007046419661492109,-0.027467772364616394,-0.00564316613599658,0.033386267721652985,0.0002707701933104545,-0.009385558776557446
-0.0074445647187530994,-0.02739070914685726,-0.005809268914163113,0.03154976665973663,0.00025588201242499053,-0.009996886365115643
-0.0075010377913713455,-0.02739245630800724,-0.005600158590823412,0.030844617635011673,0.0002778534544631839,-0.009935837239027023
-0.006777399685233831,-0.02725234627723694,-0.005572151392698288,0.03218062222003937,0.00027490127831697464,-0.009635347872972488
-0.0067324466072022915,-0.027306271716952324,-0.006083868909627199,0.033350344747304916,0.0002622773463372141,-0.009763860143721104
-0.006977090612053871,-0.027070485055446625,-0.005481739062815905,0.03216685727238655,0.00028628698782995343,-0.00978555902838707
-0.007084105163812637,-0.02728189341723919,-0.005419064313173294,0.0315106175839901,0.0002785804099403322,-0.009538057260215282
-0.006950006820261478,-0.027356427162885666,-0.005709899589419365,0.03189125284552574,0.0002857520885299891,-0.009809542447328568
-0.00663216644898057,-0.027056051418185234,-0.006120962556451559,0.03213376924395561,0.0002915806253440678,-0.00983997993171215
-0.007152249105274677,-0.026027977466583252,-0.005464015994220972,0.0316123440861702,0.00039866994484327734,-0.00947590358555317
-0.007456333842128515,-0.027662796899676323,-0.006042564287781715,0.031191302463412285,0.0004609267634805292,-0.009584379382431507
-0.006879313383251429,-0.027776524424552917,-0.006034904159605503,0.032822366803884506,0.00044387602247297764,-0.009661132469773293
-0.006879313383251429,-0.027776524424552917,-0.006034904159605503,0.032822366803884506,0.00044387602247297764,-0.009661132469773293
-0.0065315524116158485,-0.02710399031639099,-0.0063775815069675446,0.03103635273873806,0.00047058958443813026,-0.0097483666613698
-0.00669662794098258,-0.026698844507336617,-0.005839680787175894,0.030928658321499825,0.00047637801617383957,-0.010419883765280247
-0.007004117593169212,-0.02581794001162052,-0.005743999965488911,0.03084055706858635,0.0004738874558825046,-0.010053655132651329
-0.006694865878671408,-0.02587660774588585,-0.005624415352940559,0.030948586761951447,0.0006606545066460967,-0.009952898137271404
-0.007140468806028366,-0.026854630559682846,-0.005726275499910116,0.031019266694784164,0.0006932191317901015,-0.010073542594909668
-0.006683080457150936,-0.02635938487946987,-0.006274760235100985,0.030325286090373993,0.0007179359090514481,-0.010938301682472229
-0.007102156523615122,-0.026483261957764626,-0.005680453032255173,0.030546126887202263,0.0007134915213100612,-0.010103469714522362
-0.00681585306301713,-0.027448324486613274,-0.005715652834624052,0.03060784377157688,0.0006882372545078397,-0.00919366255402565
-0.006814072839915752,-0.02693294733762741,-0.0057196179404854774,0.030528463423252106,0.0007733572274446487,-0.009470203891396523
-0.00700623681768775,-0.02626296877861023,-0.005654277745634317,0.030334925279021263,0.0007803416228853166,-0.01016161683946848
-0.00747541943565011,-0.025778213515877724,-0.005898960866034031,0.030049115419387817,0.0007092345040291548,-0.010255785658955574
-0.007590560242533684,-0.02635112591087818,-0.006095826160162687,0.030106591060757637,0.0007185398135334253,-0.01005381066352129
-0.006489142309874296,-0.027313608676195145,-0.005528132896870375,0.030166804790496826,0.000673581613227725,-0.01005541905760765
-0.0070275915786623955,-0.02671513706445694,-0.005924384109675884,0.029765965417027473,0.000620662875007838,-0.009764364920556545
-0.007233350537717342,-0.026569711044430733,-0.006171184126287699,0.02963634580373764,0.0005884332931600511,-0.010157233104109764
-0.006788766011595726,-0.026818230748176575,-0.006006454583257437,0.02982969582080841,0.0005282306228764355,-0.009594883769750595
-0.006757477764040232,-0.02632973901927471,-0.005493962671607733,0.029742401093244553,0.0005545445601455867,-0.010021091438829899
-0.006838351022452116,-0.026618773117661476,-0.005584710743278265,0.030044160783290863,0.0005128931952640414,-0.010205554775893688
-0.007241617888212204,-0.026422729715704918,-0.006022514775395393,0.0300578773021698,0.0005416097701527178,-0.010041967034339905
-0.007523722015321255,-0.02615060843527317,-0.006240389309823513,0.02969064749777317,0.0005651479586958885,-0.010451198555529118
-0.006636870559304953,-0.02594277821481228,-0.006157053168863058,0.029814237728714943,0.0006093645934015512,-0.009993704035878181
-0.006387203000485897,-0.026288948953151703,-0.005995295476168394,0.030445609241724014,0.0006926367059350014,-0.010055361315608025
-0.006833413615822792,-0.026859793812036514,-0.005736430175602436,0.031167857348918915,0.000693620415404439,-0.010775077156722546
-0.006666839588433504,-0.02652454935014248,-0.005730492528527975,0.02998260408639908,0.0006680235383100808,-0.010374290868639946
-0.006461796350777149,-0.026707490906119347,-0.00598978390917182,0.028834734112024307,0.0006872141384519637,-0.01068547647446394
-0.00613365275785327,-0.026590406894683838,-0.006151191890239716,0.029465751722455025,0.0008068796596489847,-0.010434701107442379
-0.006245831958949566,-0.026500815525650978,-0.005990052595734596,0.02993176318705082,0.0008628594223409891,-0.01016564853489399
-0.006245831958949566,-0.026500815525650978,-0.005990052595734596,0.02993176318705082,0.0008628594223409891,-0.01016564853489399
-0.007061625365167856,-0.024905869737267494,-0.005832234397530556,0.02942298911511898,0.0008542219293303788,-0.010221538133919239
-0.006457380019128323,-0.025146013125777245,-0.006182402838021517,0.029988033697009087,0.0008590311626903713,-0.009993491694331169
-0.006228839512914419,-0.025571007281541824,-0.006813356652855873,0.030128715559840202,0.000886862981133163,-0.009858637116849422
-0.007261992897838354,-0.025041423738002777,-0.006439546123147011,0.029491009190678596,0.0009453680249862373,-0.010160335339605808
-0.006190798245370388,-0.02543311007320881,-0.006040208972990513,0.02963300794363022,0.0009421495487913489,-0.010360836051404476
-0.005728935822844505,-0.0262446291744709,-0.005792255513370037,0.027811111882328987,0.0009526193025521934,-0.009966525249183178
-0.0057452041655778885,-0.02615462616086006,-0.005879733245819807,0.028380025178194046,0.0010318064596503973,-0.010229458101093769
-0.006298475433140993,-0.025531042367219925,-0.006561354734003544,0.028413493186235428,0.0011876635253429413,-0.010291904211044312
-0.00620928592979908,-0.02480788715183735,-0.005847659427672625,0.028368741273880005,0.0011717387242242694,-0.010527455247938633
-0.006041192915290594,-0.024687476456165314,-0.0058459327556192875,0.028300313279032707,0.0013744967291131616,-0.010302339680492878
-0.0060760327614843845,-0.02517027035355568,-0.005600986536592245,0.02834296226501465,0.0013070824788883328,-0.010575037449598312
-0.006242287810891867,-0.02510329708456993,-0.005966500379145145,0.028241004794836044,0.0011562836589291692,-0.010305056348443031
-0.006267470773309469,-0.024502284824848175,-0.0058093261905014515,0.028217721730470657,0.0009765210561454296,-0.010007545351982117
-0.006097048055380583,-0.024836629629135132,-0.005874489899724722,0.02773420698940754,0.0008911789045669138,-0.010238276794552803
-0.005950406193733215,-0.02495483309030533,-0.005838328506797552,0.028255600482225418,0.0008878667140379548,-0.0108658941462636
-0.005976803135126829,-0.024595236405730247,-0.006137512624263763,0.028318267315626144,0.0008892649784684181,-0.010285446420311928
-0.005526071880012751,-0.02448207698762417,-0.006078572478145361,0.02804344706237316,0.0009320714743807912,-0.009873478673398495
-0.006309345364570618,-0.02439827099442482,-0.005908302031457424,0.027466626837849617,0.0010782824829220772,-0.009856423363089561
-0.005906609818339348,-0.024080663919448853,-0.005443407688289881,0.027226706966757774,0.001106175477616489,-0.009758420288562775
-0.005764391273260117,-0.02416236326098442,-0.005321912467479706,0.028041943907737732,0.0012801538687199354,-0.010041994974017143
-0.005793475080281496,-0.024231087416410446,-0.0049802460707724094,0.028099821880459785,0.0013822052860632539,-0.010109343566000462
-0.005839290097355843,-0.02451416477560997,-0.005551265086978674,0.02716963179409504,0.0013448677491396666,-0.010073934681713581
-0.006216429639607668,-0.02429942414164543,-0.005399386864155531,0.025557784363627434,0.0012345238355919719,-0.010872484184801579
-0.005961520131677389,-0.023873480036854744,-0.005198224913328886,0.02582073211669922,0.0011744721559807658,-0.011249509640038013
-0.00574053218588233,-0.023811304941773415,-0.0047935983166098595,0.02669415809214115,0.001124232541769743,-0.010376611724495888
-0.005516520701348782,-0.02450442500412464,-0.004752044565975666,0.02666514739394188,0.001089030527509749,-0.009924517944455147
-0.005519818048924208,-0.024638203904032707,-0.005093773361295462,0.026386063545942307,0.000986209255643189,-0.010464531369507313
-0.0051673646084964275,-0.024352073669433594,-0.005316488444805145,0.02700919844210148,0.0009501760941930115,-0.010613360442221165
-0.005785393062978983,-0.024512363597750664,-0.00529752392321825,0.02753438986837864,0.0009408376063220203,-0.011508974246680737
-0.005785393062978983,-0.024512363597750664,-0.00529752392321825,0.02753438986837864,0.0009408376063220203,-0.011508974246680737
-0.0060510290786623955,-0.02412543259561062,-0.005283697042614222,0.026890665292739868,0.0009665004326961935,-0.009724311530590057
-0.005441021174192429,-0.023945175111293793,-0.004961044993251562,0.025846287608146667,0.000996460672467947,-0.009942840784788132
-0.0049383072182536125,-0.024128507822752,-0.005138655658811331,0.025179343298077583,0.0013319534482434392,-0.010198173113167286
-0.005170866381376982,-0.024038473144173622,-0.005481820087879896,0.025358568876981735,0.001320787938311696,-0.010166333056986332
-0.005694557912647724,-0.024054406210780144,-0.005409198347479105,0.025937311351299286,0.0015025308821350336,-0.010110922157764435
-0.005931328982114792,-0.024127960205078125,-0.005412708036601543,0.02570504881441593,0.0014678591396659613,-0.010075104422867298
-0.005411807913333178,-0.023672590032219887,-0.0049343775026500225,0.025453081354498863,0.001365219010040164,-0.009916353970766068
-0.005718209780752659,-0.02376043237745762,-0.005184570327401161,0.025368766859173775,0.001280243624933064,-0.009823166765272617
-0.005245274864137173,-0.024104559794068336,-0.005472097080200911,0.024881748482584953,0.0011267783120274544,-0.01019513513892889
-0.005435178056359291,-0.02431895025074482,-0.005128668621182442,0.024760086089372635,0.0008435128256678581,-0.009956239722669125
-0.005792803596705198,-0.02388055808842182,-0.005488677881658077,0.02516438625752926,0.0008358373888768256,-0.00953175313770771
-0.00544164190068841,-0.023918239399790764,-0.005187595263123512,0.024066012352705002,0.0008349896525032818,-0.00979401171207428
-0.0050585707649588585,-0.023696493357419968,-0.005645796190947294,0.024361424148082733,0.0008776484173722565,-0.009946178644895554
-0.00549614243209362,-0.023820534348487854,-0.005434411112219095,0.024187980219721794,0.000913355324883014,-0.01017262414097786
-0.00533538032323122,-0.024065174162387848,-0.005886226426810026,0.024103401228785515,0.0009042987949214876,-0.01029970869421959
-0.005465946160256863,-0.023593734949827194,-0.005665188189595938,0.02381807751953602,0.0008595542749390006,-0.010173856280744076
-0.00549245486035943,-0.023623105138540268,-0.005759153049439192,0.0238084327429533,0.0008123370353132486,-0.010384264402091503
-0.005006837192922831,-0.023793155327439308,-0.005306839477270842,0.024572640657424927,0.0008087246096692979,-0.010720751248300076
-0.005002697929739952,-0.023396851494908333,-0.005435899831354618,0.024630574509501457,0.0008277434972114861,-0.01013883762061596
-0.004786482080817223,-0.023471273481845856,-0.005551817361265421,0.024389300495386124,0.0008954007644206285,-0.010097895748913288
-0.004836151376366615,-0.02388850785791874,-0.006111131515353918,0.024213453754782677,0.0009976245928555727,-0.01034481916576624
-0.0052086845971643925,-0.024435097351670265,-0.005498274229466915,0.024331340566277504,0.0011042190017178655,-0.010222725570201874
-0.004868593066930771,-0.023193009197711945,-0.00535435089841485,0.023965395987033844,0.0011621114099398255,-0.010598702356219292
-0.004682231694459915,-0.02258114144206047,-0.005138177890330553,0.02364090085029602,0.0012363344430923462,-0.010333159938454628
-0.0046186731196939945,-0.02248796634376049,-0.005381688009947538,0.023667989298701286,0.0012735609197989106,-0.01066374871879816
-0.0045655108988285065,-0.022777821868658066,-0.005773204378783703,0.023814786225557327,0.0012067659990862012,-0.01020866446197033
-0.0045655108988285065,-0.022777821868658066,-0.005773204378783703,0.023814786225557327,0.0012067659990862012,-0.01020866446197033
-0.00462317606434226,-0.023036981001496315,-0.006293419748544693,0.023926548659801483,0.0011186214396730065,-0.010294036008417606
-0.00487453443929553,-0.023521916940808296,-0.005575012415647507,0.02380155399441719,0.0010292279766872525,-0.010108149610459805
-0.004731780383735895,-0.022806106135249138,-0.005041180644184351,0.024345094338059425,0.0008991366485133767,-0.010344880633056164
-0.004276467487215996,-0.023038115352392197,-0.005687259137630463,0.023279884830117226,0.0008814475149847567,-0.010015841573476791
-0.004329151473939419,-0.02357219159603119,-0.005517763551324606,0.022601844742894173,0.0008828840800561011,-0.009988216683268547
-0.004094605799764395,-0.023413952440023422,-0.005938423331826925,0.022692888975143433,0.0008849379373714328,-0.010128662921488285
-0.0039037796668708324,-0.023060668259859085,-0.005267149768769741,0.023473501205444336,0.0008895972860045731,-0.0100110387429595
-0.0038690294604748487,-0.022982604801654816,-0.005421174690127373,0.023364437744021416,0.0009891163790598512,-0.010401050560176373
-0.004416505806148052,-0.023121828213334084,-0.005357236135751009,0.022998560220003128,0.0010156352072954178,-0.009955269284546375
-0.004688556771725416,-0.023093735799193382,-0.0057606943883001804,0.022804681211709976,0.0013470982667058706,-0.010120218619704247
-0.0042846426367759705,-0.023855483159422874,-0.00570385716855526,0.022496992722153664,0.0014689977979287505,-0.01048553828150034
-0.003991680685430765,-0.02329172007739544,-0.005649992730468512,0.02210909314453602,0.0014827247941866517,-0.010699155740439892
-0.003921907395124435,-0.02315066196024418,-0.00541571294888854,0.022150473669171333,0.0015987426741048694,-0.010371576063334942
-0.0035222533624619246,-0.023188620805740356,-0.005730018950998783,0.021708451211452484,0.0013792261015623808,-0.010178955271840096
-0.0039981333538889885,-0.023406868800520897,-0.006107687950134277,0.021790441125631332,0.0013941872166469693,-0.010395382530987263
-0.0042025563307106495,-0.02304936945438385,-0.006325204391032457,0.021278366446495056,0.0013731906656175852,-0.010625445283949375
-0.00408513518050313,-0.023226803168654442,-0.00559226144105196,0.021250803023576736,0.001395825413055718,-0.01063594501465559
-0.0038775932043790817,-0.022854449227452278,-0.005753371398895979,0.021451285108923912,0.0013563960092142224,-0.010780803859233856
-0.003779899561777711,-0.022869717329740524,-0.005840986501425505,0.021911107003688812,0.0012987013906240463,-0.010477153584361076
-0.003562816884368658,-0.022935859858989716,-0.006273380480706692,0.021259646862745285,0.0013496780302375555,-0.01010057795792818
-0.0034956741146743298,-0.022930333390831947,-0.005721063818782568,0.020818524062633514,0.0013492555590346456,-0.011622133664786816
-0.0036288565024733543,-0.022851094603538513,-0.005605694837868214,0.020399469882249832,0.0013046395033597946,-0.009910553693771362
-0.0033577086869627237,-0.022910436615347862,-0.006045838352292776,0.02017861045897007,0.0014248071238398552,-0.009906300343573093
-0.0033577086869627237,-0.022910436615347862,-0.006045838352292776,0.02017861045897007,0.0014248071238398552,-0.009906300343573093
-0.0035330348182469606,-0.023193730041384697,-0.005563593003898859,0.02032644860446453,0.001457482692785561,-0.010613922961056232
-0.0033586209174245596,-0.022680116817355156,-0.005836712196469307,0.02118927799165249,0.0013836397556588054,-0.010812516324222088
-0.003372370498254895,-0.022454285994172096,-0.006288387347012758,0.02123734913766384,0.001343853073194623,-0.01048530638217926
-0.0034010137896984816,-0.02263905666768551,-0.0059341504238545895,0.02033667266368866,0.001402770052663982,-0.01071055606007576
-0.00332683976739645,-0.022862467914819717,-0.0060340361669659615,0.02119695581495762,0.0015169474063441157,-0.010797019116580486
-0.0031433943659067154,-0.022368507459759712,-0.005372431594878435,0.021907683461904526,0.0015158713795244694,-0.01087933499366045
-0.00295819528400898,-0.02171742171049118,-0.0059913527220487595,0.021229514852166176,0.0015750378370285034,-0.0104917511343956
-0.0027560703456401825,-0.020908724516630173,-0.006201827898621559,0.02042136713862419,0.0016500905621796846,-0.0108244139701128
-0.0027180106844753027,-0.02136341482400894,-0.006308509968221188,0.020257165655493736,0.001606535748578608,-0.010713706724345684
-0.0027860321570187807,-0.022000059485435486,-0.006331499200314283,0.019508657976984978,0.0018433538498356938,-0.0106636518612504
-0.002804733347147703,-0.02163618803024292,-0.005767515394836664,0.018597852438688278,0.0017644426552578807,-0.010414723306894302
-0.0027278836350888014,-0.021067269146442413,-0.006409287452697754,0.018723005428910255,0.001982327550649643,-0.010314726270735264
-0.0028276299126446247,-0.021176880225539207,-0.006741915829479694,0.01920383982360363,0.0018091818783432245,-0.010564019903540611
-0.0027921542059630156,-0.0211178045719862,-0.006198057439178228,0.019066866487264633,0.0016831238754093647,-0.010360040701925755
-0.0025301955174654722,-0.02104209177196026,-0.006172257475554943,0.0196105744689703,0.0015673531452193856,-0.010379580780863762
-0.0024235837627202272,-0.020402846857905388,-0.00628116587176919,0.0185301061719656,0.001517509575933218,-0.010625572875142097
-0.0022575706243515015,-0.02015441469848156,-0.006498555187135935,0.01821446418762207,0.001499292440712452,-0.010435621254146099
-0.00227741664275527,-0.020222095772624016,-0.00623062951490283,0.018211036920547485,0.0014715425204485655,-0.010220992378890514
-0.0021855346858501434,-0.020155280828475952,-0.005805560853332281,0.018086101859807968,0.0015472931554540992,-0.009966470301151276
-0.002354010473936796,-0.02051117829978466,-0.006014918442815542,0.018286431208252907,0.0014529724139720201,-0.010372735559940338
-0.0024065945763140917,-0.020028000697493553,-0.006166054867208004,0.018238067626953125,0.0015078402357175946,-0.010291894897818565
-0.0022693919017910957,-0.01983962021768093,-0.006139927543699741,0.018203936517238617,0.0015161833725869656,-0.010565288364887238
-0.002234455430880189,-0.020278001204133034,-0.005869620479643345,0.01822648011147976,0.0017370916903018951,-0.010231880471110344
-0.0019398797303438187,-0.0193500816822052,-0.005837931297719479,0.017169037833809853,0.0018186609959229827,-0.010584549978375435
-0.0020418220665305853,-0.019205613061785698,-0.006015791092067957,0.01725880615413189,0.0017202944727614522,-0.011021308600902557
-0.001914108288474381,-0.019559135660529137,-0.006267982069402933,0.017147639766335487,0.0018136318540200591,-0.011170262470841408
-0.002361597726121545,-0.01918025128543377,-0.005646359175443649,0.017123999074101448,0.0016725563909858465,-0.011366310529410839
-0.0023416616022586823,-0.019143149256706238,-0.005052648019045591,0.016642626374959946,0.0017640810692682862,-0.010795592330396175
-0.002196814399212599,-0.01980448327958584,-0.005473926663398743,0.016333188861608505,0.0017159050330519676,-0.01087312214076519
-0.0017955373041331768,-0.01921846903860569,-0.006183058489114046,0.01663977839052677,0.002036054851487279,-0.011591173708438873
-0.0017263214103877544,-0.019344840198755264,-0.005778149235993624,0.016419967636466026,0.0022242777049541473,-0.010557717643678188
-0.001642353949137032,-0.01969841681420803,-0.00579406600445509,0.016685228794813156,0.002224243711680174,-0.01065658126026392
-0.001642353949137032,-0.01969841681420803,-0.00579406600445509,0.016685228794813156,0.002224243711680174,-0.01065658126026392
-0.001809575129300356,-0.0193799939006567,-0.0052968235686421394,0.01677999086678028,0.0021087066270411015,-0.01095499750226736
-0.0017382893711328506,-0.01915884017944336,-0.005280615296214819,0.016246337443590164,0.0018741454696282744,-0.010823509655892849
-0.0020431543234735727,-0.019976254552602768,-0.005481238476932049,0.01582864671945572,0.0017255733255296946,-0.010502233169972897
-0.0019832344260066748,-0.019120575860142708,-0.005177355837076902,0.015184194780886173,0.0015857364051043987,-0.011260508559644222
-0.0019193011103197932,-0.0186665877699852,-0.005789290647953749,0.015763571485877037,0.0015957519644871354,-0.011249596253037453
-0.0016745218308642507,-0.019260026514530182,-0.005754520185291767,0.015685154125094414,0.0016381923342123628,-0.0110978027805686
-0.0013993841130286455,-0.01886085234582424,-0.005559100769460201,0.01663903146982193,0.0016788962529972196,-0.0103819090873003
-0.0014081901172176003,-0.0186154842376709,-0.0053174118511378765,0.01612359844148159,0.0018312163883820176,-0.010920938104391098
-0.0013665882870554924,-0.019158728420734406,-0.005238974466919899,0.01563369110226631,0.0018766372231766582,-0.01155237015336752
-0.0015022471779957414,-0.01849646493792534,-0.005507483147084713,0.015212271362543106,0.001722768065519631,-0.011143004521727562
-0.0014393264427781105,-0.018288955092430115,-0.006072620395570993,0.01590915210545063,0.0017212535021826625,-0.012342067435383797
-0.001423266134224832,-0.01817948929965496,-0.005283239297568798,0.015963684767484665,0.0015988746890798211,-0.01003163494169712
-0.001315126195549965,-0.01810171641409397,-0.004931805655360222,0.01578919030725956,0.0015797591768205166,-0.010851017199456692
-0.0012428250629454851,-0.018407657742500305,-0.005776754580438137,0.015072119422256947,0.0015223120572045445,-0.010981149040162563
-0.0012303423136472702,-0.017836038023233414,-0.005657935980707407,0.01515461876988411,0.0017640143632888794,-0.011031772010028362
-0.0011686760699376464,-0.017888840287923813,-0.005851904395967722,0.014073907397687435,0.0020148896146565676,-0.011133983731269836
-0.0011248692171648145,-0.017553502693772316,-0.005273104179650545,0.014289718121290207,0.0020335556473582983,-0.011110704392194748
-0.0011151316575706005,-0.01726098172366619,-0.005032742395997047,0.013975709676742554,0.0020326857920736074,-0.010961326770484447
-0.0010630162432789803,-0.01780388131737709,-0.00566308805719018,0.014596143737435341,0.0018792173359543085,-0.010878076776862144
-0.0010348722571507096,-0.017224835231900215,-0.005501098930835724,0.014555413275957108,0.001785118947736919,-0.011112354695796967
-0.0009292170871049166,-0.01748053915798664,-0.005904777441173792,0.014875058084726334,0.0019412189722061157,-0.011360439471900463
-0.0009242003434337676,-0.01710580661892891,-0.005262094549834728,0.014173847623169422,0.002048446098342538,-0.011493015103042126
-0.0008532523643225431,-0.016551470384001732,-0.005457397550344467,0.014338547363877296,0.0020326864905655384,-0.011639739386737347
-0.0007355042034760118,-0.016973109915852547,-0.005192138254642487,0.013729404658079147,0.0020494493655860424,-0.011551309376955032
-0.000632320181466639,-0.016378872096538544,-0.005949775688350201,0.014037538319826126,0.0021053056698292494,-0.011371789500117302
-0.000632320181466639,-0.016378872096538544,-0.005949775688350201,0.014037538319826126,0.0021053056698292494,-0.011371789500117302
-0.0006635243771597743,-0.01693168468773365,-0.0057729617692530155,0.013750175014138222,0.0020873299799859524,-0.011640885844826698
-0.0005921974661760032,-0.016317302361130714,-0.005793726537376642,0.014186585322022438,0.001959320157766342,-0.011807591654360294
-0.0006117599550634623,-0.01632641814649105,-0.005271902307868004,0.01316091325134039,0.0018490473739802837,-0.011853494681417942
-0.0005664401105605066,-0.016036495566368103,-0.005352053325623274,0.013363106176257133,0.001915452186949551,-0.011836167424917221
-0.0005198187427595258,-0.015847859904170036,-0.005590992514044046,0.012638245709240437,0.0020149650517851114,-0.011801478452980518
-0.0004801860195584595,-0.016090257093310356,-0.005273025017231703,0.01228014100342989,0.0020882575772702694,-0.011888942681252956
-0.00044617231469601393,-0.015777476131916046,-0.00562244514003396,0.012840572744607925,0.0025282406713813543,-0.011769626289606094
-0.00046904716873541474,-0.01603846251964569,-0.005366583354771137,0.012416289187967777,0.0024724146351218224,-0.011380142532289028
-0.000446539546828717,-0.015356292948126793,-0.005283394828438759,0.012431617826223373,0.0023184195160865784,-0.011467383243143559
-0.00042054400546476245,-0.0157733503729105,-0.00528972502797842,0.011909755878150463,0.0022743886802345514,-0.011608971282839775
-0.00039733489393256605,-0.015081037767231464,-0.005563706625252962,0.011792580597102642,0.0020807653199881315,-0.012191283516585827
-0.0003578347968868911,-0.015146083198487759,-0.005630159750580788,0.01141317281872034,0.002255192259326577,-0.011325186118483543
-0.0003408916527405381,-0.015511885285377502,-0.0052573466673493385,0.011568895541131496,0.002233237726613879,-0.011226993054151535
-0.0003254804469179362,-0.015383314341306686,-0.0057867649011313915,0.011013424955308437,0.00245321705006063,-0.010809509083628654
-0.00031140202190726995,-0.015177065506577492,-0.005387230776250362,0.011100159958004951,0.0026728203520178795,-0.011181611567735672
-0.0002984926395583898,-0.014711422845721245,-0.005840848200023174,0.011430611833930016,0.0026167542673647404,-0.011091427877545357
-0.00028660977841354907,-0.014368844218552113,-0.005432698875665665,0.010412773117423058,0.0025818333961069584,-0.01120171882212162
-0.00027563684852793813,-0.014430747367441654,-0.005852128379046917,0.010562733747065067,0.0023579143453389406,-0.01225879043340683
-0.0002654738200362772,-0.01373623963445425,-0.005416831001639366,0.010155787691473961,0.0024406767915934324,-0.012003171257674694
-0.0002560332650318742,-0.014179995283484459,-0.005428054369986057,0.010359949432313442,0.0026159354019910097,-0.011638624593615532
-0.0002560332650318742,-0.014179995283484459,-0.005428054369986057,0.010359949432313442,0.0026159354019910097,-0.011638624593615532
-0.00024724079412408173,-0.014612754806876183,-0.005724204704165459,0.010375728830695152,0.0024856459349393845,-0.01140169333666563
-0.00023903274268377572,-0.014207584783434868,-0.0060994578525424,0.009931585751473904,0.002369180554524064,-0.011481152847409248
-0.00023135232913773507,-0.014521505683660507,-0.005409350618720055,0.010112130083143711,0.0020883858669549227,-0.011707467958331108
-0.00022414972772821784,-0.013809481635689735,-0.005087794736027718,0.010147521272301674,0.0019203469855710864,-0.012093261815607548
-0.00021101147285662591,-0.013934946618974209,-0.005670852493494749,0.008014222607016563,0.0019013892160728574,-0.012647737748920918
-0.00021101147285662591,-0.013934946618974209,-0.005670852493494749,0.008014222607016563,0.0019013892160728574,-0.012647737748920918
-0.00020500313257798553,-0.013883940875530243,-0.005830654874444008,0.008124458603560925,0.0021825965959578753,-0.01172722689807415
-0.00016971840523183346,-0.014003438875079155,-0.005654330365359783,0.007529314141720533,0.0026109314057976007,-0.011492087505757809
-0.00016971840523183346,-0.014003438875079155,-0.005654330365359783,0.007529314141720533,0.0026109314057976007,-0.011492087505757809
-0.00016526153194718063,-0.013137917965650558,-0.005525986663997173,0.006592134945094585,0.002552618971094489,-0.011678836308419704
-0.0001610374019946903,-0.01331246830523014,-0.005291521083563566,0.006464587524533272,0.0024187378585338593,-0.012175002135336399
-0.00015702354721724987,-0.0133129321038723,-0.0063596926629543304,0.006927805487066507,0.0024218843318521976,-0.012196127325296402
-8.529500337317586e-05,-0.013070057146251202,-0.005980870686471462,0.006630294490605593,0.0025502119679003954,-0.01211552880704403
-1.784894266165793e-06,-0.012582134455442429,-0.005554700270295143,0.006197343580424786,0.0025604094844311476,-0.011974792927503586
0.0020080741960555315,-0.012448099441826344,-0.005230484995990992,0.00612069945782423,0.0026667695492506027,-0.012274300679564476
0.002751405816525221,-0.012739923782646656,-0.00590095017105341,0.00618367874994874,0.0023297856096178293,-0.012054983526468277
0.0016494047595188022,-0.012423895299434662,-0.006232710089534521,0.005557375494390726,0.002145437989383936,-0.012633154168725014
0.0007289728964678943,-0.012888007797300816,-0.005413011182099581,0.005513842683285475,0.0018790262984111905,-0.012349759228527546
0.00033909728517755866,-0.013053970411419868,-0.005539659410715103,0.005148590076714754,0.0020325982477515936,-0.012329762801527977
0.00043913323315791786,-0.012556768022477627,-0.0060934629291296005,0.005733513738960028,0.0021717126946896315,-0.012223439291119576
0.0013838453451171517,-0.013098150491714478,-0.005539619829505682,0.0059652989730238914,0.0028829367365688086,-0.012359624728560448
0.0016089872224256396,-0.012469872832298279,-0.006021238397806883,0.005910659674555063,0.0029936220962554216,-0.01213318295776844
0.0012455550022423267,-0.012772082351148129,-0.005495055578649044,0.005427309777587652,0.002633193042129278,-0.012380550615489483
0.0010117131751030684,-0.01271897368133068,-0.00584451062604785,0.004925800021737814,0.002537486609071493,-0.012492876499891281
0.0008518424583598971,-0.011991788633167744,-0.0053380997851490974,0.004716184455901384,0.002476267982274294,-0.01233099214732647
0.0008150271023623645,-0.012187945656478405,-0.005980543792247772,0.004706555977463722,0.0029140652623027563,-0.01261202897876501
0.0008247096557170153,-0.011844458058476448,-0.005976553540676832,0.004508755635470152,0.0028960516210645437,-0.01254674606025219
0.0008247096557170153,-0.011844458058476448,-0.005976553540676832,0.004508755635470152,0.0028960516210645437,-0.01254674606025219
0.0006696871132589877,-0.01229677814990282,-0.005705352872610092,0.005148135591298342,0.002855480881407857,-0.012793908827006817
0.000637480232398957,-0.011889149434864521,-0.005254806485027075,0.005150740034878254,0.0026143942959606647,-0.012273085303604603
0.0006726024439558387,-0.011786279268562794,-0.0051275743171572685,0.004716305527836084,0.0024609307292848825,-0.01233851071447134
0.0007080438081175089,-0.012015637010335922,-0.005884313955903053,0.00419234624132514,0.002542760455980897,-0.01222236454486847
0.0012651882134377956,-0.011577103286981583,-0.006398002151399851,0.004195796325802803,0.0027592708356678486,-0.012268482707440853
0.001318085938692093,-0.012144137173891068,-0.006016836501657963,0.0047021955251693726,0.002783119911327958,-0.012396212667226791
0.0013279708800837398,-0.01159622985869646,-0.0053247082978487015,0.004752960987389088,0.002785944612696767,-0.01229314599186182
0.0012864591553807259,-0.011883337050676346,-0.005713986232876778,0.004738944116979837,0.002681087702512741,-0.01230811607092619
0.001344452379271388,-0.011575968936085701,-0.005738214589655399,0.004301979206502438,0.0027782043907791376,-0.011774955317378044
0.0015590107068419456,-0.01177415531128645,-0.00579281710088253,0.004297209437936544,0.003405374940484762,-0.011717628687620163
0.001483812346123159,-0.012399478815495968,-0.00566124776378274,0.004683489445596933,0.0032866797409951687,-0.012216395698487759
0.001386048155836761,-0.011563182808458805,-0.005589995067566633,0.004753722343593836,0.0032084756530821323,-0.012229070998728275
0.0015164663782343268,-0.011265115812420845,-0.0050773462280631065,0.004454333800822496,0.0029457639902830124,-0.012770242057740688
0.0014030642341822386,-0.01102447509765625,-0.005538464989513159,0.003949768375605345,0.0027776649221777916,-0.012876132503151894
0.0013109402498230338,-0.010972687974572182,-0.005320444703102112,0.004221542272716761,0.0025714768562465906,-0.012708655558526516
0.0013094034511595964,-0.011103705503046513,-0.006041038315743208,0.004237047396600246,0.0025694414507597685,-0.012687020935118198
0.0017622021259739995,-0.011081700213253498,-0.005181524436920881,0.003490205854177475,0.0026722815819084644,-0.013069606386125088
0.0019610754679888487,-0.011313587427139282,-0.005361322313547134,0.003311686683446169,0.0025899086613208055,-0.012253225781023502
0.0028213923797011375,-0.010379898361861706,-0.0052324621938169,0.003391048638150096,0.0024497793056070805,-0.01208796352148056
0.0025566350668668747,-0.010449050925672054,-0.0053126150742173195,0.003412197809666395,0.0023401514627039433,-0.012360569089651108
0.0023168805055320263,-0.010923385620117188,-0.0054703340865671635,0.0030233697034418583,0.0024430181365460157,-0.012442244216799736
0.002220064401626587,-0.010153827257454395,-0.005474268924444914,0.0026311594992876053,0.002598529914394021,-0.011985394172370434
0.002597832353785634,-0.010404323227703571,-0.00508693465963006,0.0027083465829491615,0.0025787760969251394,-0.012691282667219639
0.002653102157637477,-0.009969484992325306,-0.005274416413158178,0.003051925916224718,0.002892196411266923,-0.012612156569957733
0.003370789811015129,-0.009410657919943333,-0.005410580430179834,0.002797665074467659,0.0034366617910563946,-0.012430649250745773
0.003481372259557247,-0.009563651867210865,-0.005262970924377441,0.0024956550914794207,0.003351629013195634,-0.01306159421801567
0.0033592802938073874,-0.010024665854871273,-0.005364106968045235,0.0023524025455117226,0.0031416527926921844,-0.013311473652720451
0.0033592802938073874,-0.010024665854871273,-0.005364106968045235,0.0023524025455117226,0.0031416527926921844,-0.013311473652720451
0.003158866660669446,-0.009731033816933632,-0.005115407053381205,0.0022656323853880167,0.00297951465472579,-0.013128542341291904
0.0034319558180868626,-0.009254415519535542,-0.005181606858968735,0.002425782848149538,0.002977430121973157,-0.012645607814192772
0.003769526956602931,-0.009831416420638561,-0.0054116686806082726,0.0020178118720650673,0.0031901143956929445,-0.012478074990212917
0.004284727852791548,-0.008373615331947803,-0.005151280667632818,0.001716073602437973,0.00343640660867095,-0.012438591569662094
0.004193529020994902,-0.008613068610429764,-0.0059876712039113045,0.0013292606454342604,0.0036217020824551582,-0.012788732536137104
0.003932329826056957,-0.008446511812508106,-0.005647714715451002,0.0012178178876638412,0.003945547621697187,-0.013115724548697472
0.003841106314212084,-0.008271019905805588,-0.005627435632050037,0.0011069064494222403,0.0036154312547296286,-0.013084531761705875
0.0041429512202739716,-0.00831326562911272,-0.005220192950218916,0.0010131660383194685,0.0033332444727420807,-0.012497944757342339
0.004574113991111517,-0.008170705288648605,-0.005737865809351206,0.0007764355977997184,0.00330650107935071,-0.012340453453361988
0.004057244397699833,-0.008819053880870342,-0.005958953872323036,0.0006975738215260208,0.0028161790687590837,-0.013005530461668968
0.004268904682248831,-0.0077990139834582806,-0.005796342622488737,0.0006631198339164257,0.0027927295304834843,-0.013176542706787586
0.00457361014559865,-0.00799151323735714,-0.004909205716103315,0.0006657041958533227,0.003014499554410577,-0.013168121688067913
0.0047324057668447495,-0.008073757402598858,-0.005432138219475746,0.0006222468800842762,0.0031058955937623978,-0.013076636008918285
0.005489746108651161,-0.007413459476083517,-0.005383431911468506,0.0006067410577088594,0.003050384810194373,-0.013189257122576237
0.005371958948671818,-0.007162587251514196,-0.005334547255188227,0.0005923786084167659,0.003349357284605503,-0.013402235694229603
0.004950896371155977,-0.007206959184259176,-0.005625587888062,0.0005494727520272136,0.003210450755432248,-0.013768059201538563
0.0052124131470918655,-0.00739575270563364,-0.0060007283464074135,0.0005106279859319329,0.003257405012845993,-0.013466794043779373
0.005550607107579708,-0.006714222487062216,-0.00486707454547286,0.0004386759828776121,0.003064867341890931,-0.01329073216766119
0.006004405673593283,-0.006735358387231827,-0.005178843624889851,0.0004000083135906607,0.002960527315735817,-0.01309019885957241
0.005979115609079599,-0.0075685507617890835,-0.005702664144337177,0.00036734482273459435,0.002865623217076063,-0.013339826837182045
0.0056877098977565765,-0.0071427649818360806,-0.006142282858490944,0.00033959996653720737,0.0031263960991054773,-0.013090230524539948
0.006143306382000446,-0.006639654282480478,-0.005355323664844036,0.00031575377215631306,0.0032591193448752165,-0.013217021711170673
0.005708701908588409,-0.006486257538199425,-0.005358128342777491,0.00029503958649002016,0.0028504682704806328,-0.012911416590213776
0.005708701908588409,-0.006486257538199425,-0.005358128342777491,0.00029503958649002016,0.0028504682704806328,-0.012911416590213776
0.006135200150310993,-0.00629454804584384,-0.005207739770412445,0.00027687547844834626,0.0029696126002818346,-0.01325865089893341
0.0066385394893586636,-0.006539925467222929,-0.0054528065957129,0.0002608212816994637,0.0029017350170761347,-0.013283231295645237
0.006616654340177774,-0.0060937595553696156,-0.005821081809699535,0.00024652702268213034,0.003293634857982397,-0.014605452306568623
0.006185139063745737,-0.005864688195288181,-0.005831474903970957,0.00023371777206193656,0.003339232411235571,-0.012928036972880363
0.0064511969685554504,-0.006179062649607658,-0.005369254853576422,0.00022217461082618684,0.0031789736822247505,-0.012429296039044857
0.007019727025181055,-0.006089616566896439,-0.00577041320502758,0.00021171981643419713,0.0028042388148605824,-0.01308571919798851
0.006893081124871969,-0.006172012537717819,-0.005333668552339077,0.00020220325677655637,0.0027225271333009005,-0.013459842652082443
0.006599830463528633,-0.005794702097773552,-0.006023649126291275,0.00019350666843820363,0.0029231973458081484,-0.013685080222785473
0.006666901521384716,-0.005814605858176947,-0.005736327264457941,0.00018552727124188095,0.0031712374184280634,-0.01325809396803379
0.007245703600347042,-0.006605763919651508,-0.005768621806055307,0.00017817964544519782,0.003055956680327654,-0.013216755352914333
0.0071595655754208565,-0.0062177469953894615,-0.005250878632068634,0.00013944055535830557,0.003066287375986576,-0.013111468404531479
0.0077042365446686745,-0.005784151144325733,-0.005893279332667589,0.00013223443238530308,0.0033550835214555264,-0.013178289867937565
0.007156459614634514,-0.0061170607805252075,-0.005545728374272585,0.0001274171518161893,0.0036069585476070642,-0.013152236118912697
0.007442861329764128,-0.0055236127227544785,-0.0059845587238669395,0.00012305240670684725,0.003292217617854476,-0.013342778198421001
0.007760165724903345,-0.006095357239246368,-0.0054171024821698666,0.00011898455704795197,0.0030953334644436836,-0.013285207562148571
0.008311105892062187,-0.0060729035176336765,-0.005031641107052565,9.3860064225737e-05,0.0029639583081007004,-0.012972487136721611
0.007973848842084408,-0.00617393059656024,-0.005184703040868044,8.419290679739788e-05,0.0032830832060426474,-0.013193286024034023
0.008089641109108925,-0.005070843733847141,-0.006298833526670933,-6.649651913903654e-05,0.0033748853020370007,-0.013441489078104496
0.007813334465026855,-0.00541631830856204,-0.005703168921172619,-6.860380381112918e-05,0.0032215106766670942,-0.013635881245136261
0.008059346117079258,-0.005436336621642113,-0.005224630236625671,-9.732588659971952e-05,0.003266120096668601,-0.01377501804381609
0.00888381153345108,-0.005557015538215637,-0.005222671199589968,-0.00012575704022310674,0.0034396485425531864,-0.013209137134253979
0.008917225524783134,-0.004824499599635601,-0.005579809192568064,-0.0001528313005110249,0.003594815032556653,-0.013456511311233044
0.008247479796409607,-0.004998493939638138,-0.005945426411926746,-0.0007750852382741868,0.0034458418376743793,-0.013250752352178097
0.008660055696964264,-0.004867049865424633,-0.0061901831068098545,-0.000858758226968348,0.0031479457393288612,-0.013399339281022549
0.008896717801690102,-0.004397054202854633,-0.005415530875325203,-0.0013027593959122896,0.003031492233276367,-0.013088200241327286
0.008931627497076988,-0.0044829645194113255,-0.005144013557583094,-0.0017420313088223338,0.0033811626490205526,-0.013569329865276814
0.008644317276775837,-0.004498993046581745,-0.005335079040378332,-0.003088798373937607,0.0037386396434158087,-0.013729176484048367
0.009286167100071907,-0.004795093555003405,-0.006170937791466713,-0.003670433070510626,0.003935909830033779,-0.013537614606320858
0.009417584165930748,-0.004221671260893345,-0.005937693174928427,-0.004426907282322645,0.003969167359173298,-0.013745383359491825
0.009417584165930748,-0.004221671260893345,-0.005937693174928427,-0.004426907282322645,0.003969167359173298,-0.013745383359491825
0.008958877995610237,-0.0043415711261332035,-0.005601183045655489,-0.004507514648139477,0.003950540442019701,-0.013748588971793652
0.009495499543845654,-0.004106470383703709,-0.00529992813244462,-0.0047942353412508965,0.003922965843230486,-0.013556382618844509
0.009869221597909927,-0.004385094158351421,-0.0053847855888307095,-0.005408158525824547,0.0043314797803759575,-0.01363653689622879
0.009456375613808632,-0.0042238254100084305,-0.005517824087291956,-0.005868124309927225,0.00420285202562809,-0.013792436569929123
0.009686320088803768,-0.004092864692211151,-0.006340159103274345,-0.006507935002446175,0.004009282682090998,-0.013808953575789928
0.010426472872495651,-0.0036495381500571966,-0.005726041737943888,-0.007294189650565386,0.004274419974535704,-0.013944295234978199
0.009986251592636108,-0.003469928866252303,-0.005572495050728321,-0.008033011108636856,0.004205524455755949,-0.013766899704933167
0.010252836160361767,-0.003370277350768447,-0.0054408288560807705,-0.00829234067350626,0.003963922616094351,-0.01364991907030344
0.011285543441772461,-0.003380012698471546,-0.005612775683403015,-0.008064759895205498,0.004059345927089453,-0.01317083090543747
0.010209819301962852,-0.003220345126464963,-0.005744442343711853,-0.009127973578870296,0.0037378137931227684,-0.013243255205452442
0.01035501342266798,-0.0037804385647177696,-0.005844822619110346,-0.008995325304567814,0.0036454866640269756,-0.012950929813086987
0.010966981761157513,-0.0034723859280347824,-0.005262026563286781,-0.00956354383379221,0.0038394820876419544,-0.01309020072221756
0.011086867190897465,-0.0032211465295404196,-0.005316347815096378,-0.010704826563596725,0.0039003936108201742,-0.01369080226868391
0.011729937978088856,-0.002922803396359086,-0.005718094762414694,-0.011219482868909836,0.003715417580679059,-0.014174549840390682
0.011487030424177647,-0.0028100721538066864,-0.005966947413980961,-0.011342957615852356,0.0035077387001365423,-0.014390514232218266
0.0112468795850873,-0.002658337354660034,-0.005714723374694586,-0.0111927455291152,0.0036069266498088837,-0.014146283268928528
0.011172167025506496,-0.0027786632999777794,-0.0060419864021241665,-0.011453438550233841,0.0037816339172422886,-0.013886673375964165
0.011469493620097637,-0.0028928034007549286,-0.005564421880990267,-0.011346318759024143,0.0038902442902326584,-0.014169596135616302
0.01152154803276062,-0.0029834804590791464,-0.005359000992029905,-0.010891703888773918,0.003966759890317917,-0.014291392639279366
0.011848000809550285,-0.0027761568780988455,-0.005714039783924818,-0.011738515459001064,0.003979566972702742,-0.014446376822888851
0.012193441390991211,-0.002723876852542162,-0.006163250654935837,-0.011925305239856243,0.004179190844297409,-0.014354070648550987
0.011923285201191902,-0.00246436707675457,-0.005683570634573698,-0.012568849138915539,0.004291297867894173,-0.014457485638558865
0.012452672235667706,-0.002263667294755578,-0.005582479760050774,-0.013061663135886192,0.004066562745720148,-0.014306080527603626
0.012452672235667706,-0.002263667294755578,-0.005582479760050774,-0.013061663135886192,0.004066562745720148,-0.014306080527603626
0.01226866152137518,-0.002043849788606167,-0.005419062916189432,-0.013112422078847885,0.004201673436909914,-0.014446945860981941
0.012416268698871136,-0.001977302134037018,-0.006126205436885357,-0.013495663180947304,0.004200631286948919,-0.014282581396400928
0.01294911839067936,-0.0021593780256807804,-0.006423983257263899,-0.01315176859498024,0.004324355162680149,-0.014256917871534824
0.01261108461767435,-0.0020105154253542423,-0.005674405954778194,-0.01324981264770031,0.004079194739460945,-0.013967832550406456
0.013036894612014294,-0.0021699857898056507,-0.0052834623493254185,-0.012770013883709908,0.00415758928284049,-0.014052368700504303
0.012489783577620983,-0.002042744541540742,-0.005523767322301865,-0.013059171847999096,0.004232027567923069,-0.0141835305839777
0.01105357427150011,-0.0019387454958632588,-0.006154305767267942,-0.012414459139108658,0.004076790995895863,-0.01426254864782095
0.01031627506017685,-0.0017380464123561978,-0.006262646056711674,-0.012636300176382065,0.0039043992292135954,-0.014498163014650345
0.011004704050719738,-0.00138203171081841,-0.005591732449829578,-0.012156817130744457,0.0040970491245388985,-0.014784368686378002
0.01167061273008585,-0.0012285371776670218,-0.005900438874959946,-0.01169170718640089,0.004248339217156172,-0.014617117121815681
0.011408100835978985,-0.0011798839550465345,-0.005899373907595873,-0.01246191281825304,0.004548101220279932,-0.014377809129655361
0.011258813552558422,-0.001274622743949294,-0.00621102936565876,-0.011805621907114983,0.004922186955809593,-0.014316672459244728
0.011574814096093178,-0.0014366528484970331,-0.006283406168222427,-0.012127500958740711,0.005029367282986641,-0.014674946665763855
0.011313981376588345,-0.0013913230504840612,-0.005961208138614893,-0.012419051490724087,0.004493643529713154,-0.0146744130179286
0.011385684832930565,-0.0016063953517004848,-0.005742683075368404,-0.012614082545042038,0.004480530507862568,-0.014576510526239872
0.011164715513586998,-0.0014459649100899696,-0.0057462770491838455,-0.013141692616045475,0.004465098027139902,-0.01464790664613247
0.011544701643288136,-0.0011936586815863848,-0.0062206806614995,-0.013081739656627178,0.00440804660320282,-0.014398171566426754
0.011397907510399818,-0.0009884440805763006,-0.005749417468905449,-0.012958024628460407,0.004020217806100845,-0.014786203391849995
0.011898130178451538,-0.0007466080714948475,-0.0056447614915668964,-0.013931524939835072,0.00398029200732708,-0.014955149963498116
0.011479637585580349,-0.0007486314862035215,-0.005671492777764797,-0.013804716989398003,0.0043837386183440685,-0.014732596464455128
0.011797902174293995,-0.000767179939430207,-0.006268882658332586,-0.014107871800661087,0.00464995950460434,-0.014543603174388409
0.011871283873915672,-0.0007818580488674343,-0.005816974211484194,-0.014069675467908382,0.004376991651952267,-0.015235393308103085
0.0121166305616498,-0.000715114118065685,-0.005689925979822874,-0.014849684201180935,0.004367022309452295,-0.014286001212894917
0.012000269256532192,-0.0007906434475444257,-0.0062262010760605335,-0.014340166933834553,0.004487972240895033,-0.014294126071035862
0.011661786586046219,-0.0007660089177079499,-0.0057617975398898125,-0.014708952978253365,0.004707335960119963,-0.014638816937804222
0.012686141766607761,-0.0007067393744364381,-0.005900563672184944,-0.01450388878583908,0.00476165022701025,-0.014526247046887875
0.012383537366986275,-0.0006253815372474492,-0.0058344630524516106,-0.015306061133742332,0.004841933958232403,-0.014701333828270435
0.012599851936101913,-0.0005604434991255403,-0.006021331064403057,-0.015050869435071945,0.0049596610479056835,-0.014971703290939331
0.012599851936101913,-0.0005604434991255403,-0.006021331064403057,-0.015050869435071945,0.0049596610479056835,-0.014971703290939331
0.012169578112661839,-0.0005077226087450981,-0.005954529158771038,-0.01576627418398857,0.0047987992875278,-0.014978311024606228
0.012044336646795273,-0.0005145032191649079,-0.0058259316720068455,-0.015424782410264015,0.004678849130868912,-0.014797189272940159
0.01256860326975584,-0.0004981987876817584,-0.006200583651661873,-0.01634080894291401,0.004559351596981287,-0.014880836941301823
0.012370523996651173,-0.000461984338471666,-0.005611484404653311,-0.01722308248281479,0.004637055564671755,-0.015000238083302975
0.012647627852857113,-0.0004304182657506317,-0.005803873762488365,-0.016946591436862946,0.00474097765982151,-0.014907876960933208
0.012130874209105968,-0.00040288741001859307,-0.005528870038688183,-0.0172500628978014,0.004720918834209442,-0.014790940098464489
0.012440266087651253,-0.00037866816273890436,-0.005806538742035627,-0.017113085836172104,0.004921692423522472,-0.015325939282774925
0.012213707901537418,-0.0003571959096007049,-0.006072634365409613,-0.01691528409719467,0.004517566412687302,-0.014978718012571335
0.012449505738914013,-0.00033802774851210415,-0.005978770554065704,-0.01690608821809292,0.00410745944827795,-0.015103736892342567
0.01314584445208311,-0.00032081265817396343,-0.00528850220143795,-0.017037391662597656,0.004312014672905207,-0.015093106776475906
0.012619667686522007,-0.0003052675456274301,-0.005825329106301069,-0.01770792528986931,0.004790126346051693,-0.015368204563856125
0.012623376213014126,-0.0002911576011683792,-0.005738339386880398,-0.017611276358366013,0.00552292400971055,-0.015216251835227013
0.012828774750232697,-0.0002783008967526257,-0.005942631047219038,-0.017740126699209213,0.005375681445002556,-0.015031082555651665
0.013152260333299637,-0.00026652676751837134,-0.005895671434700489,-0.01772518828511238,0.004800709895789623,-0.01516619324684143
0.012905413284897804,-0.00025570817524567246,-0.005376671440899372,-0.017377428710460663,0.004611862823367119,-0.015204736962914467
0.013367137871682644,-9.28499866859056e-05,-0.005531786475330591,-0.018371649086475372,0.004678830504417419,-0.015316411852836609
0.013323664665222168,-7.882949284976348e-05,-0.005920175462961197,-0.018930012360215187,0.005359559785574675,-0.01587488315999508
0.01352748740464449,-0.00010029002442024648,-0.0061620124615728855,-0.01851331628859043,0.005097012035548687,-0.01550455391407013
0.013420290313661098,-0.00010854518768610433,-0.0057288832031190395,-0.017733130604028702,0.004872218705713749,-0.01532161794602871
0.013813256286084652,0.0001479646161897108,-0.0050453078001737595,-0.018211010843515396,0.004668247886002064,-0.015434768050909042
0.013334880582988262,0.00022278734832070768,-0.005396785214543343,-0.018659299239516258,0.004613549914211035,-0.015489568933844566
0.013852601870894432,0.0002347683475818485,-0.0057088895700871944,-0.01944279484450817,0.004782489035278559,-0.015348716638982296
0.013692932203412056,0.00020815742027480155,-0.0062929680570960045,-0.02009148709475994,0.005301375407725573,-0.015971772372722626
0.01392565481364727,0.00018657515465747565,-0.006280289031565189,-0.0199808981269598,0.005243132822215557,-0.016023367643356323
0.013928761705756187,0.00016904457879718393,-0.00543759111315012,-0.01963525265455246,0.005001090932637453,-0.01583928056061268
0.014447622001171112,0.00015452801017090678,-0.005401465110480785,-0.020344899967312813,0.004763414151966572,-0.015616067685186863
0.013771789148449898,0.00021242276125121862,-0.005516545381397009,-0.020973119884729385,0.004617227707058191,-0.01570194959640503
0.013771789148449898,0.00021242276125121862,-0.005516545381397009,-0.020973119884729385,0.004617227707058191,-0.01570194959640503
0.01422593928873539,0.00019780235015787184,-0.006170002743601799,-0.021156692877411842,0.004635218996554613,-0.01561996340751648
0.01406992319971323,0.00024486196343787014,-0.006001536268740892,-0.02108249068260193,0.004806435201317072,-0.017155684530735016
0.014335309155285358,0.0002300290361745283,-0.005486353300511837,-0.021464062854647636,0.005477224942296743,-0.015872208401560783
0.014105575159192085,0.0003244867257308215,-0.00536283478140831,-0.021758629009127617,0.005423864349722862,-0.015410857275128365
0.014957334846258163,0.00035195876262150705,-0.005563396029174328,-0.021905431523919106,0.005423145834356546,-0.01590873673558235
0.014480122365057468,0.0003270847664680332,-0.005878292489796877,-0.022501299157738686,0.004920433275401592,-0.015740424394607544
0.014634634368121624,0.0003447907802183181,-0.006273128092288971,-0.02224629744887352,0.004709400702267885,-0.015554883517324924
0.014296355657279491,0.00034240150125697255,-0.005456598475575447,-0.02234405092895031,0.004698801785707474,-0.015550565905869007
0.01469726487994194,0.0003573743742890656,-0.005162481684237719,-0.022148264572024345,0.005428036209195852,-0.015446336939930916
0.014298256486654282,0.000354517949745059,-0.005385973025113344,-0.023141678422689438,0.005792009178549051,-0.015324807725846767
0.015858890488743782,0.00038314738776534796,-0.006202067248523235,-0.024186870083212852,0.0052599115297198296,-0.015695985406637192
0.015395564958453178,0.0006139408214949071,-0.00594373932108283,-0.02429329976439476,0.004524367395788431,-0.015847763046622276
0.015803057700395584,0.0006525422795675695,-0.005557609256356955,-0.02402975596487522,0.004617576487362385,-0.015796732157468796
0.015294251963496208,0.0006770485197193921,-0.005213230382651091,-0.024145806208252907,0.005155699793249369,-0.015904583036899567
0.014769108034670353,0.000919872138183564,-0.005621720105409622,-0.02401774562895298,0.005442110821604729,-0.0162188783288002
0.015292327851057053,0.0007762910681776702,-0.00598669471219182,-0.025158749893307686,0.005696599837392569,-0.016240756958723068
0.01534412894397974,0.0007779733277857304,-0.00564147625118494,-0.024937031790614128,0.005307747516781092,-0.016724437475204468
0.015501185320317745,0.0007934484165161848,-0.005651081446558237,-0.025178337469697,0.005553792230784893,-0.016526132822036743
0.015461081638932228,0.000813754100818187,-0.005514694377779961,-0.02605423890054226,0.005472808610647917,-0.016009995713829994
0.015487287193536758,0.0007957261404953897,-0.005613616202026606,-0.026087207719683647,0.005731816403567791,-0.016223836690187454
0.01615723967552185,0.0009322676924057305,-0.006164976395666599,-0.02567732147872448,0.005876656621694565,-0.01604544371366501
0.015359071083366871,0.0009436396649107337,-0.006074495613574982,-0.02496529184281826,0.005811914335936308,-0.01595270074903965
0.015976479277014732,0.0014597129775211215,-0.0056531960144639015,-0.02552434802055359,0.005189190618693829,-0.016076067462563515
0.015603644773364067,0.0013521297369152308,-0.005474629811942577,-0.025931214913725853,0.005212503485381603,-0.016652340069413185
0.015687406063079834,0.0012718398356810212,-0.005477120168507099,-0.025650590658187866,0.005167962517589331,-0.01693069189786911
0.015795204788446426,0.0011161495931446552,-0.005808808840811253,-0.025572635233402252,0.005019523203372955,-0.016904372721910477
0.015795204788446426,0.0011161495931446552,-0.005808808840811253,-0.025572635233402252,0.005019523203372955,-0.016904372721910477
0.017964879050850868,0.0013667006278410554,-0.006074825767427683,-0.026121754199266434,0.005744928028434515,-0.016865910962224007
0.015584253706037998,0.0032769350800663233,-0.005547201260924339,-0.02636740542948246,0.005847351159900427,-0.016403725370764732
0.015604931861162186,0.006463906727731228,-0.005547767970710993,-0.02658621221780777,0.005786948837339878,-0.016802936792373657
0.016306759789586067,0.0057620578445494175,-0.006086497101932764,-0.02710956148803234,0.005575559101998806,-0.01651892066001892
0.01612630859017372,0.004842597059905529,-0.005847858265042305,-0.027323080226778984,0.005652370862662792,-0.016724567860364914
0.016482803970575333,0.0036224345676600933,-0.006462549325078726,-0.02803627774119377,0.006068065762519836,-0.016499804332852364
0.015972796827554703,0.004130383022129536,-0.0055861403234303,-0.02821630984544754,0.005658100359141827,-0.016731271520256996
0.01626981422305107,0.004729870706796646,-0.005318579263985157,-0.02838738076388836,0.005846323445439339,-0.016578447073698044
0.016203653067350388,0.005214006640017033,-0.005307145416736603,-0.027858294546604156,0.005534200929105282,-0.016574973240494728
0.016577284783124924,0.005354542750865221,-0.005740529391914606,-0.02859329991042614,0.005726462695747614,-0.017053183168172836
0.01656474731862545,0.005025982856750488,-0.005805625580251217,-0.02831628918647766,0.005400880705565214,-0.016491027548909187
0.016366764903068542,0.005444929003715515,-0.005413328763097525,-0.02858859673142433,0.005766431335359812,-0.016587259247899055
0.01683059334754944,0.005372152663767338,-0.0054459478706121445,-0.028662098571658134,0.005473300814628601,-0.015759211033582687
0.016105592250823975,0.005802600644528866,-0.00602937676012516,-0.02904539369046688,0.005882123950868845,-0.01586897484958172
0.01677820086479187,0.005400189198553562,-0.005459615960717201,-0.02913001738488674,0.005576149560511112,-0.016496865078806877
0.01658347062766552,0.005838245619088411,-0.005395554006099701,-0.028822340071201324,0.00589911499992013,-0.01675310544669628
0.01652870699763298,0.00547633646056056,-0.005419496912509203,-0.02848154865205288,0.005485823843628168,-0.016979729756712914
0.016476819291710854,0.006931393872946501,-0.005316610913723707,-0.029382668435573578,0.005585941951721907,-0.017263377085328102
0.01688424125313759,0.005923459306359291,-0.00495443819090724,-0.028953080996870995,0.005421897396445274,-0.01696140319108963
0.016363022848963737,0.006389502435922623,-0.005272428039461374,-0.029642105102539062,0.0056092278100550175,-0.01701357401907444
0.01687808893620968,0.006748860236257315,-0.005255789961665869,-0.029764870181679726,0.0053775729611516,-0.01717577688395977
0.01686481200158596,0.007479996420443058,-0.005724709946662188,-0.02917572483420372,0.005551155656576157,-0.016382794827222824
0.017009513452649117,0.00669844588264823,-0.005289027001708746,-0.02918965183198452,0.005487232934683561,-0.01683639921247959
0.01724686659872532,0.0067133489064872265,-0.005275108851492405,-0.02969246543943882,0.0056844064965844154,-0.016894813627004623
0.016398074105381966,0.006806514225900173,-0.005312653258442879,-0.029848506674170494,0.005444666370749474,-0.017564157024025917
0.017402982339262962,0.007133788429200649,-0.00524521479383111,-0.02987627312541008,0.005222261417657137,-0.017532698810100555
0.017016658559441566,0.007585152983665466,-0.00532812625169754,-0.030390871688723564,0.005417034961283207,-0.01711656153202057
0.01691143400967121,0.0076324231922626495,-0.005237104371190071,-0.0307684987783432,0.005997107829898596,-0.01721811480820179
0.01692144013941288,0.007564866449683905,-0.00553723331540823,-0.030801277607679367,0.005950341001152992,-0.017230458557605743
0.01692144013941288,0.007564866449683905,-0.00553723331540823,-0.030801277607679367,0.005950341001152992,-0.017230458557605743
0.01729693077504635,0.007669765967875719,-0.00529174879193306,-0.0307165514677763,0.005980848800390959,-0.017882952466607094
0.018540896475315094,0.008011032827198505,-0.005046871490776539,-0.030678508803248405,0.0055984389036893845,-0.017765020951628685
0.017104705795645714,0.008127682842314243,-0.005724343936890364,-0.031347405165433884,0.006103625521063805,-0.01726854406297207
0.017104705795645714,0.008127682842314243,-0.005724343936890364,-0.031347405165433884,0.006103625521063805,-0.01726854406297207
0.018076233565807343,0.008797876536846161,-0.005558868404477835,-0.03077501617372036,0.006038646679371595,-0.016860593110322952
0.018406840041279793,0.00898486003279686,-0.0052430229261517525,-0.029428552836179733,0.006090694572776556,-0.016848208382725716
0.018532875925302505,0.008971444331109524,-0.005291125737130642,-0.02956337109208107,0.00557511392980814,-0.017230048775672913
0.01829369179904461,0.009115948341786861,-0.005737295839935541,-0.031394440680742264,0.005872419569641352,-0.017758455127477646
0.018201079219579697,0.009608837775886059,-0.006099217105656862,-0.03166532143950462,0.005877615883946419,-0.01769317127764225
0.018976565450429916,0.009755460545420647,-0.005368104204535484,-0.03210422769188881,0.006266134791076183,-0.017276862636208534
0.01851320080459118,0.009865673258900642,-0.005202286411076784,-0.03304436057806015,0.006349504459649324,-0.017437590286135674
0.01806757226586342,0.009409593418240547,-0.005313874687999487,-0.03219765052199364,0.005849992390722036,-0.017854301258921623
0.018636684864759445,0.009569831192493439,-0.0055092391557991505,-0.031119484454393387,0.006062130909413099,-0.0176179688423872
0.019332949072122574,0.010723770596086979,-0.005636585410684347,-0.03198361024260521,0.006081973668187857,-0.017657453194260597
0.01895391196012497,0.010793536901473999,-0.005510692484676838,-0.03313877433538437,0.0068724793381989,-0.01776977814733982
0.018666505813598633,0.01038298662751913,-0.005181358195841312,-0.03342666104435921,0.006452162750065327,-0.017563698813319206
0.018559878692030907,0.010667846538126469,-0.005806285422295332,-0.032660696655511856,0.00575046194717288,-0.017573708668351173
0.018688075244426727,0.010867557488381863,-0.005799747537821531,-0.03368696942925453,0.005295720417052507,-0.017760196700692177
0.019349779933691025,0.010595767758786678,-0.006356612779200077,-0.03417150676250458,0.005702318623661995,-0.01884043775498867
0.019007187336683273,0.01125796977430582,-0.005834265612065792,-0.0341368094086647,0.006313215475529432,-0.017191102728247643
0.019344663247466087,0.011361580342054367,-0.005953741725534201,-0.03458055481314659,0.006003360729664564,-0.017052939161658287
0.01900082267820835,0.012556147761642933,-0.0061019416898489,-0.03499035909771919,0.0061505697667598724,-0.01765126734972
0.019120531156659126,0.011320088058710098,-0.006605113390833139,-0.03524259850382805,0.006269191391766071,-0.017624441534280777
0.019496779888868332,0.011630243621766567,-0.0063363490626215935,-0.0343710295855999,0.006574826780706644,-0.017946017906069756
0.0192476287484169,0.011174620129168034,-0.005819914396852255,-0.03510202094912529,0.00613483926281333,-0.01771845668554306
0.019497567787766457,0.011720161885023117,-0.005779880098998547,-0.03591126576066017,0.0061125438660383224,-0.01786361262202263
0.019795725122094154,0.011508370749652386,-0.006195705849677324,-0.03513552248477936,0.006404248997569084,-0.018008703365921974
0.020206917077302933,0.011799939908087254,-0.00617105420678854,-0.03503580763936043,0.006030789110809565,-0.018030505627393723
0.020065337419509888,0.012624148279428482,-0.006020674016326666,-0.03640824928879738,0.00626381253823638,-0.01836334727704525
0.02002820000052452,0.011795515194535255,-0.006408580578863621,-0.03668253868818283,0.006346642971038818,-0.01815776340663433
0.02002820000052452,0.011795515194535255,-0.006408580578863621,-0.03668253868818283,0.006346642971038818,-0.01815776340663433
0.019547337666153908,0.012417217716574669,-0.0061247809790074825,-0.037274014204740524,0.006450397428125143,-0.017980113625526428
0.0198325477540493,0.01219161693006754,-0.0063161058351397514,-0.0382857508957386,0.006354592740535736,-0.018009774386882782
0.020633986219763756,0.012352188117802143,-0.006645774003118277,-0.03715714067220688,0.006521705538034439,-0.018022900447249413
0.020788952708244324,0.012732551433146,-0.0062547167763113976,-0.036636244505643845,0.006666933186352253,-0.01848422922194004
0.02021605893969536,0.012454879470169544,-0.0061594704166054726,-0.037407346069812775,0.00653001107275486,-0.018436284735798836
0.02034033089876175,0.012910864315927029,-0.006378857418894768,-0.037485260516405106,0.006584991700947285,-0.01830945909023285
0.020495248958468437,0.012385177426040173,-0.00639576418325305,-0.038037508726119995,0.006376378238201141,-0.01847296580672264
0.020838456228375435,0.013003667816519737,-0.006685297004878521,-0.03830723837018013,0.006560723762959242,-0.018344134092330933
0.020786209031939507,0.012949078343808651,-0.006500517018139362,-0.038146160542964935,0.006697294767946005,-0.01814238727092743
0.02120763063430786,0.01282674353569746,-0.006549579557031393,-0.03871094435453415,0.0073248459957540035,-0.01849512942135334
0.02129608951508999,0.012693732976913452,-0.006369208917021751,-0.03869107738137245,0.007002558559179306,-0.018231742084026337
0.02080538682639599,0.012022145092487335,-0.00657966174185276,-0.03809626027941704,0.0067158895544707775,-0.018571704626083374
0.021024560555815697,0.01281403936445713,-0.00654745614156127,-0.039139922708272934,0.006683086510747671,-0.018681727349758148
0.02146931365132332,0.012977697886526585,-0.006034625694155693,-0.039178118109703064,0.006782115902751684,-0.018676623702049255
0.021787529811263084,0.013293521478772163,-0.0063496921211481094,-0.03875087574124336,0.006709973327815533,-0.018353061750531197
0.021614516153931618,0.012869284488260746,-0.006741949822753668,-0.03871573135256767,0.007185879163444042,-0.018306123092770576
0.021123994141817093,0.013157473877072334,-0.00684289401397109,-0.038734544068574905,0.006768241990357637,-0.018518853932619095
0.02203645557165146,0.013760069385170937,-0.006302989553660154,-0.038890253752470016,0.006607308052480221,-0.01848553866147995
0.022113047540187836,0.01369418390095234,-0.006305517628788948,-0.03878867253661156,0.006821362301707268,-0.018309233710169792
0.02188418246805668,0.01368721667677164,-0.007147499825805426,-0.03980787843465805,0.006747034378349781,-0.018516428768634796
0.022279977798461914,0.013957127928733826,-0.0071424031630158424,-0.03853472322225571,0.006428678520023823,-0.018347440287470818
0.02203989028930664,0.0139192845672369,-0.006465485785156488,-0.03933039307594299,0.0065566617995500565,-0.018185798078775406
0.022326290607452393,0.013455972075462341,-0.00615842966362834,-0.039445437490940094,0.006539839319884777,-0.01851480081677437
0.022987278178334236,0.01325281336903572,-0.006697042379528284,-0.039425287395715714,0.006503805052489042,-0.018591005355119705
0.022610563784837723,0.014033435843884945,-0.006924871355295181,-0.039498988538980484,0.006638248451054096,-0.018651200458407402
0.02250775694847107,0.014010472223162651,-0.006563850678503513,-0.040523461997509,0.006832938175648451,-0.018743347376585007
0.022329524159431458,0.014585752040147781,-0.006621912121772766,-0.03972133249044418,0.007057258393615484,-0.018660953268408775
0.02297871932387352,0.014533025212585926,-0.006541125476360321,-0.04221096262335777,0.007172135636210442,-0.019640199840068817
0.02297871932387352,0.014533025212585926,-0.006541125476360321,-0.04221096262335777,0.007172135636210442,-0.019640199840068817
0.023228423669934273,0.014728717505931854,-0.006483784411102533,-0.04084855318069458,0.007438909728080034,-0.018290968611836433
0.023228423669934273,0.014728717505931854,-0.006483784411102533,-0.04084855318069458,0.007438909728080034,-0.018290968611836433
0.02328411675989628,0.015147506259381771,-0.0062343706376850605,-0.04112543910741806,0.007319606374949217,-0.01907740719616413
0.023198841139674187,0.01565404050052166,-0.006175059359520674,-0.04247389733791351,0.007407936733216047,-0.019251016899943352
0.024161746725440025,0.015432773157954216,-0.006673731841146946,-0.044142551720142365,0.007038020994514227,-0.01898919977247715
0.024161746725440025,0.015432773157954216,-0.006673731841146946,-0.044142551720142365,0.007038020994514227,-0.01898919977247715
0.02366928569972515,0.015217717736959457,-0.006208093836903572,-0.04278910905122757,0.006729287561029196,-0.019000999629497528
0.024068087339401245,0.01573449932038784,-0.006107076071202755,-0.04292471706867218,0.006786756217479706,-0.019276458770036697
0.024315400049090385,0.015265672467648983,-0.006314202211797237,-0.044217318296432495,0.006858066655695438,-0.019556399434804916
0.023976504802703857,0.015850791707634926,-0.006964974571019411,-0.04423464089632034,0.007167160045355558,-0.019265666604042053
0.024619555100798607,0.01569901965558529,-0.006917010992765427,-0.04401068016886711,0.007415078580379486,-0.01866847462952137
0.024643907323479652,0.016220930963754654,-0.006218954920768738,-0.0456954687833786,0.007334467023611069,-0.019032491371035576
0.024714261293411255,0.015844739973545074,-0.006450335495173931,-0.044176459312438965,0.007317772600799799,-0.018861984834074974
0.025287766009569168,0.016321785748004913,-0.006885334849357605,-0.044827356934547424,0.007450649049133062,-0.018893154338002205
0.024189868941903114,0.016006307676434517,-0.006946038920432329,-0.04569853097200394,0.007290029898285866,-0.019321955740451813
0.025179723277688026,0.016212787479162216,-0.006856376770883799,-0.04524008929729462,0.007268351968377829,-0.019215239211916924
0.02512490563094616,0.016659211367368698,-0.0063145961612463,-0.04486124590039253,0.007764248643070459,-0.018656471744179726
0.025271017104387283,0.017156649380922318,-0.006445160135626793,-0.045691583305597305,0.007525715511292219,-0.019280390813946724
0.025074200704693794,0.017307007685303688,-0.006848914083093405,-0.04774598777294159,0.0072372374124825,-0.019449880346655846
0.02514001727104187,0.016834812238812447,-0.00658534187823534,-0.04463469609618187,0.00701103825122118,-0.01962215267121792
0.025301268324255943,0.01725826784968376,-0.006306291092187166,-0.04578353464603424,0.007641459349542856,-0.019134828820824623
0.025721512734889984,0.01715456321835518,-0.006920163985341787,-0.04730266332626343,0.007470537908375263,-0.01930306665599346
0.02579570934176445,0.01813063956797123,-0.006846672855317593,-0.04803166538476944,0.007095779292285442,-0.01944177970290184
0.025653643533587456,0.01792101189494133,-0.006657272111624479,-0.04499556124210358,0.006808947771787643,-0.019378995522856712
0.025675145909190178,0.018327675759792328,-0.006706677842885256,-0.04585979878902435,0.006839205510914326,-0.01986829563975334
0.025614123791456223,0.01873905397951603,-0.006540023256093264,-0.0468490906059742,0.006890884600579739,-0.020416373386979103
0.026003900915384293,0.018218262121081352,-0.007074018474668264,-0.04744182154536247,0.007362090051174164,-0.02038116194307804
0.02620084397494793,0.01879476010799408,-0.006594804115593433,-0.047588594257831573,0.007986083626747131,-0.020311834290623665
0.025628071278333664,0.018597256392240524,-0.006032316945493221,-0.04561471939086914,0.007872515358030796,-0.02033698372542858
0.025843331590294838,0.018450139090418816,-0.005975083913654089,-0.0462421178817749,0.0075336722657084465,-0.020795458927750587
0.025843331590294838,0.018450139090418816,-0.005975083913654089,-0.0462421178817749,0.0075336722657084465,-0.020795458927750587
0.026550542563199997,0.019030896946787834,-0.006727626547217369,-0.046748798340559006,0.007573003880679607,-0.020320553332567215
0.027232814580202103,0.019230861216783524,-0.006765384692698717,-0.04712757095694542,0.007811081130057573,-0.020207248628139496
0.026846343651413918,0.018969299271702766,-0.006645121145993471,-0.04668141528964043,0.00784372165799141,-0.02035936899483204
0.026743236929178238,0.019554758444428444,-0.005863361060619354,-0.046695247292518616,0.00771915540099144,-0.02081701159477234
0.026554901152849197,0.020239820703864098,-0.006051154341548681,-0.0473206602036953,0.007479038555175066,-0.020064184442162514
0.027438243851065636,0.019751083105802536,-0.006975312251597643,-0.04796828702092171,0.00798200536519289,-0.019969142973423004
0.027726203203201294,0.019761763513088226,-0.006882632151246071,-0.048391107469797134,0.008290436118841171,-0.020947739481925964
0.027201808989048004,0.01998693123459816,-0.005897731985896826,-0.04852229729294777,0.007902565412223339,-0.021578745916485786
0.02731309086084366,0.020178159698843956,-0.00579963531345129,-0.049143098294734955,0.006866770330816507,-0.02066376432776451
0.028465265408158302,0.0203311275690794,-0.006297178566455841,-0.04966630041599274,0.007053924258798361,-0.019492389634251595
0.027295934036374092,0.020377267152071,-0.00670985970646143,-0.05016256868839264,0.007472967263311148,-0.020005136728286743
0.02701655402779579,0.020561303943395615,-0.006462212651968002,-0.05006513372063637,0.008066540583968163,-0.020042527467012405
0.026764875277876854,0.020059283822774887,-0.006122297141700983,-0.050913356244564056,0.007933487184345722,-0.01982300542294979
0.028362352401018143,0.02081877924501896,-0.006375441327691078,-0.04938412830233574,0.007682939525693655,-0.022016268223524094
0.027617665007710457,0.0205767173320055,-0.006707485299557447,-0.04933031648397446,0.007622547447681427,-0.02037009410560131
0.02741977572441101,0.02088218554854393,-0.006532876752316952,-0.05095735564827919,0.007529530208557844,-0.019989823922514915
0.027783388271927834,0.021254803985357285,-0.006325850263237953,-0.053079307079315186,0.007430874276906252,-0.020525721833109856
0.027630919590592384,0.02094672992825508,-0.006232876796275377,-0.052207183092832565,0.007667249999940395,-0.021278908476233482
0.027748843654990196,0.020985471084713936,-0.0068771070800721645,-0.050243131816387177,0.007646278478205204,-0.02098722569644451
0.02785128727555275,0.021465525031089783,-0.006785905454307795,-0.05246329680085182,0.007550491020083427,-0.020576398819684982
0.028451621532440186,0.02170448563992977,-0.006308700889348984,-0.05353398993611336,0.00792403519153595,-0.019631119444966316
0.028414608910679817,0.021694974973797798,-0.0062965406104922295,-0.05345926061272621,0.007785524241626263,-0.020101381465792656
0.028694946318864822,0.021070310845971107,-0.006750744301825762,-0.05323129519820213,0.007683184929192066,-0.02073811925947666
0.028867386281490326,0.021677786484360695,-0.006954923737794161,-0.053250983357429504,0.008040843531489372,-0.02087118662893772
0.028867386281490326,0.021677786484360695,-0.006954923737794161,-0.053250983357429504,0.008040843531489372,-0.02087118662893772
0.028598619624972343,0.021869780495762825,-0.006356969941407442,-0.0533919483423233,0.007986309938132763,-0.020997976884245872
0.028832072392106056,0.02180495113134384,-0.006404628045856953,-0.05357261747121811,0.007565462961792946,-0.021244537085294724
0.02856716513633728,0.021473724395036697,-0.006363397929817438,-0.05359089747071266,0.007798290345817804,-0.021307988092303276
0.02863340638577938,0.02220114879310131,-0.006391508970409632,-0.05235009640455246,0.008222583681344986,-0.021077759563922882
0.029132649302482605,0.022845540195703506,-0.006700944155454636,-0.05367323383688927,0.008041149005293846,-0.020881598815321922
0.029307004064321518,0.023110775277018547,-0.006598924286663532,-0.0550689697265625,0.008138635195791721,-0.02078213542699814
0.029246734455227852,0.022866908460855484,-0.006813005078583956,-0.051978010684251785,0.00838286243379116,-0.020972395315766335
0.028853939846158028,0.022670330479741096,-0.006843892857432365,-0.052195824682712555,0.008324239403009415,-0.02112969383597374
0.029027579352259636,0.02321149781346321,-0.006582611706107855,-0.05284787714481354,0.00833967886865139,-0.021448489278554916
0.02911638468503952,0.022319283336400986,-0.006369393784552813,-0.053935062140226364,0.008152610622346401,-0.021488742902874947
0.02912522852420807,0.02186444029211998,-0.006594369187951088,-0.051508497446775436,0.008401417173445225,-0.021355189383029938
0.02966166101396084,0.021524958312511444,-0.006748890969902277,-0.05229103937745094,0.00866425596177578,-0.02148650959134102
0.029458018019795418,0.0220156479626894,-0.006743512582033873,-0.05366864427924156,0.008546868339180946,-0.0215232465416193
0.0291582103818655,0.022266099229454994,-0.00677321944385767,-0.053617723286151886,0.008234596811234951,-0.02138403430581093
0.02944931574165821,0.02292005531489849,-0.006463964469730854,-0.053551580756902695,0.00833134911954403,-0.02106286585330963
0.029810572043061256,0.022518573328852654,-0.006487550679594278,-0.0545489527285099,0.00832110270857811,-0.021116364747285843
0.030405210331082344,0.022103488445281982,-0.0067477175034582615,-0.05415450409054756,0.008631613105535507,-0.02126186527311802
0.02952439710497856,0.022689225152134895,-0.006502232979983091,-0.054736364632844925,0.008267913945019245,-0.021115940064191818
0.02915450558066368,0.022605933248996735,-0.006711573339998722,-0.05555079132318497,0.008156061172485352,-0.02111775241792202
0.029382355511188507,0.022667231038212776,-0.006041225977241993,-0.055609751492738724,0.00859171710908413,-0.02081197313964367
0.029958531260490417,0.02209104411303997,-0.0062359413132071495,-0.05560316517949104,0.008613444864749908,-0.02084393985569477
0.0296139195561409,0.022919582203030586,-0.006805016193538904,-0.05586263909935951,0.008411196060478687,-0.021131407469511032
0.03003789857029915,0.023622946813702583,-0.006358576472848654,-0.055594056844711304,0.00825144350528717,-0.02138317935168743
0.030901417136192322,0.02372020296752453,-0.006146807689219713,-0.05640610307455063,0.008309448137879372,-0.021347569301724434
0.030416876077651978,0.023361584171652794,-0.006403440143913031,-0.05620189383625984,0.008634225465357304,-0.021289436146616936
0.029606714844703674,0.022947853431105614,-0.007021347992122173,-0.057549916207790375,0.008497561328113079,-0.02125868946313858
0.02979927696287632,0.022773724049329758,-0.0068902624770998955,-0.05818042531609535,0.008336130529642105,-0.02132391184568405
0.030843982473015785,0.023622531443834305,-0.00682801054790616,-0.05682855471968651,0.008532489649951458,-0.02123761922121048
0.030843982473015785,0.023622531443834305,-0.00682801054790616,-0.05682855471968651,0.008532489649951458,-0.02123761922121048
0.030652930960059166,0.02442041039466858,-0.006345268338918686,-0.05747143551707268,0.008983489125967026,-0.02112879790365696
0.030232740566134453,0.023681659251451492,-0.006530183367431164,-0.05965249985456467,0.009088942781090736,-0.021245986223220825
0.031051265075802803,0.02361256442964077,-0.006958835292607546,-0.056873880326747894,0.008513525128364563,-0.021652212366461754
0.029781721532344818,0.024046171456575394,-0.006182695273309946,-0.056841567158699036,0.008672626689076424,-0.021932868286967278
0.03028077818453312,0.024458080530166626,-0.006394020281732082,-0.05858875438570976,0.008880086243152618,-0.021794743835926056
0.03021290712058544,0.024935279041528702,-0.006695200689136982,-0.05846960097551346,0.008966651745140553,-0.022009674459695816
0.030399426817893982,0.025206301361322403,-0.006978027988225222,-0.057911455631256104,0.009140411391854286,-0.021968256682157516
0.03000606968998909,0.024509252980351448,-0.006597527302801609,-0.05741735175251961,0.008270280435681343,-0.02192992903292179
0.030215848237276077,0.024536043405532837,-0.0060079689137637615,-0.05796710029244423,0.00807103794068098,-0.021677488461136818
0.03024839237332344,0.02485567331314087,-0.006285989191383123,-0.05776403471827507,0.008215858601033688,-0.02160896733403206
0.029699664562940598,0.02483637072145939,-0.006619881838560104,-0.05742555856704712,0.008916893042623997,-0.021432191133499146
0.0301088634878397,0.025128962472081184,-0.0066741034388542175,-0.05674360692501068,0.008697631768882275,-0.021413424983620644
0.030346333980560303,0.025864290073513985,-0.00619440246373415,-0.05655166879296303,0.008552082814276218,-0.021593108773231506
0.030493956059217453,0.02591552585363388,-0.006461096461862326,-0.05883686989545822,0.008710110560059547,-0.021704303100705147
0.031084371730685234,0.025699974969029427,-0.006569410674273968,-0.057212818413972855,0.009000088088214397,-0.0219779871404171
0.030842479318380356,0.026007134467363358,-0.006533315870910883,-0.0569101944565773,0.00901420135051012,-0.022176483646035194
0.03056834079325199,0.02618268132209778,-0.0066742426715791225,-0.0602237805724144,0.008821384981274605,-0.02231072634458542
0.030902430415153503,0.026310743764042854,-0.006294047459959984,-0.05847847834229469,0.00888125877827406,-0.022040093317627907
0.03191008046269417,0.02589673176407814,-0.006101080682128668,-0.05898222699761391,0.008814427070319653,-0.02196965366601944
0.0316983237862587,0.026170456781983376,-0.0068963682278990746,-0.06042761355638504,0.009012565948069096,-0.021736545488238335
0.030370153486728668,0.02700827643275261,-0.006460192147642374,-0.06065580993890762,0.008595922030508518,-0.023730160668492317
0.031026285141706467,0.02687925472855568,-0.006170948967337608,-0.06065651774406433,0.008384265936911106,-0.022737687453627586
0.03227442875504494,0.026983564719557762,-0.0062243943102657795,-0.06083313003182411,0.008673455566167831,-0.022572064772248268
0.03150595724582672,0.028130048885941505,-0.0069078379310667515,-0.06108137592673302,0.008949615992605686,-0.02229178324341774
0.0320894829928875,0.028128009289503098,-0.007062749471515417,-0.06101512908935547,0.009047954343259335,-0.021986989304423332
0.03361556679010391,0.028088819235563278,-0.006759126670658588,-0.06178703531622887,0.008838538080453873,-0.02182631939649582
0.03361556679010391,0.028088819235563278,-0.006759126670658588,-0.06178703531622887,0.008838538080453873,-0.02182631939649582
0.03276732563972473,0.026843132451176643,-0.006414873991161585,-0.06230111047625542,0.008984687738120556,-0.02215174213051796
0.03172421082854271,0.027112441137433052,-0.006433950271457434,-0.062448691576719284,0.009141985327005386,-0.023043273016810417
0.03196162357926369,0.028169915080070496,-0.007041459437459707,-0.06266619265079498,0.009262265637516975,-0.02332453615963459
0.03310385346412659,0.02854800410568714,-0.006867454387247562,-0.06278999149799347,0.009454471059143543,-0.022740084677934647
0.03284217789769173,0.02836018241941929,-0.005758362356573343,-0.06357958912849426,0.009358723647892475,-0.02270488068461418
0.03309253975749016,0.028875693678855896,-0.006617572624236345,-0.06400102376937866,0.009447588585317135,-0.02360696531832218
0.032922692596912384,0.028438355773687363,-0.008087905123829842,-0.0613425150513649,0.009679186157882214,-0.02292795479297638
0.03371867164969444,0.028859954327344894,-0.007212306372821331,-0.062361545860767365,0.009762058965861797,-0.02251571975648403
0.03370313718914986,0.029012160375714302,-0.0062256562523543835,-0.06514409184455872,0.009764467366039753,-0.02193010039627552
0.03410540521144867,0.02892841026186943,-0.006548645440489054,-0.0639500841498375,0.009717041626572609,-0.022288156673312187
0.03401496261358261,0.02880163863301277,-0.00680354842916131,-0.0629793331027031,0.009796902537345886,-0.022715918719768524
0.034080564975738525,0.028581863269209862,-0.007993006147444248,-0.06334314495325089,0.009316760115325451,-0.023106634616851807
0.034868378192186356,0.0292318407446146,-0.007117234170436859,-0.06404980272054672,0.009689612314105034,-0.023391203954815865
0.03453729674220085,0.029429906979203224,-0.0063978685066103935,-0.06357910484075546,0.00976044312119484,-0.02307792939245701
0.03457404300570488,0.02889646217226982,-0.006555209867656231,-0.06287400424480438,0.009156936779618263,-0.022889448329806328
0.03444576635956764,0.029468324035406113,-0.007039608433842659,-0.06413601338863373,0.009380636736750603,-0.02300926484167576
0.035088103264570236,0.02942311391234398,-0.006835023406893015,-0.06465312093496323,0.009341219440102577,-0.02317182905972004
0.03471294790506363,0.029546111822128296,-0.006869141012430191,-0.06481572240591049,0.009371954016387463,-0.023179681971669197
0.034947436302900314,0.02987213432788849,-0.007557570468634367,-0.06523491442203522,0.009591849520802498,-0.02323756366968155
0.0353531613945961,0.030192427337169647,-0.007461660075932741,-0.06835255026817322,0.00974002294242382,-0.023439573124051094
0.03565007448196411,0.029998410493135452,-0.006592028308659792,-0.06657689809799194,0.009800929576158524,-0.023287484422326088
0.03600872680544853,0.030196605250239372,-0.006324181333184242,-0.06570862978696823,0.00956112053245306,-0.023712854832410812
0.035534925758838654,0.03049958124756813,-0.007165555842220783,-0.06790576875209808,0.009422174654901028,-0.02431146614253521
0.036293141543865204,0.030548520386219025,-0.007448957767337561,-0.06749282777309418,0.009088505990803242,-0.024075351655483246
0.03749796375632286,0.030475934967398643,-0.006921233609318733,-0.06710933893918991,0.009099720977246761,-0.02312419004738331
0.03749796375632286,0.030475934967398643,-0.006921233609318733,-0.06710933893918991,0.009099720977246761,-0.02312419004738331
0.03580811619758606,0.030857855454087257,-0.006737833376973867,-0.0687512755393982,0.009450948797166348,-0.022852512076497078
0.03515661507844925,0.030836228281259537,-0.007323534227907658,-0.06910782307386398,0.009507703594863415,-0.02287934720516205
0.03643812611699104,0.030472151935100555,-0.007626549806445837,-0.06939778476953506,0.009269220754504204,-0.02341575361788273
0.03625708818435669,0.030123455449938774,-0.007446772884577513,-0.06927543878555298,0.009912264533340931,-0.02422986552119255
0.037261974066495895,0.030410587787628174,-0.006752213463187218,-0.06944267451763153,0.010551365092396736,-0.023584509268403053
0.03838091716170311,0.030581025406718254,-0.0064604091458022594,-0.07003603130578995,0.010030990466475487,-0.023576924577355385
0.03597342595458031,0.030870702117681503,-0.007531229872256517,-0.07042886316776276,0.01001123059540987,-0.02440386451780796
0.03513272851705551,0.03086024522781372,-0.007195413112640381,-0.0708695575594902,0.009992274455726147,-0.024764735251665115
0.03691549971699715,0.03069005161523819,-0.006921275518834591,-0.0706484466791153,0.009167593903839588,-0.02341868169605732
0.03707277774810791,0.031209567561745644,-0.00713053485378623,-0.0709230974316597,0.009401793591678143,-0.023178642615675926
0.03677171468734741,0.031912367790937424,-0.00738415727391839,-0.07226665318012238,0.0099110072478652,-0.023370593786239624
0.03725524619221687,0.032424911856651306,-0.007076870650053024,-0.06963713467121124,0.009689489379525185,-0.024052133783698082
0.03697813302278519,0.030834192410111427,-0.006834008730947971,-0.07017068564891815,0.00982023123651743,-0.02457902394235134
0.037113528698682785,0.030984576791524887,-0.0072891549207270145,-0.07246606051921844,0.010526073165237904,-0.024716168642044067
0.03773749619722366,0.03196786716580391,-0.007468448020517826,-0.07031375914812088,0.01059731189161539,-0.024335063993930817
0.03736134618520737,0.0315818190574646,-0.007258861791342497,-0.07147443294525146,0.009188086725771427,-0.024027498438954353
0.0378132164478302,0.03283742815256119,-0.007339786272495985,-0.07327643781900406,0.009737556800246239,-0.023844150826334953
