davideferrari95/blind_handover_controller/data/Test 90 - [2024-02-07 -- 16-10-51]/joint_states_data.csv
shoulder_pan_joint,shoulder_lift_joint,elbow_joint,wrist_1_joint,wrist_2_joint,wrist_3_joint
0.009315681643784046,0.006385196931660175,-0.00898196455091238,0.0030744692776352167,0.0,0.008499747142195702
0.008639020845293999,0.006020344328135252,-0.009886623360216618,0.0032966078724712133,0.0,0.00840052030980587
0.008639020845293999,0.006020344328135252,-0.009886623360216618,0.0032966078724712133,0.0,0.00840052030980587
0.009040256962180138,0.005785308312624693,-0.009061168879270554,0.0036103022284805775,0.0,0.009003524668514729
0.009334391914308071,0.0053586577996611595,-0.009457792155444622,0.003726555034518242,0.0,0.008268569596111774
0.00867523904889822,0.005825735162943602,-0.009782413020730019,0.0034014484845101833,0.0,0.008210163563489914
0.009100067429244518,0.006408927962183952,-0.009257468394935131,0.003127190051600337,0.0,0.008299531415104866
0.009458308108150959,0.0060655055567622185,-0.008665613830089569,0.00296437437646091,0.0,0.008818395435810089
0.008503752760589123,0.005547989625483751,-0.00972136203199625,0.0030213685240596533,0.0,0.008560091257095337
0.007668103091418743,0.005150001961737871,-0.00951521098613739,0.003174905199557543,0.0,0.008642482571303844
0.008433641865849495,0.0058231414295732975,-0.008455129340291023,0.0031674704514443874,0.0,0.008564379066228867
0.009008580818772316,0.005923389922827482,-0.008415252901613712,0.0033863696735352278,0.0,0.00816932413727045
0.009096107445657253,0.0062071699649095535,-0.008910386823117733,0.003624230856075883,0.0,0.008153155446052551
0.009096107445657253,0.0062071699649095535,-0.008910386823117733,0.003624230856075883,0.0,0.008153155446052551
0.008766948245465755,0.006394244264811277,-0.008871910162270069,0.003259123768657446,0.0,0.008391451090574265
0.00883759930729866,0.005606914404779673,-0.008522524498403072,0.003169350093230605,0.0,0.008525733835995197
0.008463243022561073,0.0053548081777989864,-0.009944058954715729,0.003131794510409236,0.0,0.008138306438922882
0.008761100471019745,0.005757334176450968,-0.008933759294450283,0.0032553235068917274,0.0,0.00813301745802164
0.009539281949400902,0.0065176766365766525,-0.0082795275375247,0.0031597402412444353,0.0,0.008406058885157108
0.008730817586183548,0.006028093863278627,-0.009167563170194626,0.0033969187643378973,0.0,0.008418230339884758
0.008210991509258747,0.005772892385721207,-0.008733144961297512,0.0031402180902659893,0.0,0.008149703033268452
0.008704345673322678,0.005278407130390406,-0.008321868255734444,0.0032679515425115824,0.0,0.007960000075399876
0.008954118937253952,0.005640301387757063,-0.008403200656175613,0.003336279885843396,0.0,0.008013625629246235
0.008577445521950722,0.005852332338690758,-0.008793642744421959,0.0031411228701472282,0.0,0.008635591715574265
0.008790051564574242,0.005839052144438028,-0.008692664094269276,0.0030461535789072514,0.0,0.008265976794064045
0.008596247062087059,0.005954880733042955,-0.009008094668388367,0.003314065979793668,0.0,0.00856225099414587
0.00843371544033289,0.005384413525462151,-0.008551386184990406,0.0036484457086771727,0.0,0.008098563179373741
0.008908889256417751,0.0059984708204865456,-0.008427306078374386,0.003307596780359745,0.0,0.008583818562328815
0.009231818839907646,0.005927173420786858,-0.00844467245042324,0.0029245447367429733,0.0,0.008308783173561096
0.008716220036149025,0.005341644864529371,-0.008743980899453163,0.003306899918243289,0.0,0.008282426744699478
0.00865007285028696,0.005292945075780153,-0.008735944516956806,0.0032344702631235123,0.0,0.008618433028459549
0.009684509597718716,0.005383686162531376,-0.008494913578033447,0.0031591500155627728,0.0,0.008247427642345428
0.008540751412510872,0.005386952310800552,-0.008631591685116291,0.003119430271908641,0.0,0.008358266204595566
0.008792733773589134,0.005673494655638933,-0.008410241454839706,0.0031632077880203724,0.0,0.007977130822837353
0.00901174359023571,0.005400460679084063,-0.00808804202824831,0.0031792179215699434,0.0,0.009122495539486408
0.008497945964336395,0.005748040042817593,-0.008276794105768204,0.0033754417672753334,0.0,0.007847345434129238
0.008760987780988216,0.005441385321319103,-0.008683125488460064,0.0033621941693127155,0.0,0.007300521247088909
0.008686630986630917,0.0059313648380339146,-0.008271963335573673,0.0029968242160975933,0.0,0.007900631055235863
0.008923862129449844,0.005629475228488445,-0.00809824001044035,0.0029408647678792477,0.0,0.00796605460345745
0.009192551486194134,0.005805566906929016,-0.008451364003121853,0.0031591274309903383,0.0,0.008202415890991688
0.008888485841453075,0.00583157641813159,-0.008356258273124695,0.0034477757290005684,0.0,0.00792915839701891
0.008888485841453075,0.00583157641813159,-0.008356258273124695,0.0034477757290005684,0.0,0.00792915839701891
0.008480661548674107,0.005799195729196072,-0.008095545694231987,0.0036310418508946896,0.0,0.007655013352632523
0.008873936720192432,0.005943984724581242,-0.00813609454780817,0.0037133165169507265,0.0,0.008632712997496128
0.008814357221126556,0.005862867925316095,-0.008481677621603012,0.0035946511197835207,0.0,0.008245758712291718
0.008855551481246948,0.005985930562019348,-0.008499405346810818,0.0032170109916478395,0.0,0.00803700927644968
0.008555939421057701,0.005625128746032715,-0.008393852040171623,0.003088722238317132,0.0,0.007900942116975784
0.008671069517731667,0.005968601442873478,-0.008828964084386826,0.0033743930980563164,0.0,0.0079817995429039
0.009010786190629005,0.0055575077421963215,-0.008669286966323853,0.0031998404301702976,0.0,0.008160126395523548
0.008775070309638977,0.005893534980714321,-0.008813359774649143,0.0032924041152000427,0.0,0.00819745659828186
0.008760493248701096,0.005502063315361738,-0.008345630019903183,0.003314798464998603,0.0,0.0080588823184371
0.00871049240231514,0.005785639863461256,-0.008826930075883865,0.003479921957477927,0.0,0.007922982797026634
0.008455952629446983,0.005640855059027672,-0.008939310908317566,0.003237457014620304,0.0,0.007930093444883823
0.008429329842329025,0.005889902822673321,-0.008053076453506947,0.0030342855025082827,0.0,0.007631443906575441
0.008641200140118599,0.005931150633841753,-0.008484036661684513,0.003021835582330823,0.0,0.008549230173230171
0.008706350810825825,0.005656291730701923,-0.008350339718163013,0.003292712150141597,0.0,0.008298441767692566
0.00845137145370245,0.005758036393672228,-0.008350923657417297,0.0035428947303444147,0.0,0.00818322878330946
0.008491029031574726,0.006187401246279478,-0.008320173248648643,0.0033031157217919827,0.0,0.008452045731246471
0.009043478406965733,0.005969963502138853,-0.008216330781579018,0.0035101163666695356,0.0,0.008487117476761341
0.008554290048778057,0.005824314896017313,-0.008343472145497799,0.0033376936335116625,0.0,0.008242382667958736
0.008634699508547783,0.005913893226534128,-0.008368542417883873,0.0034619488287717104,0.0,0.008238356560468674
0.008561741560697556,0.005771910306066275,-0.00842173583805561,0.003142115194350481,0.0,0.008293711580336094
0.008678075857460499,0.006290340796113014,-0.008348878473043442,0.003075913293287158,0.0,0.008223431184887886
0.008459547534584999,0.005904917139559984,-0.008352791890501976,0.0029822150245308876,0.0,0.007822222076356411
0.00894070602953434,0.005973642226308584,-0.008564943447709084,0.0032608916517347097,0.0,0.008103380911052227
0.00883488915860653,0.005369223654270172,-0.007683636620640755,0.00365953566506505,0.0,0.0081556411460042
0.00883488915860653,0.005369223654270172,-0.007683636620640755,0.00365953566506505,0.0,0.0081556411460042
0.00854298286139965,0.0056457738392055035,-0.008545120246708393,0.003892761655151844,0.0,0.008138375356793404
0.009086313657462597,0.005766864866018295,-0.009339000098407269,0.003503271844238043,0.0,0.007669149432331324
0.009109703823924065,0.005969387479126453,-0.008514782413840294,0.003564452286809683,0.0,0.008224910125136375
0.008498994633555412,0.0058249239809811115,-0.008254173211753368,0.004037599079310894,0.0,0.008067323826253414
0.008562013506889343,0.005528447683900595,-0.008480235002934933,0.004257716238498688,0.0,0.008040627464652061
0.008750488981604576,0.005468917544931173,-0.009098609909415245,0.003590240841731429,0.0,0.007818534038960934
0.009014278650283813,0.005604203790426254,-0.008596673607826233,0.0030399849638342857,0.0,0.007761203218251467
0.008610006421804428,0.006257080007344484,-0.008216330781579018,0.0028794591780751944,0.0,0.007450176868587732
0.009123068302869797,0.006341824308037758,-0.008735291659832,0.00336557743139565,0.0,0.008065255358815193
0.008630797266960144,0.00589649798348546,-0.008714678697288036,0.003751617157831788,0.0,0.0077990321442484856
0.008322499692440033,0.006179098971188068,-0.008366519585251808,0.0039025400765240192,0.0,0.008122367784380913
0.008850929327309132,0.005786080379039049,-0.008529817685484886,0.004016245249658823,0.0,0.007969003170728683
0.00866646971553564,0.0062393746338784695,-0.008739971555769444,0.0035555793438106775,0.0,0.0076547591015696526
0.008709468878805637,0.0058945599012076855,-0.008678602986037731,0.0036828317679464817,0.0,0.007983038201928139
0.008683381602168083,0.006104297004640102,-0.008686920627951622,0.0033682934008538723,0.0,0.008171409368515015
0.008873553946614265,0.005876441020518541,-0.008180315606296062,0.0031364148017019033,0.0,0.008247466757893562
0.008616989478468895,0.005909021012485027,-0.008197815157473087,0.0031906175427138805,0.0,0.008047080598771572
0.008770142681896687,0.006066357716917992,-0.009116223081946373,0.0035611125640571117,0.0,0.007890687324106693
0.008909751661121845,0.005756300874054432,-0.008904845453798771,0.003827169304713607,0.0,0.007637628819793463
0.008443748578429222,0.005687752738595009,-0.008622141554951668,0.0038042848464101553,0.0,0.0074792830273509026
0.008658811450004578,0.005824783816933632,-0.008836299180984497,0.0037818497512489557,-2.1506668872461887e-06,0.007851325906813145
0.008658811450004578,0.005824783816933632,-0.008836299180984497,0.0037818497512489557,-2.1506668872461887e-06,0.007851325906813145
0.009448559023439884,0.006200827192515135,-0.009973650798201561,0.0037300363183021545,-1.4042318241536123e-07,0.007697892840951681
0.008849999867379665,0.006220753770321608,-0.0084867337718606,0.0031793885864317417,-5.986460216433898e-10,0.007399915251880884
0.008645087480545044,0.006094123236835003,-0.00889166072010994,0.0029794415459036827,-3.908730630830526e-11,0.008152279071509838
0.008645087480545044,0.006094123236835003,-0.00889166072010994,0.0029794415459036827,-3.908730630830526e-11,0.008152279071509838
0.008943233639001846,0.006532788276672363,-0.008886856958270073,0.0031367470510303974,-2.5521217084101266e-12,0.007668628357350826
0.008531337603926659,0.006805899553000927,-0.009222225286066532,0.003107548924162984,-1.6663530093535134e-13,0.0073190839029848576
0.008334627375006676,0.005944523494690657,-0.008958959020674229,0.0040740445256233215,-1.0880095855834125e-14,0.007907713763415813
0.00935197900980711,0.005798341240733862,-0.00898229330778122,0.004168538376688957,-7.103923979998744e-16,0.0077294656075537205
0.00865707453340292,0.005875695031136274,-0.008683228865265846,0.00399918295443058,-4.638354404398019e-17,0.007752902340143919
0.008064049296081066,0.0061218999326229095,-0.00943383015692234,0.0034331290517002344,-3.02851419052916e-18,0.0077031636610627174
0.008660024031996727,0.006887221243232489,-0.009011093527078629,0.003122603055089712,-1.9774034301476277e-19,0.0075731296092271805
0.008994566276669502,0.006073457188904285,-0.008642354980111122,0.0030502500012516975,-1.291103081957546e-20,0.007810166105628014
0.008300045505166054,0.005915375426411629,-0.009009083732962608,0.002822721842676401,-8.429980688745014e-22,0.007447666488587856
0.008467665873467922,0.006300497800111771,-0.009507191367447376,0.003154687350615859,-5.504174729806293e-23,0.007348535116761923
0.008801095187664032,0.0061310064047575,-0.009033706970512867,0.0037190222647041082,-3.5938329530075414e-24,0.007171930745244026
0.008961787447333336,0.006553113926202059,-0.008941477164626122,0.003741654334589839,-2.346516312905509e-25,0.0071950312703847885
0.008563837967813015,0.005600753240287304,-0.00916194636374712,0.0036288939882069826,-1.0003567094709017e-27,0.007569545414298773
0.008534710854291916,0.005870175082236528,-0.009253953583538532,0.0037714869249612093,-6.531613859722562e-29,0.007594832219183445
0.008970494382083416,0.006113251205533743,-0.009214216843247414,0.0034050021786242723,-4.264677329980992e-30,0.007476929575204849
0.008664204739034176,0.006389433052390814,-0.009517705999314785,0.0033416517544537783,-2.7845293559397075e-31,0.007412557024508715
0.008648938499391079,0.0064938669092953205,-0.008998194709420204,0.0029199395794421434,-1.8180987619136365e-32,0.007461022585630417
0.008421523496508598,0.005962228402495384,-0.0094938138499856,0.002807839075103402,-1.18708867404773e-33,0.00758901983499527
0.008770246990025043,0.005957419518381357,-0.009472313337028027,0.0032020423095673323,-7.750840685421979e-35,0.008034960366785526
0.009127829223871231,0.006479606963694096,-0.009016654454171658,0.0036328977439552546,-5.060744965932176e-36,0.007986553944647312
0.008148213848471642,0.006012707483023405,-0.009070453234016895,0.004071138333529234,-3.3043048267667427e-37,0.007016405463218689
0.008722111582756042,0.0057958741672337055,-0.009022040292620659,0.004242738243192434,-2.1574747086554822e-38,0.007110347971320152
0.009209944866597652,0.005946800112724304,-0.009049493819475174,0.0036798110231757164,-1.4086763007394872e-39,0.007934315130114555
0.009209944866597652,0.005946800112724304,-0.009049493819475174,0.0036798110231757164,-1.4086763007394872e-39,0.007934315130114555
0.008434454910457134,0.006288953125476837,-0.009439379908144474,0.0031499750912189484,-6.005965218096166e-42,0.006896175444126129
0.008827491663396358,0.006083203945308924,-0.00907205045223236,0.0033121281303465366,-3.923635700109488e-43,0.0066095199435949326
0.008731067180633545,0.005924017168581486,-0.008694896474480629,0.0033616756554692984,-2.5223372357846707e-44,0.007062357384711504
0.008731067180633545,0.005924017168581486,-0.008694896474480629,0.0033616756554692984,-2.5223372357846707e-44,0.007062357384711504
0.008863810449838638,0.006104141939431429,-0.009861757978796959,0.0036119872238487005,-1.401298464324817e-45,0.007472495548427105
0.009767952375113964,0.006309200543910265,-0.008851704187691212,0.0037545554805547,-0.0,0.007408380974084139
0.008094959892332554,0.006152179092168808,-0.008481891825795174,0.003845292143523693,-0.0,0.007231575436890125
0.007909147068858147,0.006354598794132471,-0.009373472072184086,0.003658037632703781,-0.0,0.007216861471533775
0.008700834587216377,0.005724842194467783,-0.009476538747549057,0.003493088996037841,-0.0,0.007224892731755972
0.008876744657754898,0.005448025651276112,-0.008594222366809845,0.0036178187001496553,-0.0,0.00718500604853034
0.008741904981434345,0.005012734327465296,-0.008535366505384445,0.003209718270227313,-0.0,0.007134202867746353
0.00885326974093914,0.00542433699592948,-0.009617687202990055,0.003670226316899061,-0.0,0.007182997651398182
0.009244523011147976,0.005925937555730343,-0.008446834981441498,0.0042198472656309605,-0.0,0.006990591064095497
0.009360909461975098,0.005866452120244503,-0.008533487096428871,0.004378344863653183,-0.0,0.006886676419526339
0.008106013759970665,0.005501371808350086,-0.009286799468100071,0.0040845549665391445,-0.0,0.007268500979989767
0.008616730570793152,0.005753725301474333,-0.008989821188151836,0.0033527116756886244,-0.0,0.007640537805855274
0.008559534326195717,0.005861216690391302,-0.009028034284710884,0.003529878333210945,-0.0,0.007157021202147007
0.008666109293699265,0.00553399370983243,-0.008739154785871506,0.003726817201822996,-0.0,0.006813419982790947
0.009024261496961117,0.005424985662102699,-0.008509866893291473,0.0037372284568846226,-0.0,0.006848659832030535
0.0086190951988101,0.005234481301158667,-0.009021970443427563,0.003664829535409808,-0.0,0.006949520204216242
0.00831620953977108,0.00524241104722023,-0.0093274200335145,0.003649876220151782,-0.0,0.006970557384192944
0.009073592722415924,0.00547866290435195,-0.009069329127669334,0.0036744296085089445,-0.0,0.007214804645627737
0.00847556721419096,0.005500979255884886,-0.00918824877589941,0.0033690333366394043,-0.0,0.007425071205943823
0.008480474352836609,0.005076039582490921,-0.00977141410112381,0.003473767312243581,-0.0,0.006978456396609545
0.008480474352836609,0.005076039582490921,-0.00977141410112381,0.003473767312243581,-0.0,0.006978456396609545
0.009008388966321945,0.005196806043386459,-0.008975614793598652,0.0036988181527704,-0.0,0.006528656464070082
0.00931674987077713,0.00520565127953887,-0.009568437933921814,0.003767751855775714,-0.0,0.006872625555843115
0.00931674987077713,0.00520565127953887,-0.009568437933921814,0.003767751855775714,-0.0,0.006872625555843115
0.008444232866168022,0.005394867621362209,-0.009704086929559708,0.0034592740703374147,-0.0,0.006835496053099632
0.00894845463335514,0.005424236413091421,-0.00921469647437334,0.0034042086917907,-0.0,0.007055731024593115
0.0083857337012887,0.0051596988923847675,-0.00953640230000019,0.004159106872975826,-0.0,0.006902327761054039
0.0083857337012887,0.0051596988923847675,-0.00953640230000019,0.004159106872975826,-0.0,0.006902327761054039
0.008818738162517548,0.005883744452148676,-0.008796666748821735,0.004097356460988522,-0.0,0.0068129184655845165
0.008974632248282433,0.005545063875615597,-0.009439876303076744,0.0036117169074714184,-0.0,0.006435707211494446
0.009093454107642174,0.005961793474853039,-0.0091463103890419,0.0033828557934612036,-0.0,0.0063491091132164
0.008659428916871548,0.00537986820563674,-0.008508183993399143,0.0033998002763837576,-0.0,0.006137763150036335
0.008793344721198082,0.005089769139885902,-0.009713227860629559,0.0035822810605168343,-0.0,0.00652839383110404
0.009260372258722782,0.005660783499479294,-0.00968235358595848,0.003505472559481859,-0.0,0.006705036386847496
0.008452418260276318,0.005207981914281845,-0.008908882737159729,0.003592415014281869,-0.0,0.00657010218128562
0.00898540485650301,0.005514305550605059,-0.009175409562885761,0.003978236112743616,-0.0,0.006467320956289768
0.008708410896360874,0.0049648587591946125,-0.008829306811094284,0.004417795222252607,-0.0,0.006692717783153057
0.008708410896360874,0.0049648587591946125,-0.008829306811094284,0.004417795222252607,-0.0,0.006692717783153057
0.009002221748232841,0.004955352749675512,-0.009466441348195076,0.003923548851162195,-0.0,0.006705327890813351
0.008981913328170776,0.005690516903996468,-0.00940709374845028,0.0035917351488023996,-0.0,0.006452507339417934
0.008714741095900536,0.005462623666971922,-0.009161252528429031,0.004075266886502504,-0.0,0.0066567943431437016
0.009045859798789024,0.005088325589895248,-0.009380512870848179,0.004047003109008074,-0.0,0.0066686468198895454
0.0090617211535573,0.005123105365782976,-0.009036129340529442,0.003918729722499847,-0.0,0.006812741048634052
0.008663540706038475,0.004899702500551939,-0.008606167510151863,0.004315866157412529,-0.0,0.006834737956523895
0.009509600698947906,0.005056414753198624,-0.009438814595341682,0.0041304961778223515,-0.0,0.006556840147823095
0.008947123773396015,0.005435219965875149,-0.00933025497943163,0.0039237202145159245,-0.0,0.006339695304632187
0.008487207815051079,0.005234811455011368,-0.009010245092213154,0.0034125414676964283,-0.0,0.006519883405417204
0.008878260850906372,0.00526923593133688,-0.009597934782505035,0.0038216179236769676,-0.0,0.006679099518805742
0.008878260850906372,0.00526923593133688,-0.009597934782505035,0.0038216179236769676,-0.0,0.006679099518805742
0.009130026213824749,0.005069906823337078,-0.009274918586015701,0.004250996746122837,-0.0,0.006269568111747503
0.008992346934974194,0.004872866906225681,-0.008789995685219765,0.004487273748964071,-0.0,0.00620339997112751
0.008973563089966774,0.005130673758685589,-0.008915684185922146,0.00420699268579483,-0.0,0.006328582763671875
0.009337258525192738,0.005141813773661852,-0.009184659458696842,0.004137622192502022,-0.0,0.006362347397953272
0.008856602013111115,0.004920610226690769,-0.009155851788818836,0.004104192368686199,-0.0,0.006457805633544922
0.00967048853635788,0.0052345190197229385,-0.00893472321331501,0.0038486572448164225,-0.0,0.006373416166752577
0.00897645577788353,0.004579305183142424,-0.009521463885903358,0.0037115351296961308,-0.0,0.006572267971932888
0.009017141535878181,0.004559939261525869,-0.009297562763094902,0.004181539174169302,-0.0,0.006294413469731808
0.008663743734359741,0.004642863757908344,-0.009108594618737698,0.00420672120526433,-0.0,0.006296929903328419
0.009461103938519955,0.004966440610587597,-0.009329011663794518,0.004016081802546978,-0.0,0.005850092973560095
0.010266241617500782,0.004954264499247074,-0.009174341335892677,0.00416097417473793,-0.0,0.005920459516346455
0.009455742314457893,0.005198416765779257,-0.00820935145020485,0.0042179543524980545,-0.0,0.0062158238142728806
0.009684170596301556,0.0049393754452466965,-0.008895407430827618,0.004079500678926706,-0.0,0.006045994348824024
0.009778222069144249,0.004920690320432186,-0.009246984496712685,0.003986743278801441,-0.0,0.006090661510825157
0.009584600105881691,0.005185880232602358,-0.008952674455940723,0.003946209792047739,-0.0,0.006359591148793697
0.01058419980108738,0.005053487606346607,-0.009121442213654518,0.0038917982019484043,-0.0,0.006125767249614
0.009506362490355968,0.005156021099537611,-0.008751274086534977,0.004153581336140633,-0.0,0.005851317197084427
0.01013390813022852,0.005405249074101448,-0.008531642146408558,0.004174648318439722,-0.0,0.006016857456415892
0.009962493553757668,0.005221337545663118,-0.008703000843524933,0.003925495781004429,-0.0,0.00614059017971158
0.009339028038084507,0.005174819380044937,-0.00864324439316988,0.0037215077318251133,-0.0,0.006158378906548023
0.010228661820292473,0.005042828153818846,-0.0089463135227561,0.0037566765677183867,-0.0,0.006171646527945995
0.009823535569012165,0.005269805900752544,-0.009898676536977291,0.0039036504458636045,-0.0,0.006062662228941917
0.009533300064504147,0.005274995230138302,-0.009494706988334656,0.004348872695118189,-0.0,0.005558006931096315
0.010338447988033295,0.005053187720477581,-0.0085557596758008,0.004620179068297148,-0.0,0.0059043713845312595
0.009968564845621586,0.005279242992401123,-0.008612818084657192,0.004440442658960819,-0.0,0.005979267880320549
0.009774530306458473,0.005051278974860907,-0.00884830392897129,0.004518916364759207,-0.0,0.006281435023993254
0.01015427429229021,0.005062310956418514,-0.008746030740439892,0.004294251557439566,-0.0,0.0062446147203445435
0.009692213498055935,0.005388478748500347,-0.009693224914371967,0.0038759331218898296,-0.0,0.00569378025829792
0.009482327848672867,0.0054410770535469055,-0.00946757011115551,0.004114365670830011,-0.0,0.005796963814646006
0.010103846900165081,0.0056161112152040005,-0.007685393560677767,0.004154742229729891,-0.0,0.005662572104483843
0.010103846900165081,0.0056161112152040005,-0.007685393560677767,0.004154742229729891,-0.0,0.005662572104483843
0.010310281999409199,0.005413733422756195,-0.008185680024325848,0.004853291902691126,-0.0,0.006109698675572872
0.00965805072337389,0.005693709012120962,-0.008592156693339348,0.004438762553036213,-0.0,0.0058294497430324554
0.00965805072337389,0.005693709012120962,-0.008592156693339348,0.004438762553036213,-0.0,0.0058294497430324554
0.010052638128399849,0.005702395923435688,-0.008369622752070427,0.003788691246882081,-0.0,0.0055465917102992535
0.009614682756364346,0.00520514277741313,-0.00936241913586855,0.0035036769695580006,-0.0,0.0054027666337788105
0.009785238653421402,0.005304796155542135,-0.008923754096031189,0.003911472391337156,-0.0,0.005614754743874073
0.009143811650574207,0.006051394622772932,-0.009820283390581608,0.003998587839305401,-0.0,0.005564142484217882
0.009143811650574207,0.006051394622772932,-0.009820283390581608,0.003998587839305401,-0.0,0.005564142484217882
0.009948695078492165,0.005286951549351215,-0.009304938837885857,0.004110243171453476,-0.0,0.005682036280632019
0.010302555747330189,0.0048968554474413395,-0.00870582740753889,0.0042635793797671795,-0.0,0.005545990075916052
0.009565815329551697,0.00565491383895278,-0.008979717269539833,0.004398556426167488,-0.0,0.005986559670418501
0.009685947559773922,0.005550744943320751,-0.009407296776771545,0.0041864896193146706,-0.0,0.006207029335200787
0.010109074413776398,0.0060259075835347176,-0.009386963210999966,0.003930828534066677,-0.0,0.005666898097842932
0.009313534013926983,0.006249284837394953,-0.009984618052840233,0.004315807484090328,-0.0,0.005348585546016693
0.009770636446774006,0.005506895948201418,-0.009817592799663544,0.004606356844305992,-0.0,0.005528571084141731
0.009349973872303963,0.0056388238444924355,-0.009942864067852497,0.004329265560954809,-0.0,0.00565500371158123
0.010124806314706802,0.006081640720367432,-0.00960058905184269,0.004243762698024511,-0.0,0.0054323249496519566
0.010170715861022472,0.005584212020039558,-0.00872044637799263,0.004188099876046181,-0.0,0.005376934539526701
0.009628809988498688,0.005719753913581371,-0.010364383459091187,0.004157176241278648,-0.0,0.005179583560675383
0.009892676025629044,0.005359940696507692,-0.010087583214044571,0.004368769004940987,-0.0,0.005794244818389416
0.010037107393145561,0.0059135304763913155,-0.00943938922137022,0.004241456277668476,-0.0,0.005623833741992712
0.010041510686278343,0.005592075176537037,-0.010142126120626926,0.0043151662684977055,-0.0,0.005837345030158758
0.010095624253153801,0.005819864105433226,-0.009895197115838528,0.004307185765355825,-0.0,0.005333912093192339
0.009820381179451942,0.005557522177696228,-0.00943889282643795,0.0045045651495456696,-0.0,0.004990829154849052
0.010108533315360546,0.005443506874144077,-0.010100837796926498,0.004286542534828186,-0.0,0.005083797033876181
0.01018588338047266,0.005539495963603258,-0.009798938408493996,0.004469818901270628,-0.0,0.005400402937084436
0.01018588338047266,0.005539495963603258,-0.009798938408493996,0.004469818901270628,-0.0,0.005400402937084436
0.009742891415953636,0.005499318242073059,-0.009466647170484066,0.004940560087561607,-0.0,0.005635561887174845
0.010054248385131359,0.005586446728557348,-0.010479343123733997,0.004489362705498934,-0.0,0.005226271692663431
0.010054248385131359,0.005586446728557348,-0.010479343123733997,0.004489362705498934,-0.0,0.005226271692663431
0.010100853629410267,0.005637193098664284,-0.009631537832319736,0.004955381620675325,-0.0,0.004933694377541542
0.010100853629410267,0.005637193098664284,-0.009631537832319736,0.004955381620675325,-0.0,0.004933694377541542
0.010233758948743343,0.005413392558693886,-0.010441192425787449,0.004881644621491432,-0.0,0.0053024752996861935
0.009756521321833134,0.005762388929724693,-0.009154602885246277,0.00473371334373951,-0.0,0.0053275516256690025
0.010528502985835075,0.0057361372746527195,-0.009812632575631142,0.004432764835655689,-0.0,0.0049077956937253475
0.010180138051509857,0.005472768098115921,-0.00997165683656931,0.00453628646209836,-0.0,0.004332254640758038
0.009594330564141273,0.005444427486509085,-0.009818215854465961,0.00453131552785635,-0.0,0.004376018885523081
0.010138916783034801,0.0054853507317602634,-0.009986783377826214,0.004630331415683031,-0.0,0.004625182598829269
0.01034900825470686,0.005543885286897421,-0.010366449132561684,0.004751197062432766,-0.0,0.004715400282293558
0.009940085932612419,0.0060646869242191315,-0.009068038314580917,0.004610834643244743,-0.0,0.0047160666435956955
0.01162953581660986,0.005772109143435955,-0.010029385797679424,0.004845994524657726,-1.501670681136602e-06,0.004628190770745277
0.009440221823751926,0.005746451206505299,-0.009859154000878334,0.004770589992403984,-9.804835343629748e-08,0.0043061417527496815
0.009164263494312763,0.005336212459951639,-0.009449231438338757,0.0044109271839261055,-6.401856822435548e-09,0.0044894092716276646
0.010148685425519943,0.005984190851449966,-0.009845566935837269,0.004598766565322876,-2.729211821816957e-11,0.0046044643968343735
0.00969125609844923,0.005880812648683786,-0.009278311394155025,0.005059562157839537,-1.7819803792284983e-12,0.0044585224241018295
0.010695241391658783,0.005543208215385675,-0.009238330647349358,0.004996792413294315,-1.1635058693414135e-13,0.004773957189172506
0.010244100354611874,0.0056754513643682,-0.00949080940335989,0.004793898202478886,-7.596861474037844e-15,0.004437796305865049
0.009868830442428589,0.006146782543510199,-0.009837765246629715,0.004480619449168444,-4.960206939671054e-16,0.0042883181013166904
0.010323122143745422,0.005832907743752003,-0.009245641529560089,0.004838385619223118,-3.238660583201114e-17,0.004266098607331514
0.009963694028556347,0.00585690513253212,-0.009599757380783558,0.004963928367942572,-2.1146140305076043e-18,0.004238116089254618
0.009647710248827934,0.005596306640654802,-0.00978359580039978,0.004598639905452728,-1.3806918798641246e-19,0.0042285071685910225
0.010462548583745956,0.005475989542901516,-0.009298850782215595,0.004884860944002867,-9.014930970681139e-21,0.0045450725592672825
0.0101577527821064,0.005141752772033215,-0.009928734973073006,0.005028769373893738,-5.886105965363498e-22,0.004717915318906307
0.0101577527821064,0.005141752772033215,-0.009928734973073006,0.005028769373893738,-5.886105965363498e-22,0.004717915318906307
0.009812981821596622,0.005063747055828571,-0.009040679782629013,0.005114156287163496,-3.843206952391193e-23,0.004708743188530207
0.010559424757957458,0.00545690068975091,-0.008884801529347897,0.00474628945812583,-2.509339718237261e-24,0.004287593998014927
0.010081904008984566,0.005099954083561897,-0.009385170415043831,0.004830183926969767,-1.6384196034586064e-25,0.004281994421035051
0.010606637224555016,0.0051758731715381145,-0.00963042862713337,0.004879773128777742,-1.069770883933512e-26,0.004113662987947464
0.010325679555535316,0.0050446041859686375,-0.008978280238807201,0.004717610776424408,-6.984839944269672e-28,0.004306570626795292
0.010269391350448132,0.005169374402612448,-0.009605498984456062,0.0052968282252550125,-4.560601205529313e-29,0.004890706855803728
0.010320242494344711,0.005582725629210472,-0.009439876303076744,0.005236806347966194,-2.9777464908589437e-30,0.004709403496235609
0.010517540387809277,0.005200985819101334,-0.008873210288584232,0.004507949110120535,-1.9442556662176852e-31,0.0044933888129889965
0.010812018997967243,0.005146116483956575,-0.009170173667371273,0.0042522624135017395,-1.2694599896807626e-32,0.004039084538817406
0.010431669652462006,0.005104658659547567,-0.008986429311335087,0.00415961816906929,-8.28866688868223e-34,0.004189872648566961
0.01010374166071415,0.004757709335535765,-0.008797760121524334,0.004713118076324463,-5.411907688535544e-35,0.004563253838568926
0.010509936138987541,0.004872454330325127,-0.009479813277721405,0.005026465747505426,-3.533588823982087e-36,0.0044859121553599834
0.01109244767576456,0.00531026441603899,-0.00969924870878458,0.005302805919200182,-2.3071811969489754e-37,0.004540668334811926
0.010625313967466354,0.005226629786193371,-0.009266361594200134,0.005353481974452734,-1.5064242955080041e-38,0.004651034250855446
0.01078504603356123,0.004865574184805155,-0.00919119082391262,0.005105506628751755,-9.83588207691161e-40,0.004546300508081913
0.010980186052620411,0.004648318514227867,-0.009655076079070568,0.005424040369689465,-6.422150862000637e-41,0.004273091442883015
0.01100226305425167,0.004679233767092228,-0.008713573217391968,0.005387249402701855,-2.7325320054333933e-43,0.0042729671113193035
0.011041389778256416,0.0050964318215847015,-0.009255226701498032,0.005573714151978493,-1.8216880036222622e-44,0.004453867208212614
0.010809054598212242,0.005536542274057865,-0.008888925425708294,0.005151607561856508,-1.401298464324817e-45,0.004231031984090805
0.011482318863272667,0.0054300143383443356,-0.009481901302933693,0.005033563822507858,-0.0,0.0043587591499090195
0.011179447174072266,0.005021827761083841,-0.01020385604351759,0.004897545091807842,-0.0,0.004372891969978809
0.011815131641924381,0.004746867809444666,-0.00925095472484827,0.005207859445363283,-0.0,0.004226119723170996
0.01131927128881216,0.004923420026898384,-0.00900473352521658,0.005712962243705988,-0.0,0.004455502610653639
0.010942120105028152,0.005102034658193588,-0.009260443970561028,0.00536471838131547,-0.0,0.004174869041889906
0.011248165741562843,0.0058347187004983425,-0.009302062913775444,0.005082562565803528,-0.0,0.004324338398873806
0.01132236048579216,0.00535878399387002,-0.008986293338239193,0.00499051995575428,-0.0,0.004194286186248064
0.011435156688094139,0.004787208512425423,-0.009475289843976498,0.005245706997811794,-0.0,0.0042763277888298035
0.011355714872479439,0.004842179361730814,-0.009159254841506481,0.005661671049892902,-0.0,0.004056987352669239
0.011127692647278309,0.005185754504054785,-0.008807442151010036,0.006063971668481827,-0.0,0.0038327770307660103
0.011127692647278309,0.005185754504054785,-0.008807442151010036,0.006063971668481827,-0.0,0.0038327770307660103
0.01123159471899271,0.005239591933786869,-0.009055249392986298,0.0055824387818574905,-0.0,0.003778940998017788
0.0111045828089118,0.005355027504265308,-0.0090809166431427,0.005687911529093981,-0.0,0.003773887874558568
0.010917671956121922,0.005005343817174435,-0.008973655290901661,0.005376090295612812,-0.0,0.004129315260797739
0.011626875028014183,0.005083165597170591,-0.008855395019054413,0.005034592933952808,-0.0,0.004099197685718536
0.010990199632942677,0.005281199235469103,-0.00974495429545641,0.005256731994450092,-7.328165520448238e-05,0.004445694386959076
0.011490893550217152,0.005167949479073286,-0.008976198732852936,0.005405717995017767,-8.95488410606049e-05,0.004168285988271236
0.01145877968519926,0.005967269651591778,-0.009006684646010399,0.005906060338020325,-8.893661288311705e-05,0.0036361832171678543
0.011036599054932594,0.005348279140889645,-0.008906325325369835,0.005608105566352606,-8.728705870453268e-05,0.0034105819649994373
0.011831861920654774,0.005474860314279795,-0.008591040968894958,0.005315992049872875,-8.563102892367169e-05,0.0035680190194398165
0.010975150391459465,0.005255843047052622,-0.008892597630620003,0.005293552298098803,-8.403218816965818e-05,0.0033333012834191322
0.011033223010599613,0.0054907724261283875,-0.00902246031910181,0.005159161053597927,-8.249172242358327e-05,0.003457143669947982
0.011329143308103085,0.0055901543237268925,-0.009596060961484909,0.005083530675619841,-8.100675768218935e-05,0.003650244791060686
0.01171968039125204,0.005445925984531641,-0.008923521265387535,0.004931960720568895,-7.957424531923607e-05,0.00371076469309628
0.011357915587723255,0.0051536886021494865,-0.009251789189875126,0.005270923487842083,-7.819157326593995e-05,0.003562804777175188
0.011179188266396523,0.004883631132543087,-0.009279448539018631,0.0055350568145513535,-7.685612217755988e-05,0.003342780051752925
0.011268568225204945,0.005075120832771063,-0.008993507362902164,0.005262328777462244,-7.556549098808318e-05,0.0030366152059286833
0.011208325624465942,0.0050895847380161285,-0.00947804469615221,0.005506329238414764,-7.311008812393993e-05,0.0031811525113880634
0.011784126050770283,0.005289861001074314,-0.008120043203234673,0.005382617935538292,-7.194128556875512e-05,0.0032463932875543833
0.011500882916152477,0.005136589985340834,-0.00870587583631277,0.0049825990572571754,-7.080924115143716e-05,0.0032480896916240454
0.011265521869063377,0.004908028058707714,-0.010134228505194187,0.005181212909519672,-7.657922833459452e-05,0.0033692794386297464
0.01170831173658371,0.0053472695872187614,-0.00936039537191391,0.00558293703943491,-8.191658707801253e-05,0.0033751395530998707
0.011479705572128296,0.005243911407887936,-0.008381105028092861,0.005320319905877113,-8.111060014925897e-05,0.0036115404218435287
0.0121138421818614,0.00583677738904953,-0.00955309346318245,0.005183842033147812,-7.993762847036123e-05,0.0033817568328231573
0.012225833721458912,0.005294763017445803,-0.00950281135737896,0.004946133121848106,-7.877330062910914e-05,0.0031176197808235884
0.01193841639906168,0.004827536176890135,-0.009245218709111214,0.005147324874997139,-7.76408487581648e-05,0.002924790373072028
0.01199190691113472,0.005207210313528776,-0.009593935683369637,0.005450283642858267,-7.654034561710432e-05,0.003149757394567132
0.011565383523702621,0.005284092389047146,-0.009381731040775776,0.005322922486811876,-7.5470597948879e-05,0.003559622447937727
0.011565383523702621,0.005284092389047146,-0.009381731040775776,0.005322922486811876,-7.5470597948879e-05,0.003559622447937727
0.01209004782140255,0.005039919633418322,-0.008976600132882595,0.005468450020998716,-7.443039794452488e-05,0.003114670515060425
0.012104894034564495,0.005262997467070818,-0.009605138562619686,0.005286917090415955,-7.341844320762902e-05,0.0025977345649152994
0.012380396947264671,0.005340704694390297,-0.010206160135567188,0.005698234774172306,-7.243362051667646e-05,0.0025104000233113766
0.011854872107505798,0.005588131491094828,-0.010743155144155025,0.005454569589346647,-7.147492578951642e-05,0.003429475473240018
0.011512835510075092,0.005283741746097803,-0.010509451851248741,0.005728882271796465,-8.152025111485273e-05,0.003478276776149869
0.012148630805313587,0.0049831448122859,-0.009966792538762093,0.005932088941335678,-8.118608093354851e-05,0.0031027751974761486
0.011849603615701199,0.005175716709345579,-0.01000120397657156,0.005537752062082291,-8.019937376957387e-05,0.0026567569002509117
0.012369198724627495,0.005223241169005632,-0.010632329620420933,0.005500002298504114,-7.919426570879295e-05,0.002601561602205038
0.012567670084536076,0.005113787949085236,-0.010342078283429146,0.005427338648587465,-7.821132021490484e-05,0.002822339767590165
0.012047268450260162,0.00524345226585865,-0.01104263961315155,0.005616181995719671,-7.725227624177933e-05,0.002922476502135396
0.01203172653913498,0.004925386048853397,-0.011623107828199863,0.00622818386182189,-7.631650805706158e-05,0.002803990850225091
0.011688933707773685,0.005414177663624287,-0.01038401946425438,0.005759818945080042,-7.540309161413461e-05,0.0028390465304255486
0.012504699639976025,0.005324166733771563,-0.010023403912782669,0.005777647718787193,-7.451129204127938e-05,0.0030406236182898283
0.012512083165347576,0.005038336850702763,-0.010613545775413513,0.005911407060921192,-7.364036719081923e-05,0.0028216461651027203
0.012269552797079086,0.005102023482322693,-0.010041390545666218,0.005898338742554188,-8.250114478869364e-05,0.0030037560500204563
0.011896991170942783,0.004839520435780287,-0.011014735326170921,0.00556943891569972,-8.130626520141959e-05,0.0028181697707623243
0.01251822616904974,0.005433025769889355,-0.01002260111272335,0.0052370429039001465,-8.040105603868142e-05,0.002766398247331381
0.012446941807866096,0.005297936964780092,-0.0102357417345047,0.0054091098718345165,-7.951332372613251e-05,0.002640598453581333
0.012558368034660816,0.005324427038431168,-0.01045507937669754,0.005970044992864132,-5.1916517804784235e-06,0.0027437752578407526
0.012234559282660484,0.005078154616057873,-0.010050110518932343,0.0058705806732177734,-3.3897774187607865e-07,0.002728861989453435
0.012683048844337463,0.004830668680369854,-0.01090867817401886,0.005713021382689476,-2.2132825350240637e-08,0.00252381619066
0.012516024522483349,0.0046961246989667416,-0.0111167524009943,0.0054099829867482185,-6.685568223474547e-05,0.0026499268133193254
0.012291386723518372,0.004779936745762825,-0.009992864914238453,0.005764487199485302,-9.316334762843326e-05,0.002660770434886217
0.01264108158648014,0.0053724609315395355,-0.010173885151743889,0.005834159441292286,-9.304519335273653e-05,0.0027334901969879866
0.012522298842668533,0.005163389258086681,-0.010243013501167297,0.006041926797479391,-9.127600060310215e-05,0.0025599077343940735
0.012605393305420876,0.00464452151209116,-0.010101809166371822,0.006048103328794241,-8.946887828642502e-05,0.0025046025402843952
0.012605393305420876,0.00464452151209116,-0.010101809166371822,0.006048103328794241,-8.946887828642502e-05,0.0025046025402843952
0.01267208717763424,0.004592301324009895,-0.010855705477297306,0.0056306724436581135,-8.772516594035551e-05,0.0025667313020676374
0.012679964303970337,0.0047047073021531105,-0.010246409103274345,0.00595952570438385,-9.881724690785632e-05,0.002500795526430011
0.013012340292334557,0.005246248561888933,-0.010835343040525913,0.005824931897222996,-0.00010102994565386325,0.002578482497483492
0.012637479230761528,0.00554629834368825,-0.010409624315798283,0.006097450852394104,-9.943483746610582e-05,0.002382641891017556
0.012963035143911839,0.005050314124673605,-0.009993178769946098,0.006091763265430927,-9.765392314875498e-05,0.00238681654445827
0.012437776662409306,0.00453422823920846,-0.010631910525262356,0.005976563785225153,-9.59204335231334e-05,0.0022391376551240683
0.013132785446941853,0.0048630256205797195,-0.010422543622553349,0.006062691565603018,-9.424637391930446e-05,0.0021288814023137093
0.012710991315543652,0.004974913317710161,-0.009929153136909008,0.006328779272735119,-9.262968524126336e-05,0.0020472195465117693
0.012924740090966225,0.0048650032840669155,-0.010598360560834408,0.0063379863277077675,-0.00010233403736492619,0.001966138370335102
0.012615786865353584,0.004990655463188887,-0.010473588481545448,0.006289409939199686,-0.00010422801278764382,0.002030812669545412
0.013129238970577717,0.005417825188487768,-0.009799843654036522,0.0062314607203006744,-0.00010276214015902951,0.0020111813209950924
0.013405729085206985,0.0050020888447761536,-0.010334513150155544,0.006142620928585529,-0.00010112794552696869,0.0021550916135311127
0.01276203989982605,0.004686060361564159,-0.010596813634037971,0.005534181371331215,-9.953123662853613e-05,0.002086683176457882
0.013351705856621265,0.004690749105066061,-0.009879137389361858,0.007073681335896254,-9.798330574994907e-05,0.001908808946609497
0.013018783181905746,0.004726549610495567,-0.010225036181509495,0.007015512324869633,-9.648268314776942e-05,0.0017606791807338595
0.01309715211391449,0.004819158464670181,-0.010220370255410671,0.006348966155201197,-0.00010682913853088394,0.0016679652035236359
0.013144350610673428,0.005588521249592304,-0.010105063207447529,0.006223494652658701,-0.00010687312169466168,0.0016477779718115926
0.013440878130495548,0.005260062869638205,-0.010623370297253132,0.0066046277061104774,-0.00010541479423409328,0.0016004119534045458
0.013210372067987919,0.004805176053196192,-0.009853330440819263,0.006313790567219257,-0.00010390058741904795,0.001915283384732902
0.013247236609458923,0.0047141388058662415,-0.010376542806625366,0.005733158439397812,-0.0001009864718071185,0.002100663725286722
0.013075677677989006,0.005299839656800032,-0.009956613183021545,0.005848134867846966,-0.00013495552411768585,0.0018551680259406567
0.01329407561570406,0.005589778069406748,-0.010887142270803452,0.006467526312917471,-0.00016359369328711182,0.0016515216557309031
0.013163567520678043,0.004774704109877348,-0.010353353805840015,0.0065480186603963375,-0.00015996964066289365,0.001603882061317563
0.01344816293567419,0.004437916446477175,-0.010143034160137177,0.005897779483348131,-0.00015461580187547952,0.001485631917603314
0.013374097645282745,0.004471142776310444,-0.010526923462748528,0.005842424929141998,-0.00014948823081795126,0.0015241408254951239
0.01377942506223917,0.004716037306934595,-0.010434696450829506,0.00609813304618001,-0.00014468202425632626,0.0014525761362165213
0.013382003642618656,0.0048408471047878265,-0.009702113457024097,0.006749716587364674,-0.0001401747576892376,0.0015934237744659185
0.013840067200362682,0.004936354700475931,-0.011086556129157543,0.0067080603912472725,-0.00013593985931947827,0.0015913527458906174
0.013306892476975918,0.004800903145223856,-0.010228537023067474,0.006356318015605211,-0.00015656871255487204,0.0015313166659325361
0.013776103965938091,0.004720941185951233,-0.00935403909534216,0.006054831203073263,-0.00015371674089692533,0.0016023818170651793
0.013776103965938091,0.004720941185951233,-0.00935403909534216,0.006054831203073263,-0.00015371674089692533,0.0016023818170651793
0.01367582380771637,0.004223641008138657,-0.010370614938437939,0.006486110854893923,-0.00014956385712139308,0.0015136203728616238
0.013768836855888367,0.004301413428038359,-0.010140296071767807,0.006702594459056854,-0.0001455394085496664,0.0013726940378546715
0.013590747490525246,0.004325395915657282,-0.009651695378124714,0.0064736781641840935,-0.00014171999646350741,0.0012744871200993657
0.013840604573488235,0.004387336317449808,-0.010475914925336838,0.006272666621953249,-0.00013809555093757808,0.0011349298292770982
0.01368339080363512,0.004789880011230707,-0.009920679964125156,0.006507223006337881,-0.00013465188385453075,0.0010225677397102118
0.014086848124861717,0.004703186452388763,-0.009722776710987091,0.007186579052358866,-0.00015039081335999072,0.0009915393311530352
0.013970269821584225,0.004693798720836639,-0.01071755588054657,0.00660697603598237,-0.00014944313443265855,0.0008467900333926082
0.014454582706093788,0.004782774485647678,-0.010091446340084076,0.006210852414369583,-0.0001461473439121619,0.0008356781909242272
0.014424752444028854,0.004362128674983978,-0.009984341450035572,0.006092066876590252,-0.00014284472854342312,0.0008515851222909987
0.0144671481102705,0.004567275755107403,-0.010218700394034386,0.006569071672856808,-0.00013967826089356095,0.0008649434894323349
0.01401019562035799,0.004770790692418814,-0.009993098676204681,0.007315848954021931,-0.0001366486249025911,0.001111387275159359
0.01436129305511713,0.004847015254199505,-0.010503189638257027,0.0069589391350746155,-0.00013374746777117252,0.0011109131155535579
0.014169283211231232,0.004440908320248127,-0.010928395204246044,0.006393006537109613,-0.00013096693146508187,0.0010904789669439197
0.014303303323686123,0.004005745053291321,-0.010076240636408329,0.006394081749022007,-0.00014422392996493727,0.0011203298345208168
0.014677532948553562,0.004192361608147621,-0.010926948860287666,0.0071474420838057995,-0.0001408794487360865,0.0010297518456354737
0.014909585937857628,0.00443112850189209,-0.01004849374294281,0.006909672636538744,-0.0001381849724566564,0.0009768838062882423
0.0148473447188735,0.004553655628114939,-0.010605345480144024,0.006341360509395599,-0.00013558330829255283,0.0009102595504373312
0.014457499608397484,0.004857392515987158,-0.010531885549426079,0.006531023886054754,-0.00013307729386724532,0.0007914831512607634
0.014581842347979546,0.0046595619060099125,-0.011363542638719082,0.0069166989997029305,-0.00013066219980828464,0.0007378074806183577
0.014465116895735264,0.004225482232868671,-0.011155150830745697,0.007173026911914349,-0.0001284886966459453,0.0006984739447943866
0.014931858517229557,0.0039055547676980495,-0.011007011868059635,0.006947045214474201,-0.0001433875149814412,0.0007106242701411247
0.014849931001663208,0.004258221946656704,-0.01034356839954853,0.0065038176253438,-0.00014016206841915846,0.0007174393394961953
0.014849931001663208,0.004258221946656704,-0.01034356839954853,0.0065038176253438,-0.00014016206841915846,0.0007174393394961953
0.014847218059003353,0.004079537466168404,-0.010746599175035954,0.007059222552925348,-0.00013600662350654602,0.0006720870733261108
0.015008163638412952,0.004457657225430012,-0.010266073979437351,0.006938173435628414,-0.00013202137779444456,0.0006938920705579221
0.015408246777951717,0.004682786297053099,-0.01081994827836752,0.007145409472286701,-0.00012825854355469346,0.0006140893092378974
0.014222669415175915,0.004230314400047064,-0.010820804163813591,0.007018066942691803,-0.00014318204193841666,0.0005410710000433028
0.014884577132761478,0.004100336693227291,-0.01062921341508627,0.00719739543274045,-0.00014518741227220744,0.0004829512909054756
0.014813503250479698,0.004162265453487635,-0.011003795079886913,0.007405102718621492,-0.00014175818068906665,0.0004360803868621588
0.015173285268247128,0.004454029258340597,-0.010423796251416206,0.0069341836497187614,-0.0001381564507028088,0.0004713158996310085
0.01489743497222662,0.004579509608447552,-0.010317756794393063,0.006417944096028805,-0.00013471118290908635,0.0004378872981760651
0.01567431539297104,0.004780130460858345,-0.011021314188838005,0.006584249436855316,-0.00015187168901320547,0.00040530908154323697
0.015352475456893444,0.00448702834546566,-0.010534003376960754,0.006989259738475084,-0.00014959825784899294,0.0003770108742173761
0.01567866839468479,0.00430433452129364,-0.010889438912272453,0.006951269693672657,-0.00014621335139963776,0.0003809393965639174
0.015009518712759018,0.004021261818706989,-0.010753999464213848,0.0071765221655368805,-0.00014290239778347313,0.00038395702722482383
0.015769019722938538,0.003955271560698748,-0.01067429967224598,0.006926020607352257,-0.00015836194506846368,0.0003635127213783562
0.015513058751821518,0.004778488539159298,-0.011437583714723587,0.007240829057991505,-0.00015614285075571388,0.00034378113923594356
0.015443992801010609,0.004440448246896267,-0.010583511553704739,0.007257344666868448,-0.00020767284149769694,0.00032599203404970467
0.015649478882551193,0.004489630926400423,-0.010613279417157173,0.007290657609701157,-0.0002479178656358272,0.00030994939152151346
0.015644120052456856,0.004390424583107233,-0.011310293339192867,0.006716303993016481,-0.00023817560577299446,0.0002954116789624095
0.015381286852061749,0.004394439049065113,-0.010999332182109356,0.007085395511239767,-0.00025573259335942566,0.0002700772020034492
0.015908176079392433,0.004238623194396496,-0.011035636067390442,0.00684861047193408,-0.00024666820536367595,0.0002589724608696997
0.01549906749278307,0.0045105149038136005,-0.010706990025937557,0.006799088791012764,-0.00023605419846717268,0.000248745025601238
0.016122372820973396,0.00455154525116086,-0.011324905790388584,0.0067451163195073605,-0.0002261764311697334,0.00023929562303237617
0.015869496390223503,0.004432848189026117,-0.01089703943580389,0.007322651334106922,-0.00024382803530897945,0.00023053711629472673
0.015999173745512962,0.004523076117038727,-0.010769209824502468,0.007845637388527393,-0.00024285749532282352,0.00022239790996536613
0.01567852310836315,0.004445768892765045,-0.011168942786753178,0.007382248993963003,-0.0002343729283893481,0.00021481388830579817
0.01596735417842865,0.0044537135399878025,-0.010753985494375229,0.0079854940995574,-0.0002259998582303524,0.00020772985590156168
0.01589467003941536,0.004669772461056709,-0.011131283827126026,0.007879121229052544,-0.00024723418755456805,0.00020109819888602942
0.01589467003941536,0.004669772461056709,-0.011131283827126026,0.007879121229052544,-0.00024723418755456805,0.00020109819888602942
0.01586844027042389,0.00451267696917057,-0.010900747962296009,0.007701811380684376,-0.00024085828044917434,0.00019487734243739396
0.016134928911924362,0.005075985100120306,-0.011036558076739311,0.0075432606972754,-0.00023318050079979002,0.00018902971351053566
0.015500156208872795,0.005056068301200867,-0.012598566710948944,0.008110016584396362,-0.00027747947024181485,0.00018352243932895362
0.016542552039027214,0.004819289315491915,-0.011376099660992622,0.007989070378243923,-0.00027755770133808255,0.00017832728917710483
0.0161953866481781,0.004287649877369404,-0.011581129394471645,0.007848026230931282,-0.00026248820358887315,0.00017341828788630664
0.016209466382861137,0.0044126976281404495,-0.011991762556135654,0.007562434300780296,-0.00024808436864987016,0.00016877235611900687
0.015909992158412933,0.004917331039905548,-0.011233889497816563,0.007969753816723824,-0.00023512193001806736,0.00016436872829217464
0.016154831275343895,0.004907711874693632,-0.012381779961287975,0.00804727990180254,-0.0002234441344626248,0.00016018928727135062
0.016313467174768448,0.005317866336554289,-0.01140690315514803,0.008035270497202873,-0.00024430264602415264,7.907891267677769e-05
0.016018683090806007,0.005075748544186354,-0.012050813995301723,0.0072207036428153515,-0.00024317637144122273,5.2341478294692934e-05
0.01631717011332512,0.004820339381694794,-0.012163989245891571,0.007091464474797249,-0.0002333139709662646,4.9309041060041636e-05
0.01594471000134945,0.004692341201007366,-0.011211255565285683,0.0072611793875694275,-0.000223689348786138,3.6134217225480825e-05
0.016265373677015305,0.005270312540233135,-0.0120896240696311,0.007978166453540325,-0.00021479249699041247,2.4118004148476757e-05
0.016257161274552345,0.0050268517807126045,-0.011594622395932674,0.008337840437889099,-0.00023866607807576656,2.2784839529776946e-05
0.016542948782444,0.004819649737328291,-0.012322499416768551,0.008243842050433159,-0.00023197033442556858,2.217621477029752e-05
0.01657916232943535,0.00495005352422595,-0.011798041872680187,0.008470608852803707,-0.00022386264754459262,1.4479484207186033e-06
0.016044968739151955,0.004793297965079546,-0.011771921999752522,0.008599839173257351,-0.0002161888696718961,9.454068816694416e-08
0.016199881210923195,0.0046080066822469234,-0.012119845487177372,0.009032350964844227,-0.00023021003289613873,4.0304176662786517e-10
0.01660306565463543,0.004744959529489279,-0.012068042531609535,0.008568103425204754,-0.0002239453315269202,2.631574819167426e-11
0.01654156856238842,0.004927319008857012,-0.011828942224383354,0.007746972609311342,-0.0002172456297557801,1.7182303756885231e-12
0.016732634976506233,0.004952216055244207,-0.012170079164206982,0.008052193559706211,-0.00021127804939169437,-0.000939794525038451
0.017303448170423508,0.00499795563519001,-0.012401743791997433,0.007771889679133892,-0.00021955328702460974,-0.001126541756093502
0.01671443320810795,0.004834849387407303,-0.011965522542595863,0.007806888781487942,-0.00021049712086096406,-0.0010882362257689238
0.016979943960905075,0.0043798345141112804,-0.01220343355089426,0.007546551525592804,-0.00023088212765287608,-0.0009444554452784359
0.016417527571320534,0.004505220800638199,-0.01158796064555645,0.007731049787253141,-0.00023038459767121822,-0.0009074922418221831
0.016624579206109047,0.004585672169923782,-0.012276675552129745,0.008038489148020744,-0.00022154308680910617,-0.0008326308452524245
0.016588477417826653,0.005120203830301762,-0.012361044995486736,0.008140201680362225,-0.00024591339752078056,-0.0008993888041004539
0.016995685175061226,0.005053323693573475,-0.012316455133259296,0.00778298219665885,-0.00023875079932622612,-0.0013955533504486084
0.017037183046340942,0.00468004634603858,-0.012773426249623299,0.008164558559656143,-0.00023016813793219626,-0.0020058928057551384
0.01696600951254368,0.004725147038698196,-0.012102271430194378,0.008157636970281601,-0.00025163934333249927,-0.0023838221095502377
0.016928812488913536,0.004827301483601332,-0.012811828404664993,0.008373560383915901,-0.0003445983456913382,-0.002260999521240592
0.016668038442730904,0.004929201677441597,-0.012085787020623684,0.0088728042319417,-0.00040707457810640335,-0.0017716659931465983
0.017068421468138695,0.004964007064700127,-0.012812080793082714,0.008210128173232079,-0.00044433935545384884,-0.001457964419387281
0.017068421468138695,0.004964007064700127,-0.012812080793082714,0.008210128173232079,-0.00044433935545384884,-0.001457964419387281
0.017402250319719315,0.005140985362231731,-0.012516106478869915,0.00834305677562952,-0.0004530317091848701,-0.001355333486571908
0.017200607806444168,0.004876531660556793,-0.012421132065355778,0.008553972467780113,-0.00045206103823147714,-0.0013222210109233856
0.01711614988744259,0.004698782227933407,-0.01250868383795023,0.008507635444402695,-0.00047602230915799737,-0.0015543607296422124
0.016888564452528954,0.004964062012732029,-0.011966519989073277,0.008669682778418064,-0.00045556810800917447,-0.0025534057058393955
0.01724136620759964,0.004864476155489683,-0.012732281349599361,0.008473493158817291,-0.0006230443250387907,-0.003253038041293621
0.01672431267797947,0.004838104359805584,-0.012393845245242119,0.008753647096455097,-0.0005605726619251072,-0.0028798161074519157
0.01696822978556156,0.004922803491353989,-0.012785295024514198,0.008739873766899109,-0.0005917929811403155,-0.0027292065788060427
0.01738554798066616,0.004766408354043961,-0.012044419534504414,0.008859796449542046,-0.0005387899000197649,-0.002274468308314681
0.01746322773396969,0.004694707691669464,-0.013514873571693897,0.008465822786092758,-0.0004902170039713383,-0.0021024029701948166
0.016273923218250275,0.004536305088549852,-0.013133636675775051,0.008654419332742691,-0.0005139815621078014,-0.002286613220348954
0.017583053559064865,0.004801622126251459,-0.01264521386474371,0.008801006712019444,-0.00048054312355816364,-0.003311553504317999
0.017735745757818222,0.004862894304096699,-0.012038526125252247,0.00943374540656805,-0.0004772574466187507,-0.003122625406831503
0.017633119598031044,0.0045556495897471905,-0.012954827398061752,0.009384065866470337,-0.0004493298474699259,-0.0031225280836224556
0.0178556926548481,0.004974992014467716,-0.012434269301593304,0.009225264191627502,-0.00042303925147280097,-0.0027531262021511793
0.017771853134036064,0.004851426929235458,-0.012945824302732944,0.009054629132151604,-0.00038030865835025907,-0.0024795287754386663
0.017482711002230644,0.004389993846416473,-0.012995537370443344,0.00851501990109682,-0.00034910617978312075,-0.00259305234067142
0.01828637532889843,0.0044530099257826805,-0.012814191170036793,0.008700105361640453,-0.0003238528734073043,-0.0033479256089776754
0.018292441964149475,0.004448992200195789,-0.012688502669334412,0.008702668361365795,-0.00035428948467597365,-0.0041274819523096085
0.01822187565267086,0.004416563548147678,-0.012360895052552223,0.00906414445489645,-0.0003391538339201361,-0.004770435392856598
0.018391216173768044,0.004858313128352165,-0.01310214214026928,0.008684608153998852,-0.00031954169389791787,-0.004381089936941862
0.01812535524368286,0.004809217061847448,-0.012746336869895458,0.008717833086848259,-0.0003262146492488682,-0.003934509586542845
0.018174748867750168,0.004507077392190695,-0.013295640237629414,0.008960678242146969,-0.0003316825022920966,-0.0034860982559621334
0.01858457736670971,0.004400975536555052,-0.012608358636498451,0.008710348047316074,-0.0003164966474287212,-0.0033528662752360106
0.018405552953481674,0.004706851672381163,-0.0128738759085536,0.009340121410787106,-0.00030144519405439496,-0.00416689645498991
0.018625663593411446,0.00481726648285985,-0.012813471257686615,0.009683777578175068,-0.00028768315678462386,-0.004661012906581163
0.018526772037148476,0.0043811071664094925,-0.013032856397330761,0.009386224672198296,-0.00031173694878816605,-0.004918789025396109
0.018408913165330887,0.00447222450748086,-0.013261542655527592,0.00856815092265606,-0.0003010868385899812,-0.004442854784429073
0.018408913165330887,0.00447222450748086,-0.013261542655527592,0.00856815092265606,-0.0003010868385899812,-0.004442854784429073
0.01892034150660038,0.004547782242298126,-0.012620121240615845,0.009116549044847488,-0.00028914856375195086,-0.004317704122513533
0.01884756051003933,0.004744999576359987,-0.013016939163208008,0.009421088732779026,-0.0002910780312959105,-0.0040926262736320496
0.018510354682803154,0.004678645171225071,-0.012453398667275906,0.009520948864519596,-0.0002861608227249235,-0.004677030257880688
0.01911250688135624,0.004725846461951733,-0.013336467556655407,0.009274670854210854,-0.00026988095487467945,-0.005106219090521336
0.01914399117231369,0.00447186129167676,-0.012584115378558636,0.009516417048871517,-0.00029219978023320436,-0.005019733216613531
0.018648162484169006,0.004299195017665625,-0.01332149188965559,0.008729752153158188,-0.00028834855766035616,-0.004750351887196302
0.019197961315512657,0.00413309782743454,-0.01290157064795494,0.009501881897449493,-0.00027445825980976224,-0.004676499404013157
0.01920042186975479,0.0043798210099339485,-0.013117680326104164,0.009283930994570255,-0.0002612272510305047,-0.005204096902161837
0.018707001581788063,0.004594474099576473,-0.013171902857720852,0.009430664591491222,-0.0002851454773917794,-0.004556304309517145
0.019261401146650314,0.004181439522653818,-0.012759172357618809,0.009546673856675625,-0.00027751538436859846,-0.004799677059054375
0.019154485315084457,0.004380958620458841,-0.012891585007309914,0.009433791972696781,-0.00026611294015310705,-0.00536577170714736
0.019417671486735344,0.00413924315944314,-0.013415222056210041,0.009543086402118206,-0.000280138774542138,-0.005342923570424318
0.019341599196195602,0.003953460603952408,-0.013009527698159218,0.009974999353289604,-0.00026991870254278183,-0.004951499868184328
0.018891148269176483,0.004333088174462318,-0.013259186409413815,0.0096375597640872,-0.0003209648421034217,-0.004526345990598202
0.0194241926074028,0.004591336008161306,-0.01280286069959402,0.009366260841488838,-0.0003186723333783448,-0.005269255954772234
0.019260741770267487,0.004598235245794058,-0.013566093519330025,0.009577043354511261,-0.00029882401577197015,-0.0054780845530331135
0.01910880021750927,0.004451611079275608,-0.013295508921146393,0.009469355456531048,-0.00033244313090108335,-0.005849459208548069
0.019758285954594612,0.004346500616520643,-0.013439327478408813,0.009990022517740726,-0.000316366262268275,-0.0057252454571425915
0.019934946671128273,0.004387653432786465,-0.013428719714283943,0.009845355525612831,-0.0003422428562771529,-0.005156343337148428
0.019558891654014587,0.004069270100444555,-0.013484724797308445,0.009281766600906849,-0.00033023193827830255,-0.005193379707634449
0.019994212314486504,0.004400443751364946,-0.013816814869642258,0.009190114215016365,-0.0003472060489002615,-0.005177746526896954
0.019487446174025536,0.004694357514381409,-0.013377799652516842,0.009753784164786339,-0.0003412252990528941,-0.005449966061860323
0.019161062315106392,0.004415198694914579,-0.01379256509244442,0.009898177348077297,-0.0004615806683432311,-0.005921034142374992
0.02014297991991043,0.004431307315826416,-0.013116255402565002,0.009526722133159637,-0.0005014466005377471,-0.006042367313057184
0.020508471876382828,0.004442690405994654,-0.01388903334736824,0.009643948636949062,-0.0004781514871865511,-0.005926036741584539
0.02005864679813385,0.004207977093756199,-0.013531524688005447,0.01006691250950098,-0.0005037967348471284,-0.005583871155977249
0.019648946821689606,0.004028602968901396,-0.013992508873343468,0.009276044555008411,-0.0005073615466244519,-0.005501097533851862
0.020382985472679138,0.004589434713125229,-0.013463933952152729,0.009502146393060684,-0.0006445930921472609,-0.005555619020015001
0.02048618532717228,0.004767721053212881,-0.014140571467578411,0.009473130106925964,-0.0007487651892006397,-0.006026036571711302
0.02048618532717228,0.004767721053212881,-0.014140571467578411,0.009473130106925964,-0.0007487651892006397,-0.006026036571711302
0.020541731268167496,0.004537028260529041,-0.013466253876686096,0.009343291632831097,-0.0008037451771087945,-0.005987655837088823
0.021114740520715714,0.004244078882038593,-0.014228573068976402,0.009045853279531002,-0.0008311867713928223,-0.006329560652375221
0.020995888859033585,0.0043382951989769936,-0.01396903209388256,0.00953915435820818,-0.0007584394770674407,-0.006305689923465252
0.020326117053627968,0.004201625473797321,-0.014519521966576576,0.00954776257276535,-0.0008748802356421947,-0.006473971996456385
0.020061053335666656,0.004429662600159645,-0.013817889615893364,0.0103759178891778,-0.0008743483340367675,-0.006586569361388683
0.020630722865462303,0.004334458615630865,-0.014654787257313728,0.010978840291500092,-0.0007680588169023395,-0.006590633653104305
0.021359460428357124,0.004559262190014124,-0.01424260064959526,0.010387694463133812,-0.0007694152882322669,-0.006879749707877636
0.020892132073640823,0.004149226471781731,-0.014733494259417057,0.010715055279433727,-0.0006972673581913114,-0.006923933979123831
0.02118813432753086,0.004222196061164141,-0.01420439314097166,0.010257244110107422,-0.0007117456407286227,-0.006603069603443146
0.02108791470527649,0.00428237346932292,-0.014146741479635239,0.010309059172868729,-0.0005806371918879449,-0.006742492783814669
0.021160664036870003,0.004018812440335751,-0.014690934680402279,0.010714548639953136,-0.0006101690814830363,-0.006595393177121878
0.021353377029299736,0.0038787841331213713,-0.014224732294678688,0.010377191938459873,-0.0006212835432961583,-0.007303353399038315
0.021385924890637398,0.0044158087112009525,-0.014948325231671333,0.010712389834225178,-0.0006249841535463929,-0.007071046624332666
0.021224135532975197,0.004647464957088232,-0.014106662943959236,0.01043662242591381,-0.0006100908503867686,-0.006430597510188818
0.020969346165657043,0.004665250424295664,-0.01500591542571783,0.01059607695788145,-0.0005876564537175,-0.006896705832332373
0.021538110449910164,0.004675743635743856,-0.014130908995866776,0.010454271920025349,-0.0006511755636893213,-0.00706404959782958
0.02169063687324524,0.004178997129201889,-0.01467920746654272,0.010157455690205097,-0.0006763546844013035,-0.007354303263127804
0.02193346619606018,0.00441032275557518,-0.014444679021835327,0.010735861025750637,-0.0006134839495643973,-0.0074827098287642
0.02193346619606018,0.00441032275557518,-0.014444679021835327,0.010735861025750637,-0.0006134839495643973,-0.0074827098287642
0.02182137593626976,0.004128041211515665,-0.015444054268300533,0.011095917783677578,-0.0006369058974087238,-0.007099858485162258
0.02179998718202114,0.004421943332999945,-0.014947832562029362,0.010326314717531204,-0.0005834800540469587,-0.007247790694236755
0.02162579819560051,0.004530052188783884,-0.014490786008536816,0.010543235577642918,-0.0006051995442248881,-0.007398947607725859
0.021954696625471115,0.004658686462789774,-0.014173700474202633,0.010185626335442066,-0.0006176734459586442,-0.006925452034920454
0.02196398377418518,0.004585781134665012,-0.015200579538941383,0.00990799069404602,-0.0005624497425742447,-0.006904570385813713
0.022016823291778564,0.004245562478899956,-0.014150832779705524,0.010547126643359661,-0.0005940329283475876,-0.0068825059570372105
0.022295456379652023,0.004400326404720545,-0.01453887578099966,0.010122140869498253,-0.0005406505661085248,-0.007234508637338877
0.022129109129309654,0.0041725970804691315,-0.013747669756412506,0.009800933301448822,-0.0005623535253107548,-0.007760412525385618
0.02209417335689068,0.004115079529583454,-0.014404377900063992,0.01026852335780859,-0.0005250697140581906,-0.007676367182284594
0.02222277782857418,0.0042024040594697,-0.014243361540138721,0.01082318089902401,-0.000536126084625721,-0.007546748034656048
0.022381242364645004,0.004495295695960522,-0.015087956562638283,0.011134084314107895,-0.0005136996041983366,-0.008047586306929588
0.02227030135691166,0.004584741313010454,-0.014507193118333817,0.01105506345629692,-0.00048044073628261685,-0.007847392000257969
0.02210012450814247,0.004530132282525301,-0.014750397764146328,0.011057714000344276,-0.00047147466102615,-0.007719514425843954
0.02204432524740696,0.004341533407568932,-0.014271148480474949,0.011553910560905933,-0.00043454946717247367,-0.00756841478869319
0.022447338327765465,0.004072902258485556,-0.01496729627251625,0.011502167209982872,-0.00039676009328104556,-0.008137715049088001
0.022860318422317505,0.003988286480307579,-0.01485052052885294,0.01108417846262455,-0.00036997045390307903,-0.007607481442391872
0.022334309294819832,0.004390856251120567,-0.014213592745363712,0.010496082715690136,-0.0003742162953130901,-0.008204606361687183
0.02298332378268242,0.004529048688709736,-0.014596032910048962,0.01017899438738823,-0.00035178413963876665,-0.008468057960271835
0.022547943517565727,0.004002480302006006,-0.014216713607311249,0.0103767653927207,-0.0003303806879557669,-0.0082060182467103
0.021821707487106323,0.00375106162391603,-0.014770977199077606,0.010145336389541626,-0.00031133060110732913,-0.008166828192770481
0.023464884608983994,0.00409528985619545,-0.014491437934339046,0.010789493098855019,-0.0002943545114248991,-0.008467880077660084
0.02316087856888771,0.00426287529990077,-0.01510959304869175,0.01135922223329544,-0.0003224512911401689,-0.008689426816999912
0.02248237654566765,0.004446772392839193,-0.0146397165954113,0.011236287653446198,-0.00030943521414883435,-0.008647778071463108
0.023231759667396545,0.004494429100304842,-0.014922672882676125,0.011866820976138115,-0.0002951216301880777,-0.00872035976499319
0.023015456274151802,0.004534115083515644,-0.014561128802597523,0.011454900726675987,-0.00028192283934913576,-0.008922209031879902
0.02335224486887455,0.004366750363260508,-0.01493698451668024,0.011697527021169662,-0.00026984550640918314,-0.008141002617776394
0.02335224486887455,0.004366750363260508,-0.01493698451668024,0.011697527021169662,-0.00026984550640918314,-0.008141002617776394
0.023246953263878822,0.0040330905467271805,-0.014779146760702133,0.011460702866315842,-0.0002932077331934124,-0.007810261566191912
0.022624989971518517,0.003927817102521658,-0.0153620271012187,0.01141586247831583,-0.00028389200451783836,-0.0077408491633832455
0.02267306111752987,0.003903442295268178,-0.0148557648062706,0.011704003438353539,-0.0002732624125201255,-0.007355889305472374
0.02296433597803116,0.004371257033199072,-0.014668891206383705,0.011373529210686684,-0.0002632784307934344,-0.007596275769174099
0.023591168224811554,0.004725776147097349,-0.014406849630177021,0.012096505612134933,-0.0002539900306146592,-0.007886401377618313
0.023676995187997818,0.00450289249420166,-0.014451343566179276,0.012156284414231777,-0.0002453342895023525,-0.008221994154155254
0.02386629395186901,0.004179258365184069,-0.015387189574539661,0.01162549015134573,-0.00021306361304596066,-0.007827582769095898
0.02388736978173256,0.003901829244568944,-0.015227660536766052,0.011217254213988781,-0.00020047140424139798,-0.008194398134946823
0.023770103231072426,0.003805433865636587,-0.015754008665680885,0.010724090971052647,-0.00019172551401425153,-0.008718853816390038
0.023805316537618637,0.004104209132492542,-0.015138170681893826,0.012020344845950603,-0.00020277757721487433,-0.008393146097660065
0.023805316537618637,0.004104209132492542,-0.015138170681893826,0.012020344845950603,-0.00020277757721487433,-0.008393146097660065
0.02373935654759407,0.0044156708754599094,-0.014915518462657928,0.011447632685303688,-0.00020337669411674142,-0.007898720912635326
0.02397976443171501,0.004839328583329916,-0.015520758926868439,0.011659693904221058,-0.00019651280308607966,-0.008625865913927555
0.024214860051870346,0.004654183983802795,-0.014698407612740993,0.010822865180671215,-0.00018964582704938948,-0.009017705917358398
0.024028584361076355,0.00423408905044198,-0.014946210198104382,0.011334211565554142,-0.00020581067656166852,-0.008289779536426067
0.024432066828012466,0.004330564755946398,-0.014836651273071766,0.012231603264808655,-0.000206215467187576,-0.008161839097738266
0.024298448115587234,0.0039581796154379845,-0.015095154754817486,0.01255632285028696,-0.00019399802840780467,-0.008856210857629776
0.024277053773403168,0.0043486058712005615,-0.015319774858653545,0.01191666815429926,-0.00020811555441468954,-0.00836930051445961
0.024492423981428146,0.00459112087264657,-0.01517222449183464,0.012353412806987762,-0.00020839524222537875,-0.00867559015750885
0.02482404187321663,0.004541844595223665,-0.015755506232380867,0.012683885172009468,-0.0002029332536039874,-0.008860212750732899
0.024811159819364548,0.004203650634735823,-0.015576290898025036,0.012500086799263954,-0.00019739643903449178,-0.00886556226760149
0.024819640442728996,0.0038655635435134172,-0.01631506159901619,0.012596222572028637,-0.0002581780427135527,-0.009343178942799568
0.02490898407995701,0.004241447430104017,-0.01611737720668316,0.012328636832535267,-0.00025326813920401037,-0.008994941599667072
0.0245972853153944,0.004110908601433039,-0.015458434820175171,0.012807471677660942,-0.00024036520335357636,-0.00868357252329588
0.024693693965673447,0.0039479536935687065,-0.016106950119137764,0.012406273745000362,-0.00025048639508895576,-0.008727731183171272
0.02513563074171543,0.004377802833914757,-0.015259544365108013,0.012736174277961254,-0.0002591107622720301,-0.008895354345440865
0.02567756362259388,0.004591853357851505,-0.015881165862083435,0.01211775653064251,-0.0002485328004695475,-0.008953179232776165
0.02567756362259388,0.004591853357851505,-0.015881165862083435,0.01211775653064251,-0.0002485328004695475,-0.008953179232776165
0.02514377050101757,0.004233752842992544,-0.015657860785722733,0.012201725505292416,-0.00026694321422837675,-0.009050147607922554
0.025517961010336876,0.004209538456052542,-0.016162395477294922,0.012640601024031639,-0.00026493039331398904,-0.009329337626695633
0.025671321898698807,0.004052438773214817,-0.015766583383083344,0.011984680779278278,-0.00028637461946345866,-0.009080800227820873
0.025379572063684464,0.0038735095877200365,-0.015484685078263283,0.012408516369760036,-0.0002796227054204792,-0.009475214406847954
0.025352945551276207,0.00420570420101285,-0.016934480518102646,0.012226921506226063,-0.0003783288411796093,-0.009883961640298367
0.02471776120364666,0.004486424382776022,-0.01613733172416687,0.012641413137316704,-0.00038216993561945856,-0.010465801693499088
0.025949453935027122,0.004393456038087606,-0.015884242951869965,0.012799244374036789,-0.00042030104668810964,-0.010027507320046425
0.026219218969345093,0.004518758039921522,-0.015428075566887856,0.012525323778390884,-0.0004423637583386153,-0.00982653722167015
0.026171283796429634,0.004202705342322588,-0.016147607937455177,0.013037647120654583,-0.00042764251702465117,-0.010131212882697582
0.0261409692466259,0.0041036782786250114,-0.015476391650736332,0.012263680808246136,-0.00045095657696947455,-0.009972279891371727
0.02562330663204193,0.004061913583427668,-0.01620551571249962,0.012679423205554485,-0.0004317650164011866,-0.010565213859081268
0.025197260081768036,0.003929724916815758,-0.015938300639390945,0.012052906677126884,-0.0006016994593665004,-0.010906304232776165
0.026214752346277237,0.004648403264582157,-0.01624981127679348,0.012590006925165653,-0.000557015067897737,-0.010588438250124454
0.025364316999912262,0.004373428411781788,-0.015815259888768196,0.013078786432743073,-0.00052468734793365,-0.010816571302711964
0.02607560344040394,0.00405875314027071,-0.01617363467812538,0.012774582952260971,-0.00047948394785635173,-0.010899350978434086
0.027077004313468933,0.003947985824197531,-0.015991538763046265,0.012473699636757374,-0.0004942804225720465,-0.01054465863853693
0.02632058784365654,0.003944788593798876,-0.01653696410357952,0.01274128258228302,-0.00047378597082570195,-0.01087077334523201
0.02629469335079193,0.0038555872160941362,-0.015638573095202446,0.01267192605882883,-0.000488039426272735,-0.011461947113275528
0.026239560917019844,0.004261373076587915,-0.016375059261918068,0.013357509858906269,-0.00047064057434909046,-0.012078343890607357
0.025933850556612015,0.0041924999095499516,-0.01587788574397564,0.01325575914233923,-0.00045240885810926557,-0.011869162321090698
0.025933850556612015,0.0041924999095499516,-0.01587788574397564,0.01325575914233923,-0.00045240885810926557,-0.011869162321090698
0.026717139407992363,0.003999671898782253,-0.016232218593358994,0.01354643702507019,-0.000415888789575547,-0.011624186299741268
0.02687825821340084,0.00402278546243906,-0.01606723666191101,0.013134540989995003,-0.0004517541965469718,-0.011753110215067863
0.026593012735247612,0.004058521706610918,-0.01588035747408867,0.01341683603823185,-0.00042114066309295595,-0.011888199485838413
0.026160594075918198,0.004058443009853363,-0.0162945669144392,0.013318764977157116,-0.0004388178640510887,-0.011807151138782501
0.026477163657546043,0.003923879005014896,-0.015970416367053986,0.013363154605031013,-0.000424174009822309,-0.011763634160161018
0.026167601346969604,0.0038328159134835005,-0.016626086086034775,0.013133733533322811,-0.0004475162422750145,-0.01154356263577938
0.02667209878563881,0.004097604658454657,-0.016139918938279152,0.01348353736102581,-0.0004277055850252509,-0.011895595118403435
0.026519495993852615,0.004223608877509832,-0.016327781602740288,0.013574546203017235,-0.000516215106472373,-0.011998322792351246
0.02697952650487423,0.004365930333733559,-0.016118204221129417,0.013143928721547127,-0.000525004870723933,-0.011393384076654911
0.02666390687227249,0.0045379274524748325,-0.01660762168467045,0.013140929862856865,-0.0005172973615117371,-0.011505063623189926
0.02684663236141205,0.004214882384985685,-0.016533492133021355,0.012747274711728096,-0.00047459223424084485,-0.011592923663556576
0.02651403471827507,0.00442632008343935,-0.016085367649793625,0.012867842800915241,-0.0005039495881646872,-0.011903881095349789
0.026768608018755913,0.0041774725541472435,-0.016862940043210983,0.012799769639968872,-0.0005201214225962758,-0.011857436038553715
0.0273246131837368,0.004287472926080227,-0.01630089245736599,0.013359909877181053,-0.0004996642819605768,-0.011585415340960026
0.02536005526781082,0.004458030220121145,-0.016466131433844566,0.012982500717043877,-0.00047073239693418145,-0.011895235627889633
0.02716754749417305,0.004105294588953257,-0.01682204380631447,0.013166533783078194,-0.0005109845078550279,-0.011350053362548351
0.02737104520201683,0.0044206008315086365,-0.01707424782216549,0.013547522015869617,-0.0005090918857604265,-0.011538767255842686
0.026928355917334557,0.0043028309009969234,-0.016363419592380524,0.013731456361711025,-0.0005335384630598128,-0.011716589331626892
0.026797179132699966,0.004073605872690678,-0.017027126625180244,0.013552777469158173,-0.0004963203682564199,-0.01201223861426115
0.02620898187160492,0.003999343141913414,-0.016767922788858414,0.014040043577551842,-0.0005214759730733931,-0.011530132964253426
0.027616791427135468,0.004205451346933842,-0.016924528405070305,0.013750455342233181,-0.0004900222993455827,-0.01196164172142744
0.0277146864682436,0.004043088294565678,-0.017276369035243988,0.014340445399284363,-0.0005590168875642121,-0.011586851440370083
0.027871819213032722,0.004239554516971111,-0.0168923269957304,0.01418322417885065,-0.0005533099174499512,-0.011724096722900867
0.026437800377607346,0.004454751033335924,-0.017217187210917473,0.014383573085069656,-0.0005417580832727253,-0.011969059705734253
0.027046388015151024,0.004322263412177563,-0.01666053757071495,0.014188707806169987,-0.0005553666269406676,-0.012176314368844032
0.027849335223436356,0.004013425670564175,-0.017221951857209206,0.014829061925411224,-0.0005276646697893739,-0.012269457802176476
0.02785259112715721,0.004404445178806782,-0.017561867833137512,0.01429857686161995,-0.0005217780126258731,-0.012292042374610901
0.02791760303080082,0.004493890330195427,-0.01694582961499691,0.014228194020688534,-0.0005153281963430345,-0.012121783569455147
0.02791760303080082,0.004493890330195427,-0.01694582961499691,0.014228194020688534,-0.0005153281963430345,-0.012121783569455147
0.028519919142127037,0.004207897931337357,-0.017524823546409607,0.01385639701038599,-0.0005268953391350806,-0.012228116393089294
0.028700273483991623,0.004293184261769056,-0.017308225855231285,0.014200200326740742,-0.0005117854452691972,-0.012061286717653275
0.028720760717988014,0.004592377692461014,-0.01753048039972782,0.014021649025380611,-0.0005416367202997208,-0.012730157002806664
0.027809375897049904,0.004581897985190153,-0.01789899356663227,0.01447136141359806,-0.000563568901270628,-0.012510750442743301
0.027927929535508156,0.004326961003243923,-0.017472071573138237,0.01430218294262886,-0.0005353097221814096,-0.012737492099404335
0.028617000207304955,0.004410299938172102,-0.01813530921936035,0.01451083179563284,-0.0005555162788368762,-0.012755557894706726
0.02872241847217083,0.004712927620857954,-0.018018251284956932,0.013585970737040043,-0.0005234811105765402,-0.012731962837278843
0.02864106558263302,0.004297276493161917,-0.017818432301282883,0.014253470115363598,-0.0005559044075198472,-0.012655537575483322
0.028854001313447952,0.004452159162610769,-0.017979225143790245,0.014004107564687729,-0.0005529293557628989,-0.012468545697629452
0.028902333229780197,0.0046232775785028934,-0.017613643780350685,0.013920016586780548,-0.0005438533844426274,-0.01282794401049614
0.028815321624279022,0.004306535702198744,-0.018227651715278625,0.013220874592661858,-0.0005331426509656012,-0.012425562366843224
0.028767818585038185,0.004387016873806715,-0.018866563215851784,0.013736684806644917,-0.0004877555766142905,-0.0121320690959692
0.028239136561751366,0.004557658918201923,-0.01807391829788685,0.013564121909439564,-0.000502181239426136,-0.011913462541997433
0.029685497283935547,0.00459839915856719,-0.01860279217362404,0.014089307747781277,-0.00048079484258778393,-0.012443164363503456
0.02933073788881302,0.004485683050006628,-0.018597716465592384,0.014001255854964256,-0.00047876796452328563,-0.01281905546784401
0.029354434460401535,0.004303494933992624,-0.0181023720651865,0.014063350856304169,-0.0004756412236019969,-0.012824421748518944
0.029080910608172417,0.004414197988808155,-0.018323702737689018,0.013409971259534359,-0.0004677248070947826,-0.01314490381628275
0.02930903248488903,0.004651302937418222,-0.01788625866174698,0.014209279790520668,-0.00044233727385289967,-0.013270072638988495
0.029589714482426643,0.004671553149819374,-0.018719220533967018,0.013940197415649891,-0.00046312823542393744,-0.013043908402323723
0.029771795496344566,0.004301861394196749,-0.017669035121798515,0.014162802137434483,-0.00046119122998788953,-0.012988626025617123
0.029885953292250633,0.004278779961168766,-0.01868312992155552,0.014367206022143364,-0.00044435999006964266,-0.013214114122092724
0.03013063222169876,0.0045434581115841866,-0.019884223118424416,0.01423583272844553,-0.0004673911025747657,-0.013708284124732018
0.029789600521326065,0.004719987511634827,-0.01881401427090168,0.014777285046875477,-0.0004480516945477575,-0.013544514775276184
0.030123179778456688,0.004393592476844788,-0.01852542534470558,0.014627288095653057,-0.0005405666888691485,-0.01332597341388464
0.03046950325369835,0.004504714161157608,-0.019063830375671387,0.014501125551760197,-0.0005823185201734304,-0.01275625079870224
0.030077483505010605,0.004508935380727053,-0.0183551125228405,0.013876983895897865,-0.0005742443609051406,-0.012623481452465057
0.030339358374476433,0.004189451225101948,-0.018674178048968315,0.014038552530109882,-0.0005619553267024457,-0.013199752196669579
0.030966857448220253,0.003931547049432993,-0.01950277015566826,0.014385844580829144,-0.0005540821002796292,-0.013416402041912079
0.03114219754934311,0.004748255480080843,-0.019277840852737427,0.014307714067399502,-0.0005449125892482698,-0.013746712356805801
0.031123530119657516,0.004565270151942968,-0.019711505621671677,0.014866391196846962,-0.000607434893026948,-0.013602009043097496
0.031123530119657516,0.004565270151942968,-0.019711505621671677,0.014866391196846962,-0.000607434893026948,-0.013602009043097496
0.031197840347886086,0.004546795971691608,-0.019349483773112297,0.015687663108110428,-0.0006201000069268048,-0.013612918555736542
0.031700581312179565,0.004443151410669088,-0.0186428464949131,0.015847355127334595,-0.0006500103627331555,-0.014233607798814774
0.03280813992023468,0.004219535738229752,-0.019571276381611824,0.01632010191679001,-0.0006315032369457185,-0.01335227582603693
0.03267957642674446,0.004339541308581829,-0.019863562658429146,0.015106532722711563,-0.0006476962589658797,-0.013397655449807644
0.02999432198703289,0.004616492427885532,-0.019213564693927765,0.015137447975575924,-0.0006990002002567053,-0.01366339810192585
0.031519073992967606,0.004657704848796129,-0.019720986485481262,0.015139072202146053,-0.0007545385742560029,-0.013829987496137619
0.03262917324900627,0.004467995837330818,-0.019647832959890366,0.015826772898435593,-0.0007183125126175582,-0.013954490423202515
0.032104264944791794,0.004341910593211651,-0.018957607448101044,0.015536230057477951,-0.000736033427529037,-0.013642868027091026
0.03224987909197807,0.004408018197864294,-0.01925795152783394,0.015324623323976994,-0.0007106506964191794,-0.01356282364577055
0.03372430428862572,0.0045362794771790504,-0.019671928137540817,0.015168331563472748,-0.0006845369352959096,-0.013643189333379269
0.033570487052202225,0.004509274382144213,-0.019184600561857224,0.015408710576593876,-0.0007287106127478182,-0.014154117554426193
0.03158116713166237,0.004332508891820908,-0.019328255206346512,0.01583707518875599,-0.0007538045174442232,-0.013810048811137676
0.032232873141765594,0.0040253326296806335,-0.019678650423884392,0.01579192653298378,-0.0007721842848695815,-0.01348413061350584
0.03316296264529228,0.0037455204874277115,-0.019368186593055725,0.016141213476657867,-0.0007484480738639832,-0.01356695219874382
0.0332166887819767,0.003596360795199871,-0.01968640834093094,0.015889963135123253,-0.0007177742081694305,-0.013422654010355473
0.033013101667165756,0.0037400424480438232,-0.019360141828656197,0.016546981409192085,-0.0007675402448512614,-0.013754142448306084
0.033215101808309555,0.003967061638832092,-0.019067443907260895,0.016092795878648758,-0.0007174098864197731,-0.014109630137681961
0.033438075333833694,0.00350044178776443,-0.019543759524822235,0.016236132010817528,-0.000734959146939218,-0.014086074195802212
0.033390145748853683,0.0035768423695117235,-0.01944291964173317,0.016447823494672775,-0.0007456915336661041,-0.014537466689944267
0.033082809299230576,0.003750900737941265,-0.019819118082523346,0.016507001593708992,-0.0007532762829214334,-0.01461199764162302
0.033571720123291016,0.00422711530700326,-0.020686229690909386,0.016077417880296707,-0.0007739626453258097,-0.014668193645775318
0.033769745379686356,0.004178239963948727,-0.01980772614479065,0.016456622630357742,-0.0007911786087788641,-0.014331474900245667
0.03348294273018837,0.00403628358617425,-0.019040122628211975,0.016243774443864822,-0.0007525738328695297,-0.014451608061790466
0.033910930156707764,0.003916956018656492,-0.019478196278214455,0.016319433227181435,-0.0007584248669445515,-0.014507321640849113
0.03347761929035187,0.003786826506257057,-0.01969975233078003,0.015970656648278236,-0.0006992787239141762,-0.014611950144171715
0.03211743384599686,0.0035558308009058237,-0.01957503706216812,0.015806645154953003,-0.0007362510077655315,-0.014451449736952782
0.0340428352355957,0.003520307596772909,-0.020464090630412102,0.015732595697045326,-0.000750974053516984,-0.014680251479148865
0.035481106489896774,0.004118188749998808,-0.020776450634002686,0.01537691242992878,-0.0007264114101417363,-0.014919377863407135
0.0355546735227108,0.004161532036960125,-0.01995611935853958,0.015992211177945137,-0.000694977177772671,-0.014962040819227695
0.0355546735227108,0.004161532036960125,-0.01995611935853958,0.015992211177945137,-0.000694977177772671,-0.014962040819227695
0.03355694189667702,0.003966405987739563,-0.02094249427318573,0.01780637539923191,-0.0007504023960791528,-0.01486616674810648
0.03355694189667702,0.003966405987739563,-0.02094249427318573,0.01780637539923191,-0.0007504023960791528,-0.01486616674810648
0.03512653708457947,0.003938423004001379,-0.020975694060325623,0.01764601282775402,-0.0008439025259576738,-0.015018898993730545
0.03484261408448219,0.003862341633066535,-0.02059437893331051,0.01753060147166252,-0.0008009484736248851,-0.015457571484148502
0.03560144454240799,0.0038006810937076807,-0.021264061331748962,0.01734297350049019,-0.0008019040687941015,-0.015305577777326107
0.03554666042327881,0.0038168211467564106,-0.021022604778409004,0.01661813072860241,-0.0007398833986371756,-0.015139002352952957
0.03470835089683533,0.0037902570329606533,-0.020519407466053963,0.01684228517115116,-0.0008721125195734203,-0.01514661218971014
0.033749498426914215,0.00393314054235816,-0.02136123739182949,0.016269924119114876,-0.000818298605736345,-0.015361753292381763
0.03441052511334419,0.0038769564125686884,-0.02146843634545803,0.01696118526160717,-0.0008014852064661682,-0.015083463862538338
0.034901827573776245,0.003797456854954362,-0.021149862557649612,0.017419300973415375,-0.0007345626363530755,-0.014940254390239716
0.0350196436047554,0.0037858241703361273,-0.020910201594233513,0.01743302494287491,-0.0007046154350973666,-0.015322376042604446
0.034687481820583344,0.0037712473422288895,-0.021158544346690178,0.017219938337802887,-0.000678954878821969,-0.015364634804427624
0.0341155119240284,0.003757655620574951,-0.021673230454325676,0.016355829313397408,-0.0006228506681509316,-0.015300996601581573
0.03474265709519386,0.0042664180509746075,-0.02074558474123478,0.016331834718585014,-0.0005035224021412432,-0.01572713814675808
0.034702032804489136,0.004026486072689295,-0.020895151421427727,0.017040375620126724,-0.0005305911181494594,-0.015459710732102394
0.03499138355255127,0.0042327106930315495,-0.02122475765645504,0.016716867685317993,-0.0004926968831568956,-0.015444781631231308
0.035154953598976135,0.004248287994414568,-0.021321976557374,0.016143420711159706,-0.0004885469097644091,-0.015413718298077583
0.035874802619218826,0.003977237734943628,-0.021013328805565834,0.016965458169579506,-0.0004841758345719427,-0.015774959698319435
0.035148512572050095,0.003834337228909135,-0.021331682801246643,0.01634550280869007,-0.0004829413956031203,-0.015978796407580376
0.03576038405299187,0.004232400096952915,-0.021285487338900566,0.016594698652625084,-0.000479580310638994,-0.016107136383652687
0.03583931177854538,0.004194292705506086,-0.021038340404629707,0.016755439341068268,-0.0005370979779399931,-0.016251036897301674
0.035528674721717834,0.004001631401479244,-0.021141765639185905,0.017176873981952667,-0.0005644578486680984,-0.015860415995121002
0.03565273806452751,0.00415374431759119,-0.02140992321074009,0.017888667061924934,-0.0005746787646785378,-0.016122637316584587
0.035845864564180374,0.0045698522590100765,-0.022212693467736244,0.017456375062465668,-0.0005634109256789088,-0.016135338693857193
0.035731274634599686,0.004629394039511681,-0.02156686782836914,0.017702260985970497,-0.0005885098362341523,-0.01629721000790596
0.03646078705787659,0.004398941528052092,-0.021715523675084114,0.017847968265414238,-0.0006556925363838673,-0.01591498963534832
0.03637153282761574,0.004054274410009384,-0.021788138896226883,0.01798298954963684,-0.000662502832710743,-0.016191547736525536
0.036578308790922165,0.004396080505102873,-0.02177593670785427,0.01847531832754612,-0.0006681575905531645,-0.016898130998015404
0.036578308790922165,0.004396080505102873,-0.02177593670785427,0.01847531832754612,-0.0006681575905531645,-0.016898130998015404
0.036852117627859116,0.004562978632748127,-0.021238910034298897,0.01824318803846836,-0.0006178892799653113,-0.016100984066724777
0.036954496055841446,0.004623142071068287,-0.020927445963025093,0.018298856914043427,-0.0006418389966711402,-0.016416503116488457
0.03686639666557312,0.004608027171343565,-0.0214719045907259,0.018624581396579742,-0.0006491217063739896,-0.016927095130085945
0.036844927817583084,0.004544223193079233,-0.021910076960921288,0.018148668110370636,-0.0006664844695478678,-0.017010362818837166
0.03793509677052498,0.004176005255430937,-0.021391235291957855,0.01786038465797901,-0.0006297282525338233,-0.017015350982546806
0.03819061815738678,0.004372724797576666,-0.02102808468043804,0.017967093735933304,-0.0006584458751603961,-0.016289209946990013
0.03595328703522682,0.005171091295778751,-0.021329233422875404,0.0176840927451849,-0.000640499871224165,-0.016723474487662315
0.03678883612155914,0.004557641223073006,-0.021137451753020287,0.017943087965250015,-0.0006204170640558004,-0.01704377494752407
0.03819181025028229,0.004512252286076546,-0.0202920101583004,0.01764979213476181,-0.0006425742176361382,-0.017677228897809982
0.03801798075437546,0.004617578815668821,-0.021065635606646538,0.017395012080669403,-0.0006950994720682502,-0.017590666189789772
0.038664497435092926,0.004714908543974161,-0.021666808053851128,0.01784384436905384,-0.0007271264912560582,-0.017187464982271194
0.03839723393321037,0.004273236263543367,-0.021511854603886604,0.017836585640907288,-0.0006676382618024945,-0.01778196543455124
0.03712965548038483,0.004521999042481184,-0.02090504579246044,0.01856495998799801,-0.0007355809211730957,-0.018041105940937996
0.038466326892375946,0.004611604381352663,-0.021522749215364456,0.01835503615438938,-0.000828764692414552,-0.018212515860795975
0.03748875483870506,0.005208213347941637,-0.0215879175812006,0.01869439333677292,-0.0008453815244138241,-0.017623094841837883
0.03891808167099953,0.004563517868518829,-0.02193242311477661,0.01838083192706108,-0.0008531039929948747,-0.01750103011727333
0.038841068744659424,0.004481062293052673,-0.021919699385762215,0.018005579710006714,-0.000837263185530901,-0.017151834443211555
0.037842608988285065,0.004200772847980261,-0.021447930485010147,0.018471362069249153,-0.0007720082066953182,-0.017372550442814827
0.03841753304004669,0.004960889462381601,-0.021388329565525055,0.01847466081380844,-0.0007645869627594948,-0.017597129568457603
0.03844674304127693,0.004897510167211294,-0.022600265219807625,0.018396351486444473,-0.0007616280927322805,-0.01813136227428913
0.0387439988553524,0.004912397358566523,-0.022399503737688065,0.018757890909910202,-0.0006937182624824345,-0.018610462546348572
0.038677748292684555,0.004844550974667072,-0.023015687242150307,0.018470684066414833,-0.000691262015607208,-0.018355468288064003
0.03847556188702583,0.004652701318264008,-0.022864418104290962,0.018565112724900246,-0.0006436218973249197,-0.01807059347629547
0.03820514306426048,0.004641993902623653,-0.02186378464102745,0.018526332452893257,-0.0006572871934622526,-0.018259506672620773
0.039235785603523254,0.004227941390126944,-0.021699529141187668,0.017952105030417442,-0.0006113147246651351,-0.018416645005345345
0.0407760813832283,0.004452347755432129,-0.022327184677124023,0.018111858516931534,-0.000577301369048655,-0.01845140941441059
0.03778046742081642,0.004404137376695871,-0.02284874953329563,0.0182957723736763,-0.0005677748704329133,-0.018265239894390106
0.03778046742081642,0.004404137376695871,-0.02284874953329563,0.0182957723736763,-0.0005677748704329133,-0.018265239894390106
0.038090404123067856,0.004881798755377531,-0.022342009469866753,0.018299661576747894,-0.0005543712177313864,-0.018384132534265518
0.039503175765275955,0.004787997808307409,-0.021968062967061996,0.018844323232769966,-0.0005779466009698808,-0.018627924844622612
0.03918462619185448,0.004651212599128485,-0.022671502083539963,0.018894458189606667,-0.0006100924219936132,-0.018422836437821388
0.04007936269044876,0.004420615267008543,-0.023229103535413742,0.018969262018799782,-0.0006937162834219635,-0.01831379346549511
0.03982144594192505,0.004763783421367407,-0.023159142583608627,0.019372858107089996,-0.0007913802983239293,-0.01876066066324711
0.03790890425443649,0.004845275543630123,-0.022482765838503838,0.018881870433688164,-0.0007226878660731018,-0.018898457288742065
0.039940182119607925,0.004984777886420488,-0.02166532725095749,0.018824251368641853,-0.0007381027098745108,-0.018924353644251823
0.0403888002038002,0.004879200831055641,-0.022246120497584343,0.018978944048285484,-0.0007123188115656376,-0.01876848004758358
0.0387442372739315,0.004641071427613497,-0.02259104512631893,0.01892363838851452,-0.0006859793211333454,-0.018093304708600044
0.04005938395857811,0.004530997481197119,-0.02301168441772461,0.01897023245692253,-0.0006344952853396535,-0.01872839964926243
0.03976108878850937,0.004633836913853884,-0.02291720174252987,0.01973741129040718,-0.0006170914857648313,-0.018617751076817513
0.039717767387628555,0.004522072151303291,-0.02250213362276554,0.019584495574235916,-0.0005989510100334883,-0.018856748938560486
0.039939381182193756,0.004853303078562021,-0.022749612107872963,0.019555605947971344,-0.0005813544266857207,-0.01909404620528221
0.0399269238114357,0.0049451980739831924,-0.02303272671997547,0.01894732192158699,-0.0005600774893537164,-0.01921267807483673
0.040543895214796066,0.004893191158771515,-0.0223477054387331,0.019134724512696266,-0.0005832850001752377,-0.019249115139245987
0.04078584536910057,0.0047537535429000854,-0.022543199360370636,0.019986268132925034,-0.0005888266023248434,-0.019307410344481468
0.04036848619580269,0.004840328358113766,-0.022967910394072533,0.020067768171429634,-0.0006167426472529769,-0.019074667245149612
0.040209412574768066,0.0047883521765470505,-0.023225074633955956,0.019572453573346138,-0.0006728669395670295,-0.019227446988224983
0.03925849124789238,0.005201143212616444,-0.022661402821540833,0.020354604348540306,-0.0006973848212510347,-0.019563840702176094
0.040945056825876236,0.005019165575504303,-0.022565560415387154,0.02082979865372181,-0.0008584766765125096,-0.019196027889847755
0.04130028188228607,0.004919770173728466,-0.02291932702064514,0.020566293969750404,-0.0010323694441467524,-0.018660854548215866
0.04078621044754982,0.005000602453947067,-0.023443633690476418,0.020011907443404198,-0.0010318480199202895,-0.01852552406489849
0.04003065451979637,0.0049049584195017815,-0.023356007412075996,0.02016819268465042,-0.0009888007771223783,-0.018495483323931694
0.04093657061457634,0.005303059704601765,-0.02280455268919468,0.019498338922858238,-0.0009739964152686298,-0.018841348588466644
0.04082176089286804,0.005694769788533449,-0.022639241069555283,0.01926536113023758,-0.0010178107768297195,-0.019113877788186073
0.041192878037691116,0.005145276430994272,-0.023249443620443344,0.019569193944334984,-0.0009832312352955341,-0.019457802176475525
0.04086022451519966,0.0052162036299705505,-0.0236293226480484,0.019852308556437492,-0.0009391899220645428,-0.019113026559352875
0.04076411947607994,0.004984760656952858,-0.02311086095869541,0.02009674534201622,-0.0008794336463324726,-0.019296463578939438
0.04076411947607994,0.004984760656952858,-0.02311086095869541,0.02009674534201622,-0.0008794336463324726,-0.019296463578939438
0.04078158736228943,0.004154910333454609,-0.022745637223124504,0.02028709277510643,-0.0008552415529266,-0.01929502747952938
0.04115482419729233,0.00507080415263772,-0.023737972602248192,0.020293764770030975,-0.000871275900863111,-0.020151184871792793
0.04115482419729233,0.00507080415263772,-0.023737972602248192,0.020293764770030975,-0.000871275900863111,-0.020151184871792793
0.03994687274098396,0.0038390967529267073,-0.023739393800497055,0.020727261900901794,-0.0008677673758938909,-0.01939847506582737
0.041404902935028076,0.003767262678593397,-0.02344815619289875,0.02062944881618023,-0.0007925458485260606,-0.01899338886141777
0.0413920134305954,0.004788783844560385,-0.02310330606997013,0.0203083548694849,-0.0007984219118952751,-0.018751362338662148
0.042881667613983154,0.005383944604545832,-0.023333502933382988,0.020192774012684822,-0.000812889717053622,-0.018926670774817467
0.04183756187558174,0.004543416202068329,-0.023722128942608833,0.020299939438700676,-0.000800616224296391,-0.01941046118736267
0.039618317037820816,0.0045816972851753235,-0.023625394329428673,0.020294804126024246,-0.0007340979063883424,-0.019797101616859436
0.04162698984146118,0.004515643697232008,-0.02432682178914547,0.020165886729955673,-0.0007462418871000409,-0.019895564764738083
0.04168954864144325,0.0043985494412481785,-0.02505599893629551,0.020674705505371094,-0.0006511815590783954,-0.019970573484897614
0.04183877632021904,0.004545969422906637,-0.024984974414110184,0.020371977239847183,-0.0005708347889594734,-0.019154567271471024
0.04143912345170975,0.004146059509366751,-0.02377614937722683,0.01992877572774887,-0.0005804694374091923,-0.019093438982963562
0.04176032170653343,0.0038797229062765837,-0.02379727177321911,0.019816964864730835,-0.0006110676331445575,-0.019520597532391548
0.04165366291999817,0.004296149127185345,-0.02474866434931755,0.01957334578037262,-0.0006375498487614095,-0.019562657922506332
0.04172828420996666,0.004253892693668604,-0.025623349472880363,0.01965942606329918,-0.0006840739515610039,-0.0194944329559803
0.041038669645786285,0.0041951462626457214,-0.02558951824903488,0.020061643794178963,-0.0007963269017636776,-0.01983225904405117
0.041459713131189346,0.003979436121881008,-0.024901418015360832,0.020030338317155838,-0.0008418653160333633,-0.019877467304468155
0.04243280738592148,0.0037871613167226315,-0.024907097220420837,0.01999892108142376,-0.001170097733847797,-0.01985253021121025
0.041572924703359604,0.0037016957066953182,-0.02498152293264866,0.020305855199694633,-0.0012144626816734672,-0.019809871912002563
