davideferrari95/blind_handover_controller/data/Test 101 - [2024-02-07 -- 16-19-12]/joint_states_data.csv
shoulder_pan_joint,shoulder_lift_joint,elbow_joint,wrist_1_joint,wrist_2_joint,wrist_3_joint
0.007887457497417927,-0.0018264694372192025,-0.004510402213782072,0.005658527370542288,0.0,0.00753704272210598
0.00761626660823822,-0.0016523647354915738,-0.004725716542452574,0.005173327401280403,0.0,0.006652612704783678
0.00761626660823822,-0.0016523647354915738,-0.004725716542452574,0.005173327401280403,0.0,0.006652612704783678
0.0072984532453119755,-0.0016291752690449357,-0.004480497445911169,0.00520621333271265,0.0,0.006581812631338835
0.007412903010845184,-0.0016482240753248334,-0.004577825777232647,0.005195124540477991,0.0,0.007018527016043663
0.008171469904482365,-0.0016083507798612118,-0.00441172206774354,0.0051366230472922325,0.0,0.007267726585268974
0.007931838743388653,-0.0016747001791372895,-0.004029043484479189,0.0055281901732087135,0.0,0.007489723619073629
0.007730031386017799,-0.001302804215811193,-0.003854762762784958,0.00538549292832613,0.0,0.0072796521708369255
0.007821856066584587,-0.001049364567734301,-0.004431654699146748,0.005285260267555714,0.0,0.007285655941814184
0.007785417139530182,-0.0008783610537648201,-0.004655035212635994,0.005110014695674181,0.0,0.007388523314148188
0.007785417139530182,-0.0008783610537648201,-0.004655035212635994,0.005110014695674181,0.0,0.007388523314148188
0.007845201529562473,-0.0008655397687107325,-0.004854188766330481,0.004875297658145428,0.0,0.007458304520696402
0.006889075506478548,-0.000869580777361989,-0.004751540254801512,0.005284174811094999,0.0,0.0069427997805178165
0.007140454836189747,-0.0006518016452901065,-0.004535243846476078,0.005705758463591337,0.0,0.007148672826588154
0.007237679790705442,-0.0007374355918727815,-0.004215295892208815,0.006211463827639818,0.0,0.0069886730052530766
0.006848007906228304,-0.001504222396761179,-0.004329402465373278,0.005481230095028877,0.0,0.007430169265717268
0.0071997265331447124,-0.0014109087642282248,-0.004027337301522493,0.005278132855892181,0.0,0.007142049726098776
0.007430506404489279,-0.0013035881565883756,-0.00436780508607626,0.005898448638617992,0.0,0.0074872709810733795
0.00763402134180069,-0.0011184061877429485,-0.004567858763039112,0.0062774112448096275,0.0,0.006949218921363354
0.006966769229620695,-0.0009680847870185971,-0.004267787095159292,0.005963209085166454,0.0,0.007099141366779804
0.0073590585961937904,-0.0008679067250341177,-0.004395648371428251,0.005749274976551533,0.0,0.0071729025803506374
0.007349284365773201,-0.0006590805714949965,-0.004202514421194792,0.005674439016729593,0.0,0.006750497967004776
0.007625139784067869,-0.0006835853564552963,-0.004560656845569611,0.005683111492544413,0.0,0.006855237763375044
0.006939249578863382,-0.0007079652277752757,-0.004560843110084534,0.005282674916088581,0.0,0.007246972527354956
0.007119341287761927,-0.0007350600208155811,-0.004464547149837017,0.0057252151891589165,0.0,0.006956461817026138
0.007279804442077875,-0.001035322085954249,-0.0050006648525595665,0.00548548623919487,0.0,0.00734885036945343
0.007390311453491449,-0.0010168349836021662,-0.0043711126782000065,0.005461990367621183,0.0,0.007101614959537983
0.007076080422848463,-0.0009713951731100678,-0.004427749663591385,0.005700118839740753,0.0,0.007109569851309061
0.0073190173134207726,-0.0008929339237511158,-0.004176806658506393,0.005972107406705618,0.0,0.007103105541318655
0.007264532148838043,-0.001019639428704977,-0.00443013571202755,0.005455569364130497,0.0,0.007179155945777893
0.007512372452765703,-0.0010015149600803852,-0.004539805464446545,0.005001664161682129,0.0,0.006825404707342386
0.0069814096204936504,-0.0009035546099767089,-0.004767336416989565,0.004740585573017597,0.0,0.006952817086130381
0.007484182715415955,-0.0008986996253952384,-0.0046465592458844185,0.005290287546813488,0.0,0.007069291081279516
0.007552347611635923,-0.0008027368457987905,-0.0043089138343930244,0.006020735017955303,0.0,0.006909025367349386
0.0070074936375021935,-0.0007592726615257561,-0.004356114659458399,0.005551633425056934,0.0,0.007300464902073145
0.006898614577949047,-0.0007764769834466279,-0.004334956873208284,0.0051229181699454784,0.0,0.007550237234681845
0.007493671961128712,-0.000792049162555486,-0.004498437978327274,0.00532005587592721,0.0,0.007314154878258705
0.0076587307266891,-0.0008154861279763281,-0.0045058634132146835,0.005424773320555687,0.0,0.0072419061325490475
0.0076587307266891,-0.0008154861279763281,-0.0045058634132146835,0.005424773320555687,0.0,0.0072419061325490475
0.007188132498413324,-0.0010963083477690816,-0.004689810797572136,0.006048922892659903,0.0,0.007396330125629902
0.0071506192907691,-0.001066173892468214,-0.004732876550406218,0.005927017889916897,0.0,0.00774453254416585
0.007409897167235613,-0.001041796407662332,-0.004301708657294512,0.005865076556801796,0.0,0.00785648263990879
0.007321699056774378,-0.0010124511318281293,-0.004462902434170246,0.005882506258785725,0.0,0.006833737250417471
0.006979383062571287,-0.0009950196836143732,-0.004564586095511913,0.006279016379266977,0.0,0.006818619091063738
0.007253209128975868,-0.000981589313596487,-0.004695364739745855,0.0062962970696389675,0.0,0.007201013155281544
0.007741689682006836,-0.0008986055036075413,-0.004750620573759079,0.005588151514530182,0.0,0.006875521037727594
0.007311555556952953,-0.0008757218602113426,-0.004614264704287052,0.005348833277821541,0.0,0.0066931708715856075
0.007064575795084238,-0.0008818164933472872,-0.004507169127464294,0.005521685816347599,0.0,0.006981485988944769
0.007681808900088072,-0.0008806993719190359,-0.0043199132196605206,0.006006829906255007,0.0,0.007521371357142925
0.007874984294176102,-0.0008829933940432966,-0.0045402199029922485,0.0054027787409722805,0.0,0.006869790609925985
0.007527889683842659,-0.0009210013668052852,-0.004490304738283157,0.005027225241065025,0.0,0.006486283615231514
0.007254982832819223,-0.0009178138570860028,-0.004883079789578915,0.005108057986944914,0.0,0.006576981861144304
0.00740353437140584,-0.0009151528938673437,-0.004810366313904524,0.005322425626218319,0.0,0.006634839810431004
0.0077688987366855145,-0.0009131846018135548,-0.004037434700876474,0.005572372116148472,0.0,0.006755006033927202
0.007311943918466568,-0.0009455922991037369,-0.003805778454989195,0.005808093585073948,0.0,0.006882821209728718
0.007097761612385511,-0.0009543428313918412,-0.0046897162683308125,0.0059104724787175655,0.0,0.0067162648774683475
0.007436542306095362,-0.0009462470188736916,-0.005113836377859116,0.005254049319773912,0.0,0.007017726544290781
0.007491027936339378,-0.0009453179081901908,-0.004818933550268412,0.0054507385939359665,0.0,0.007240636739879847
0.007378802634775639,-0.0011093594366684556,-0.004434032831341028,0.005333024077117443,0.0,0.006925581488758326
0.006900198291987181,-0.001074364292435348,-0.004326748661696911,0.005419636145234108,0.0,0.006717674899846315
0.007257572375237942,-0.0010479408083483577,-0.004454181529581547,0.0056165545247495174,0.0,0.006711209192872047
0.007571378722786903,-0.0009706417331472039,-0.004580502398312092,0.0055376640520989895,0.0,0.006800101604312658
0.007728248368948698,-0.0010706711327657104,-0.004612470045685768,0.0055202338844537735,0.0,0.006583666894584894
0.0069025494158267975,-0.0010558487847447395,-0.0045219287276268005,0.005531664937734604,0.0,0.006614245008677244
0.007020323071628809,-0.0010334644466638565,-0.004676591604948044,0.005912282504141331,0.0,0.006740126293152571
0.007020323071628809,-0.0010334644466638565,-0.004676591604948044,0.005912282504141331,0.0,0.006740126293152571
0.007500790059566498,-0.001227476284839213,-0.004670260939747095,0.006046132184565067,0.0,0.006658317521214485
0.007505281362682581,-0.0010592704638838768,-0.004632614552974701,0.005736739374697208,0.0,0.006936484482139349
0.007142674643546343,-0.000998937408439815,-0.004637151025235653,0.005531035363674164,0.0,0.006245194002985954
0.007913464680314064,-0.0009061497985385358,-0.004578318912535906,0.006071124225854874,0.0,0.006225653924047947
0.007742264308035374,-0.0008839474176056683,-0.00481977965682745,0.005648995283991098,0.0,0.006528213620185852
0.006994838360697031,-0.0008861953392624855,-0.004866915289312601,0.0060128564946353436,0.0,0.006849350873380899
0.007122792769223452,-0.0008880769601091743,-0.0045790644362568855,0.006321602500975132,0.0,0.006918931845575571
0.007046109531074762,-0.0009898884454742074,-0.004552114754915237,0.005968780256807804,0.0,0.007074336055666208
0.007198998238891363,-0.0010356674902141094,-0.004632061813026667,0.005822263658046722,0.0,0.006975588854402304
0.0073011103086173534,-0.0010263363365083933,-0.004307351540774107,0.005996699444949627,0.0,0.007214697077870369
0.007481043692678213,-0.0010086437687277794,-0.004461968783289194,0.0054537104442715645,0.0,0.006915326230227947
0.007111305836588144,-0.00106747483368963,-0.005058700684458017,0.0053521995432674885,0.0,0.0065992423333227634
0.007317705545574427,-0.0011537924874573946,-0.004982028156518936,0.005460225511342287,0.0,0.006377706304192543
0.007522240746766329,-0.0011144474847242236,-0.004637827165424824,0.005475110840052366,0.0,0.0064901127479970455
0.007660225033760071,-0.00101051467936486,-0.004701366648077965,0.005964322946965694,0.0,0.006514023523777723
0.007663806900382042,-0.001084977062419057,-0.004785270895808935,0.006097895558923483,0.0,0.006689863745123148
0.007656956557184458,-0.0010539267677813768,-0.0049420613795518875,0.005912575870752335,0.0,0.006796731147915125
0.007010079454630613,-0.0010309951612725854,-0.0048551056534051895,0.006023664493113756,0.0,0.006900861859321594
0.007085124030709267,-0.0009412947110831738,-0.005256200674921274,0.005736461840569973,0.0,0.006442606914788485
0.008008156903088093,-0.001025655772536993,-0.004568455275148153,0.006106826942414045,0.0,0.006165588274598122
0.007735880091786385,-0.0010407620575278997,-0.004526812583208084,0.006230234634131193,0.0,0.006161179859191179
0.006931799929589033,-0.0010314596584066749,-0.004680540878325701,0.005762947723269463,0.0,0.00664663827046752
0.006921605207026005,-0.0011152325896546245,-0.005063958466053009,0.00585391977801919,0.0,0.006848252844065428
0.006921605207026005,-0.0011152325896546245,-0.005063958466053009,0.00585391977801919,0.0,0.006848252844065428
0.007441151421517134,-0.0010648822644725442,-0.005770107265561819,0.005137021187692881,0.0,0.0066284420900046825
0.007441151421517134,-0.0010648822644725442,-0.005770107265561819,0.005137021187692881,0.0,0.0066284420900046825
0.007286548614501953,-0.0010408591479063034,-0.005149251315742731,0.005638467147946358,0.0,0.006390975322574377
0.0071841031312942505,-0.0009807248134166002,-0.004559996537864208,0.005784975364804268,0.0,0.006802567280828953
0.007146740797907114,-0.0010479979682713747,-0.005396171472966671,0.005209393799304962,0.0,0.006749968510121107
0.007032035384327173,-0.0011182846501469612,-0.005278741009533405,0.0052163731306791306,0.0,0.006147532258182764
0.00729703065007925,-0.0012102496111765504,-0.0045526279136538506,0.0060158842243254185,0.0,0.005985040683299303
0.00729703065007925,-0.0012102496111765504,-0.0045526279136538506,0.0060158842243254185,0.0,0.005985040683299303
0.0073929778300225735,-0.0010917227482423186,-0.004139152355492115,0.005527973175048828,0.0,0.006300234701484442
0.007264843210577965,-0.001169515075162053,-0.004502527415752411,0.0054211365059018135,0.0,0.006386672146618366
0.00729042012244463,-0.0010123442625626922,-0.004718919284641743,0.0054420726373791695,0.0,0.006245930679142475
0.008781499229371548,-0.0009888244094327092,-0.004623608663678169,0.005610114429146051,0.0,0.006107802502810955
0.0066979993134737015,-0.0009765743743628263,-0.005106066819280386,0.005685967858880758,0.0,0.006094723008573055
0.006676753982901573,-0.0008909773314371705,-0.0046932692639529705,0.005991871934384108,0.0,0.00617456017062068
0.007279855664819479,-0.0009893528185784817,-0.004582017194479704,0.006526744458824396,0.0,0.006250747479498386
0.008002474904060364,-0.0010111256269738078,-0.004937140736728907,0.006398614030331373,0.0,0.006364102475345135
0.007387865334749222,-0.0012513395631685853,-0.004507382400333881,0.006274466402828693,0.0,0.005982798989862204
0.007121657021343708,-0.0013476383173838258,-0.004556391388177872,0.006150309462100267,0.0,0.0061025419272482395
0.007282190956175327,-0.0012677087215706706,-0.004603513050824404,0.005565724801272154,0.0,0.006569267716258764
0.007656882517039776,-0.0011201018933206797,-0.0047348844818770885,0.005733597557991743,0.0,0.0066732438281178474
0.007446968462318182,-0.0009906302439048886,-0.004731965716928244,0.005441677290946245,0.0,0.006248593330383301
0.007272879593074322,-0.0009743167320266366,-0.004759153351187706,0.005840335972607136,0.0,0.006258056964725256
0.007417239714413881,-0.0010518019553273916,-0.004718896932899952,0.005921592935919762,0.0,0.00582237308844924
0.00790216214954853,-0.0011060190154239535,-0.004717299714684486,0.005960151087492704,0.0,0.005951801314949989
0.00790216214954853,-0.0011060190154239535,-0.004717299714684486,0.005960151087492704,0.0,0.005951801314949989
0.007554589305073023,-0.0012545690406113863,-0.005075026303529739,0.0058312807232141495,0.0,0.006173811387270689
0.007263595703989267,-0.0012315822532400489,-0.0049950373359024525,0.005816590040922165,0.0,0.005612540990114212
0.0073026856407523155,-0.001304000266827643,-0.004973128903657198,0.006056957878172398,0.0,0.005880334414541721
0.00829604733735323,-0.0012877002591267228,-0.005017516203224659,0.006271165329962969,0.0,0.006052766926586628
0.00829604733735323,-0.0012877002591267228,-0.005017516203224659,0.006271165329962969,0.0,0.006052766926586628
0.006980225443840027,-0.0011394696775823832,-0.005195712670683861,0.005993610713630915,0.0,0.005968146026134491
0.008158586919307709,-0.0011343129444867373,-0.0051727816462516785,0.006487790960818529,0.0,0.006127127446234226
0.007787478622049093,-0.0011098263785243034,-0.005383559502661228,0.006222098134458065,0.0,0.005916200112551451
0.007489735726267099,-0.001280870521441102,-0.0051199388690292835,0.0060696080327034,0.0,0.006096325349062681
0.007521593943238258,-0.0012699463404715061,-0.0049209906719625,0.006306687369942665,0.0,0.0064358157105743885
0.008078240789473057,-0.0012317616492509842,-0.005202912259846926,0.005896353628486395,0.0,0.0062017724849283695
0.0077767507173120975,-0.0014093773206695914,-0.0051307715475559235,0.006098403595387936,0.0,0.006219439208507538
0.007627972401678562,-0.0012616990134119987,-0.005461595952510834,0.0061112502589821815,0.0,0.0056716641411185265
0.007824386470019817,-0.0010972116142511368,-0.005451483186334372,0.005551012232899666,0.0,0.0054054236970841885
0.007806731853634119,-0.0010663745924830437,-0.005055169574916363,0.00528350193053484,0.0,0.005520589649677277
0.00759925227612257,-0.0010143459076061845,-0.005325906444340944,0.0052625760436058044,0.0,0.005723200272768736
0.0075175887905061245,-0.0010292489314451814,-0.005089819896966219,0.005661675240844488,0.0,0.005747768562287092
0.007215998135507107,-0.0010216496884822845,-0.005075258668512106,0.005963354371488094,0.0,0.005492214113473892
0.0077964127995073795,-0.001371594611555338,-0.005360156763345003,0.00601807190105319,0.0,0.00511573813855648
0.007659794297069311,-0.001428153133019805,-0.005210514180362225,0.005460259970277548,0.0,0.005604248959571123
0.007622794713824987,-0.0014347874093800783,-0.0056852372363209724,0.005423450376838446,0.0,0.005517248064279556
0.007641379255801439,-0.0013692460488528013,-0.005274344235658646,0.005492991767823696,0.0,0.005788241513073444
0.007683297153562307,-0.0012734769843518734,-0.005346748977899551,0.006218713242560625,0.0,0.0058319829404354095
0.007683297153562307,-0.0012734769843518734,-0.005346748977899551,0.006218713242560625,0.0,0.0058319829404354095
0.008123882114887238,-0.001174445147626102,-0.0055139013566076756,0.006170292850583792,0.0,0.005989732686430216
0.007697949185967445,-0.0010604262351989746,-0.00466633215546608,0.005824520252645016,0.0,0.0055701350793242455
0.00837121345102787,-0.000979956821538508,-0.0045560197904706,0.00523735024034977,0.0,0.005322164855897427
0.007974262349307537,-0.0010116598568856716,-0.005145462229847908,0.005771158263087273,0.0,0.0054593756794929504
0.0077850092202425,-0.001019998686388135,-0.004984418861567974,0.0056458329781889915,0.0,0.006027619820088148
0.007689138874411583,-0.0012636790052056313,-0.005609446670860052,0.005755777005106211,0.0,0.005373422522097826
0.007939748466014862,-0.0012026297627016902,-0.0052106669172644615,0.006107605528086424,0.0,0.005149298347532749
0.007760900072753429,-0.0010901658097282052,-0.005166738294064999,0.006475650239735842,0.0,0.005776005331426859
0.008236384950578213,-0.0010409647366032004,-0.005123610142618418,0.006431272719055414,0.0,0.00551474466919899
0.00860943179577589,-0.0010176243958994746,-0.004739824216812849,0.006476963870227337,0.0,0.005391513463109732
0.008475052192807198,-0.0010112811578437686,-0.0055468096397817135,0.006260368507355452,0.0,0.005113755352795124
0.008786498568952084,-0.0009737635846249759,-0.005534190218895674,0.005863512400537729,0.0,0.005204560700803995
0.008743940852582455,-0.0010757636046037078,-0.005314345471560955,0.006176778580993414,0.0,0.0054608555510640144
0.008500361815094948,-0.0010506290709599853,-0.004875116515904665,0.006037164479494095,0.0,0.005245199427008629
0.008406450971961021,-0.0009535261779092252,-0.004722011275589466,0.0060018147341907024,0.0,0.005881132557988167
0.009088419377803802,-0.0008424442494288087,-0.004753305576741695,0.0059398990124464035,0.0,0.005532281007617712
0.00859968364238739,-0.0007541558588854969,-0.0056336428970098495,0.005880483891814947,0.0,0.005076264496892691
0.008638006635010242,-0.0006849169731140137,-0.005791529081761837,0.006086218636482954,0.0,0.005595524329692125
0.008983460254967213,-0.0005960211856290698,-0.005627805832773447,0.006264437455683947,0.0,0.0052803801372647285
0.008532500825822353,-0.000594614481087774,-0.004986727610230446,0.006004413589835167,0.0,0.005426907911896706
0.008801386691629887,-0.0005648824153468013,-0.005304976366460323,0.005774452351033688,8.746760045141855e-07,0.005270770750939846
0.008782031945884228,-0.0005934360669925809,-0.005306822247803211,0.005530758760869503,5.711008910225246e-08,0.005050542298704386
0.008555457927286625,-0.0005453095654956996,-0.005836273077875376,0.005656606517732143,3.728880759723552e-09,0.005173137877136469
0.00892514456063509,-0.0005649432423524559,-0.005625764839351177,0.006081961095333099,2.4346927252061334e-10,0.005048853345215321
0.008591661229729652,-0.0005311447894200683,-0.004951921291649342,0.006652624346315861,1.589680297120477e-11,0.004915286786854267
0.008386016823351383,-0.0004947448032908142,-0.0051516578532755375,0.006683877669274807,1.037947614142276e-12,0.005511005409061909
0.008583259768784046,-0.0004985086852684617,-0.005104771815240383,0.006643366068601608,6.777055723246675e-14,0.0054686483927071095
0.008592667989432812,-0.0004535800835583359,-0.005358289927244186,0.006275685504078865,4.424933150741408e-15,0.005344472359865904
0.008592667989432812,-0.0004535800835583359,-0.005358289927244186,0.006275685504078865,4.424933150741408e-15,0.005344472359865904
0.008191773667931557,-0.0004910258576273918,-0.005545980297029018,0.006103965453803539,2.8891653262177824e-16,0.005186764989048243
0.008770139887928963,-0.0004529687575995922,-0.005079258698970079,0.005969850812107325,1.8864184741516817e-17,0.005023909267038107
0.008598667569458485,-0.0004179404641035944,-0.005140276625752449,0.006022559944540262,1.2316963339195285e-18,0.005203830543905497
0.008703178726136684,-0.00042218994349241257,-0.00532324705272913,0.006317315623164177,5.2509150635053435e-21,0.0053323013707995415
0.008717497810721397,-0.00039570097578689456,-0.0054121981374919415,0.006392326671630144,3.4284720404956396e-22,0.005581182893365622
0.008865131996572018,-0.0004071211442351341,-0.005638517439365387,0.006432416848838329,2.2385472775298633e-23,0.005211648531258106
0.009071104228496552,-0.00040150919812731445,-0.005259682424366474,0.006147521082311869,1.461611444562419e-24,0.005148807540535927
0.008874532766640186,-0.0004197700181975961,-0.005056033842265606,0.005819986574351788,9.543278080980629e-26,0.004928055219352245
0.009008768945932388,-0.0004400323086883873,-0.005611351691186428,0.006276331376284361,6.231079015988621e-27,0.004692327696830034
0.008435585536062717,-0.00042963583837263286,-0.005823236890137196,0.006046306807547808,4.068449488837774e-28,0.005045725032687187
0.008422504179179668,-0.00039827352156862617,-0.005827646236866713,0.005903264507651329,2.656406885197256e-29,0.004860271699726582
0.008839944377541542,-0.00043184374226257205,-0.005471271928399801,0.006069494411349297,1.7344439835083427e-30,0.004705488681793213
0.008446162566542625,-0.0004049047129228711,-0.005572005175054073,0.005589915905147791,1.1324680837474446e-31,0.004709289874881506
0.00828863400965929,-0.0003804584266617894,-0.005582677200436592,0.005883397068828344,7.39420697218965e-33,0.005072989501059055
0.008862911723554134,-0.0003587886458262801,-0.005698381457477808,0.0058621978387236595,4.827888919474045e-34,0.004968265537172556
0.008605511859059334,-0.00038595570367760956,-0.006069404538720846,0.006013817153871059,3.1522663199896956e-35,0.004594328347593546
0.00818424392491579,-0.00036808475852012634,-0.005842396058142185,0.005969637539237738,2.0582045842586587e-36,0.004270118661224842
0.00977632962167263,-0.00035091242170892656,-0.005473348777741194,0.006029645446687937,1.3438605855186686e-37,0.004212614148855209
0.00877980887889862,-0.00039299961645156145,-0.005455893464386463,0.006542067509144545,8.774448936930277e-39,0.004928917158395052
0.008551519364118576,-0.0004260516434442252,-0.005681488197296858,0.0066344644874334335,5.729082654530225e-40,0.0051650009118020535
0.008972416631877422,-0.0004022864159196615,-0.005754477810114622,0.006356475409120321,3.7406261206686667e-41,0.004977473057806492
0.008815058507025242,-0.0004360041639301926,-0.006061465945094824,0.006199499126523733,2.442463223318156e-42,0.004811071325093508
0.008515814319252968,-0.0004467204853426665,-0.005428724456578493,0.006260153837502003,1.5974802493302915e-43,0.004294590558856726
0.008843440562486649,-0.0004382184997666627,-0.005255571100860834,0.006924578454345465,9.80908925027372e-45,0.004416161682456732
0.008762700483202934,-0.0005634903791360557,-0.005166745278984308,0.006742591969668865,0.0,0.004593442194163799
0.009041198529303074,-0.000566556875128299,-0.005724955350160599,0.006382785737514496,0.0,0.004750801715999842
0.008659452199935913,-0.0005924983415752649,-0.005938748363405466,0.006472265347838402,0.0,0.004738973919302225
0.008659452199935913,-0.0005924983415752649,-0.005938748363405466,0.006472265347838402,0.0,0.004738973919302225
0.008902898989617825,-0.0005277529708109796,-0.005906818900257349,0.006755870301276445,0.0,0.004462175536900759
0.008902898989617825,-0.0005277529708109796,-0.005906818900257349,0.006755870301276445,0.0,0.004462175536900759
0.008633935824036598,-0.0004872719291597605,-0.005509799811989069,0.006651432253420353,0.0,0.004443251993507147
0.009002536535263062,-0.0005142049631103873,-0.006018324289470911,0.006824695970863104,0.0,0.004908258561044931
0.009130940772593021,-0.00048234951100312173,-0.00555430818349123,0.0072112130001187325,0.0,0.004885055590420961
0.008484715595841408,-0.0004878029867541045,-0.005233881063759327,0.006943227723240852,0.0,0.004863654728978872
0.009008347056806087,-0.000498167471960187,-0.005460452754050493,0.006566294468939304,0.0,0.004915031138807535
0.009273434057831764,-0.0004813293053302914,-0.006145445629954338,0.006301250774413347,0.0,0.004711435176432133
0.008629314601421356,-0.0004422662896104157,-0.006512364372611046,0.006692763417959213,0.0,0.004112897906452417
0.009028815664350986,-0.0004687066248152405,-0.005645701661705971,0.007132969796657562,0.0,0.004205266013741493
0.009083550423383713,-0.00044323349720798433,-0.005212730262428522,0.006897599436342716,0.0,0.0046560452319681644
0.009767117910087109,-0.0004709032946266234,-0.005609344691038132,0.006623484194278717,0.0,0.004760514944791794
0.008768291212618351,-0.00044412052375264466,-0.006206695456057787,0.006394397001713514,0.0,0.004747059661895037
0.008903339505195618,-0.0004558693908620626,-0.005818243604153395,0.00640139589086175,0.0,0.004288867115974426
0.008903339505195618,-0.0004558693908620626,-0.005818243604153395,0.00640139589086175,0.0,0.004288867115974426
0.00859127752482891,-0.0004955369513481855,-0.005513971205800772,0.006103991065174341,0.0,0.004008233547210693
0.009103801101446152,-0.0004548788128886372,-0.005496344994753599,0.006276530213654041,0.0,0.0039597079157829285
0.009194097481667995,-0.0004884486552327871,-0.00556104676797986,0.006617069710046053,0.0,0.003966084215790033
0.009238065220415592,-0.0005112433573231101,-0.0056069158017635345,0.00623958557844162,0.0,0.004250457976013422
0.008998623117804527,-0.000484040763694793,-0.00580194778740406,0.0059719393029809,0.0,0.00449034059420228
0.009585372172296047,-0.0005608699866570532,-0.005858332850039005,0.0060378736816346645,0.0,0.004567163996398449
0.009110650978982449,-0.00051158107817173,-0.005795580800622702,0.006917539052665234,0.0,0.004335385747253895
0.009359918534755707,-0.0005474819918163121,-0.005941686686128378,0.006737007759511471,0.0,0.003977704327553511
0.009467953816056252,-0.000500246009323746,-0.006524657364934683,0.006569143384695053,0.0,0.004285948816686869
0.009261399507522583,-0.0005309584666974843,-0.006208676379173994,0.006097191479057074,0.0,0.004104463383555412
0.009261399507522583,-0.0005309584666974843,-0.006208676379173994,0.006097191479057074,0.0,0.004104463383555412
0.010232978500425816,-0.0004923657397739589,-0.005419349297881126,0.005831863731145859,0.0,0.003911788109689951
0.009348341263830662,-0.0005210019298829138,-0.0059377290308475494,0.006471766158938408,0.0,0.0038268310017883778
0.009794316254556179,-0.0005222565378062427,-0.006530323065817356,0.006905597168952227,0.0,0.004082109779119492
0.009929661639034748,-0.0005606068880297244,-0.0065195634961128235,0.006284991279244423,0.0,0.004009909927845001
0.009584845043718815,-0.000583512824960053,-0.0057229711674153805,0.006613998208194971,0.0,0.0038026743568480015
0.009588598273694515,-0.0005425382405519485,-0.00595382833853364,0.007410652935504913,0.0,0.0037237335927784443
0.009732063859701157,-0.0005699577741324902,-0.006357875186949968,0.007227986119687557,0.0,0.0037585673853754997
0.009915634989738464,-0.0005290196277201176,-0.006298040505498648,0.0064691705629229546,0.0,0.0037365383468568325
0.009770803153514862,-0.0006247902056202292,-0.006338366307318211,0.006165786180645227,0.0,0.004142294637858868
0.00984508078545332,-0.0005541391437873244,-0.0060444665141403675,0.006635473575443029,0.0,0.004024850204586983
0.00988495908677578,-0.0004934210446663201,-0.005988593213260174,0.006982877850532532,0.0,0.003326482605189085
0.010808252729475498,-0.0004446404054760933,-0.005965047515928745,0.00709171500056982,0.0,0.002762725343927741
0.009536821395158768,-0.0004821494221687317,-0.007135685067623854,0.006573960185050964,0.0,0.002397624310106039
0.009233804419636726,-0.00044545147102326155,-0.007050307001918554,0.006750919856131077,0.0,0.0025370330549776554
0.009672566317021847,-0.00047186194569803774,-0.006213997956365347,0.006915261037647724,0.0,0.0032237472478300333
0.010165303945541382,-0.000446006772108376,-0.005735997576266527,0.007224970497190952,0.0,0.003744681365787983
0.00998761411756277,-0.0004736542468890548,-0.00568624772131443,0.006813408341258764,0.0,0.003578378353267908
0.00964057445526123,-0.0004465554666239768,-0.0064493147656321526,0.006356334779411554,0.0,0.003293981309980154
0.009881040081381798,-0.00042313942685723305,-0.0067545752972364426,0.006642820779234171,0.0,0.0030030766502022743
0.010171891190111637,-0.0003871680237352848,-0.005912914872169495,0.00677357567474246,0.0,0.0028298208490014076
0.009983133524656296,-0.0004248018958605826,-0.005725383758544922,0.007132924627512693,-4.251149948686361e-05,0.002883255248889327
0.010157082229852676,-0.0003963418130297214,-0.006030675023794174,0.007438274100422859,-0.00014626083429902792,0.0030928764026612043
0.01002401765435934,-0.000409495085477829,-0.007076222915202379,0.006986227352172136,-0.00014830137661192566,0.003080239286646247
0.010160149075090885,-0.00040294902282767,-0.006310300435870886,0.007139294408261776,-0.00014400383224710822,0.0030212842393666506
0.01087779551744461,-0.0004308737989049405,-0.0057581085711717606,0.0072201453149318695,-0.00013956673501525074,0.002976861083880067
0.009949524886906147,-0.00040850494406186044,-0.005647222511470318,0.006724250037223101,-0.00015541943139396608,0.002984038321301341
0.009949799627065659,-0.0004940750659443438,-0.006372492294758558,0.006435641553252935,-0.0001572406617924571,0.0030662259086966515
0.009961605072021484,-0.0005178789724595845,-0.006415580399334431,0.006725240498781204,-0.00015319422527682036,0.003038375871255994
0.009907436557114124,-0.000498816545587033,-0.0063575576059520245,0.006534322630614042,-0.0001489942369516939,0.0034759361296892166
0.009907436557114124,-0.000498816545587033,-0.0063575576059520245,0.006534322630614042,-0.0001489942369516939,0.0034759361296892166
0.010435202158987522,-0.0005066468729637563,-0.0061477371491491795,0.006769067142158747,-0.00016753935778979212,0.003300209529697895
0.010198015719652176,-0.00045595073606818914,-0.0067629944533109665,0.007322200573980808,-0.00016053221770562232,0.0027013325598090887
0.010239503346383572,-0.00047863423242233694,-0.006348033435642719,0.00724447937682271,-0.00015654951857868582,0.002517984015867114
0.010388475842773914,-0.0004550931917037815,-0.006402367260307074,0.007000434678047895,-0.00017311547708231956,0.002377990633249283
0.009818515740334988,-0.000514714396558702,-0.006382637657225132,0.006734222639352083,-0.00017034752818290144,0.002494066022336483
0.009997431188821793,-0.0005554384551942348,-0.005910142324864864,0.00648367777466774,-0.0001664951560087502,0.0028282268904149532
0.01019288133829832,-0.0005130866193212569,-0.006460426840931177,0.006743519566953182,-0.00025004218332469463,0.0028291367925703526
0.010171787813305855,-0.0005434943595901132,-0.007157811429351568,0.006734304130077362,-0.00026364735094830394,0.002913139760494232
0.010530870407819748,-0.0005662671173922718,-0.006362916436046362,0.006700519472360611,-0.000250799348577857,0.0031059980392456055
0.010057609528303146,-0.0005323353689163923,-0.005946013145148754,0.007059407886117697,-0.00026085300487466156,0.0031060257460922003
0.010389077477157116,-0.0006743518752045929,-0.006587366107851267,0.007024677470326424,-0.0002693104324862361,0.003067648969590664
0.010300957597792149,-0.0006704830448143184,-0.006951396819204092,0.0072113447822630405,-0.00025785245816223323,0.002990886103361845
0.010144886560738087,-0.000628772540949285,-0.0065883444622159,0.006728172767907381,-0.0002461853146087378,0.002931346883997321
0.010331192053854465,-0.0005635978886857629,-0.006122253369539976,0.006980213802307844,-0.00025464099599048495,0.002569779986515641
0.010996809229254723,-0.0005917577655054629,-0.006006105337291956,0.006895699072629213,-0.0002619079314172268,0.0024465506430715322
0.010252494364976883,-0.000543896690942347,-0.006092934403568506,0.007112389896064997,-0.0002525743329897523,0.0025502843782305717
0.010665413923561573,-0.0005007006111554801,-0.006898246705532074,0.006925203837454319,-0.0002598991268314421,0.002826396143063903
0.01035089697688818,-0.0005273225833661854,-0.0065964930690824986,0.006639822851866484,-0.0002661526668816805,0.0028709126636385918
0.010047164745628834,-0.0004936917102895677,-0.006299976259469986,0.00732652610167861,-0.00025766369071789086,0.0028114914894104004
0.010343782603740692,-0.0004620400140993297,-0.005934968590736389,0.007418293971568346,-0.0002488252939656377,0.002806238131597638
0.010669863782823086,-0.00041809817776083946,-0.00699629308655858,0.006695202086120844,-0.0002405172272119671,0.0027795026544481516
0.010057246312499046,-0.00038220908027142286,-0.006768146529793739,0.006526936311274767,-0.0002845972194336355,0.00256439414806664
0.010541283525526524,-0.0004197747039142996,-0.006774988491088152,0.007002905011177063,-0.00027500823489390314,0.0026856111362576485
0.010243047960102558,-0.0003919907321687788,-0.0068991221487522125,0.007393561769276857,-0.00030456873355433345,0.002787178149446845
0.010366003029048443,-0.0004053092561662197,-0.0065206303261220455,0.007049203384667635,-0.000294151104753837,0.002660268684849143
0.010416833683848381,-0.00039908505277708173,-0.006674767006188631,0.007275907788425684,-0.00031368114287033677,0.0025080519262701273
0.010416833683848381,-0.00039908505277708173,-0.006674767006188631,0.007275907788425684,-0.00031368114287033677,0.0025080519262701273
0.010961863212287426,-0.00035442705848254263,-0.006711036432534456,0.00717553636059165,-0.00029530376195907593,0.0022102848161011934
0.011284849606454372,-0.0003514008712954819,-0.006357686128467321,0.007324890699237585,-0.00031703925924375653,0.002157093957066536
0.010190132074058056,-0.00031879101879894733,-0.007016352377831936,0.007444565650075674,-0.0003082550538238138,0.0020846182014793158
0.010794424451887608,-0.00030324500403366983,-0.006769520230591297,0.008039520122110844,-0.0002958974801003933,0.0020907092839479446
0.01148286648094654,-0.0002893158816732466,-0.006757777649909258,0.007837570272386074,-0.0003839869168587029,0.0022646132856607437
0.011902181431651115,-0.0002766121178865433,-0.007016322575509548,0.007474399637430906,-0.00038426340324804187,0.002188057405874133
0.011812493205070496,-0.00026497826911509037,-0.006924543064087629,0.007779709063470364,-0.0003560124314390123,0.0022261817939579487
0.011324591003358364,-0.00025428220396861434,-0.007288453634828329,0.007738693617284298,-0.0003870083892252296,0.002127768937498331
0.011400438845157623,-0.0002444162964820862,-0.0067994678393006325,0.00791326817125082,-0.0003683740505948663,0.0020179315470159054
0.011737796477973461,-0.0002352873416384682,-0.006657903548330069,0.007656640373170376,-0.0003876773116644472,0.001966893905773759
0.012063340283930302,-0.00025790571817196906,-0.006755505688488483,0.007385134696960449,-0.00037768491893075407,0.0019530107965692878
0.011570493690669537,-0.00025019337772391737,-0.007039554417133331,0.007502886466681957,-0.00035713514080271125,0.001864573685452342
0.011144961230456829,-0.0002418069343548268,-0.006926112808287144,0.008072310127317905,-0.0003798136312980205,0.0018343471456319094
0.01143860537558794,-0.00023395023890770972,-0.006736868526786566,0.007644039578735828,-0.00036621358594857156,0.0019064757507294416
0.01163678988814354,-0.00022658701345790178,-0.007191341836005449,0.007492273114621639,-0.0003488384827505797,0.002248525619506836
0.01104077696800232,-0.00021967451903037727,-0.0074872346594929695,0.007717293221503496,-0.00033273902954533696,0.002148723229765892
0.011744053103029728,-0.00021317022037692368,-0.006769012659788132,0.007706752512603998,-0.0003180385392624885,0.0022881729528307915
0.011728750541806221,-0.00020704050257336348,-0.006760249845683575,0.007502430584281683,-0.00031942984787747264,0.002029780298471451
0.011865063570439816,-0.00020125354058109224,-0.006730005145072937,0.007537427358329296,-0.00031280831899493933,0.0019175090128555894
0.011575469747185707,-0.00019578116189222783,-0.007256006356328726,0.007785445544868708,-0.0002934244985226542,0.0018183158244937658
0.011393975466489792,-0.00019059838086832315,-0.006941084749996662,0.007619885727763176,-0.00027551723178476095,0.0019803177565336227
0.01207290031015873,-0.00016279205738101155,-0.006762610282748938,0.007349243387579918,-0.0002596175472717732,0.0023155987728387117
0.01207290031015873,-0.00016279205738101155,-0.006762610282748938,0.007349243387579918,-0.0002596175472717732,0.0023155987728387117
0.011697344481945038,-0.0001589865714777261,-0.006676598452031612,0.00730130122974515,-0.00028164449031464756,0.0023576519452035427
0.01190987415611744,-5.964703450445086e-05,-0.007916860282421112,0.007578124292194843,-0.0002784600656013936,0.002436035545542836
0.012695224955677986,-7.506580004701391e-05,-0.007874119095504284,0.007985777221620083,-0.0002655071148183197,0.0021009044721722603
0.011896337382495403,-8.203000470530242e-05,-0.007068657781928778,0.007372032850980759,-0.00025310757337138057,0.0016468027606606483
0.011804744601249695,-7.973163155838847e-05,-0.006647313944995403,0.007160025183111429,-0.0002417753275949508,0.0013750585494562984
0.012228420004248619,-7.528687274316326e-05,-0.007942081429064274,0.007643635850399733,-0.00025854725390672684,0.0014848759165033698
0.012067565694451332,-7.324459147639573e-05,-0.007471712306141853,0.007722843438386917,-0.0002486422599758953,0.001582368859089911
0.011603818275034428,-7.131009624572471e-05,-0.006799176800996065,0.007062320597469807,-0.00023921855608932674,0.002010178053751588
0.012338126078248024,-6.947518704691902e-05,-0.00808720476925373,0.007981697097420692,-0.00023046726710163057,0.002067235065624118
0.011533352546393871,-6.773225322831422e-05,-0.00790549349039793,0.007845224812626839,-0.00024583243066444993,0.002059814054518938
0.011854599229991436,-6.607473915209994e-05,-0.007559550926089287,0.0073880222626030445,-0.00024489269708283246,0.001763837062753737
0.01178768090903759,-6.449638749472797e-05,-0.006789344362914562,0.007365192286670208,-0.0002373053866904229,0.0015184608055278659
0.012144992128014565,-6.299161759670824e-05,-0.00723918667063117,0.008100643754005432,-0.00023050580057315528,0.0013228858588263392
0.012179038487374783,-6.155554729048163e-05,-0.008186480030417442,0.007719147484749556,-0.00023518204397987574,0.000978178926743567
0.011939255520701408,-6.018342901370488e-05,-0.007592052686959505,0.007356403861194849,-0.00022453807468991727,0.0010217009112238884
0.012012891471385956,-5.887120642000809e-05,-0.007438895758241415,0.007329787127673626,-0.0002455186622682959,0.0010410906979814172
0.011637297458946705,4.816930231754668e-05,-0.007682078052312136,0.0076563493348658085,-0.0002443395205773413,0.0013215485960245132
0.012246453203260899,4.968258872395381e-05,-0.008097517304122448,0.00796087458729744,-0.00023438135394826531,0.001447663176804781
0.012169194407761097,4.713628368335776e-05,-0.007708138786256313,0.0075433338060975075,-0.00022466985683422536,0.001732589560560882
0.012185809202492237,4.479096969589591e-05,-0.007597594987601042,0.007251340430229902,-0.00023328972747549415,0.001716151717118919
0.012580059468746185,4.2667244997574016e-05,-0.007667936850339174,0.007569494657218456,-0.00024078039859887213,0.001564070931635797
0.011959249153733253,4.073600211995654e-05,-0.007628935854882002,0.007556266617029905,-0.00023294929997064173,0.0012861560098826885
0.01246716734021902,3.897185160894878e-05,-0.007129215169698,0.006810582708567381,-0.0002247095835627988,0.0010121043305844069
0.012040933594107628,3.735426798812114e-05,-0.007381441071629524,0.006789522711187601,-0.00021697388729080558,0.0009448209893889725
0.012340236455202103,3.586554157664068e-05,-0.008484619669616222,0.007684196345508099,-0.00020974918152205646,0.0009000568534247577
0.012262539938092232,3.4491007681936026e-05,-0.007809850387275219,0.007774322759360075,-0.00022815003467258066,0.0009277036297135055
0.012268198654055595,3.3217955206055194e-05,-0.008093691430985928,0.007391966413706541,-0.00022449632524512708,0.0008650204981677234
0.012611081823706627,3.2035492040449753e-05,-0.007870295085012913,0.007550517097115517,-0.0002179268340114504,0.0008698249002918601
0.012202886864542961,3.093436680501327e-05,-0.008266003802418709,0.007877836003899574,-0.00021153806301299483,0.0009753422345966101
0.012732109054923058,2.9906397685408592e-05,-0.008068878203630447,0.008117941208183765,-0.00020550069166347384,0.0011052765185013413
0.012481666170060635,2.8944568839506246e-05,-0.008310381323099136,0.007665860932320356,-0.00019979786884505302,0.0012054260587319732
0.012481666170060635,2.8944568839506246e-05,-0.008310381323099136,0.007665860932320356,-0.00019979786884505302,0.0012054260587319732
0.012461382895708084,2.7195306756766513e-05,-0.008222024887800217,0.007791817653924227,-0.00022522182553075254,0.0008696108707226813
0.0128175625577569,2.5645391360740177e-05,-0.008038235828280449,0.0073895505629479885,-0.00023534675710834563,0.0007514200988225639
0.0128175625577569,2.5645391360740177e-05,-0.008038235828280449,0.0073895505629479885,-0.00023534675710834563,0.0007514200988225639
0.012590520083904266,2.4934883185778745e-05,-0.009155167266726494,0.007821676321327686,-0.0002346460532862693,0.0006825885502621531
0.013011442497372627,2.426265382382553e-05,-0.008150238543748856,0.007845371030271053,-0.00022546976106241345,0.0006165232043713331
0.01264735497534275,2.3625761969015002e-05,-0.007872317917644978,0.007692908868193626,-0.00021647066751029342,0.0005615537520498037
0.012979528866708279,2.302141729160212e-05,-0.007935100235044956,0.007736561354249716,-0.0002081278944388032,0.000569579191505909
0.01302260346710682,2.2447229639510624e-05,-0.00804976373910904,0.0075317067094147205,-0.00021676093456335366,0.000543318223208189
0.01324718538671732,2.1900981664657593e-05,-0.008195129223167896,0.007876991294324398,-0.00022432362311519682,0.0004560558299999684
0.013247313909232616,2.1380697944550775e-05,-0.008343064226210117,0.007768348790705204,-0.00021757434296887368,0.0003747881855815649
0.013480152003467083,2.088457222271245e-05,-0.008605779148638248,0.008016293868422508,-0.00021037326951045543,0.00039370954618789256
0.013297314755618572,2.0410925571923144e-05,-0.008314385078847408,0.007960349321365356,-0.00020357863104436547,0.00038135869544930756
0.012765693478286266,1.9958279153797776e-05,-0.007946238853037357,0.008309065364301205,-0.000211024031159468,0.0004085778200533241
0.013507720082998276,1.952529237314593e-05,-0.00823009479790926,0.007823223248124123,-0.0002175992267439142,0.0003903433680534363
0.013031150214374065,1.9110711946268566e-05,-0.008891258388757706,0.007896688766777515,-0.00021203742653597146,0.00041692593367770314
0.01324066799134016,3.717030995176174e-05,-0.008029263466596603,0.00840780884027481,-0.00020602490985766053,0.0003971430123783648
0.013182590715587139,3.666091288323514e-05,-0.008451906964182854,0.008820440620183945,-0.00020029660663567483,0.0005336582544259727
0.013415691442787647,3.593241126509383e-05,-0.008925923146307468,0.008017180487513542,-0.0002285727532580495,0.0004983629332855344
0.013384842313826084,3.5229189961683005e-05,-0.008313363417983055,0.007127291057258844,-0.00022823549807071686,0.0004500241484493017
0.013563266023993492,3.455293699516915e-05,-0.008413654752075672,0.008010320365428925,-0.000217916676774621,0.0004091559967491776
0.013329229317605495,3.390213896636851e-05,-0.008311029523611069,0.007761326152831316,-0.00020789462723769248,0.00037502608029171824
0.01339642982929945,3.327542799524963e-05,-0.008791598491370678,0.007743834052234888,-0.00019871465337928385,0.0003461520536802709
0.013705544173717499,3.2671461667632684e-05,-0.008851934224367142,0.007881870493292809,-0.00019030955445487052,0.0003214079770259559
0.013692931272089481,3.2089017622638494e-05,-0.008509591221809387,0.008310839533805847,-0.00021661810751538724,0.000299969338811934
0.013879688456654549,3.1527000828646123e-05,-0.009066635742783546,0.008762232027947903,-0.00021039620332885534,0.00028121285140514374
0.013879688456654549,3.1527000828646123e-05,-0.009066635742783546,0.008762232027947903,-0.00021039620332885534,0.00028121285140514374
0.01396605558693409,3.045999437745195e-05,-0.00836576335132122,0.00912864413112402,-0.00019532324222382158,0.00024995795683935285
0.01396605558693409,3.045999437745195e-05,-0.00836576335132122,0.00912864413112402,-0.00019532324222382158,0.00024995795683935285
0.014128230512142181,2.9462840757332742e-05,-0.008619473315775394,0.008153420872986317,-0.00021223039948381484,0.00022495795565191656
0.013958078809082508,2.8988361009396613e-05,-0.008638056926429272,0.008699300698935986,-0.00020555015362333506,0.00021424450096674263
0.0144572202116251,2.852893157978542e-05,-0.00852197129279375,0.00900286715477705,-0.00019907056412193924,0.00020450486044865102
0.014410426840186119,2.8083815777790733e-05,-0.008925369009375572,0.008651056326925755,-0.00019297335529699922,0.0001956131454790011
0.014729393646121025,4.1290204535471275e-05,-0.008720177225768566,0.008559802547097206,-0.00018723738321568817,0.00018746263231150806
0.014167067594826221,4.0848510252544656e-05,-0.008203117176890373,0.008829751051962376,-0.00018183326756116003,0.00017996372480411083
0.014537431299686432,4.024213558295742e-05,-0.008650697767734528,0.008708941750228405,-0.0001767319190548733,0.0001730424992274493
0.014337177388370037,3.96512150473427e-05,-0.008784672245383263,0.00841120071709156,-0.0001719088904792443,0.00016663338465150446
0.014582138508558273,3.907734571839683e-05,-0.0089034428820014,0.008917750790715218,-0.000167342514032498,0.00016068258264567703
0.014942601323127747,3.851984365610406e-05,-0.008322354406118393,0.009662963449954987,-0.0001832318666856736,0.0001551422174088657
0.015214864164590836,3.7978043110342696e-05,-0.008745457977056503,0.008887866511940956,-0.00018140011525247246,0.00014997099060565233
0.014723751693964005,3.7451263779075816e-05,-0.008765525184571743,0.009189425967633724,-0.00017711940745357424,0.00014513361384160817
0.014800791628658772,3.693890539580025e-05,-0.008491961285471916,0.009283816441893578,-0.0001728784409351647,0.00011619824363151565
0.014792200177907944,4.810341488337144e-05,-0.008964250795543194,0.009047091007232666,-0.0001688252086751163,0.00010931360884569585
0.014868073165416718,4.7933652240317315e-05,-0.008546486496925354,0.008655723184347153,-0.00017070390458684415,0.00010587876022327691
0.01432131975889206,4.731006993097253e-05,-0.008199098519980907,0.008541171438992023,-0.00017004941764753312,0.00010283977462677285
0.015048163011670113,4.669649206334725e-05,-0.008897121995687485,0.008715886622667313,-0.00016422216140199453,9.998258610721678e-05
0.015055390074849129,4.609853931469843e-05,-0.00885641947388649,0.008376169949769974,-0.0001584630081197247,7.45922516216524e-05
0.015484082512557507,4.551571328192949e-05,-0.008608010597527027,0.008617064915597439,-0.00015307382273022085,7.130007725208998e-05
0.015237725339829922,4.494746099226177e-05,-0.009107863530516624,0.008993061259388924,-0.0001480373612139374,-4.8247977247228846e-05
0.014745793305337429,4.439318581717089e-05,-0.009205115959048271,0.00854522455483675,-0.00015737986541353166,-5.444073030957952e-05
0.015172084793448448,4.38524475612212e-05,-0.009520459920167923,0.00857478380203247,-0.0001657240791246295,-7.6484982855618e-05
0.015207233838737011,6.644632230745628e-05,-0.00839545764029026,0.008691965602338314,-0.000161624004249461,-7.750838994979858e-05
0.015207233838737011,6.644632230745628e-05,-0.00839545764029026,0.008691965602338314,-0.000161624004249461,-7.750838994979858e-05
0.015544512309134007,6.640054925810546e-05,-0.00888835173100233,0.008624356240034103,-0.00015698137576691806,-9.904621401801705e-05
0.01656048558652401,6.35976975900121e-05,-0.009057463146746159,0.009207053110003471,-0.00016763503663241863,-0.0006705792038701475
0.015600565820932388,6.27114059170708e-05,-0.009242240339517593,0.008919457904994488,-0.00016401578614022583,-0.0006931862444616854
0.015600565820932388,6.27114059170708e-05,-0.009242240339517593,0.008919457904994488,-0.00016401578614022583,-0.0006931862444616854
0.014472050592303276,6.184950325405225e-05,-0.00901463907212019,0.009451596066355705,-0.00015990126121323556,-0.0007021313649602234
0.015633422881364822,6.101092367316596e-05,-0.00891209952533245,0.009830968454480171,-0.00015594619617331773,-0.0008094613440334797
0.01596166007220745,6.0194844991201535e-05,-0.009342114441096783,0.008993065916001797,-0.00016829614469315857,-0.0009476992418058217
0.016084346920251846,6.722347461618483e-05,-0.009076427668333054,0.009481440298259258,-0.0001694498787401244,-0.0009485014015808702
0.015887707471847534,7.029728294583037e-05,-0.009218793362379074,0.009627506136894226,-0.0001658801338635385,-0.0009524126071482897
0.015671731904149055,6.94462432875298e-05,-0.009148837067186832,0.009164795279502869,-0.00019736048125196248,-0.0011625727638602257
0.016185229644179344,6.85651830281131e-05,-0.009139888919889927,0.009011073969304562,-0.00022136866755317897,-0.0011703900527209044
0.01580161787569523,7.513700984418392e-05,-0.008687821216881275,0.009308315813541412,-0.00021308971918188035,-0.0011494654463604093
0.015945618972182274,7.796000136295334e-05,-0.009261277504265308,0.009278475306928158,-0.00023366491950582713,-0.0013280882267281413
0.015672968700528145,7.705682946834713e-05,-0.009099135175347328,0.009242821484804153,-0.00023304809292312711,-0.0013945592800155282
0.01630447432398796,7.61264018365182e-05,-0.00875792559236288,0.009509454481303692,-0.0002239985769847408,-0.001662129070609808
0.01588338427245617,7.521756197093055e-05,-0.009000381454825401,0.009213561192154884,-0.00024619302712380886,-0.0016557818744331598
0.016262607648968697,8.371137664653361e-05,-0.00898804608732462,0.009257001802325249,-0.0002410419547231868,-0.0016569137806072831
0.016035055741667747,8.394157339353114e-05,-0.00908007100224495,0.009628478437662125,-0.00025698752142488956,-0.0015640400815755129
0.01629282720386982,8.299019827973098e-05,-0.00856852438300848,0.009281860664486885,-0.0002556330291554332,-0.0015808524331077933
0.016286807134747505,8.20447676233016e-05,-0.009319745935499668,0.008620318956673145,-0.00024735828628763556,-0.0015538774896413088
0.01626172475516796,0.00019276826060377061,-0.00890335626900196,0.009428778663277626,-0.0003621948417276144,-0.0016878177411854267
0.017118848860263824,0.0001892202562885359,-0.00933803990483284,0.010132775641977787,-0.0003723579575307667,-0.002192017389461398
0.016641216352581978,0.00018164275388699025,-0.009447555989027023,0.009618040174245834,-0.00034631940070539713,-0.0024805585853755474
0.016550302505493164,0.00017459566879551858,-0.009746410883963108,0.010320980101823807,-0.0003217134508304298,-0.0025286793243139982
0.01651773415505886,0.00020122085697948933,-0.008669152855873108,0.010005221702158451,-0.00032942299731075764,-0.002542229602113366
0.016767635941505432,0.00019442076154518872,-0.010150215588510036,0.009381281211972237,-0.00033573253313079476,-0.0023026231210678816
0.016742868348956108,0.0001876696478575468,-0.009277451783418655,0.0095379538834095,-0.00031772610964253545,-0.0021906374022364616
0.016742868348956108,0.0001876696478575468,-0.009277451783418655,0.0095379538834095,-0.00031772610964253545,-0.0021906374022364616
0.016826976090669632,0.00018136667495127767,-0.009494206868112087,0.009483374655246735,-0.0003370522172190249,-0.0022670403122901917
0.016757560893893242,0.00019822907052002847,-0.009363961406052113,0.009553322568535805,-0.00031510324333794415,-0.002755635417997837
0.01697354204952717,0.00021026586182415485,-0.00903697032481432,0.010003840550780296,-0.00034007467911578715,-0.0029836951289325953
0.016822000965476036,0.0002130550128640607,-0.009984930977225304,0.00944732129573822,-0.0003598966868594289,-0.003080217633396387
0.01671711355447769,0.0002070490299956873,-0.009747941978275776,0.009465799666941166,-0.0003638227644842118,-0.002875861944630742
0.01718304120004177,0.00031289708567783237,-0.009351249784231186,0.009676999412477016,-0.0003970720572397113,-0.0028142782393842936
0.017059141770005226,0.0003061192692257464,-0.009870178997516632,0.009531097486615181,-0.00037741835694760084,-0.002802586881443858
0.017479442059993744,0.0002868007286451757,-0.009952576830983162,0.009833723306655884,-0.0004041289212182164,-0.0027672224678099155
0.01711392216384411,0.00032277111313305795,-0.010567366145551205,0.009625213220715523,-0.0003863226738758385,-0.0026955592911690474
0.017025411128997803,0.00030523884925059974,-0.010820450261235237,0.00948393251746893,-0.00038977977237664163,-0.00284569151699543
0.017232464626431465,0.00032045264379121363,-0.011702912859618664,0.00967556331306696,-0.00039198953891173005,-0.0028443140909075737
0.017023300752043724,0.00031972507713362575,-0.01046210341155529,0.009767035022377968,-0.00037319830153137445,-0.002836814848706126
0.017537035048007965,0.0003329880128148943,-0.01091926358640194,0.00955770630389452,-0.0004587736912071705,-0.0034816099796444178
0.017419137060642242,0.0003317353257443756,-0.0107583524659276,0.010107760317623615,-0.0004480534989852458,-0.003986633848398924
0.017143934965133667,0.00031730407499708235,-0.010944435372948647,0.010186620056629181,-0.00048013206105679274,-0.004630395211279392
0.017120016738772392,0.0004227696335874498,-0.01162913627922535,0.009836998768150806,-0.0004498375055845827,-0.00428380211815238
0.01658770442008972,0.000391227105865255,-0.011011444963514805,0.00936430785804987,-0.000480212940601632,-0.003913290333002806
0.017074445262551308,0.0004309366340748966,-0.011103643104434013,0.00953349843621254,-0.0004813640844076872,-0.003364827949553728
0.017176691442728043,0.000399966724216938,-0.01093018613755703,0.009536094963550568,-0.000478243367979303,-0.0030583073385059834
0.017470577731728554,0.0004318759310990572,-0.011049089953303337,0.00957795325666666,-0.000450227438705042,-0.003863569814711809
0.01776384375989437,0.00040638932841829956,-0.011417525820434093,0.009714536368846893,-0.000519131834153086,-0.004527905955910683
0.01711997576057911,0.0004355507262516767,-0.011191781610250473,0.008933703415095806,-0.0004792899708263576,-0.004485029261559248
0.017722459509968758,0.0005243545747362077,-0.011878212913870811,0.009571325965225697,-0.0005087634199298918,-0.0040978738106787205
0.017219481989741325,0.000520012981723994,-0.011686023324728012,0.00924454815685749,-0.0005125495372340083,-0.003417147323489189
0.01700926572084427,0.0005561725702136755,-0.010823500342667103,0.00957117136567831,-0.0005066556623205543,-0.0034244877751916647
0.01761230081319809,0.0005074501386843622,-0.01151867676526308,0.009316119365394115,-0.00047110047307796776,-0.004283257760107517
0.01738901622593403,0.000531843863427639,-0.010900497436523438,0.009595992043614388,-0.00048444760614074767,-0.00470380112528801
0.017662102356553078,0.0005198702565394342,-0.011259728111326694,0.009637145325541496,-0.0004397640295792371,-0.004036223981529474
0.016705553978681564,0.0004916434991173446,-0.01045976672321558,0.010025734081864357,-0.00041446415707468987,-0.004115535877645016
0.016705553978681564,0.0004916434991173446,-0.01045976672321558,0.010025734081864357,-0.00041446415707468987,-0.004115535877645016
0.01774725876748562,0.0005359253264032304,-0.011379635892808437,0.0105710718780756,-0.00039190560346469283,-0.004124791361391544
0.01773626171052456,0.00048817228525877,-0.011094667948782444,0.010180225595831871,-0.0003855950490105897,-0.00436710799112916
0.01794143207371235,0.0004978355718776584,-0.010639705695211887,0.010421469807624817,-0.0003580789198167622,-0.004640497732907534
0.017703788354992867,0.0004810393729712814,-0.010905567556619644,0.010021285153925419,-0.0003319063107483089,-0.004769968334585428
0.01729857362806797,0.0005067951278761029,-0.010632236488163471,0.010041778907179832,-0.0003545305225998163,-0.004354221746325493
0.017987770959734917,0.0005210133385844529,-0.01102778222411871,0.010216117836534977,-0.0003459954459685832,-0.0042876070365309715
0.017215752974152565,0.0005074868095107377,-0.01060563512146473,0.009617798030376434,-0.00032600577105768025,-0.004140568897128105
0.017454719170928,0.0006654922617599368,-0.010922485962510109,0.009739190340042114,-0.00030751124722883105,-0.004422209691256285
0.017461491748690605,0.0006942834588699043,-0.010725867934525013,0.010498528368771076,-0.00032667763298377395,-0.004488737788051367
0.017526840791106224,0.0006548648816533387,-0.009766511619091034,0.010016016662120819,-0.00032124656718224287,-0.004796305205672979
0.016500091180205345,0.0006809091428294778,-0.009666722267866135,0.010592048987746239,-0.00030635614530183375,-0.0052170404233038425
0.01802167296409607,0.0010681538842618465,-0.01181249413639307,0.010206099599599838,-0.000292191602056846,-0.004981808364391327
0.018192509189248085,0.0010445781517773867,-0.010530021041631699,0.009830632247030735,-0.0003164007212035358,-0.0048490180633962154
0.017731083557009697,0.0010342620080336928,-0.010614263825118542,0.01075680647045374,-0.00030540581792593,-0.004414024762809277
0.017424549907445908,0.0011032763868570328,-0.010999458841979504,0.011304189451038837,-0.0003206937981303781,-0.0043748221360147
0.01750645972788334,0.0012039020657539368,-0.010252689011394978,0.01043888833373785,-0.0003086158540099859,-0.00487385131418705
0.017888110131025314,0.0011549553601071239,-0.010713552124798298,0.010821297764778137,-0.0002894069184549153,-0.005084223113954067
0.01764349453151226,0.001166128204204142,-0.010429853573441505,0.010819930583238602,-0.00032255437690764666,-0.004512658342719078
0.018437618389725685,0.0011535834055393934,-0.010127058252692223,0.010868302546441555,-0.00030746558331884444,-0.004337110556662083
0.018439460545778275,0.0011219223961234093,-0.01082534622400999,0.010665496811270714,-0.00029112346237525344,-0.004562941379845142
0.01858976110816002,0.0011126536410301924,-0.010860242880880833,0.010578115470707417,-0.0002762404619716108,-0.0047532436437904835
0.01858976110816002,0.0011126536410301924,-0.010860242880880833,0.010578115470707417,-0.0002762404619716108,-0.0047532436437904835
0.01868000440299511,0.0013230233453214169,-0.011231929995119572,0.010626845061779022,-0.0002919777180068195,-0.005488635506480932
0.01868000440299511,0.0013230233453214169,-0.011231929995119572,0.010626845061779022,-0.0002919777180068195,-0.005488635506480932
0.018400538712739944,0.001345857628621161,-0.010325356386601925,0.0101961400359869,-0.0002793677558656782,-0.005013665184378624
0.018806153908371925,0.0013225056463852525,-0.010679930448532104,0.010979794897139072,-0.00030312995659187436,-0.0045502944849431515
0.018861085176467896,0.0013746251352131367,-0.010157983750104904,0.010254387743771076,-0.0002824871917255223,-0.005182652734220028
0.018985401839017868,0.0014755197335034609,-0.011006292887032032,0.010297187604010105,-0.00033195907599292696,-0.0051607671193778515
0.018545810133218765,0.0014139111153781414,-0.010811694897711277,0.01024687197059393,-0.0003134358848910779,-0.005330995656549931
0.01865866780281067,0.0017235969426110387,-0.010263285599648952,0.010275625623762608,-0.00029329833341762424,-0.005441382527351379
0.01892470195889473,0.0015974442940205336,-0.010959695093333721,0.010905088856816292,-0.0002753607404883951,-0.0052113886922597885
0.01873105578124523,0.0014496543444693089,-0.010894457809627056,0.01027916930615902,-0.0002847510331775993,-0.005306195002049208
0.019156059250235558,0.001473369775339961,-0.010862896218895912,0.010644149966537952,-0.0002926523447968066,-0.005088912323117256
0.01898292824625969,0.0014030423481017351,-0.011162323877215385,0.010480566881597042,-0.0002790524740703404,-0.00519629055634141
0.018719593062996864,0.00124520028475672,-0.010460353456437588,0.010491217486560345,-0.00026543106650933623,-0.005429337732493877
0.01940130442380905,0.0013508936390280724,-0.01069000642746687,0.010700824670493603,-0.00025299828848801553,-0.0053033712320029736
0.019048351794481277,0.0013268095208331943,-0.010947897098958492,0.01061574462801218,-0.00027919362764805555,-0.0053001162596046925
0.018672971054911613,0.0017084633000195026,-0.011324784718453884,0.010180607438087463,-0.00026969125610776246,-0.005227313376963139
0.01954379677772522,0.0016347120981663465,-0.011990570463240147,0.010802198201417923,-0.0002587722847238183,-0.005131524987518787
0.019407544285058975,0.0017251912504434586,-0.011189001612365246,0.010367736220359802,-0.0002485699369572103,-0.005915600340813398
0.019010886549949646,0.0017246705247089267,-0.011060982942581177,0.009825450368225574,-0.0002709778491407633,-0.00572303868830204
0.019313538447022438,0.0016744384774938226,-0.011571536771953106,0.010547402314841747,-0.0002631491224747151,-0.005602504126727581
0.019427141174674034,0.0015478160930797458,-0.011243630200624466,0.010286863893270493,-0.0002539997221902013,-0.00515661109238863
0.01905985176563263,0.0016138090286403894,-0.011962546035647392,0.010291741229593754,-0.0002463629934936762,-0.005265600513666868
0.019574467092752457,0.0017236110288649797,-0.011925208382308483,0.01088810246437788,-0.00025056852609850466,-0.00540179293602705
0.019574467092752457,0.0017236110288649797,-0.011925208382308483,0.01088810246437788,-0.00025056852609850466,-0.00540179293602705
0.019291089847683907,0.0021147998049855232,-0.011671592481434345,0.011059942655265331,-0.00025993844610638916,-0.005657970439642668
0.019821010529994965,0.0018791335169225931,-0.01133878156542778,0.011035997420549393,-0.0002580304571893066,-0.005379453767091036
0.020184841006994247,0.0018516459967941046,-0.012034737505018711,0.010960442014038563,-0.00027731340378522873,-0.005550493486225605
0.01993539370596409,0.0017210025107488036,-0.01207574550062418,0.01099429465830326,-0.00027481946744956076,-0.005613646935671568
0.01993539370596409,0.0017210025107488036,-0.01207574550062418,0.01099429465830326,-0.00027481946744956076,-0.005613646935671568
0.01969928853213787,0.0016140443040058017,-0.01191524788737297,0.010944678448140621,-0.00028708454919978976,-0.00590977119281888
0.01939491555094719,0.0016890449915081263,-0.011346869170665741,0.011347837746143341,-0.0002781965013127774,-0.005579435732215643
0.01989184319972992,0.0017703392077237368,-0.012223142199218273,0.010773004032671452,-0.00026843015803024173,-0.005721985828131437
0.020578941330313683,0.002200409537181258,-0.011518972925841808,0.010940533131361008,-0.0003980371111538261,-0.005741741508245468
0.020357441157102585,0.0024777438957244158,-0.011988737620413303,0.010935503989458084,-0.00043970291153527796,-0.005905316676944494
0.01978837326169014,0.0023661628365516663,-0.012077460996806622,0.010829524137079716,-0.0004489380808081478,-0.0061109173111617565
0.020644277334213257,0.0021916674450039864,-0.011982696130871773,0.011410510167479515,-0.00044828528189100325,-0.005897446535527706
0.02066701091825962,0.0020816863980144262,-0.011707646772265434,0.01121272798627615,-0.000420406082412228,-0.006010375451296568
0.020628655329346657,0.002221224596723914,-0.011693823151290417,0.011049828492105007,-0.00044660159619525075,-0.0058196852914988995
0.020655985921621323,0.0025243230629712343,-0.012246618047356606,0.011570644564926624,-0.0004246463067829609,-0.005920399446040392
0.020825518295168877,0.0024725107941776514,-0.011839620769023895,0.010912269353866577,-0.0005603586323559284,-0.006373285781592131
0.020027561113238335,0.0027248053811490536,-0.01204980444163084,0.011308050714433193,-0.0005836131749674678,-0.006132045760750771
0.019723927602171898,0.0026931639295071363,-0.012233545072376728,0.01160525530576706,-0.000548023555893451,-0.006074666976928711
0.020540686324238777,0.0024850668851286173,-0.011690978892147541,0.011525031179189682,-0.0004988923319615424,-0.006060253828763962
0.02138075977563858,0.002192338462918997,-0.012343003414571285,0.011514166370034218,-0.0005274444120004773,-0.006116124801337719
0.020260227844119072,0.0021592658013105392,-0.012254240922629833,0.011175243183970451,-0.0004909327835775912,-0.006128178909420967
0.020914128050208092,0.0024823672138154507,-0.01215197704732418,0.011210821568965912,-0.0005162182496860623,-0.005973875988274813
0.021388759836554527,0.00287918490357697,-0.011899003759026527,0.011332111433148384,-0.0004887525574304163,-0.005928746424615383
0.020719319581985474,0.0029229121282696724,-0.011494729667901993,0.010897703468799591,-0.000505519041325897,-0.006226541008800268
0.020820925012230873,0.002668272238224745,-0.012508932501077652,0.01126924715936184,-0.0005437849322333932,-0.006396911107003689
0.021140825003385544,0.002617670688778162,-0.012027372606098652,0.011375205591320992,-0.0005395031766965985,-0.0063724517822265625
0.021032139658927917,0.0026333399582654238,-0.012624761089682579,0.010951683856546879,-0.000530789780896157,-0.006236529443413019
0.021032139658927917,0.0026333399582654238,-0.012624761089682579,0.010951683856546879,-0.000530789780896157,-0.006236529443413019
0.02092488296329975,0.0027796670328825712,-0.011958170682191849,0.011188443750143051,-0.000521649606525898,-0.006443243008106947
0.02092488296329975,0.0027796670328825712,-0.011958170682191849,0.011188443750143051,-0.000521649606525898,-0.006443243008106947
0.021206025034189224,0.0030536847189068794,-0.012440902180969715,0.011436251923441887,-0.000633418036159128,-0.006636362057179213
0.021126730367541313,0.002851148135960102,-0.012491610832512379,0.011600825004279613,-0.0006630923599004745,-0.006563556846231222
0.021466942504048347,0.002595082391053438,-0.013032585382461548,0.011342114768922329,-0.0006893770187161863,-0.006741354241967201
0.021334495395421982,0.0026132080238312483,-0.012771395966410637,0.011960262432694435,-0.000656292075291276,-0.007379358168691397
0.021471502259373665,0.002921303967013955,-0.012918047606945038,0.011347162537276745,-0.0006537343142554164,-0.006960480473935604
0.021635908633470535,0.0029066167771816254,-0.013148630037903786,0.011094593442976475,-0.0006776457885280252,-0.007002686616033316
0.021635908633470535,0.0029066167771816254,-0.013148630037903786,0.011094593442976475,-0.0006776457885280252,-0.007002686616033316
0.021495379507541656,0.0028640376403927803,-0.012907993979752064,0.011355938389897346,-0.0006144169019535184,-0.007331082131713629
0.021596381440758705,0.0027643388602882624,-0.013181603513658047,0.011305655352771282,-0.0005966746248304844,-0.00770234689116478
0.02176065184175968,0.002744270721450448,-0.01256268285214901,0.01179980393499136,-0.0005815140902996063,-0.006990437861531973
0.021793143823742867,0.002884629415348172,-0.0128486854955554,0.012004571035504341,-0.0005716707091778517,-0.007090452127158642
0.02186921052634716,0.003224034095183015,-0.01268062274903059,0.012136339209973812,-0.0005608766805380583,-0.007388283498585224
0.021891029551625252,0.0031565276440232992,-0.013420269824564457,0.012393100187182426,-0.0005399269866757095,-0.007227656897157431
0.021494142711162567,0.002839999971911311,-0.01331342663615942,0.011801419779658318,-0.0004998453077860177,-0.007201528642326593
0.02176133543252945,0.0029979748651385307,-0.014130803756415844,0.012021730653941631,-0.0005286067607812583,-0.007473113480955362
0.022320158779621124,0.003066534409299493,-0.013566060923039913,0.011854705400764942,-0.0005306695820763707,-0.007530895993113518
0.021466458216309547,0.0030397046357393265,-0.013765920884907246,0.011936183087527752,-0.0005231311079114676,-0.007485259789973497
0.021892689168453217,0.0033666114322841167,-0.01338470820337534,0.01188415102660656,-0.0005361217772588134,-0.007286442443728447
0.022080332040786743,0.0031661586835980415,-0.013040713965892792,0.011408749036490917,-0.0005159298307262361,-0.007427533157169819
0.02288341335952282,0.003182919230312109,-0.012862995266914368,0.011861331760883331,-0.000618989928625524,-0.007533651776611805
0.022395644336938858,0.003233689581975341,-0.012686080299317837,0.011641934514045715,-0.0006569110555574298,-0.00742688961327076
0.022187568247318268,0.0032543870620429516,-0.014009174890816212,0.011681773699820042,-0.0005922371638007462,-0.007346469443291426
0.020004743710160255,0.003404725808650255,-0.013405495323240757,0.011980804614722729,-0.0005340672796592116,-0.007095447741448879
0.022251959890127182,0.003619997762143612,-0.013836381025612354,0.012086139060556889,-0.0005250705289654434,-0.007706089876592159
0.02295304276049137,0.0032490557059645653,-0.013125790283083916,0.012723769061267376,-0.0005173776880837977,-0.007919496856629848
0.022567661479115486,0.0034181030932813883,-0.013526825234293938,0.012633059173822403,-0.00048023706767708063,-0.007738824933767319
0.022567661479115486,0.0034181030932813883,-0.013526825234293938,0.012633059173822403,-0.00048023706767708063,-0.007738824933767319
0.022164030000567436,0.003088878933340311,-0.012747393921017647,0.012839012779295444,-0.0004463403020054102,-0.007731075864285231
0.022938216105103493,0.0033555596601217985,-0.013030966743826866,0.012584412470459938,-0.0004168013983871788,-0.007687383331358433
0.02299569360911846,0.0036303182132542133,-0.01406877115368843,0.012648061849176884,-0.00039092497900128365,-0.007900254800915718
0.022840704768896103,0.0036133171524852514,-0.014218439348042011,0.013108487240970135,-0.0003680746885947883,-0.007657678797841072
0.02211112156510353,0.003487606067210436,-0.013928794302046299,0.012953734956681728,-0.00037029996747151017,-0.007983051240444183
0.02211112156510353,0.003487606067210436,-0.013928794302046299,0.012953734956681728,-0.00037029996747151017,-0.007983051240444183
0.022493937984108925,0.002676561241969466,-0.013909798115491867,0.011986288242042065,-0.0003409217169973999,-0.008777018636465073
0.023214977234601974,0.0017075452487915754,-0.013577819801867008,0.01166639942675829,-0.00032552756601944566,-0.008362023159861565
0.022814011201262474,0.0012358153471723199,-0.013124754652380943,0.011829611845314503,-0.00031144561944529414,-0.008434380404651165
0.02273855172097683,0.0011533465003594756,-0.01375957764685154,0.011847490444779396,-0.0002759647322818637,-0.008914685808122158
0.023125994950532913,0.0011081285774707794,-0.013571465387940407,0.011679746210575104,-0.00024022645084187388,-0.008302662521600723
0.023132994771003723,0.0009283136459998786,-0.01391567662358284,0.012906697578728199,-0.0002267420059069991,-0.008689201436936855
0.02324364148080349,0.0010727246990427375,-0.01385923195630312,0.01237734965980053,-0.0002531478530727327,-0.00843993853777647
0.023282522335648537,0.002441088203340769,-0.01405059453099966,0.013241576962172985,-0.00024669652339071035,-0.008657380007207394
0.02320830337703228,0.0022340291179716587,-0.01325925998389721,0.012951615266501904,-0.00027292410959489644,-0.00871508289128542
0.02347850613296032,0.002019404200837016,-0.014428493566811085,0.012719663791358471,-0.0002990584180224687,-0.00910373218357563
0.023754525929689407,0.0017220210283994675,-0.014157623052597046,0.012234541587531567,-0.0005742424982599914,-0.009077637456357479
0.023576196283102036,0.00154434097930789,-0.014632281847298145,0.012026127427816391,-0.0006260349764488637,-0.008896760642528534
0.02343311905860901,0.0011120387353003025,-0.013865884393453598,0.012396290898323059,-0.0005852858303114772,-0.0086807357147336
0.023920053616166115,0.0012173037976026535,-0.014509782195091248,0.01209022756665945,-0.00059414969291538,-0.008757305331528187
0.02390902303159237,0.0012064443435519934,-0.013959618285298347,0.012287469580769539,-0.0005611876840703189,-0.008872401900589466
0.024002889171242714,0.001646225107833743,-0.014615358784794807,0.012026004493236542,-0.0005850016023032367,-0.008739088661968708
0.02412494830787182,0.001898207701742649,-0.013905785046517849,0.011732751503586769,-0.0006056815036572516,-0.008375264704227448
0.024461083114147186,0.002005334012210369,-0.014952760189771652,0.012086211703717709,-0.0005878860247321427,-0.008716710843145847
0.024197084829211235,0.0017643517348915339,-0.01447982620447874,0.011827932670712471,-0.0005736408056691289,-0.009898996911942959
0.023950178176164627,0.0013754288665950298,-0.015057330019772053,0.012223408557474613,-0.0005593012319877744,-0.00929545983672142
0.023950178176164627,0.0013754288665950298,-0.015057330019772053,0.012223408557474613,-0.0005593012319877744,-0.00929545983672142
0.02409498579800129,0.0012610001722350717,-0.014081982895731926,0.012449219822883606,-0.0005503990687429905,-0.008904905989766121
0.02451285533607006,0.0013016534503549337,-0.014698771759867668,0.012815214693546295,-0.0005403967807069421,-0.008579968474805355
0.024476604536175728,0.0013137595960870385,-0.014083233661949635,0.012980288825929165,-0.000499926449265331,-0.008895950391888618
0.024614254012703896,0.00141365104354918,-0.014880158938467503,0.012911700643599033,-0.0005248140078037977,-0.009174379520118237
0.02510663866996765,0.002047321991994977,-0.014780156314373016,0.012881534174084663,-0.0004936076584272087,-0.008860808797180653
0.02440769039094448,0.002043720567598939,-0.014744751155376434,0.012509830296039581,-0.0004927442059852183,-0.00908468384295702
0.024680061265826225,0.001985684735700488,-0.014378322288393974,0.012780497781932354,-0.0005576460971496999,-0.008959593251347542
0.02498565800487995,0.0017933333292603493,-0.014085792005062103,0.012846040539443493,-0.0005860223318450153,-0.009132293052971363
0.02513173595070839,0.001789855770766735,-0.014757937751710415,0.012794687412679195,-0.000821831519715488,-0.009315423667430878
0.023585423827171326,0.001877124304883182,-0.014597251079976559,0.012675756588578224,-0.0009060237789526582,-0.00908379815518856
0.024883802980184555,0.0019331584917381406,-0.014624865725636482,0.013165510259568691,-0.0007961561204865575,-0.009071786887943745
0.025567466393113136,0.002349464688450098,-0.014009276404976845,0.012889205478131771,-0.0008021646062843502,-0.009158045053482056
0.02573033608496189,0.0023116173688322306,-0.014291953295469284,0.012980164960026741,-0.0007177302031777799,-0.008052526973187923
0.024907244369387627,0.0024437718093395233,-0.01422427874058485,0.012399897910654545,-0.000688931264448911,-0.007983403280377388
0.02531910501420498,0.002312709577381611,-0.014931024983525276,0.012625209987163544,-0.0006651572766713798,-0.008409026078879833
0.024463417008519173,0.0021680514328181744,-0.015159377828240395,0.012646060436964035,-0.0006112567498348653,-0.008767643943428993
0.024624012410640717,0.002097421558573842,-0.015105322934687138,0.012914665043354034,-0.0005484314169734716,-0.008469048887491226
0.025348758324980736,0.0020184856839478016,-0.014389676973223686,0.012965586967766285,-0.0004872774879913777,-0.008501694537699223
0.025487447157502174,0.002219261834397912,-0.014839026145637035,0.012648448348045349,-0.0005210347007960081,-0.00880096759647131
0.024835411459207535,0.002047020709142089,-0.014531902968883514,0.012698706239461899,-0.00047999576781876385,-0.008303316310048103
0.025457661598920822,0.0022347052581608295,-0.014861751347780228,0.012236973270773888,-0.0005093867657706141,-0.008640763349831104
0.02590608038008213,0.002070995047688484,-0.0152988126501441,0.012662975117564201,-0.0005083412397652864,-0.009314467199146748
0.02526792697608471,0.0022310568019747734,-0.015349503606557846,0.012442722916603088,-0.0005031977780163288,-0.009307170286774635
0.02553984709084034,0.002258722670376301,-0.015590041875839233,0.012983499094843864,-0.0005691483966074884,-0.009162288159132004
0.02528545632958412,0.002182041760534048,-0.015318507328629494,0.012749942019581795,-0.000627442030236125,-0.009214007295668125
0.02528545632958412,0.002182041760534048,-0.015318507328629494,0.012749942019581795,-0.000627442030236125,-0.009214007295668125
0.02508535422384739,0.002372718183323741,-0.015035398304462433,0.01290209498256445,-0.00064536725403741,-0.009112701751291752
0.025928709656000137,0.0025216955691576004,-0.014526131562888622,0.013106532394886017,-0.0006057616556063294,-0.009826899506151676
0.025987278670072556,0.002524296287447214,-0.01556225772947073,0.013071209192276001,-0.0006274004699662328,-0.009658712893724442
0.025506768375635147,0.00277089886367321,-0.01513999979943037,0.012898668646812439,-0.000581578235141933,-0.009207739494740963
0.025463484227657318,0.0024114414118230343,-0.015540356747806072,0.013274350203573704,-0.0005930368788540363,-0.009457078762352467
0.025645006448030472,0.002595476806163788,-0.015710432082414627,0.013112681917846203,-0.0005310758133418858,-0.009443080984055996
0.025987375527620316,0.0028629349544644356,-0.015222771093249321,0.013195207342505455,-0.0005635474808514118,-0.00920403003692627
0.025840628892183304,0.0030020219273865223,-0.01591096818447113,0.013127336278557777,-0.0005783981760032475,-0.009213757701218128
0.026325102895498276,0.0028055976144969463,-0.015340490266680717,0.013910513371229172,-0.0005478426464833319,-0.009123986586928368
0.025813117623329163,0.0030040787532925606,-0.015867896378040314,0.01344876829534769,-0.0005581375444307923,-0.00890280306339264
0.02574855275452137,0.0027027789037674665,-0.016151458024978638,0.013818936422467232,-0.0005332850269041955,-0.009094779379665852
0.025678936392068863,0.002685386687517166,-0.016046350821852684,0.013454864732921124,-0.0004974957555532455,-0.009771213866770267
0.025894878432154655,0.0027890705969184637,-0.016187340021133423,0.01330767571926117,-0.00048311505815945566,-0.009298626333475113
0.02610117755830288,0.003135357052087784,-0.015510612167418003,0.013236336410045624,-0.00045391201274469495,-0.009836241602897644
0.025724738836288452,0.0031691768672317266,-0.015894830226898193,0.013371096923947334,-0.0004134449700359255,-0.009464995004236698
0.026097498834133148,0.002708478132262826,-0.015529800206422806,0.013958488591015339,-0.0004342305473983288,-0.009425655007362366
0.026735126972198486,0.002749116625636816,-0.016060883179306984,0.013788815587759018,-0.00041782023617997766,-0.009831251576542854
0.026462247595191002,0.003030042164027691,-0.016263285651803017,0.014307026751339436,-0.0003888422215823084,-0.010044612921774387
0.026356982067227364,0.003092677565291524,-0.016372742131352425,0.014071248471736908,-0.00040724888094700873,-0.009629352018237114
0.026280788704752922,0.003084484487771988,-0.016364021226763725,0.013587330467998981,-0.000395541253965348,-0.00959151890128851
0.02632002718746662,0.003000914352014661,-0.016056066378951073,0.0128419054672122,-0.0003989662800449878,-0.010225040838122368
0.02666512131690979,0.0030510006472468376,-0.016454659402370453,0.01386532187461853,-0.0004007481911685318,-0.00981806218624115
0.02748493105173111,0.0031655102502554655,-0.015979871153831482,0.013372446410357952,-0.0003832791990134865,-0.010187189094722271
0.027015021070837975,0.0034032256808131933,-0.01667204312980175,0.013640054501593113,-0.0004015955200884491,-0.010040679946541786
0.027130629867315292,0.003215173725038767,-0.016475094482302666,0.013260438106954098,-0.00037183534004725516,-0.009904875420033932
0.025671344250440598,0.003041237825527787,-0.016560878604650497,0.013699611648917198,-0.0004075170436408371,-0.009943041019141674
0.026221346110105515,0.002954379189759493,-0.015931403264403343,0.013354660011827946,-0.0003827948239631951,-0.009971401654183865
0.026221346110105515,0.002954379189759493,-0.015931403264403343,0.013354660011827946,-0.0003827948239631951,-0.009971401654183865
0.026577940210700035,0.003363722935318947,-0.016313666477799416,0.013554440811276436,-0.0003911211097147316,-0.009760666638612747
0.026577940210700035,0.003363722935318947,-0.016313666477799416,0.013554440811276436,-0.0003911211097147316,-0.009760666638612747
0.026998138055205345,0.0033973653335124254,-0.01603853516280651,0.013577796518802643,-0.00040725720464251935,-0.010462300851941109
0.027790455147624016,0.003216587007045746,-0.01678057760000229,0.014133958145976067,-0.0003969462704844773,-0.009649844840168953
0.027410482987761497,0.00366608751937747,-0.016217472031712532,0.014273803681135178,-0.00044417602475732565,-0.009627747349441051
0.026932666078209877,0.003420440247282386,-0.0160212442278862,0.014609712176024914,-0.00048664354835636914,-0.009874294511973858
0.026927286759018898,0.003564914921298623,-0.015965135768055916,0.014425383880734444,-0.0005065696896053851,-0.010291491635143757
0.027525948360562325,0.003235424868762493,-0.015837164595723152,0.014098303392529488,-0.0005186639027670026,-0.00998876616358757
0.027947690337896347,0.003176608821377158,-0.016009565442800522,0.01396145485341549,-0.0005135354585945606,-0.010457532480359077
0.02766711637377739,0.0032519723754376173,-0.016577893868088722,0.013992467895150185,-0.0006722563994117081,-0.009429325349628925
0.02742195688188076,0.00352268829010427,-0.01628759317100048,0.013732473365962505,-0.0007024194928817451,-0.009853459894657135
0.02756524831056595,0.0033131528180092573,-0.016894785687327385,0.013871757313609123,-0.0006732024485245347,-0.010533174499869347
0.02766581065952778,0.00361169152893126,-0.016351643949747086,0.014362894929945469,-0.0006018942804075778,-0.010940233245491982
0.02759045735001564,0.003383032511919737,-0.016289085149765015,0.013875078409910202,-0.0006076665013097227,-0.010181807912886143
0.026153426617383957,0.003559607081115246,-0.015864595770835876,0.013927056454122066,-0.0005727001116611063,-0.0100275669246912
0.028207499533891678,0.0036626658402383327,-0.015966910868883133,0.013631896115839481,-0.0005261610494926572,-0.010081997141242027
0.028127210214734077,0.003742949804291129,-0.01672074757516384,0.013693646527826786,-0.0005501207779161632,-0.010587045922875404
0.027941033244132996,0.0032725369092077017,-0.016302337870001793,0.013163571245968342,-0.0005149620119482279,-0.01020540576428175
0.02779230661690235,0.003200565231963992,-0.0160694420337677,0.013731727376580238,-0.00047884139348752797,-0.010422647930681705
0.027845365926623344,0.003319550771266222,-0.015676671639084816,0.01359995361417532,-0.0004338319704402238,-0.010140539146959782
0.028068754822015762,0.0036348216235637665,-0.016238804906606674,0.014027813449501991,-0.0004639115068130195,-0.010530417785048485
0.02795114368200302,0.00389279006049037,-0.016061842441558838,0.013443314470350742,-0.0004709322820417583,-0.010399261489510536
0.028468849137425423,0.003896912792697549,-0.01636114902794361,0.014334585517644882,-0.0004685808962676674,-0.010405153036117554
0.027818147093057632,0.003471574978902936,-0.016809798777103424,0.013429275713860989,-0.0004921989748254418,-0.01075830776244402
0.028219375759363174,0.003500110935419798,-0.016237827017903328,0.013715875335037708,-0.00047049205750226974,-0.010839941911399364
0.028699591755867004,0.0037280016113072634,-0.016833655536174774,0.013473295606672764,-0.0006180243217386305,-0.010796649381518364
0.028699591755867004,0.0037280016113072634,-0.016833655536174774,0.013473295606672764,-0.0006180243217386305,-0.010796649381518364
0.02872733771800995,0.0034343877341598272,-0.016677821055054665,0.013771145604550838,-0.0006656020414084196,-0.011284519918262959
0.02872733771800995,0.0034343877341598272,-0.016677821055054665,0.013771145604550838,-0.0006656020414084196,-0.011284519918262959
0.028771445155143738,0.0034989439882338047,-0.0167350135743618,0.013913782313466072,-0.0006228149868547916,-0.011422775685787201
0.028760574758052826,0.0037237859796732664,-0.01731899380683899,0.014188514091074467,-0.0006434517563320696,-0.010743856430053711
0.02933165803551674,0.0032204496674239635,-0.01697733998298645,0.014536711387336254,-0.0007096892804838717,-0.010881966911256313
0.029556024819612503,0.0027632650453597307,-0.017179081216454506,0.014790060929954052,-0.0006778175011277199,-0.01119841169565916
0.02967044711112976,0.0030177223961800337,-0.01682499796152115,0.014960119500756264,-0.0006539009627886117,-0.01088664773851633
0.029261451214551926,0.0031409275252372026,-0.016896214336156845,0.015005367808043957,-0.000631891714874655,-0.010596591979265213
0.02988610416650772,0.0035181574057787657,-0.017343221232295036,0.014354442246258259,-0.0005768411210738122,-0.010703016072511673
0.030439382418990135,0.0033070864155888557,-0.015975255519151688,0.014532911591231823,-0.0005987048498354852,-0.010939175263047218
0.031023288145661354,0.0031452616676688194,-0.01782091148197651,0.014061160385608673,-0.0005576999974437058,-0.011092141270637512
0.029873451218008995,0.0028910792898386717,-0.01762434095144272,0.014337204396724701,-0.0005417802021838725,-0.01089581660926342
0.02918097749352455,0.003155844984576106,-0.01746666245162487,0.01434530969709158,-0.0005767233087681234,-0.011352444998919964
0.030925406143069267,0.0032263570465147495,-0.018317637965083122,0.014449146576225758,-0.0006021305453032255,-0.012067325413227081
0.03125105798244476,0.0034417016431689262,-0.017617247998714447,0.014401230029761791,-0.0005979315610602498,-0.01160223688930273
0.030649760738015175,0.003043939359486103,-0.018054381012916565,0.01437330525368452,-0.000585070694796741,-0.011366710066795349
0.03135259076952934,0.0030705751851201057,-0.01772165298461914,0.01423316914588213,-0.0006486379425041378,-0.011195276863873005
0.03207011893391609,0.003028911305591464,-0.01748194731771946,0.01428627036511898,-0.0006572238053195179,-0.011143306270241737
0.030955735594034195,0.003013812005519867,-0.017942290753126144,0.014279608614742756,-0.0006346633890643716,-0.011156301945447922
0.030057430267333984,0.0032142801210284233,-0.017869604751467705,0.014193816110491753,-0.0006122476770542562,-0.010857841931283474
0.03118419088423252,0.002906830981373787,-0.018247367814183235,0.014172433875501156,-0.0005527551984414458,-0.010859622620046139
0.031694211065769196,0.003068732563406229,-0.018295323476195335,0.014502356760203838,-0.000501558359246701,-0.011259563267230988
0.03136032074689865,0.0034652315080165863,-0.017915161326527596,0.01479830127209425,-0.0005149695789441466,-0.011419552378356457
0.03109140694141388,0.003389576217159629,-0.01847895234823227,0.01504755299538374,-0.0004920816281810403,-0.01166762225329876
0.03174715116620064,0.0034928517416119576,-0.018224438652396202,0.0149780148640275,-0.00045746390242129564,-0.011482587084174156
0.031539320945739746,0.003233583178371191,-0.018534988164901733,0.015474163927137852,-0.0004832110134884715,-0.011205356568098068
0.03138676658272743,0.003595713060349226,-0.018737006932497025,0.015421789139509201,-0.000457244721474126,-0.011273504234850407
0.03178945183753967,0.0033157155849039555,-0.01856205239892006,0.015615733340382576,-0.0004095706681255251,-0.011803233064711094
0.03184967115521431,0.0033836334478110075,-0.018121303990483284,0.015181961469352245,-0.0003750052710529417,-0.011785534210503101
0.03175683692097664,0.0032680334988981485,-0.01861688867211342,0.01543970126658678,-0.0004058396443724632,-0.011827589012682438
0.03175683692097664,0.0032680334988981485,-0.01861688867211342,0.01543970126658678,-0.0004058396443724632,-0.011827589012682438
0.03137621656060219,0.003374490886926651,-0.017868293449282646,0.015413591638207436,-0.00038502333336509764,-0.011953066103160381
0.03152152895927429,0.0036919517442584038,-0.018235277384519577,0.01642063446342945,-0.0003598828916437924,-0.011928817257285118
0.03172749653458595,0.003930788021534681,-0.019098034128546715,0.016421455889940262,-0.0003788196772802621,-0.011758167296648026
0.031935013830661774,0.0034898219164460897,-0.018068594858050346,0.01645471155643463,-0.0003695263003464788,-0.011731245554983616
0.032015360891819,0.0035636206157505512,-0.018500735983252525,0.01618196628987789,-0.0003498453297652304,-0.01197638176381588
0.03270938992500305,0.0034452800173312426,-0.017904063686728477,0.01539963111281395,-0.0003583183279260993,-0.012346348725259304
0.03337107598781586,0.0035403252113610506,-0.01854397915303707,0.01515816431492567,-0.00034266046714037657,-0.012403476051986217
0.03278322145342827,0.0036949359346181154,-0.0184475164860487,0.015525567345321178,-0.0003652997547760606,-0.012202188372612
0.031020697206258774,0.0033318831119686365,-0.018425079062581062,0.015247906558215618,-0.0003845311875920743,-0.012197398580610752
0.031755249947309494,0.0034478993620723486,-0.018639247864484787,0.015606463886797428,-0.0003888129140250385,-0.012149810791015625
0.032753728330135345,0.0036121434532105923,-0.018421828746795654,0.015008494257926941,-0.0004211807972751558,-0.012204766273498535
0.032559797167778015,0.0036688765976577997,-0.018634958192706108,0.015297413803637028,-0.00044758827425539494,-0.01287838350981474
0.03305143490433693,0.0036423022393137217,-0.018891751766204834,0.014885107055306435,-0.0004279504355508834,-0.012474138289690018
0.033294644206762314,0.0036381783429533243,-0.018421441316604614,0.015476875938475132,-0.0006633072043769062,-0.01210012286901474
0.03315134719014168,0.0041823540814220905,-0.018919169902801514,0.014825304038822651,-0.0007014390430413187,-0.01231053750962019
0.03220416605472565,0.003617154434323311,-0.019058819860219955,0.015140445902943611,-0.000647006556391716,-0.012314367108047009
0.032209549099206924,0.0035071095917373896,-0.0180212315171957,0.01481535378843546,-0.0006624423549510539,-0.012675300240516663
0.03253426402807236,0.004240612965077162,-0.01886598765850067,0.015006315894424915,-0.0006096497527323663,-0.012496329843997955
0.032893288880586624,0.004153812769800425,-0.01908809132874012,0.014951207675039768,-0.0005948760081082582,-0.012584561482071877
0.033091314136981964,0.003974247258156538,-0.018397131934762,0.015142839401960373,-0.0005816812044940889,-0.012545467354357243
0.03295981511473656,0.003930171951651573,-0.018766479566693306,0.01558550726622343,-0.0005618590512312949,-0.012398974969983101
0.03241570293903351,0.0039941356517374516,-0.019013846293091774,0.015594057738780975,-0.000522219983395189,-0.012591022066771984
0.03274263069033623,0.004048272967338562,-0.01845504529774189,0.015770763158798218,-0.0005379387876018882,-0.01238853670656681
0.032753992825746536,0.004024536814540625,-0.019189970567822456,0.015810513868927956,-0.000508429016917944,-0.012902776710689068
0.03295697271823883,0.003996165003627539,-0.018893282860517502,0.015388436615467072,-0.00046591024147346616,-0.012718028388917446
0.03297119960188866,0.004490673076361418,-0.01863146387040615,0.015246660448610783,-0.00046356618986465037,-0.012990051880478859
0.033288296312093735,0.004696130286902189,-0.01940319500863552,0.01569654978811741,-0.00046119149192236364,-0.012942979112267494
0.033288296312093735,0.004696130286902189,-0.01940319500863552,0.01569654978811741,-0.00046119149192236364,-0.012942979112267494
0.03378744795918465,0.004289016127586365,-0.019924059510231018,0.0152292400598526,-0.00046159751946106553,-0.012556545436382294
0.03294703736901283,0.00398191437125206,-0.018888015300035477,0.015869617462158203,-0.0004597337974701077,-0.013000094331800938
0.03347359597682953,0.004094598814845085,-0.019300861284136772,0.016008591279387474,-0.00047849459224380553,-0.012882334180176258
0.03359000012278557,0.004127643071115017,-0.01902514323592186,0.015871498733758926,-0.0004911507130600512,-0.012990545481443405
0.03361097350716591,0.004224216099828482,-0.01940056122839451,0.01570851169526577,-0.0005186239723116159,-0.01268710009753704
0.03386050462722778,0.004449334926903248,-0.019836723804473877,0.015674041584134102,-0.0005477387458086014,-0.012683316133916378
0.03376789018511772,0.004115383140742779,-0.019718028604984283,0.015337943099439144,-0.0007954381289891899,-0.013220654800534248
0.03369232267141342,0.0039862473495304585,-0.019707011058926582,0.015896454453468323,-0.0009137660381384194,-0.013517329469323158
0.033701807260513306,0.0039650737307965755,-0.019967032596468925,0.015643233433365822,-0.0009187967516481876,-0.013601456768810749
0.03397146984934807,0.0044723451137542725,-0.019617758691310883,0.01590985618531704,-0.0008748951368033886,-0.013798612169921398
0.03442706540226936,0.004156671464443207,-0.020848531275987625,0.015565227717161179,-0.0010554197942838073,-0.01367488969117403
0.03443942591547966,0.004171405918896198,-0.020959464833140373,0.01594344526529312,-0.0009633844601921737,-0.0134090855717659
0.0343635156750679,0.004072016570717096,-0.020447401329874992,0.01584875024855137,-0.0009491601376794279,-0.013424168340861797
0.03430241718888283,0.004383518826216459,-0.01950538530945778,0.016175338998436928,-0.0009340865071862936,-0.013917379081249237
0.034368738532066345,0.004082285333424807,-0.020085711032152176,0.015980947762727737,-0.0008681088802404702,-0.014112642034888268
0.03553999960422516,0.004387298133224249,-0.020655708387494087,0.01522005908191204,-0.0008672610856592655,-0.014112861827015877
0.035479653626680374,0.004147831816226244,-0.02042555995285511,0.01501128263771534,-0.0008716798620298505,-0.01376590970903635
0.03363872691988945,0.00437249056994915,-0.020691635087132454,0.014899027533829212,-0.0008753064321354032,-0.013809962198138237
0.03417937085032463,0.004125096369534731,-0.02076495811343193,0.01583990827202797,-0.000815050967503339,-0.013338522985577583
0.03528793156147003,0.00408075051382184,-0.019930442795157433,0.015634361654520035,-0.0008631557575426996,-0.013546834699809551
0.034869734197854996,0.0038810691330581903,-0.020416973158717155,0.015841996297240257,-0.0007353145629167557,-0.013327030465006828
0.035763807594776154,0.0037502357736229897,-0.020761391147971153,0.015445690602064133,-0.0007493968005292118,-0.013222631067037582
0.03473867103457451,0.0038352550473064184,-0.020575204864144325,0.016153676435351372,-0.0006646729307249188,-0.013122931122779846
0.034312378615140915,0.004509948659688234,-0.020583361387252808,0.016050297766923904,-0.0006641502259299159,-0.013699471019208431
0.03404213488101959,0.004712431225925684,-0.021152472123503685,0.016239764168858528,-0.0006207633414305747,-0.014186486601829529
0.0350932776927948,0.004413209855556488,-0.021047016605734825,0.016136448830366135,-0.0006360543775372207,-0.014309089630842209
0.035601865500211716,0.0040220050141215324,-0.020664900541305542,0.016301622614264488,-0.0005688815726898611,-0.014045276679098606
0.035601865500211716,0.0040220050141215324,-0.020664900541305542,0.016301622614264488,-0.0005688815726898611,-0.014045276679098606
0.03471379354596138,0.004341629799455404,-0.020722266286611557,0.016701214015483856,-0.0005751801654696465,-0.01413807738572359
0.03563037887215614,0.004139895085245371,-0.021338408812880516,0.016028420999646187,-0.0005832803435623646,-0.014009961858391762
0.03514530137181282,0.004242560360580683,-0.02101890929043293,0.016377266496419907,-0.0005957858520559967,-0.014129326678812504
0.03576165437698364,0.004505036864429712,-0.021038874983787537,0.016729945316910744,-0.0005557700642384589,-0.01434003934264183
0.03509288281202316,0.004704718478024006,-0.021259307861328125,0.016626667231321335,-0.0006955580902285874,-0.014200958423316479
0.03523742035031319,0.004734977148473263,-0.021986575797200203,0.016284838318824768,-0.0007047272520139813,-0.014448619447648525
0.03610138222575188,0.004684606567025185,-0.02102206088602543,0.016906337812542915,-0.0006481768214143813,-0.014268851839005947
0.0359882116317749,0.004944716580212116,-0.021097959950566292,0.0167471244931221,-0.0006633952725678682,-0.014298390597105026
0.035514600574970245,0.004865183494985104,-0.021227844059467316,0.017350202426314354,-0.0006104357889853418,-0.014203913509845734
0.03576615825295448,0.004488538485020399,-0.0215140450745821,0.016801735386252403,-0.0006310291937552392,-0.01422544289380312
0.03753598406910896,0.004420317243784666,-0.02123964950442314,0.016702447086572647,-0.0005879522650502622,-0.014539651572704315
0.0369977131485939,0.004718009382486343,-0.021509869024157524,0.01656821183860302,-0.0005733220023103058,-0.014613182283937931
0.03489099070429802,0.00466617988422513,-0.021381419152021408,0.01595003344118595,-0.0005999498534947634,-0.014535242691636086
0.036451585590839386,0.004146512597799301,-0.021164096891880035,0.01644747704267502,-0.0006299468805082142,-0.014701774343848228
0.03682674840092659,0.0038271062076091766,-0.021282535046339035,0.01643059216439724,-0.0006605432718060911,-0.014542518183588982
0.03640245273709297,0.004301332402974367,-0.021369371563196182,0.016960853710770607,-0.0009559130994603038,-0.01440190989524126
0.03720633685588837,0.004141508601605892,-0.021706052124500275,0.016605127602815628,-0.0009108632802963257,-0.014456297270953655
0.03796962648630142,0.0042389072477817535,-0.021409902721643448,0.016226444393396378,-0.0008977077668532729,-0.01536632515490055
0.0356772355735302,0.004618917591869831,-0.021072331815958023,0.016255002468824387,-0.0008972077048383653,-0.01494252122938633
0.0365402027964592,0.004638360347598791,-0.021679705008864403,0.016196254640817642,-0.0009032569942064583,-0.013804600574076176
0.037844106554985046,0.004382566083222628,-0.02178611420094967,0.0170863289386034,-0.0008997550467029214,-0.013825291767716408
0.03685218095779419,0.004121279809623957,-0.02119956910610199,0.016837887465953827,-0.0009172405116260052,-0.014415876939892769
0.03685218095779419,0.004121279809623957,-0.02119956910610199,0.016837887465953827,-0.0009172405116260052,-0.014415876939892769
0.03691134229302406,0.004134372342377901,-0.020810911431908607,0.016689501702785492,-0.0009009344503283501,-0.014795425347983837
0.03643905743956566,0.004124873783439398,-0.021487975493073463,0.01642930880188942,-0.0008332158904522657,-0.014672423712909222
0.03731673210859299,0.004455630201846361,-0.022398844361305237,0.016330985352396965,-0.000928030873183161,-0.014865764416754246
0.03714426979422569,0.0044432529248297215,-0.02203599363565445,0.015856808051466942,-0.0009292589384131134,-0.01475580409169197
0.03728440776467323,0.004339807201176882,-0.021597767248749733,0.016713472083210945,-0.0008590499055571854,-0.014767751097679138
0.03728024661540985,0.004470190964639187,-0.022234538570046425,0.016985613852739334,-0.000835878134239465,-0.01494999136775732
0.03744887188076973,0.004535744432359934,-0.023497147485613823,0.017520897090435028,-0.0007563413819298148,-0.015174402855336666
0.037726085633039474,0.004376731812953949,-0.022635556757450104,0.01714126020669937,-0.0007620130199939013,-0.014836118556559086
0.03780799359083176,0.00403175363317132,-0.02209925651550293,0.01677296683192253,-0.0006809900514781475,-0.015263260342180729
0.037511635571718216,0.004293941427022219,-0.02229294739663601,0.017090896144509315,-0.000698980875313282,-0.015209916979074478
0.03621576353907585,0.004517029505223036,-0.022176869213581085,0.016658468171954155,-0.0006783166318200529,-0.01527853962033987
0.03819141164422035,0.004589790012687445,-0.022001266479492188,0.01663891226053238,-0.0006609644624404609,-0.014963173307478428
0.038248658180236816,0.004198103677481413,-0.02273695543408394,0.016292791813611984,-0.0007196491351351142,-0.014948981814086437
0.03728875145316124,0.004484525881707668,-0.022618288174271584,0.016539281234145164,-0.0007580716628581285,-0.014728697016835213
0.037895482033491135,0.004315500147640705,-0.022550182417035103,0.017043747007846832,-0.0007895280723460019,-0.015036250464618206
0.038170747458934784,0.0045040324330329895,-0.02276402711868286,0.01743590272963047,-0.0012773904018104076,-0.014901824295520782
0.03817985951900482,0.005017086863517761,-0.022859817370772362,0.018185660243034363,-0.0010998465586453676,-0.01535777561366558
0.03822735697031021,0.004443854559212923,-0.0224507637321949,0.017797090113162994,-0.0009897671407088637,-0.015049752779304981
0.03809382766485214,0.0044380794279277325,-0.02274138852953911,0.01775444857776165,-0.0009095834102481604,-0.014769131317734718
0.03768034651875496,0.004089194815605879,-0.02232648991048336,0.017770281061530113,-0.0008527233731001616,-0.014636298641562462
0.037622272968292236,0.003921739291399717,-0.022289682179689407,0.01701139472424984,-0.0008058595703914762,-0.01490088365972042
0.03822852298617363,0.004171157255768776,-0.022841626778244972,0.017382562160491943,-0.0007318280404433608,-0.01524023525416851
0.03912816196680069,0.004526813514530659,-0.022904131561517715,0.017565494403243065,-0.0005733803263865411,-0.015797670930624008
0.038515448570251465,0.004666508641093969,-0.022907745093107224,0.017827071249485016,-0.0005529936752282083,-0.01601625420153141
0.03759564086794853,0.004740191623568535,-0.022940510883927345,0.018234653398394585,-0.0005842852406203747,-0.015466328710317612
0.03824734315276146,0.004456209484487772,-0.022511731833219528,0.017834439873695374,-0.0006130071124061942,-0.014907730743288994
0.03824734315276146,0.004456209484487772,-0.022511731833219528,0.017834439873695374,-0.0006130071124061942,-0.014907730743288994
0.03828682750463486,0.004041370935738087,-0.02256261184811592,0.01790652610361576,-0.0006024730391800404,-0.015048403292894363
0.03966764733195305,0.0040387739427387714,-0.022809268906712532,0.017543496564030647,-0.0007490862626582384,-0.015427308157086372
0.039529815316200256,0.004103193059563637,-0.023027967661619186,0.017322378233075142,-0.0007185329450294375,-0.015102174133062363
