davideferrari95/blind_handover_controller/data/Test 277 - [2024-02-08 -- 13-51-38]/joint_states_data.csv
shoulder_pan_joint,shoulder_lift_joint,elbow_joint,wrist_1_joint,wrist_2_joint,wrist_3_joint
0.006270112935453653,0.008450831286609173,-0.010608561336994171,0.004340973682701588,-0.00013580209633801132,0.006281960289925337
0.006180481053888798,0.008418386802077293,-0.010182635858654976,0.00439115846529603,-0.00013293634401634336,0.0064310054294764996
0.006180481053888798,0.008418386802077293,-0.010182635858654976,0.00439115846529603,-0.00013293634401634336,0.0064310054294764996
0.006180481053888798,0.008418386802077293,-0.010182635858654976,0.00439115846529603,-0.00013293634401634336,0.0064310054294764996
0.006217859219759703,0.008005091920495033,-0.010861199349164963,0.004017393570393324,-0.00013018918980378658,0.0067545282654464245
0.005519401282072067,0.008211186155676842,-0.010669434443116188,0.003570600412786007,-0.0001445607776986435,0.006350113544613123
0.006045892834663391,0.008962063118815422,-0.011925154365599155,0.003191938390955329,-0.00014280299365054816,0.006122829392552376
0.006140611134469509,0.008361605927348137,-0.010408574715256691,0.003072513733059168,-0.00014009670121595263,0.006123873870819807
0.00631203968077898,0.008295438252389431,-0.009858720004558563,0.0033503067679703236,-0.00013742735609412193,0.006610145792365074
0.005672084633260965,0.008560207672417164,-0.01095055602490902,0.0036283356603235006,-0.00013485376257449389,0.0068901884369552135
0.005742310080677271,0.008841900154948235,-0.010414366610348225,0.0037114955484867096,-0.00013237430539447814,0.006505989003926516
0.006436709314584732,0.008345379494130611,-0.01043144054710865,0.003706882009282708,-0.00012526617501862347,0.006441712379455566
0.006349978037178516,0.008205069229006767,-0.01092643104493618,0.00341243133880198,-0.00012055235129082575,0.006374335382133722
0.006275558844208717,0.009025808423757553,-0.010267909616231918,0.0033093378879129887,-0.00011732045823009685,0.006229734048247337
0.005697230342775583,0.008471963927149773,-0.01088985800743103,0.0032670365180820227,-0.00011433375038905069,0.006422614678740501
0.005720089189708233,0.008076676167547703,-0.010653028264641762,0.0034385717008262873,-0.00011150029604323208,0.006637280341237783
0.006571602076292038,0.008330262266099453,-0.010594287887215614,0.0032445346005260944,-0.00012910898658446968,0.00684398552402854
0.006177346222102642,0.008827879093587399,-0.01150591392070055,0.003243786748498678,-0.00012738742225337774,0.007241348270326853
0.005913807079195976,0.008297800086438656,-0.01155844796448946,0.0032744337804615498,-0.00012453595991246402,0.006756126414984465
0.006120656616985798,0.007829688489437103,-0.010528353974223137,0.003235638840124011,-0.00012173403956694528,0.006311754230409861
0.005934000015258789,0.008232470601797104,-0.010973021388053894,0.003253862028941512,-0.00011905055725947022,0.00629864726215601
0.006349021103233099,0.008712701499462128,-0.010703726671636105,0.0033871419727802277,-0.00011648234794847667,0.006308495532721281
0.0063149346970021725,0.00795468594878912,-0.010937698185443878,0.003440901869907975,-0.00011402285599615425,0.006424471270292997
0.0063584004528820515,0.008220333606004715,-0.011066573671996593,0.003478989703580737,-0.0001290348736802116,0.006752656772732735
0.006050538271665573,0.00902422983199358,-0.010622515343129635,0.0032602932769805193,-0.00012755529314745218,0.006484165787696838
0.005970944184809923,0.008592445403337479,-0.010709302499890327,0.003387109376490116,-0.00012509642692748457,0.0061131808906793594
0.006237742956727743,0.00864232424646616,-0.01082267239689827,0.003402718110010028,-0.00012032304221065715,0.0069582462310791016
0.0065843528136610985,0.008075651712715626,-0.01150751393288374,0.0031835888512432575,-0.00011806796828750521,0.00694679981097579
0.006106241140514612,0.008976436220109463,-0.01074974238872528,0.00340438075363636,-0.00013028398097958416,0.006500085815787315
0.006106241140514612,0.008976436220109463,-0.01074974238872528,0.00340438075363636,-0.00013028398097958416,0.006500085815787315
0.005973379593342543,0.009236618876457214,-0.0103013776242733,0.003560522338375449,-0.00012991842231713235,0.006457892246544361
0.006601410452276468,0.00891891773790121,-0.010668586939573288,0.0036652465350925922,-0.0001277430565096438,0.0067895627580583096
0.006138945464044809,0.008580944500863552,-0.010259667411446571,0.003448044415563345,-0.0001255243259947747,0.006793621927499771
0.006029961165040731,0.008450615219771862,-0.010565224103629589,0.0032929570879787207,-0.00012337400403339416,0.006374455988407135
0.006432550959289074,0.008686384186148643,-0.010528894141316414,0.0033132173120975494,-0.00018251869187224656,0.006351207848638296
0.006190289277583361,0.008655105717480183,-0.010387452319264412,0.0031427082139998674,-0.00018378741515334696,0.006298533640801907
0.006423581391572952,0.008322728797793388,-0.011273358948528767,0.003010970540344715,-0.00017712308908812702,0.006977637764066458
0.0063079241663217545,0.008504299446940422,-0.010506954975426197,0.003054472152143717,-0.00017045011918526143,0.00656986003741622
0.0064764772541821,0.008674276061356068,-0.010596397332847118,0.003147105686366558,-0.00016423093620687723,0.006342762615531683
0.005858323536813259,0.008490500040352345,-0.011040214449167252,0.003455251222476363,-0.00015844737936276942,0.006332545541226864
0.006495547015219927,0.008939039893448353,-0.010495740920305252,0.0032838648185133934,-0.00015305732085835189,0.006330420263111591
0.00660783750936389,0.008396674878895283,-0.010192067362368107,0.003169676987454295,-0.00014802221267018467,0.006648545153439045
0.006383778993040323,0.0076433951035141945,-0.009943727403879166,0.0033867124002426863,-0.0001573640329297632,0.006413762923330069
0.006227892357856035,0.008156216703355312,-0.01044988539069891,0.0036345466505736113,-0.00016570751904509962,0.006050186697393656
0.006663606967777014,0.008536059409379959,-0.010671709664165974,0.0033460946287959814,-0.00016160900122486055,0.006029295269399881
0.006820218171924353,0.008162641897797585,-0.01021199207752943,0.003160922322422266,-0.0001569669839227572,0.006541459821164608
0.007336949463933706,0.007528240326792002,-0.010533441789448261,0.003243346931412816,-0.00015253672609105706,0.006729289889335632
0.0066056321375072,0.008354744873940945,-0.010453807190060616,0.0031969842966645956,-0.0001483459782321006,0.006402682047337294
0.006243657320737839,0.008591554127633572,-0.010217278264462948,0.0032905559055507183,-0.0001443793880753219,0.006259067449718714
0.006397622171789408,0.008267898112535477,-0.010112687014043331,0.0033174699638038874,-0.0001406195224262774,0.006540404632687569
0.006622707936912775,0.008085237815976143,-0.010579312220215797,0.0030405332800000906,-0.00013705041783396155,0.00685572624206543
0.006637822836637497,0.00874206144362688,-0.010268738493323326,0.003083128249272704,-0.0001336580462520942,0.006742099300026894
0.006516514346003532,0.008582009933888912,-0.010785090737044811,0.0029986975714564323,-0.0001304295874433592,0.006361399777233601
0.006516514346003532,0.008582009933888912,-0.010785090737044811,0.0029986975714564323,-0.0001304295874433592,0.006361399777233601
0.006695369258522987,0.007775531150400639,-0.010406543500721455,0.002888413844630122,-0.00014188025670591742,0.0066535756923258305
0.0065889074467122555,0.007793877273797989,-0.010329860262572765,0.0026494688354432583,-0.00013876042794436216,0.0063436985947191715
0.006434539332985878,0.007641781587153673,-0.010079660452902317,0.0026293208356946707,-0.000135770533233881,0.0063905008137226105
0.006627414375543594,0.007610466331243515,-0.01054597832262516,0.0025829796213656664,-0.00013290609058458358,0.006629776209592819
0.006627414375543594,0.007610466331243515,-0.01054597832262516,0.0025829796213656664,-0.00013290609058458358,0.006629776209592819
0.007743473164737225,0.007649861741811037,-0.010566123761236668,0.002847773488610983,-0.00013016010052524507,0.006617556791752577
0.00651739863678813,0.0073193772695958614,-0.009857989847660065,0.002969964873045683,-0.00012752541806548834,0.006987116765230894
0.006520369090139866,0.007349218241870403,-0.010688584297895432,0.002887836191803217,-0.0001249951310455799,0.006828484125435352
0.0069158910773694515,0.008197443559765816,-0.01061084121465683,0.0028024474158883095,-0.00012256349145900458,0.006823941599577665
0.006874104496091604,0.00839135143905878,-0.00972010102123022,0.002887328155338764,-0.0001202245257445611,0.006994581315666437
0.007139075547456741,0.0071782818995416164,-0.01038292981684208,0.0028841476887464523,-0.00011797303886851296,0.007004244718700647
0.006759392563253641,0.007267780601978302,-0.010417906567454338,0.002804031828418374,-0.00012394649093039334,0.007091180887073278
0.006238955073058605,0.008121831342577934,-0.0107947438955307,0.0026247466448694468,-0.00012941060413140804,0.006511935032904148
0.006609186064451933,0.00785867590457201,-0.010257831774652004,0.002877580700442195,-0.00012761913239955902,0.006412106566131115
0.00741376681253314,0.00772594241425395,-0.009676511399447918,0.0034827347844839096,-0.00012542861804831773,0.006847381591796875
0.007056118920445442,0.0073969098739326,-0.010071905329823494,0.003490963252261281,-0.00012328318553045392,0.006939951796084642
0.006571952253580093,0.0075584035366773605,-0.011166133917868137,0.0030729351565241814,-0.00012120791507186368,0.006482580676674843
0.006420913152396679,0.007436509244143963,-0.010203911922872066,0.002914705779403448,-0.00011920117685804144,0.0064253052696585655
0.006967696826905012,0.007205058820545673,-0.009490170516073704,0.002934033516794443,-0.00011725991498678923,0.006769565865397453
0.007139277178794146,0.00739007955417037,-0.010058341547846794,0.003171369666233659,-0.00011538079706951976,0.006948493886739016
0.007004528306424618,0.007488056551665068,-0.009758349508047104,0.0034894365817308426,-0.00011356100003467873,0.0065718041732907295
0.006790293380618095,0.007212535012513399,-0.009799999184906483,0.0030167391523718834,-0.00011179762077517807,0.00627546850591898
0.007455599028617144,0.007258608005940914,-0.010267825797200203,0.0027541080489754677,-0.00011008836008841172,0.006943021900951862
0.006742182187736034,0.007441066205501556,-0.010021617636084557,0.002697683870792389,-0.00010843033669516444,0.0071750967763364315
0.007007889915257692,0.007605716586112976,-0.00984371267259121,0.0027255357708781958,-0.00010682166612241417,0.006375571712851524
0.006931883282959461,0.006986043881624937,-0.00992698036134243,0.0027454134542495012,-0.0001037433321471326,0.0068106623366475105
0.006931883282959461,0.006986043881624937,-0.00992698036134243,0.0027454134542495012,-0.0001037433321471326,0.0068106623366475105
0.00710989348590374,0.007611496839672327,-0.010345102287828922,0.002655262127518654,-0.00010083746747113764,0.007119597867131233
0.007204045541584492,0.007580050267279148,-0.009367113001644611,0.0026425630785524845,-9.30135283851996e-05,0.0065851411782205105
0.006681718863546848,0.007327159866690636,-0.009981116279959679,0.0027981458697468042,-8.922412234824151e-05,0.0064039831049740314
0.007059453520923853,0.00743138836696744,-0.009768499992787838,0.0031761773861944675,-8.73647368280217e-05,0.006629632320255041
0.006885930895805359,0.007033146917819977,-0.00956677831709385,0.003173260949552059,-8.56928454595618e-05,0.006833703722804785
0.006935207173228264,0.008000629022717476,-0.010282072238624096,0.002749035367742181,-8.409086876781657e-05,0.0067590028047561646
0.006831643637269735,0.007709776517003775,-0.010352365672588348,0.002736878814175725,-8.254824933828786e-05,0.006483369506895542
0.006831643637269735,0.007709776517003775,-0.010352365672588348,0.002736878814175725,-8.254824933828786e-05,0.006483369506895542
0.007195697166025639,0.007008620537817478,-0.00973187293857336,0.002955198986455798,-8.106125460471958e-05,0.006485476158559322
0.006908299867063761,0.00789991207420826,-0.010193810798227787,0.0032122996635735035,-7.962683594087139e-05,0.007005652412772179
0.007166455965489149,0.007972133345901966,-0.009948043152689934,0.0034548912663012743,-7.82423812779598e-05,0.007010661065578461
0.007403175346553326,0.007509708404541016,-0.010100315324962139,0.0031800211872905493,-7.690516213187948e-05,0.0070616030134260654
0.007685487624257803,0.0074053481221199036,-0.010182798840105534,0.0028518468607217073,-7.561296661151573e-05,0.006643612869083881
0.006744228769093752,0.007518927566707134,-0.00971776433289051,0.0027468481566756964,-7.436342275468633e-05,0.006641010288149118
0.0066983699798583984,0.008079282939434052,-0.00966627523303032,0.002966151339933276,-7.31546024326235e-05,0.006951329298317432
0.007031456101685762,0.007431299891322851,-0.01081508956849575,0.003018579911440611,-7.198430830612779e-05,0.006966592278331518
0.007309431675821543,0.007102376315742731,-0.010960137471556664,0.0029027338605374098,-7.085096149239689e-05,0.006887713447213173
0.007185769733041525,0.007760351058095694,-0.010009567253291607,0.002987389452755451,-6.975271389819682e-05,0.006430583540350199
0.007139045279473066,0.007754509802907705,-0.010648611932992935,0.0029833735898137093,-6.868801574455574e-05,0.006773070432245731
0.006971482187509537,0.007346675731241703,-0.010045555420219898,0.003054756438359618,-6.7655295424629e-05,0.006901255343109369
0.007445360068231821,0.007212722208350897,-0.009907460771501064,0.0028755853418260813,-6.665316323051229e-05,0.0065899561159312725
0.007063479162752628,0.007396832574158907,-0.010712401941418648,0.0027906550094485283,-6.568042590515688e-05,0.006973914802074432
0.007350833620876074,0.008053556084632874,-0.010094888508319855,0.002690934808924794,-7.111417653504759e-05,0.006760088726878166
0.0076760477386415005,0.007677711080759764,-0.010140705853700638,0.002473326399922371,-7.61520495871082e-05,0.007098327856510878
0.006897875107824802,0.007527396082878113,-0.010790371336042881,0.002624043496325612,-7.54821376176551e-05,0.006741647608578205
0.007309271953999996,0.00831216387450695,-0.010353591293096542,0.003022469813004136,-7.446695963153616e-05,0.0066161733120679855
0.007047348655760288,0.00744579266756773,-0.010147731751203537,0.002983971033245325,-7.247004396049306e-05,0.007216431200504303
0.007017233408987522,0.007403852418065071,-0.010581298731267452,0.002796670887619257,-7.151030149543658e-05,0.007507037371397018
0.007017233408987522,0.007403852418065071,-0.010581298731267452,0.002796670887619257,-7.151030149543658e-05,0.007507037371397018
0.006979832425713539,0.007927385158836842,-0.010567058809101582,0.002974372124299407,-7.057573384372517e-05,0.0068768663331866264
0.0071449545212090015,0.007507377304136753,-0.010549060069024563,0.0032682507298886776,-6.966523505980149e-05,0.006447703577578068
0.0073085385374724865,0.0076140775345265865,-0.010898021049797535,0.0030837790109217167,-6.791300256736577e-05,0.007523094303905964
0.0073085385374724865,0.0076140775345265865,-0.010898021049797535,0.0030837790109217167,-6.791300256736577e-05,0.007523094303905964
0.007555502001196146,0.007844077423214912,-0.010469729080796242,0.0029515500646084547,-6.706950080115348e-05,0.007213751785457134
0.007427002303302288,0.008109265938401222,-0.010435064323246479,0.002835475606843829,-6.624670641031116e-05,0.007123938295990229
0.007484195288270712,0.007977413944900036,-0.01075740810483694,0.0028295221272855997,-6.544386269524693e-05,0.006841944996267557
0.0071586077101528645,0.007733012083917856,-0.010441762395203114,0.0027564826887100935,-6.466022023232654e-05,0.007459904998540878
0.00771707808598876,0.008341076783835888,-0.011057686060667038,0.0026043797843158245,-6.389513146132231e-05,0.007625692058354616
0.0073829470202326775,0.007291495334357023,-0.01118441578000784,0.0029127951711416245,-6.314797792583704e-05,0.007099737413227558
0.006876067258417606,0.007205762434750795,-0.010300406254827976,0.0030365395359694958,-6.241803930606693e-05,0.006874998565763235
0.007302023470401764,0.007512890268117189,-0.011000108905136585,0.003157578408718109,-6.17048135609366e-05,0.007408638950437307
0.00787477008998394,0.007516569923609495,-0.010695571079850197,0.00323095778003335,-6.100768587202765e-05,0.00744660897180438
0.007601730991154909,0.007334075402468443,-0.009884795174002647,0.0029728927183896303,-6.032617238815874e-05,0.007209021132439375
0.0072915093041956425,0.008003879338502884,-0.010435400530695915,0.00305513059720397,-5.965970194665715e-05,0.006687765009701252
0.007259777281433344,0.008017092943191528,-0.010372434742748737,0.0034344149753451347,-3.895352165272925e-06,0.006822221912443638
0.007675613276660442,0.007707591168582439,-0.010616367682814598,0.0033030761405825615,-2.5433868700019957e-07,0.007256218697875738
0.008176203817129135,0.007429930381476879,-0.0101826973259449,0.003253358416259289,-1.6606499286808685e-08,0.007335109170526266
0.007615173701196909,0.007719672750681639,-0.010240545496344566,0.003279393771663308,-1.0842856612569562e-09,0.0072990586049854755
0.007581301964819431,0.007754176389425993,-0.010984813794493675,0.0031720977276563644,-7.079610508942125e-11,0.00745029142126441
0.007585178595036268,0.007523141801357269,-0.010663877241313457,0.003229670925065875,-4.622479916199795e-12,0.00744346110150218
0.007484729867428541,0.007226590998470783,-0.009947653859853745,0.0034273220226168633,-3.0181491529092386e-13,0.007439364213496447
0.00788800697773695,0.0074625262059271336,-0.01002963911741972,0.0035560696851462126,-1.2866843397354609e-15,0.007733454927802086
0.00788800697773695,0.0074625262059271336,-0.01002963911741972,0.0035560696851462126,-1.2866843397354609e-15,0.007733454927802086
0.007910630665719509,0.00738759757950902,-0.009802499786019325,0.0036785088013857603,-8.401129527730287e-17,0.007213504984974861
0.007646878249943256,0.007156386040151119,-0.01086375117301941,0.0036729401908814907,-5.485336976353015e-18,0.007201962172985077
0.007403755094856024,0.0072952620685100555,-0.011182017624378204,0.003275833558291197,-3.581533078580635e-19,0.0074605802074074745
0.007974292151629925,0.007357757072895765,-0.010397267527878284,0.0027717475313693285,-1.5268638342864546e-21,0.007634510286152363
0.007974292151629925,0.007357757072895765,-0.010397267527878284,0.0027717475313693285,-1.5268638342864546e-21,0.007634510286152363
0.007635885383933783,0.007285506464540958,-0.010470351204276085,0.003121681045740843,-9.969330032837681e-23,0.006949146278202534
0.007160690613090992,0.007317825686186552,-0.010138232260942459,0.0033330186270177364,-6.509260515882212e-24,0.006977178156375885
0.007579196710139513,0.007386754732578993,-0.010509132407605648,0.003542882390320301,-4.250081804110696e-25,0.007384276483207941
0.0076803164556622505,0.007401837967336178,-0.009853068739175797,0.003659740323200822,-2.774999733752868e-26,0.007484405301511288
0.007565302308648825,0.007041201926767826,-0.00997583195567131,0.003348846221342683,-1.8118765656736182e-27,0.007380350027233362
0.007345953024923801,0.007284000515937805,-0.010409611277282238,0.0031416125129908323,-1.1830259406110568e-28,0.007918684743344784
0.008135861717164516,0.007690865080803633,-0.009876323863863945,0.002899819752201438,-7.724313686258965e-30,0.007939992472529411
0.0076781706884503365,0.007767468225210905,-0.010521993972361088,0.002928205532953143,-5.043424657965721e-31,0.007547303102910519
0.00815815944224596,0.007061163429170847,-0.010141601786017418,0.0033301489893347025,-3.2929957850573824e-32,0.007942821830511093
0.0072457813657820225,0.007491795811802149,-0.010239806957542896,0.003765679895877838,-2.150090839617292e-33,0.0071875834837555885
0.008050487376749516,0.007819948717951775,-0.010406657122075558,0.0035026208497583866,-1.403855709811114e-34,0.007243811618536711
0.007940483279526234,0.007707154378294945,-0.010247242636978626,0.003512960160151124,-9.16617333547529e-36,0.008668729104101658
0.007870079018175602,0.008053688332438469,-0.01008643489331007,0.003294867929071188,-5.984856058029577e-37,0.007287111598998308
0.007746055722236633,0.007200196385383606,-0.010284215211868286,0.0030791398603469133,-3.907683598651307e-38,0.006433757953345776
0.007760847918689251,0.007256853859871626,-0.01038906816393137,0.002884915331378579,-2.5514380009933042e-39,0.006927490234375
0.007621261291205883,0.008089001290500164,-0.009959308430552483,0.0028371161315590143,-1.6659056533432723e-40,0.007443831767886877
0.007936105132102966,0.007606616709381342,-0.010792461223900318,0.002994692185893655,-1.087687868008923e-41,0.0075064715929329395
0.008318779058754444,0.007440665736794472,-0.010425249114632607,0.0031980688218027353,-7.1045832141268225e-43,0.007360885851085186
0.008152390830218792,0.007609520107507706,-0.010242332704365253,0.003072996623814106,-4.624284932271896e-44,0.007425133138895035
0.008442201651632786,0.007990984246134758,-0.011052764020860195,0.003066280158236623,-2.802596928649634e-45,0.007411625236272812
0.008726662024855614,0.00739881070330739,-0.009862960316240788,0.0031765569001436234,-5.624910772894509e-05,0.0072037819772958755
0.008134687319397926,0.007130246143788099,-0.010211123153567314,0.003115803701803088,-5.7375778851564974e-05,0.00759322801604867
0.008134687319397926,0.007130246143788099,-0.010211123153567314,0.003115803701803088,-5.7375778851564974e-05,0.00759322801604867
0.007618318777531385,0.0070367250591516495,-0.010022835806012154,0.002985877450555563,-5.607279308605939e-05,0.007139983586966991
0.007618318777531385,0.0070367250591516495,-0.010022835806012154,0.002985877450555563,-5.607279308605939e-05,0.007139983586966991
0.00824497640132904,0.007082645315676928,-0.010373425669968128,0.0030535347759723663,-5.538320692721754e-05,0.007122896611690521
0.008729488588869572,0.007597552612423897,-0.009555435739457607,0.003224601736292243,-5.470988980960101e-05,0.0076813967898488045
0.007972940802574158,0.007963231764733791,-0.010556723922491074,0.0032376174349337816,-5.4052743507782e-05,0.0077002644538879395
0.00814500916749239,0.007341600954532623,-0.010191600769758224,0.0034184998366981745,-5.34112004970666e-05,0.007411906495690346
0.008610494434833527,0.007723801303654909,-0.01000013668090105,0.003353248815983534,-5.217270881985314e-05,0.007385962177067995
0.008610494434833527,0.007723801303654909,-0.01000013668090105,0.003353248815983534,-5.217270881985314e-05,0.007385962177067995
0.007946088910102844,0.007975638844072819,-0.009894785471260548,0.0033851719927042723,-5.1574799726950005e-05,0.007629050873219967
0.007655322086066008,0.008068015798926353,-0.0096681397408247,0.0035031025763601065,-5.601865632343106e-05,0.00808357447385788
0.007954179309308529,0.007906537503004074,-0.01019176747649908,0.0034275150392204523,-6.016535553499125e-05,0.007714238949120045
0.00801908690482378,0.007930304855108261,-0.010058598592877388,0.003244727151468396,-5.9810467064380646e-05,0.00818907655775547
0.00782766006886959,0.007711512036621571,-0.009376941248774529,0.0028499639593064785,-7.705525604251307e-06,0.00785956159234047
0.008782366290688515,0.007542816922068596,-0.0099485507234931,0.0031627039425075054,-5.0311570021222e-07,0.007706982083618641
0.00849084835499525,0.0076629226095974445,-0.010206812992691994,0.0031398129649460316,-3.2849865050366134e-08,0.008022001944482327
0.008208165876567364,0.007787270005792379,-0.0095748296007514,0.0034605516120791435,-2.1448613996000176e-09,0.008650467731058598
0.008637581951916218,0.007507130037993193,-0.01013641431927681,0.0037077360320836306,-1.4004411519330517e-10,0.007935666479170322
0.008732599206268787,0.007614274974912405,-0.00992878433316946,0.0035869802813977003,-9.143880964901374e-12,0.008086648769676685
0.008475260809063911,0.007525916211307049,-0.009727591648697853,0.0035622126888483763,-5.97030075117494e-13,0.007896886207163334
0.008318165317177773,0.007615385577082634,-0.009959034621715546,0.0035706828348338604,-3.898180132096314e-14,0.008062769658863544
0.008484923280775547,0.007266269996762276,-0.009959939867258072,0.0035119468811899424,-2.5452329978202124e-15,0.0079394755885005
0.008618366904556751,0.007004420273005962,-0.010086718015372753,0.003352954750880599,-1.6618553491068878e-16,0.007851100526750088
0.008544690907001495,0.0072706094942986965,-0.0101661691442132,0.003558742580935359,-1.0850727800802165e-17,0.008628749288618565
0.008718389086425304,0.007992024533450603,-0.009853823110461235,0.003822702681645751,-7.084749213752632e-19,0.008144176565110683
0.008975264616310596,0.007388222496956587,-0.009747335687279701,0.004104130901396275,-4.6258350309969075e-20,0.007634973619133234
0.009179400280117989,0.007026989944279194,-0.010727162472903728,0.004056149628013372,-3.0203397429154924e-21,0.007390350569039583
0.008667485788464546,0.0073327054269611835,-0.010100677609443665,0.003956349100917578,-1.9720659301150621e-22,0.007765942718833685
0.008602643385529518,0.007568491622805595,-0.010529194958508015,0.0031593218445777893,-8.407226918901173e-25,0.007925127632915974
0.008602643385529518,0.007568491622805595,-0.010529194958508015,0.0031593218445777893,-8.407226918901173e-25,0.007925127632915974
0.009269580245018005,0.007463004905730486,-0.009893124923110008,0.0030286679975688457,-3.584132515345313e-27,0.008219216018915176
0.008720883168280125,0.00788683071732521,-0.010296295396983624,0.0032232499215751886,-2.3401825494678613e-28,0.00791051797568798
0.008706931956112385,0.007136402651667595,-0.009727531112730503,0.0035317286383360624,-1.5279720307129632e-29,0.008174263872206211
0.008706931956112385,0.007136402651667595,-0.009727531112730503,0.0035317286383360624,-1.5279720307129632e-29,0.008174263872206211
0.009125868789851665,0.006822965107858181,-0.01005065068602562,0.0036155269481241703,-9.976565376332775e-31,0.008007019758224487
0.009037002921104431,0.006910332478582859,-0.010309041477739811,0.0036596974823623896,-6.513983724919268e-32,0.008456341922283173
0.008703093975782394,0.007365006022155285,-0.01034925039857626,0.003488738089799881,-4.253165578621539e-33,0.008331721648573875
0.008731714449822903,0.007322951219975948,-0.010026264004409313,0.0033947082702070475,-2.7770135683214962e-34,0.008323688060045242
0.009644993580877781,0.0070918551646173,-0.010312853381037712,0.00365615077316761,-1.813191283072651e-35,0.008388263173401356
0.009076704271137714,0.007014745380729437,-0.010239019058644772,0.0038143775891512632,-1.1838843843540965e-36,0.008026350289583206
0.009534390643239021,0.007253327406942844,-0.009995580650866032,0.0034020585007965565,-7.729918259025629e-38,0.007714053150266409
0.009109923616051674,0.007088190410286188,-0.010128661058843136,0.003430158132687211,-5.04708470492798e-39,0.008206571452319622
0.009761907160282135,0.006842777132987976,-0.01004413329064846,0.0036341033410280943,-3.2953915595987426e-40,0.008620381355285645
0.008722804486751556,0.006889853626489639,-0.010724002495408058,0.003796058241277933,-2.1516937919707566e-41,0.008309977129101753
0.009160390123724937,0.007217477075755596,-0.010468563996255398,0.003396089654415846,-1.4055023597177915e-42,0.007853245362639427
0.009051286615431309,0.007391748949885368,-0.009964515455067158,0.003348733764141798,-9.10844001811131e-44,0.008729658089578152
0.009195974096655846,0.007286976091563702,-0.011832128278911114,0.003290573600679636,-5.605193857299268e-45,0.008832685649394989
0.009281095117330551,0.006901866756379604,-0.0114778783172369,0.0035571176558732986,-0.0,0.008785081095993519
0.009057397022843361,0.00742389727383852,-0.010946150869131088,0.0034715852234512568,-8.626352064311504e-05,0.00807257927954197
0.009057397022843361,0.00742389727383852,-0.010946150869131088,0.0034715852234512568,-8.626352064311504e-05,0.00807257927954197
0.009858396835625172,0.007558377459645271,-0.010241035372018814,0.0034658359363675117,-8.64853645907715e-05,0.008173573762178421
0.009634972549974918,0.0068531762808561325,-0.010550503619015217,0.003915494307875633,-8.497503586113453e-05,0.008315548300743103
0.009257679805159569,0.0066011808812618256,-0.010833858512341976,0.004245094023644924,-8.34079401101917e-05,0.008460674434900284
0.009569760411977768,0.007135252933949232,-0.00989291351288557,0.00410799216479063,-8.189058280549943e-05,0.009095469489693642
0.009630374610424042,0.006991254165768623,-0.011110059916973114,0.00396719528362155,-8.042698755161837e-05,0.007943076081573963
0.009910275228321552,0.00664895074442029,-0.010194937698543072,0.003999809734523296,-7.765127520542592e-05,0.008433655835688114
0.009732894599437714,0.006768564227968454,-0.010688180103898048,0.003981696907430887,-7.633408677065745e-05,0.008936704136431217
0.009732894599437714,0.006768564227968454,-0.010688180103898048,0.003981696907430887,-7.633408677065745e-05,0.008936704136431217
0.009389575570821762,0.006584792397916317,-0.010168326087296009,0.003885213751345873,-7.506077963626012e-05,0.009204942733049393
0.009398825466632843,0.006337872240692377,-0.009853445924818516,0.0042045945301651955,-7.382936018984765e-05,0.009223652072250843
0.009799888357520103,0.0065673827193677425,-0.009771385230123997,0.004136207513511181,-7.263755105668679e-05,0.008623012341558933
0.009775873273611069,0.006314749829471111,-0.01063485536724329,0.004260121379047632,-7.148371514631435e-05,0.008621543645858765
0.009375750087201595,0.006687727756798267,-0.011018315330147743,0.004090613219887018,-7.036596798570827e-05,0.008936001919209957
0.009938186034560204,0.006708831060677767,-0.011161061935126781,0.003980062901973724,-6.92825997248292e-05,0.009039764292538166
0.0097567830234766,0.00654445169493556,-0.010199245065450668,0.003617853159084916,-6.823206058470532e-05,0.009050877764821053
0.009538602083921432,0.006186588201671839,-0.010231454856693745,0.0034867743961513042,-6.721296813338995e-05,0.008198772557079792
0.00962075311690569,0.006577222142368555,-0.010646888986229897,0.004111577291041613,-6.622378714382648e-05,0.008382230997085571
0.009611150249838829,0.006855388171970844,-0.01026978250592947,0.004093373194336891,-6.526339711854234e-05,0.00862586498260498
0.00974093098193407,0.006858582608401775,-0.01049643475562334,0.003917241469025612,-6.433040834963322e-05,0.00876376498490572
0.010163564234972,0.006261010654270649,-0.010320493951439857,0.003783909371122718,-6.342370033962652e-05,0.009299256838858128
0.010096054524183273,0.006149353925138712,-0.010603220202028751,0.004035959020256996,-6.254220352275297e-05,0.00883234478533268
0.009823935106396675,0.00678174989297986,-0.010581990703940392,0.004182083066552877,-6.168498657643795e-05,0.008749471046030521
0.009897480718791485,0.006886098068207502,-0.01041488815099001,0.004060117993503809,-6.085082713980228e-05,0.009060706943273544
0.009922151453793049,0.006754979491233826,-0.009831860661506653,0.004165342077612877,-6.00389284954872e-05,0.008947107940912247
0.009690932929515839,0.006256558001041412,-0.010719873942434788,0.0043412973172962666,-5.924845390836708e-05,0.008917171508073807
0.009663017466664314,0.00675732409581542,-0.010121370665729046,0.004075684584677219,-5.847854845342226e-05,0.008635809645056725
0.009995222091674805,0.0067818304523825645,-0.010630542412400246,0.004056604113429785,-5.772833537776023e-05,0.009098608046770096
0.009897205978631973,0.006519708316773176,-0.01114953588694334,0.004178361035883427,-5.699713437934406e-05,0.009020637720823288
0.010168260894715786,0.0063305809162557125,-0.010269847698509693,0.004465839825570583,-5.6284239690285176e-05,0.009043739177286625
0.01016453467309475,0.0061815963126719,-0.010558065958321095,0.0045729586854577065,-6.525728531414643e-05,0.009194388054311275
0.010240175761282444,0.006692720111459494,-0.010043663904070854,0.00443669781088829,-6.509227387141436e-05,0.009204823523759842
0.01026792824268341,0.006398344412446022,-0.010820719413459301,0.004598546773195267,-6.432263035094365e-05,0.0094063188880682
0.010054136626422405,0.006093761883676052,-0.010520044714212418,0.0045959195122122765,-6.356584344757721e-05,0.009280760772526264
0.01007416658103466,0.006722011603415012,-0.009991968981921673,0.004439094103872776,-6.282632239162922e-05,0.009033714421093464
0.01007416658103466,0.006722011603415012,-0.009991968981921673,0.004439094103872776,-6.282632239162922e-05,0.009033714421093464
0.010586908087134361,0.006953151430934668,-0.010981420055031776,0.004244980867952108,-6.210376159287989e-05,0.009080673567950726
0.010423414409160614,0.0059587424620985985,-0.010602996684610844,0.004073937889188528,-6.139765901025385e-05,0.009221427142620087
0.010438736528158188,0.006389167625457048,-0.010915227234363556,0.004057345911860466,-6.070747986086644e-05,0.00927756354212761
0.010117393918335438,0.006687576416879892,-0.011602635495364666,0.004442916251718998,-6.0032554756617174e-05,0.00878607016056776
0.0106101268902421,0.006777314469218254,-0.0105344969779253,0.004473999608308077,-1.5255003745551221e-05,0.009587460197508335
0.010205541737377644,0.006540294270962477,-0.010675142519176006,0.004320019390434027,-9.960427860278287e-07,0.009192673489451408
0.010588949546217918,0.006367904134094715,-0.011046995408833027,0.004419319797307253,-6.503447735894952e-08,0.009498680010437965
0.010179132223129272,0.0060727535746991634,-0.010344262234866619,0.004191925749182701,-4.2462868776738105e-09,0.009389184415340424
0.01049081515520811,0.006151873152703047,-0.010777893476188183,0.004401705227792263,-2.772521656702054e-10,0.009419993497431278
0.010292725637555122,0.006799279246479273,-0.010803714394569397,0.00421763863414526,-1.8102587137636128e-11,0.009227489121258259
0.010540591552853584,0.006385675631463528,-0.010341309942305088,0.0044890097342431545,-1.1819695612882986e-12,0.0093564847484231
0.010354528203606606,0.006021647248417139,-0.010925748385488987,0.004463095683604479,-7.71741611588217e-14,0.009391377680003643
0.010520105250179768,0.006443860940635204,-0.01095016673207283,0.004125487059354782,-5.038921499701159e-15,0.009175488725304604
0.010547131299972534,0.006920811720192432,-0.010517160408198833,0.0039570820517838,-3.290055432241402e-16,0.00953832920640707
0.010680299252271652,0.00704893609508872,-0.010892908088862896,0.004415445029735565,-2.1481711763157168e-17,0.009212668985128403
0.011219342239201069,0.006064503453671932,-0.010274533182382584,0.004317021928727627,-1.4026022916282175e-18,0.009243425913155079
0.010269028134644032,0.005977303721010685,-0.010810025036334991,0.0036529237404465675,-9.157989918917624e-20,0.009511756710708141
0.010489612817764282,0.006885407958179712,-0.010827822610735893,0.0043909549713134766,-5.979512953045026e-21,0.009852069430053234
0.01019860990345478,0.006972080562263727,-0.010588105767965317,0.004712616093456745,-3.904194798715788e-22,0.009306748397648335
0.009889235720038414,0.006346445064991713,-0.011096217669546604,0.004495011176913977,-2.5491603123275504e-23,0.009537430480122566
0.010400592349469662,0.006254528649151325,-0.010887875221669674,0.004601337015628815,-1.664419596078076e-24,0.009847214445471764
0.011029571294784546,0.0064148022793233395,-0.010670100338757038,0.004732929170131683,-1.0867469857245935e-25,0.011088165454566479
0.011208710260689259,0.006306271534413099,-0.011069807223975658,0.004643506836146116,-7.095682123690516e-27,0.010538613423705101
0.010523399338126183,0.006971251685172319,-0.011279893107712269,0.004952389281243086,-4.6329732593117e-28,0.00948994792997837
0.010102227330207825,0.006789046805351973,-0.0108090965077281,0.004600675776600838,-1.97510924260191e-30,0.010143139399588108
0.01060135755687952,0.006855556275695562,-0.01072609331458807,0.004404075443744659,-1.2896051122800558e-31,0.01034448854625225
0.01028592512011528,0.007535956799983978,-0.01137844193726778,0.004661647602915764,-8.420199747422451e-33,0.009967767633497715
0.010430269874632359,0.006586246658116579,-0.011494889855384827,0.005121034104377031,-5.497788915505762e-34,0.010254355147480965
0.011035586707293987,0.006387966684997082,-0.011094791814684868,0.00508999964222312,-3.589663290950231e-35,0.010486064478754997
0.011035586707293987,0.006387966684997082,-0.011094791814684868,0.00508999964222312,-3.589663290950231e-35,0.010486064478754997
0.011185714974999428,0.0064371670596301556,-0.011095551773905754,0.005070552229881287,-2.3437939644924474e-36,0.009938858449459076
0.011169416829943657,0.0064286901615560055,-0.010753451846539974,0.005124547518789768,-1.530329802712092e-37,0.010265135206282139
0.011346972547471523,0.007024548947811127,-0.01096187625080347,0.0046263188123703,-9.991960101166572e-39,0.01007902342826128
0.010936812497675419,0.006924707908183336,-0.011149315163493156,0.004454659763723612,-6.524039273341694e-40,0.010079693980515003
0.010940903797745705,0.006487231235951185,-0.011011812835931778,0.004550101235508919,-4.259667071854579e-41,0.010055498220026493
0.01087280549108982,0.006243620999157429,-0.011393316090106964,0.0047835055738687515,-2.781577451684762e-42,0.009961601346731186
0.011663503013551235,0.0070787756703794,-0.010979070328176022,0.004812617786228657,-1.821688003622262e-43,0.010018683038651943
0.011301753111183643,0.006766032427549362,-0.010785783641040325,0.004667671862989664,-1.1210387714598537e-44,0.010363337583839893
0.010383013635873795,0.006110839545726776,-0.011583497747778893,0.004271834623068571,-1.401298464324817e-45,0.009986696764826775
0.010618245229125023,0.006046074442565441,-0.011271290481090546,0.003943747840821743,-0.0,0.010117649100720882
0.011157244443893433,0.005967471748590469,-0.011574245058000088,0.004246650263667107,-0.0,0.010119287297129631
0.01090272981673479,0.0065969801507890224,-0.010958288796246052,0.0044556898064911366,-0.0,0.009879342280328274
0.010893001221120358,0.006633471697568893,-0.010760602541267872,0.004858513828366995,-0.0,0.009668388403952122
0.011777525767683983,0.006017920561134815,-0.011592680588364601,0.005009404383599758,-0.0,0.010024634189903736
0.010700304061174393,0.0058249919675290585,-0.010929469019174576,0.0050320010632276535,-0.0,0.010036952793598175
0.011799966916441917,0.00607601972296834,-0.011559566482901573,0.00473279133439064,-0.0,0.010299507528543472
0.011393179185688496,0.0064263190142810345,-0.011598097160458565,0.004468981176614761,-0.0,0.010105038993060589
0.01121506467461586,0.006200001575052738,-0.010990501381456852,0.00459065567702055,-0.0,0.010065561160445213
0.011248388327658176,0.006442990154027939,-0.011851010844111443,0.005416334141045809,-3.939157977583818e-05,0.010040762834250927
0.010933035984635353,0.005957095883786678,-0.01178364735096693,0.005301028024405241,-5.133898230269551e-05,0.010378465987741947
0.01127245556563139,0.006356303114444017,-0.011761769652366638,0.0048883287236094475,-5.1560102292569354e-05,0.009912668727338314
0.011475743725895882,0.006623188965022564,-0.01184730976819992,0.004697991535067558,-5.102832074044272e-05,0.009789842180907726
0.011104472912847996,0.006156279239803553,-0.011363881640136242,0.0045568691566586494,-5.045957368565723e-05,0.01023752149194479
0.011435143649578094,0.006038774736225605,-0.01224570069462061,0.004413110204041004,-4.990025263396092e-05,0.010089706629514694
0.011025269515812397,0.006108904257416725,-0.011438940651714802,0.004490632098168135,-6.427589141821954e-06,0.009883531369268894
0.01176103949546814,0.006727367173880339,-0.012649544514715672,0.005305778700858355,-2.7401819480132872e-08,0.010263835079967976
0.011619379743933678,0.006181236356496811,-0.011940054595470428,0.005100908223539591,-1.789142944907951e-09,0.010291011072695255
0.011127603240311146,0.006323059089481831,-0.012118414975702763,0.004813222214579582,-1.168182495181469e-10,0.010358624160289764
0.011177271604537964,0.006342161446809769,-0.011510412208735943,0.004643117543309927,-7.627396977905043e-12,0.010619188658893108
0.011177271604537964,0.006342161446809769,-0.011510412208735943,0.004643117543309927,-7.627396977905043e-12,0.010619188658893108
0.011216732673346996,0.007056857459247112,-0.011854098178446293,0.004720547702163458,-4.980144985636259e-13,0.010397814214229584
0.011476385407149792,0.006478834897279739,-0.011827674694359303,0.005247732624411583,-3.2516788469726804e-14,0.010367261245846748
0.011388816870748997,0.006356176920235157,-0.011864323168992996,0.005443553440272808,-2.123113916797795e-15,0.010012740269303322
0.012415443547070026,0.006323443725705147,-0.012349867261946201,0.005088302306830883,-1.3862416806799751e-16,0.01014325674623251
0.011830774135887623,0.006212744861841202,-0.01195546891540289,0.005157877691090107,-9.051167426871614e-18,0.010453236289322376
0.011700337752699852,0.006474021822214127,-0.01261059008538723,0.005096152424812317,-5.909765520003081e-19,0.010713884606957436
0.012942670844495296,0.0063476599752902985,-0.011600831523537636,0.005277723539620638,-3.858654739657238e-20,0.011049485765397549
0.012440603226423264,0.006022298242896795,-0.012264115735888481,0.005625009536743164,-2.5194257403617314e-21,0.01046611275523901
0.012814638204872608,0.006226510275155306,-0.01230441965162754,0.005643866024911404,-1.6450049561168996e-22,0.010727589949965477
0.012141045182943344,0.006566687952727079,-0.011713377200067043,0.005237110890448093,-1.0740706467183193e-23,0.01200735941529274
0.012741755694150925,0.006343882996588945,-0.011784050613641739,0.004911406897008419,-7.012913296770772e-25,0.010470734909176826
0.012332850135862827,0.006212733685970306,-0.011253904551267624,0.004726880695670843,-4.578931414701301e-26,0.010100907646119595
0.01263529621064663,0.006075273733586073,-0.011771407909691334,0.005148777272552252,-2.9897150380535923e-27,0.010827098973095417
0.013010254129767418,0.006069760303944349,-0.012109288945794106,0.005654884036630392,-1.9520702304105392e-28,0.011028840206563473
0.012604251503944397,0.006340883206576109,-0.011652715504169464,0.005791664123535156,-1.274562381602244e-29,0.010961072519421577
0.012974781915545464,0.006428019609302282,-0.0122155686840415,0.005924354773014784,-8.321981845911953e-31,0.010910959914326668
0.013084485195577145,0.006514502223581076,-0.011620862409472466,0.005483050365000963,-5.433659747728255e-32,0.01087349932640791
0.012970009818673134,0.006273823324590921,-0.01209945511072874,0.005483261309564114,-3.547791091627424e-33,0.011207752861082554
0.012790843844413757,0.006285047624260187,-0.011758613400161266,0.005837365053594112,-2.316454192903103e-34,0.011219926178455353
0.01300428993999958,0.006687082815915346,-0.010767984203994274,0.005960812792181969,-1.512479107748489e-35,0.011855005286633968
0.012813791632652283,0.006827476434409618,-0.012837013229727745,0.005637447815388441,-9.87540811033125e-37,0.011861088685691357
0.012775256298482418,0.006301173008978367,-0.012705841101706028,0.005499479826539755,-6.447935874782985e-38,0.01140274852514267
0.012813846580684185,0.006536510307341814,-0.011350187472999096,0.005957284942269325,-2.7488571325427774e-40,0.011173922568559647
0.013168922625482082,0.006312812678515911,-0.011981167830526829,0.0055167945101857185,-1.7947830731072257e-41,0.011457521468400955
0.012809251435101032,0.0061782244592905045,-0.012353085912764072,0.005271196831017733,-1.171485516175547e-42,0.011261732317507267
0.012809251435101032,0.0061782244592905045,-0.012353085912764072,0.005271196831017733,-1.171485516175547e-42,0.011261732317507267
0.01340483408421278,0.006536322645843029,-0.011342640966176987,0.005054367706179619,-7.707141553786494e-44,0.011565443128347397
0.012736372649669647,0.006779244169592857,-0.012073793448507786,0.004889671690762043,-5.605193857299268e-45,0.011708198115229607
0.013110841624438763,0.006390944588929415,-0.011632990092039108,0.004789174534380436,-0.0,0.011920605786144733
0.013239214196801186,0.0062985727563500404,-0.012423373758792877,0.005549774505198002,-0.0,0.011941633187234402
0.013316643424332142,0.0065576257184147835,-0.01190407108515501,0.005810514558106661,-0.0,0.012173440307378769
0.013060388155281544,0.00654821190983057,-0.011760791763663292,0.0057802046649158,-0.0,0.011464092880487442
0.013078372925519943,0.006743504200130701,-0.011895285919308662,0.006061713211238384,-0.0,0.011234487406909466
0.013091432861983776,0.006624232977628708,-0.011427311226725578,0.005531640257686377,-8.103112486423925e-05,0.011330146342515945
0.012765971943736076,0.006456831935793161,-0.012009342201054096,0.005942487623542547,-9.64134669629857e-05,0.01200007926672697
0.013374341651797295,0.0061844647862017155,-0.011624169535934925,0.005935761146247387,-9.548562957206741e-05,0.012420355342328548
0.013055853545665741,0.0063253059051930904,-0.011703124269843102,0.005705016665160656,-9.357307862956077e-05,0.011578609235584736
0.01339967641979456,0.007018985226750374,-0.011883188039064407,0.005776372738182545,-9.167144889943302e-05,0.01187878753989935
0.012975811026990414,0.00628417544066906,-0.01155999954789877,0.0058435602113604546,-8.984423038782552e-05,0.011537918820977211
0.013387482613325119,0.005910538136959076,-0.012388012371957302,0.005855995696038008,-8.808311395114288e-05,0.011811626143753529
0.01304695475846529,0.006119945086538792,-0.011865654960274696,0.0058979131281375885,-8.639195584692061e-05,0.011791398748755455
0.013426929712295532,0.006214209832251072,-0.012081686407327652,0.006035421043634415,-9.734427294461057e-05,0.011481395922601223
0.013186990283429623,0.0065011014230549335,-0.012246459722518921,0.005931741092354059,-9.955135465133935e-05,0.01171970646828413
0.013113605789840221,0.0064417230896651745,-0.012001334689557552,0.006097431294620037,-9.80059485300444e-05,0.011648362502455711
0.013279646635055542,0.006587695796042681,-0.012188793160021305,0.005973676219582558,-9.627570398151875e-05,0.011617084965109825
0.013132436200976372,0.006352660246193409,-0.011327210813760757,0.00590482447296381,-9.459029388381168e-05,0.011918769218027592
0.01356913335621357,0.006466858554631472,-0.012712014839053154,0.005990359000861645,-9.296434291172773e-05,0.012313726358115673
0.013400855474174023,0.006062607746571302,-0.012448646128177643,0.0057495757937431335,-8.986796456156299e-05,0.012589437887072563
0.013193350285291672,0.005960543639957905,-0.012438226491212845,0.0059998296201229095,-8.839662041282281e-05,0.012581361457705498
0.013193350285291672,0.005960543639957905,-0.012438226491212845,0.0059998296201229095,-8.839662041282281e-05,0.012581361457705498
0.013501456007361412,0.006459648255258799,-0.011819818988442421,0.006670746020972729,-9.773433703230694e-05,0.012257572263479233
0.012685372494161129,0.006235462613403797,-0.012515210546553135,0.006670671980828047,-9.96162707451731e-05,0.01395497564226389
0.013296730816364288,0.005963813979178667,-0.011879641562700272,0.006383768282830715,-9.828827751334757e-05,0.012312301434576511
0.01338254101574421,0.006096093915402889,-0.0121240159496665,0.005575334653258324,-9.679126378614455e-05,0.011632579378783703
0.013566093519330025,0.006059335544705391,-0.011785912327468395,0.005986041389405727,-9.532699186820537e-05,0.012006727047264576
0.013998789712786674,0.0062139942310750484,-0.012230723164975643,0.00620346749201417,-9.390607010573149e-05,0.012249465100467205
0.013639762066304684,0.006939554121345282,-0.012902961112558842,0.006432038731873035,-9.252949530491605e-05,0.012771076522767544
0.013434389606118202,0.006267644464969635,-0.012039871886372566,0.006502391304820776,-9.118786692852154e-05,0.012502174824476242
0.013420894742012024,0.005898758769035339,-0.012723577208817005,0.0059149558655917645,-8.988901390694082e-05,0.012864084914326668
0.014033949933946133,0.0060298992320895195,-0.011916188523173332,0.006288012024015188,-9.486199269304052e-05,0.012676099315285683
0.01320476084947586,0.006051395088434219,-0.011998513713479042,0.006719184573739767,-9.94609363260679e-05,0.01258197519928217
0.013486510142683983,0.00612595584243536,-0.012105525471270084,0.006571649108082056,-9.848575427895412e-05,0.01237176451832056
0.013406631536781788,0.006172377150505781,-0.012005412951111794,0.006230188068002462,-9.718170622363687e-05,0.012355667538940907
0.013790493831038475,0.00559799512848258,-0.01259747426956892,0.006255592219531536,-9.588766261003911e-05,0.012501738034188747
0.01334550604224205,0.0059599545784294605,-0.01239896658807993,0.006728083826601505,-9.462930756853893e-05,0.012261615134775639
0.013806497678160667,0.005959705915302038,-0.012731260620057583,0.007187344133853912,-9.348392632091418e-05,0.012570570223033428
0.013048729859292507,0.006511421408504248,-0.012744289822876453,0.0069541484117507935,-0.00013146184210199863,0.012441879138350487
0.014271608553826809,0.006723401136696339,-0.01268448494374752,0.006475536618381739,-0.0001303095050388947,0.013083153404295444
0.013812939636409283,0.006056114565581083,-0.012980557046830654,0.0069892555475234985,-0.0001268090127268806,0.012974533252418041
0.013650231063365936,0.005851124878972769,-0.01267274096608162,0.0070974635891616344,-0.00012335050269030035,0.012746700085699558
0.013684450648725033,0.006589516066014767,-0.012831130996346474,0.006985881365835667,-0.00013784831389784813,0.012575512751936913
0.013948109932243824,0.006895902566611767,-0.011943661607801914,0.006793847307562828,-0.00013991669402457774,0.012470252811908722
0.014083923771977425,0.005913419183343649,-0.01196362730115652,0.006529633421450853,-0.0001333884138148278,0.012729284353554249
0.013999709859490395,0.006153665017336607,-0.012810924090445042,0.006532691884785891,-0.00013017866876907647,0.013056308962404728
0.013999709859490395,0.006153665017336607,-0.012810924090445042,0.006532691884785891,-0.00013017866876907647,0.013056308962404728
0.01410896796733141,0.006184961646795273,-0.01278112456202507,0.0065918900072574615,-0.0001455145829822868,0.012957206927239895
0.014225853607058525,0.006029335781931877,-0.012645433656871319,0.006580729503184557,-0.0001447076501790434,0.01334416028112173
0.014459635131061077,0.005822302773594856,-0.012915298342704773,0.007077776361256838,-0.00014162003935780376,0.013143613934516907
0.014606431126594543,0.006158397998660803,-0.012496428564190865,0.007235701195895672,-0.00015698310744483024,0.012804243713617325
0.014549201354384422,0.006414969451725483,-0.012803391553461552,0.007307231891900301,-0.00015481394075322896,0.013050070032477379
0.014741160906851292,0.00627519004046917,-0.012363667599856853,0.00789733324199915,-0.00015163100033532828,0.013016408309340477
0.015175536274909973,0.006218354683369398,-0.013073021546006203,0.0077616083435714245,-0.0001485084358137101,0.013401173055171967
0.01466557290405035,0.006249942351132631,-0.012771900743246078,0.0075030396692454815,-0.0001455086749047041,0.013621713034808636
0.014972994104027748,0.005845093633979559,-0.013332655653357506,0.00702577643096447,-0.00014262620243243873,0.014050235971808434
0.014597084373235703,0.00570464413613081,-0.013445146381855011,0.007270137779414654,-0.0002119319251505658,0.013538738712668419
0.015085303224623203,0.006402445957064629,-0.013501263223588467,0.0076260375790297985,-0.0002246658259537071,0.013621495105326176
0.014895663596689701,0.006287459284067154,-0.01380168180912733,0.008081820793449879,-0.00021543375623878092,0.01312507688999176
0.01501251757144928,0.00642742495983839,-0.012668109498918056,0.007757097017019987,-0.00020568371110130101,0.01310177706182003
0.014755244366824627,0.006633041426539421,-0.013090579770505428,0.007736777421087027,-0.00019669758330564946,0.012509629130363464
0.015290378592908382,0.006232778076082468,-0.013005081564188004,0.007262796629220247,-0.00018845849263016135,0.012773081660270691
0.014715893194079399,0.0066122934222221375,-0.01391785591840744,0.0066833035089075565,-0.00020761159248650074,0.013654784299433231
0.015294275246560574,0.006379003170877695,-0.012942309491336346,0.006685381289571524,-0.00020805174426641315,0.012993354350328445
0.014962413348257542,0.005956380162388086,-0.013632276095449924,0.006887711118906736,-0.00020086407312192023,0.0134728429839015
0.015522158704698086,0.006150617264211178,-0.012956199236214161,0.007582008372992277,-0.00019369400979485363,0.013843179680407047
0.015066346153616905,0.0066076223738491535,-0.01360647939145565,0.0076577747240662575,-0.00018698825442697853,0.013689253479242325
0.01564577780663967,0.006361694075167179,-0.013466169126331806,0.007421738002449274,-0.00019549514399841428,0.013286098837852478
0.015462923794984818,0.006136254873126745,-0.013640248216688633,0.007446545176208019,-0.00020301950280554593,0.014008969068527222
0.01579117588698864,0.005581887438893318,-0.013334273360669613,0.008101237006485462,-0.0001975559862330556,0.013806055299937725
0.015607389621436596,0.006353625562041998,-0.013749903999269009,0.007740413304418325,-0.00021072909294161946,0.014082399196922779
0.015690850093960762,0.006299414671957493,-0.013480911031365395,0.007518388796597719,-0.00020630871586035937,0.013790427707135677
0.015501066111028194,0.0061506060883402824,-0.013508349657058716,0.008081642910838127,-0.0002006643480854109,0.013421610929071903
0.015501066111028194,0.0061506060883402824,-0.013508349657058716,0.008081642910838127,-0.0002006643480854109,0.013421610929071903
0.01581764593720436,0.006231206469237804,-0.013506107032299042,0.00818171352148056,-0.000238419757806696,0.013873271644115448
0.015519389882683754,0.005963298957794905,-0.013606319203972816,0.008165420033037663,-0.00023255485575646162,0.014203911647200584
0.015818413347005844,0.006225396413356066,-0.01287046354264021,0.00787169300019741,-0.00022152630845084786,0.014248637482523918
0.015735536813735962,0.0066763777285814285,-0.013408128172159195,0.0081816166639328,-0.0002504894509911537,0.014132339507341385
0.01595291681587696,0.005922520998865366,-0.01315451879054308,0.0077241952531039715,-0.00024184054927900434,0.014512286521494389
0.01567124016582966,0.005802850238978863,-0.013931997120380402,0.007328308653086424,-0.00026014092145487666,0.01439048070460558
0.015910238027572632,0.005792955867946148,-0.013488570228219032,0.007476280443370342,-0.00025847417418845,0.014934608712792397
0.016105422750115395,0.006182218436151743,-0.013792968355119228,0.00783505104482174,-0.00024885160382837057,0.014948266558349133
0.016023337841033936,0.006383896339684725,-0.013374640606343746,0.007422308903187513,-0.00023943038831930608,0.014630110003054142
0.01632879488170147,0.005593114532530308,-0.014018872752785683,0.007464991882443428,-0.0002613804826978594,0.014389162883162498
0.016217531636357307,0.005956511478871107,-0.013549002818763256,0.0076806629076600075,-0.0002541588037274778,0.014831042848527431
0.016793454065918922,0.005839896854013205,-0.013199654407799244,0.007984711788594723,-0.0003690100274980068,0.014574773609638214
0.01664120890200138,0.006345340516418219,-0.013194495812058449,0.00758168613538146,-0.00039246142841875553,0.014620086178183556
0.016722388565540314,0.006000908091664314,-0.013278249651193619,0.00803963840007782,-0.00039652196574024856,0.014471122995018959
0.016206061467528343,0.00585319846868515,-0.013939212076365948,0.008485862985253334,-0.0003713917394634336,0.015016136690974236
0.01590714044868946,0.005548327695578337,-0.013746529817581177,0.008316666819155216,-0.00039768291753716767,0.01473231054842472
0.016872992739081383,0.005731979385018349,-0.013828560709953308,0.007723517715930939,-0.0003805035084951669,0.014725804328918457
0.01654176600277424,0.0065169320441782475,-0.0132755097001791,0.008182919584214687,-0.0004036444297526032,0.014414196833968163
0.017158737406134605,0.006166975013911724,-0.013662884943187237,0.008800586685538292,-0.0003879886935465038,0.014489717781543732
0.01678282953798771,0.005806525703519583,-0.012894591316580772,0.008248135447502136,-0.0004928995040245354,0.01443446520715952
0.016602030023932457,0.005524006672203541,-0.013597800396382809,0.007864540442824364,-0.00046164586092345417,0.014825587160885334
0.01727762073278427,0.005783877335488796,-0.013252963311970234,0.008068247698247433,-0.0004921113140881062,0.014940384775400162
0.017055576667189598,0.006512855179607868,-0.013889706693589687,0.008441561833024025,-0.00046006153570488095,0.015111512504518032
0.017515985295176506,0.00597701920196414,-0.013475288636982441,0.007978263311088085,-0.0004902423243038356,0.015039676800370216
0.017453819513320923,0.005333573557436466,-0.013316672295331955,0.00828423723578453,-0.00048795290058478713,0.013848120346665382
0.017429068684577942,0.005768321920186281,-0.01366209052503109,0.008022944442927837,-0.0004579078231472522,0.01433799508959055
0.01720062829554081,0.0054796310141682625,-0.013687930069863796,0.008033116348087788,-0.0006049415678717196,0.014637153595685959
0.017457177862524986,0.005192250944674015,-0.013667326420545578,0.008253813721239567,-0.0005673462292179465,0.015029524452984333
0.017245132476091385,0.0048222169280052185,-0.013437600806355476,0.008887169882655144,-0.0005148911732248962,0.014817330986261368
0.01774715445935726,0.0046547167003154755,-0.01330870296806097,0.00859253853559494,-0.0005275437724776566,0.015058954246342182
0.01774715445935726,0.0046547167003154755,-0.01330870296806097,0.00859253853559494,-0.0005275437724776566,0.015058954246342182
0.018383175134658813,0.0047561838291585445,-0.013977319933474064,0.00843403022736311,-0.0005031520850025117,0.015235908329486847
0.017553064972162247,0.0051008169539272785,-0.013676902279257774,0.008856859989464283,-0.0004669951740652323,0.015338054858148098
0.018035100772976875,0.004971106071025133,-0.013762230053544044,0.008679580874741077,-0.00043481611646711826,0.015282600186765194
0.018220284953713417,0.005423721857368946,-0.012811929918825626,0.009295878000557423,-0.0004607687296811491,0.015356365591287613
0.017688440158963203,0.005043581128120422,-0.01332738809287548,0.008802796714007854,-0.00046292596380226314,0.015324448235332966
0.018240787088871002,0.004869863390922546,-0.013140298426151276,0.008699445053935051,-0.00046126803499646485,0.015333100222051144
0.01805083081126213,0.004939008504152298,-0.013782313093543053,0.008193527348339558,-0.0004958691424690187,0.015212743543088436
0.018167048692703247,0.00491748470813036,-0.013550467789173126,0.00828030426055193,-0.0005196805577725172,0.015317922458052635
0.018343346193432808,0.004813088569790125,-0.013900667428970337,0.008261803537607193,-0.0005313712754286826,0.01570451632142067
0.018277274444699287,0.005137480329722166,-0.013140215538442135,0.008194519206881523,-0.0005252287373878062,0.015540204010903835
0.018304606899619102,0.004954616539180279,-0.013682573102414608,0.008402409963309765,-0.0005366344703361392,0.015704134479165077
0.018497155979275703,0.004731916356831789,-0.013581344857811928,0.008505122736096382,-0.0005166621413081884,0.015242836438119411
0.01825086958706379,0.004660189617425203,-0.01378362812101841,0.008699353784322739,-0.0006559501634910703,0.01572638750076294
0.018863018602132797,0.005042965989559889,-0.013702981173992157,0.008448534645140171,-0.0006988787208683789,0.015760617330670357
0.018837682902812958,0.00494925444945693,-0.013915518298745155,0.008339671418070793,-0.0007093761814758182,0.015778373926877975
0.0185050331056118,0.00552792102098465,-0.013667900115251541,0.008975127711892128,-0.0007051161373965442,0.015662875026464462
0.019042860716581345,0.005177471786737442,-0.014472137205302715,0.009092257358133793,-0.000680869969073683,0.015618654899299145
0.01888827048242092,0.004832326900213957,-0.013996314257383347,0.008647831156849861,-0.0007687377510592341,0.01603754237294197
0.019569437950849533,0.005178644321858883,-0.014309728518128395,0.008995220065116882,-0.000873030920047313,0.0161953866481781
0.019007014110684395,0.004909105598926544,-0.013903608545660973,0.008764778263866901,-0.0010172977345064282,0.01579355075955391
0.01877175271511078,0.005243347492069006,-0.014253862202167511,0.00854947417974472,-0.0011464122217148542,0.016208967193961143
0.01929284818470478,0.005003558471798897,-0.013984751887619495,0.009486068971455097,-0.001112166210077703,0.0161320548504591
0.019053300842642784,0.005248638801276684,-0.01413069386035204,0.009582668542861938,-0.0010801994940266013,0.01635325327515602
0.018935656175017357,0.005526744294911623,-0.013954934664070606,0.009368414990603924,-0.0010423437925055623,0.016395092010498047
0.01932094432413578,0.005192888900637627,-0.014392226003110409,0.009258794598281384,-0.001039247028529644,0.016514455899596214
0.01929185912013054,0.00538327032700181,-0.013534707948565483,0.008973809890449047,-0.0010177938966080546,0.01664350926876068
0.018825996667146683,0.005329817067831755,-0.014976633712649345,0.009262945502996445,-0.001001131022349,0.017480798065662384
0.019574370235204697,0.0051543558947741985,-0.014615325257182121,0.009388819336891174,-0.0009790767217054963,0.016588952392339706
0.019574370235204697,0.0051543558947741985,-0.014615325257182121,0.009388819336891174,-0.0009790767217054963,0.016588952392339706
0.019589751958847046,0.00575464591383934,-0.014574289321899414,0.008901759050786495,-0.0009620017954148352,0.015790710225701332
0.019007671624422073,0.005562376696616411,-0.014713477343320847,0.008645608089864254,-0.0009521456668153405,0.016215985640883446
0.019252898171544075,0.005657633766531944,-0.014808067120611668,0.008876783773303032,-0.0009450993384234607,0.01649896427989006
0.019582821056246758,0.005187714472413063,-0.014245663769543171,0.008947610855102539,-0.0009072439279407263,0.01655229553580284
0.019602658227086067,0.005403502378612757,-0.01466971356421709,0.008826014585793018,-0.0009261951199732721,0.01676536537706852
0.020437711849808693,0.005121398251503706,-0.01425254438072443,0.008835614658892155,-0.0008893067133612931,0.016744960099458694
0.020056432113051414,0.005377835128456354,-0.014464089646935463,0.00931780505925417,-0.0008316335151903331,0.016797753050923347
0.01951099932193756,0.0055745868012309074,-0.014182043261826038,0.008623285219073296,-0.0008356435573659837,0.01668543927371502
0.019380653277039528,0.005087113007903099,-0.014587216079235077,0.009222631342709064,-0.0007639984833076596,0.01682177372276783
0.019585028290748596,0.0054060728289186954,-0.014750674366950989,0.009203124791383743,-0.0007316801929846406,0.016466950997710228
0.02083209529519081,0.0051247235387563705,-0.015215238556265831,0.009298877790570259,-0.0006343622226268053,0.016376174986362457
0.020220547914505005,0.004942050203680992,-0.014729093760251999,0.009174194186925888,-0.0005561517318710685,0.016920417547225952
0.019741158932447433,0.0056818281300365925,-0.014539286494255066,0.009935066103935242,-0.000586597656365484,0.016710499301552773
0.019747665151953697,0.005447642412036657,-0.015157531946897507,0.009723206982016563,-0.0005344661185517907,0.016666585579514503
0.0203707218170166,0.00539378123357892,-0.014800293371081352,0.00933888554573059,-0.0005460345419123769,0.01705602928996086
0.020723799243569374,0.005379318725317717,-0.014836320653557777,0.009701449424028397,-0.0005193705437704921,0.016876403242349625
0.020671967417001724,0.0054900627583265305,-0.015147378668189049,0.009963031858205795,-0.0004808965895790607,0.017034661024808884
0.02021217532455921,0.005145540926605463,-0.015032980591058731,0.01016140729188919,-0.000446842226665467,0.01680353656411171
0.019820569083094597,0.0054670763202011585,-0.014903058297932148,0.009688019752502441,-0.0004396320437081158,0.017193257808685303
0.019972970709204674,0.005205041263252497,-0.014865167438983917,0.009680402465164661,-0.0004205477307550609,0.017492076382040977
0.020520439371466637,0.005120802205055952,-0.014927351847290993,0.010262047871947289,-0.0003977406013291329,0.01721629686653614
0.02099149487912655,0.004956623073667288,-0.01460286881774664,0.009768166579306126,-0.0003769368922803551,0.016576215624809265
0.020605072379112244,0.0052298749797046185,-0.015185466967523098,0.009604375809431076,-0.00035818200558423996,0.016911132261157036
0.020525794476270676,0.005488201044499874,-0.014476894401013851,0.010555599816143513,-0.000341201841365546,0.016979210078716278
0.020525794476270676,0.005488201044499874,-0.014476894401013851,0.010555599816143513,-0.000341201841365546,0.016979210078716278
0.020841866731643677,0.005131310783326626,-0.015239018946886063,0.01079626102000475,-0.00032576092053204775,0.017075659707188606
0.020437000319361687,0.00527041545137763,-0.014616737142205238,0.010947798378765583,-0.0003116562438663095,0.017318466678261757
0.02029195800423622,0.005325973033905029,-0.015130081214010715,0.010988636873662472,-0.000299907784210518,0.017405804246664047
0.020760009065270424,0.0055646393448114395,-0.0145526472479105,0.010291670449078083,-0.00022928962425794452,0.017773285508155823
0.02111123874783516,0.00530811445787549,-0.014996153302490711,0.010627200827002525,-0.00021471967920660973,0.017488054931163788
0.020531201735138893,0.005451942328363657,-0.014138842932879925,0.01027220580726862,-0.00020471159950830042,0.017766650766134262
0.0205756314098835,0.0057570007629692554,-0.014706977643072605,0.009888299740850925,-0.0001957874628715217,0.017988454550504684
0.021076034754514694,0.005488677881658077,-0.014413856901228428,0.010237559676170349,-0.00018762084073387086,0.01790352165699005
0.021146057173609734,0.005315942224115133,-0.015262003988027573,0.010126519948244095,-0.0001801105245249346,0.019513454288244247
0.02083936706185341,0.005215130280703306,-0.014333296567201614,0.009835522621870041,-0.00017317735182587057,0.01735701598227024
0.02109094150364399,0.005858629010617733,-0.015113790519535542,0.01052873581647873,-0.00016675925871822983,0.017294585704803467
0.021462563425302505,0.005612415261566639,-0.014831786043941975,0.010471771471202374,-0.00016079883789643645,0.01766269840300083
0.021495943889021873,0.005961553659290075,-0.015304215252399445,0.010278688743710518,-0.0001552509202156216,0.01772640459239483
0.021056024357676506,0.005342553835362196,-0.015172882936894894,0.01071456354111433,-0.00015007282490842044,0.018169688060879707
0.021361494436860085,0.005120584275573492,-0.0152900954708457,0.01061944104731083,-0.00014522891433443874,0.018250728026032448
0.02153506688773632,0.00527109345421195,-0.015000331215560436,0.010847887024283409,-0.00014068787277210504,0.018084045499563217
0.021360663697123528,0.005621789023280144,-0.01530603226274252,0.011008991859853268,-0.00013642222620546818,0.01819547265768051
0.021334543824195862,0.0057127345353364944,-0.015359962359070778,0.010691052302718163,-0.0001324079930782318,0.018110081553459167
0.021537836641073227,0.0055831498466432095,-0.015075149945914745,0.011029238812625408,-0.00012862301082350314,0.018233096227049828
0.022181380540132523,0.005393738858401775,-0.015506095252931118,0.01117030717432499,-0.00012504840560723096,0.018443820998072624
0.021732719615101814,0.005573717877268791,-0.015377875417470932,0.010343577712774277,-0.00012166736996732652,0.018254462629556656
0.02148319035768509,0.005661973729729652,-0.015519530512392521,0.011038378812372684,-0.00011846415873151273,0.018380234017968178
0.021818604320287704,0.005687343422323465,-0.015096453949809074,0.010817020200192928,-0.00011542536958586425,0.018771568313241005
0.022601883858442307,0.005647579208016396,-0.015775352716445923,0.010264543816447258,-0.00011253857519477606,0.01879093423485756
0.021753132343292236,0.0053618778474628925,-0.015690047293901443,0.010568066500127316,-0.00010717761324485764,0.01859538070857525
0.022211523726582527,0.005641793832182884,-0.015068924985826015,0.011033706367015839,-0.00012286841229069978,0.01801142282783985
0.022547757253050804,0.005436544306576252,-0.01591702736914158,0.011298422701656818,-0.00012258531933184713,0.01854856126010418
0.022547757253050804,0.005436544306576252,-0.01591702736914158,0.011298422701656818,-0.00012258531933184713,0.01854856126010418
0.0224015973508358,0.005656516179442406,-0.01564205437898636,0.010227061808109283,-0.0001174249846371822,0.019156524911522865
0.0224015973508358,0.005656516179442406,-0.01564205437898636,0.010227061808109283,-0.0001174249846371822,0.019156524911522865
0.022078078240156174,0.005351325497031212,-0.015806786715984344,0.010622138157486916,-0.00011492638441268355,0.019191263243556023
0.023042351007461548,0.005093856249004602,-0.016142819076776505,0.009974677115678787,-0.00011253145203227177,0.01857134699821472
0.023339634761214256,0.005363635718822479,-0.016704151406884193,0.011507952585816383,-0.00011023412662325427,0.018440311774611473
0.023220624774694443,0.005889322608709335,-0.015752792358398438,0.011438904330134392,-0.00010802883480209857,0.018514763563871384
0.022989396005868912,0.006389491725713015,-0.01651378907263279,0.011586139909923077,-0.00010590996680548415,0.01868671551346779
0.022719120606780052,0.0055731358006596565,-0.016009969636797905,0.011405653320252895,-0.00011239090235903859,0.019594429060816765
0.022412337362766266,0.005339031107723713,-0.01630641706287861,0.011035756208002567,-0.00011832363088615239,0.019637197256088257
0.022557437419891357,0.005224021151661873,-0.01589423231780529,0.011147155426442623,-0.000116657858598046,0.01917952112853527
0.022868286818265915,0.005825438536703587,-0.016284124925732613,0.011305919848382473,-0.00011457075015641749,0.019075224176049232
0.023258553817868233,0.006112691946327686,-0.016642533242702484,0.011030635796487331,-0.0001125264898291789,0.019229847937822342
0.02260296419262886,0.005928538739681244,-0.016543280333280563,0.011317874304950237,-0.00011055198410758749,0.019781939685344696
0.023482270538806915,0.005161280278116465,-0.01699570193886757,0.011252849362790585,-0.00011628607899183407,0.019179370254278183
0.024479256942868233,0.005298449192196131,-0.016344916075468063,0.011830905452370644,-0.00012154677096987143,0.019039303064346313
0.02361777424812317,0.0055101714096963406,-0.017012210562825203,0.011843385174870491,-0.00011999288835795596,0.0190456323325634
0.02288871258497238,0.00638273311778903,-0.016530198976397514,0.011388332583010197,-0.00011805613758042455,0.02023443393409252
0.02294006757438183,0.005921500734984875,-0.017247116193175316,0.011732115410268307,-0.00011049537715734914,0.018835270777344704
0.02279677428305149,0.00571616692468524,-0.017212189733982086,0.011470124125480652,-0.00010279663547407836,0.018874898552894592
0.023063305765390396,0.005521632730960846,-0.017011217772960663,0.011837764643132687,-0.00010017023305408657,0.01944703608751297
0.023800190538167953,0.004972624126821756,-0.017498742789030075,0.011959257535636425,-0.00011625251499935985,0.01985900290310383
0.02373437210917473,0.004823525436222553,-0.016471462324261665,0.011559155769646168,-0.00011496873776195571,0.01966223306953907
0.02345455251634121,0.005138450302183628,-0.017008095979690552,0.011353995651006699,-0.0001126481220126152,0.0193936750292778
0.02381286770105362,0.00485330680385232,-0.017256328836083412,0.01105035375803709,-0.00013495146413333714,0.01961621828377247
0.024032266810536385,0.005042664706707001,-0.01771927997469902,0.011258863843977451,-0.0001407546951668337,0.019780868664383888
0.02404181845486164,0.005018637981265783,-0.01711030676960945,0.011061343364417553,-0.00013859652972314507,0.019929515197873116
0.023865213617682457,0.004979018121957779,-0.017110344022512436,0.011822273954749107,-0.00040372306830249727,0.020198505371809006
0.02378508448600769,0.0051550548523664474,-0.017488807439804077,0.012356595136225224,-0.0004442359204404056,0.020197253674268723
0.024012291803956032,0.005257370416074991,-0.017366832122206688,0.01201165933161974,-0.00044570668251253664,0.020445795729756355
0.023890698328614235,0.004864556714892387,-0.017642013728618622,0.011769012548029423,-0.0004647037712857127,0.020473478361964226
0.023890698328614235,0.004864556714892387,-0.017642013728618622,0.011769012548029423,-0.0004647037712857127,0.020473478361964226
0.024341091513633728,0.004967901390045881,-0.017027096822857857,0.011217433959245682,-0.0004475823661778122,0.020420348271727562
0.02430170774459839,0.004868465941399336,-0.016852855682373047,0.011629216372966766,-0.0004745101323351264,0.02045358531177044
0.023986676707863808,0.004811899270862341,-0.017183244228363037,0.011873049661517143,-0.00045177823631092906,0.02028691954910755
0.02440689504146576,0.004723760299384594,-0.017009476199746132,0.011688143014907837,-0.0005702617345377803,0.020444365218281746
0.024158749729394913,0.0049246447160840034,-0.017577655613422394,0.011775732040405273,-0.0005163525347597897,0.020824497565627098
0.023905936628580093,0.004939257632941008,-0.017054539173841476,0.011456426233053207,-0.0005435867351479828,0.02098764292895794
0.02586837112903595,0.00480534415692091,-0.017632797360420227,0.012340860441327095,-0.0005037077353335917,0.02072170004248619
0.025209838524460793,0.004723282530903816,-0.017769090831279755,0.012089414522051811,-0.0005276212468743324,0.020897820591926575
0.024708347395062447,0.004779266659170389,-0.017274564132094383,0.012867010198533535,-0.0004951885202899575,0.02135305665433407
0.024381497874855995,0.0050985622219741344,-0.017552651464939117,0.01324454601854086,-0.00045962698641233146,0.02112024649977684
0.02474743314087391,0.005003298167139292,-0.017484884709119797,0.012770794332027435,-0.0004812579427380115,0.021208545193076134
0.02444782853126526,0.005175696685910225,-0.017803145572543144,0.012344778515398502,-0.00045785808470100164,0.021251866593956947
0.025376956909894943,0.004706277046352625,-0.017518918961286545,0.012508663348853588,-0.00043091768748126924,0.0213279128074646
0.02615300565958023,0.004979753866791725,-0.01751621626317501,0.012853776104748249,-0.00040660222293809056,0.021211713552474976
0.02620577998459339,0.004964863881468773,-0.01758519932627678,0.01253501046448946,-0.00037928964593447745,0.02106896974146366
0.024893000721931458,0.004824717529118061,-0.01695653796195984,0.01291926670819521,-0.0003473281394690275,0.02046356536448002
0.02502783201634884,0.0046657780185341835,-0.0175815187394619,0.012704381719231606,-0.0003222603991162032,0.02111632749438286
0.025587638840079308,0.0045206560753285885,-0.017884589731693268,0.01241246797144413,-0.0003007020568475127,0.021592944860458374
0.025591498240828514,0.004684369545429945,-0.01758844032883644,0.012476322241127491,-0.00031460088212043047,0.02152382582426071
0.025544065982103348,0.005119730718433857,-0.016930971294641495,0.012856099754571915,-0.0003003175661433488,0.021384483203291893
0.026646321639418602,0.005432980600744486,-0.017723580822348595,0.012263809330761433,-0.0002846898278221488,0.021301303058862686
0.026162484660744667,0.004784257151186466,-0.018030613660812378,0.012825392186641693,-0.00030946466722525656,0.021953299641609192
0.026413071900606155,0.00455167843028903,-0.017070835456252098,0.012367035262286663,-0.0003000679425895214,0.021483274176716805
0.025668300688266754,0.004902476444840431,-0.01759079471230507,0.012872211635112762,-0.0003222455852665007,0.021672135218977928
0.025668300688266754,0.004902476444840431,-0.01759079471230507,0.012872211635112762,-0.0003222455852665007,0.021672135218977928
0.026052217930555344,0.004888912662863731,-0.017235221341252327,0.013071372173726559,-0.00031311888596974313,0.021831830963492393
0.026798363775014877,0.00454754801467061,-0.01813163235783577,0.013284007087349892,-0.00033688099938444793,0.02124740742146969
0.026798363775014877,0.00454754801467061,-0.01813163235783577,0.013284007087349892,-0.00033688099938444793,0.02124740742146969
0.026164758950471878,0.004996424075216055,-0.017146456986665726,0.013135496526956558,-0.0003204263048246503,0.02137874811887741
0.026577429845929146,0.004548185039311647,-0.017645807936787605,0.013279425911605358,-0.00035134953213855624,0.022143036127090454
0.02639545127749443,0.004537664819508791,-0.017623286694288254,0.012795929796993732,-0.00036387157160788774,0.022717254236340523
0.02632516622543335,0.004514937289059162,-0.017218438908457756,0.013235361315310001,-0.00036822506808675826,0.022314945235848427
0.0269022099673748,0.004625067114830017,-0.018108636140823364,0.013032373040914536,-0.00034947061794809997,0.021050283685326576
0.025467438623309135,0.0045742555521428585,-0.01773439720273018,0.01313414890319109,-0.0003542753402143717,0.021229462698101997
0.026899587363004684,0.004839983768761158,-0.017761599272489548,0.012819528579711914,-0.00035802918137051165,0.022192228585481644
0.027466582134366035,0.00468535628169775,-0.017893938347697258,0.013178953900933266,-0.0004225839802529663,0.0226817037910223
0.027380697429180145,0.004735689144581556,-0.01746908761560917,0.013058492913842201,-0.0004565163981169462,0.022105146199464798
0.027476178482174873,0.004783695098012686,-0.018063006922602654,0.013375048525631428,-0.0004912540316581726,0.022368626669049263
0.02752487175166607,0.004814469255506992,-0.017884058877825737,0.01356704905629158,-0.0004966451087966561,0.023259853944182396
0.027797281742095947,0.004521680064499378,-0.01815427467226982,0.012797723524272442,-0.0004922066582366824,0.024259427562355995
0.027386106550693512,0.005012355279177427,-0.01814085617661476,0.013025439344346523,-0.0005067668971605599,0.023042265325784683
0.02796241082251072,0.004841682966798544,-0.01776156574487686,0.012840649113059044,-0.00048756133764982224,0.02230292558670044
0.028253326192498207,0.004385305102914572,-0.018358590081334114,0.013526484370231628,-0.0005860098754055798,0.02206130512058735
0.027856484055519104,0.004560648929327726,-0.01911420188844204,0.013173064216971397,-0.0006107456283643842,0.022776680067181587
0.028059517964720726,0.004903900902718306,-0.01823524758219719,0.013346346095204353,-0.0005381591035984457,0.02357271872460842
0.028032436966896057,0.004865908529609442,-0.018354708328843117,0.01383922342211008,-0.0005652577383443713,0.02337053418159485
0.02842595800757408,0.0048178816214203835,-0.01782195270061493,0.013262477703392506,-0.0005232318653725088,0.02306089922785759
0.028170259669423103,0.004658482037484646,-0.018558094277977943,0.013204734772443771,-0.0005475503858178854,0.023005541414022446
0.028518959879875183,0.004472303669899702,-0.018705612048506737,0.013390490785241127,-0.0005127400509081781,0.023373693227767944
0.02845004014670849,0.0044969236478209496,-0.018829116597771645,0.013243597000837326,-0.000522615562658757,0.023176593706011772
0.028601154685020447,0.004748053383082151,-0.01863139308989048,0.013204800896346569,-0.0004755663685500622,0.023073744028806686
0.02884802035987377,0.0045098597183823586,-0.01823214255273342,0.013322197832167149,-0.0005104420124553144,0.023535050451755524
0.028497975319623947,0.0050775217823684216,-0.018582116812467575,0.013792375102639198,-0.0005090842023491859,0.02315702475607395
0.028497975319623947,0.0050775217823684216,-0.018582116812467575,0.013792375102639198,-0.0005090842023491859,0.02315702475607395
0.02854781784117222,0.004885021597146988,-0.018804602324962616,0.013379890471696854,-0.0005032194312661886,0.02281821332871914
0.029150977730751038,0.00442756712436676,-0.018817471340298653,0.013927105814218521,-0.000517228152602911,0.023374710232019424
0.02995847538113594,0.0040524606592953205,-0.018792932853102684,0.013341016136109829,-0.0004989979788661003,0.023554105311632156
0.030167656019330025,0.00437790434807539,-0.01874193362891674,0.013274408876895905,-0.0005774294841103256,0.02329842373728752
0.028859341517090797,0.00459619564935565,-0.017979314550757408,0.012838863767683506,-0.000616479548625648,0.023600216954946518
0.028338830918073654,0.005056032910943031,-0.01850007474422455,0.013469544239342213,-0.0006459916476160288,0.023700987920165062
0.029877809807658195,0.005033016670495272,-0.01866009645164013,0.01324850507080555,-0.0006532692932523787,0.023467181250452995
0.029776664450764656,0.00437392620369792,-0.018526123836636543,0.013415978290140629,-0.0006195050082169473,0.023157577961683273
0.029289845377206802,0.004343151580542326,-0.019232599064707756,0.013697377406060696,-0.0007500871433876455,0.023577645421028137
0.029996173456311226,0.004548455122858286,-0.019410382956266403,0.013721372932195663,-0.0007684322190470994,0.023584574460983276
0.030670439824461937,0.004630620125681162,-0.0184828769415617,0.013879580423235893,-0.0007414635620079935,0.023725150153040886
0.029710642993450165,0.004898264072835445,-0.018306393176317215,0.0138858025893569,-0.0007078053313307464,0.02356058545410633
0.028597339987754822,0.005042937584221363,-0.018523093312978745,0.014037573710083961,-0.00072387361433357,0.023707691580057144
0.02909974753856659,0.004835078492760658,-0.01851666532456875,0.012924045324325562,-0.0006628988776355982,0.024074096232652664
0.030393600463867188,0.004763464909046888,-0.01874414272606373,0.01326624397188425,-0.0006131231784820557,0.024373117834329605
0.02997877076268196,0.004337870981544256,-0.018426964059472084,0.013298905454576015,-0.0005715334555134177,0.024377308785915375
0.029956577345728874,0.004427468404173851,-0.018818633630871773,0.014269162900745869,-0.0005091481725685298,0.02379092574119568
0.029879078269004822,0.004532109946012497,-0.019154144451022148,0.014131235890090466,-0.0005423045950010419,0.0232358630746603
0.02977432683110237,0.004955585580319166,-0.018490567803382874,0.014620662666857243,-0.0005863795522600412,0.023975683376193047
0.029676197096705437,0.004849173128604889,-0.018945351243019104,0.014720399864017963,-0.0006455277325585485,0.02434026636183262
0.029676197096705437,0.004849173128604889,-0.018945351243019104,0.014720399864017963,-0.0006455277325585485,0.02434026636183262
0.02966918982565403,0.004758794326335192,-0.01878471113741398,0.014452761970460415,-0.0006396075477823615,0.02447020635008812
0.029872724786400795,0.004700192715972662,-0.01914478838443756,0.01483920682221651,-0.000669464934617281,0.024801654741168022
0.02974223531782627,0.004583212547004223,-0.018885768949985504,0.014617541804909706,-0.0006019393913447857,0.024790683761239052
0.029779141768813133,0.00527191162109375,-0.01880120486021042,0.01462018396705389,-0.0005525537417270243,0.024280492216348648
0.029779141768813133,0.00527191162109375,-0.01880120486021042,0.01462018396705389,-0.0005525537417270243,0.024280492216348648
0.029797501862049103,0.004689210094511509,-0.019021252170205116,0.014878877438604832,-0.0005250352551229298,0.023957369849085808
0.02993152104318142,0.004524692893028259,-0.01804027333855629,0.014187855646014214,-0.0005502300336956978,0.024060092866420746
0.02957959659397602,0.004944934044033289,-0.018654733896255493,0.01425669714808464,-0.000515130755957216,0.024942679330706596
0.02823169156908989,0.005021079443395138,-0.018530936911702156,0.014199224300682545,-0.0004893894656561315,0.025173451751470566
0.03053693100810051,0.004786279518157244,-0.01871911622583866,0.014579197391867638,-0.00044643686851486564,0.024942468851804733
0.03104947879910469,0.004779457580298185,-0.018946530297398567,0.014284159988164902,-0.0004764622717630118,0.024463390931487083
0.03136390820145607,0.005087659694254398,-0.018628016114234924,0.014524315483868122,-0.00048262946074828506,0.024450162425637245
0.030202586203813553,0.0046387529000639915,-0.01881815865635872,0.014176979660987854,-0.00047934468602761626,0.024637065827846527
0.029744308441877365,0.005067047663033009,-0.01895141415297985,0.014667239971458912,-0.0005026935250498354,0.024791529402136803
0.030698638409376144,0.005017769057303667,-0.01883041486144066,0.01461753249168396,-0.0005845401319675148,0.024764245375990868
0.03122032806277275,0.00484667019918561,-0.01909821666777134,0.015029294416308403,-0.0006097985897213221,0.024698911234736443
0.03085196763277054,0.005172481760382652,-0.02028026431798935,0.014475817792117596,-0.0006436377880163491,0.02507173828780651
0.03159654885530472,0.005342698190361261,-0.01970035210251808,0.014935538172721863,-0.0006278697983361781,0.024770690128207207
0.03131810948252678,0.005054276902228594,-0.0193199273198843,0.01506288442760706,-0.0006093799020163715,0.02496478334069252
0.031089182943105698,0.005339976400136948,-0.019529657438397408,0.014952530153095722,-0.0006321680266410112,0.025125961750745773
0.03037092089653015,0.005087605211883783,-0.01916486769914627,0.014958133921027184,-0.0007224637665785849,0.0260502640157938
0.030614715069532394,0.004912411328405142,-0.019627947360277176,0.014753766357898712,-0.0008231818210333586,0.025239920243620872
0.030990293249487877,0.005467867013067007,-0.020099444314837456,0.014689073897898197,-0.0008379381615668535,0.024941736832261086
0.031105855479836464,0.005251785274595022,-0.020069079473614693,0.015450906939804554,-0.0008022508700378239,0.025396980345249176
0.03123966045677662,0.005102586001157761,-0.019117528572678566,0.015364998951554298,-0.0009490911616012454,0.025441844016313553
0.031489260494709015,0.005433601327240467,-0.019972851499915123,0.014984430745244026,-0.0009373942739330232,0.025340531021356583
0.0313979908823967,0.00528882909566164,-0.019541313871741295,0.014795683324337006,-0.0008812551386654377,0.02544153854250908
0.0315093956887722,0.005150068085640669,-0.019563861191272736,0.014864864759147167,-0.000831412267871201,0.02531288005411625
0.03134522959589958,0.005205391440540552,-0.020031427964568138,0.014971697703003883,-0.000756435445509851,0.025154070928692818
0.03134522959589958,0.005205391440540552,-0.020031427964568138,0.014971697703003883,-0.000756435445509851,0.025154070928692818
0.03163155913352966,0.0053790658712387085,-0.01966894418001175,0.015211832709610462,-0.0006568388780578971,0.02527605928480625
0.03160199895501137,0.00518395658582449,-0.01917305216193199,0.015016395598649979,-0.000628407986368984,0.025127561762928963
0.03190736845135689,0.00522120064124465,-0.019671734422445297,0.015458392910659313,-0.000606493791565299,0.02532830648124218
0.03137846291065216,0.005446619354188442,-0.019895968958735466,0.015861185267567635,-0.0006405343883670866,0.025180982425808907
0.0322454571723938,0.005061187315732241,-0.019964326173067093,0.015355471521615982,-0.0006576441810466349,0.025143176317214966
0.0322454571723938,0.005061187315732241,-0.019964326173067093,0.015355471521615982,-0.0006576441810466349,0.025143176317214966
0.032240305095911026,0.004887943621724844,-0.01982584036886692,0.015727370977401733,-0.0007107763667590916,0.025510458275675774
0.032209161669015884,0.00505954772233963,-0.019792288541793823,0.015431659296154976,-0.0007352389511652291,0.025466974824666977
0.03232361376285553,0.004761616233736277,-0.020038284361362457,0.015346928499639034,-0.0007659575785510242,0.025674548000097275
0.032596927136182785,0.004602524451911449,-0.01982407085597515,0.015308084897696972,-0.0011731127742677927,0.026348166167736053
0.032313838601112366,0.004391383845359087,-0.01937337964773178,0.015432513318955898,-0.0011933300411328673,0.02682306244969368
0.03232517093420029,0.0043575344607234,-0.01969926431775093,0.015840724110603333,-0.0011603643652051687,0.025882259011268616
0.03263721987605095,0.004905566107481718,-0.020033784210681915,0.01550879143178463,-0.0011763230431824923,0.02484321780502796
0.03288651630282402,0.004497072659432888,-0.019788125529885292,0.015511155128479004,-0.0012271933956071734,0.025065366178750992
0.03280056640505791,0.0045403423719108105,-0.019971363246440887,0.014564973302185535,-0.0011022933758795261,0.025912681594491005
0.03346585854887962,0.004619751125574112,-0.0201040618121624,0.015185460448265076,-0.0010402747429907322,0.02594427950680256
0.03348863124847412,0.005079429131001234,-0.01990518532693386,0.015121365897357464,-0.0009347815648652613,0.025785844773054123
0.033057406544685364,0.004906801972538233,-0.019873052835464478,0.01580066792666912,-0.0008289093966595829,0.027356082573533058
0.033108245581388474,0.004496839363127947,-0.020203489810228348,0.015645982697606087,-0.0007433065329678357,0.027159446850419044
0.033809978514909744,0.004314240999519825,-0.020073628053069115,0.015620739199221134,-0.0006740393000654876,0.026299623772501945
0.03458087146282196,0.004849213175475597,-0.019808907061815262,0.015070883557200432,-0.0005291280103847384,0.02511795051395893
0.03327518329024315,0.0048536984249949455,-0.02021079510450363,0.015428614802658558,-0.00046946961083449423,0.026583222672343254
0.03283926844596863,0.004837783984839916,-0.02017821930348873,0.015166711062192917,-0.0004979391233064234,0.027561265975236893
0.03430229425430298,0.004938639234751463,-0.019785556942224503,0.015617587603628635,-0.00046494920388795435,0.02714613825082779
0.03458444029092789,0.004600990563631058,-0.0202547088265419,0.015705645084381104,-0.0004630092589650303,0.02609168365597725
0.035017434507608414,0.004264508839696646,-0.019616777077317238,0.016492584720253944,-0.0004888899275101721,0.026250796392560005
0.034156229346990585,0.004461603704839945,-0.020350562408566475,0.016153961420059204,-0.0005161928711459041,0.026272710412740707
0.033561766147613525,0.004956814460456371,-0.020275061950087547,0.01654352806508541,-0.0005857409560121596,0.02661396749317646
0.033561766147613525,0.004956814460456371,-0.020275061950087547,0.01654352806508541,-0.0005857409560121596,0.02661396749317646
0.03343232721090317,0.005007314961403608,-0.01969083771109581,0.01609691046178341,-0.0006197832408361137,0.02661842480301857
0.03455416485667229,0.004355366807430983,-0.020305685698986053,0.016486670821905136,-0.0005847185966558754,0.026862526312470436
0.03553562983870506,0.004524597432464361,-0.0200717244297266,0.016471505165100098,-0.0005642666365019977,0.026902755722403526
0.03553562983870506,0.004524597432464361,-0.0200717244297266,0.016471505165100098,-0.0005642666365019977,0.026902755722403526
0.034973692148923874,0.0047676702961325645,-0.019729457795619965,0.016935672610998154,-0.0006926967762410641,0.02701265551149845
0.03415383771061897,0.004447911866009235,-0.020501190796494484,0.016609184443950653,-0.0007308286149054766,0.027238968759775162
0.03429540991783142,0.004582200199365616,-0.020640414208173752,0.016957011073827744,-0.0007104467949829996,0.027117421850562096
0.03508428856730461,0.004625926725566387,-0.019605696201324463,0.01685057021677494,-0.0006814340013079345,0.027330612763762474
0.03453570231795311,0.004461224190890789,-0.02014685422182083,0.017015384510159492,-0.0006995712174102664,0.02749597653746605
0.03509007766842842,0.004493387416005135,-0.020498143509030342,0.017085589468479156,-0.0007062262739054859,0.027136528864502907
0.03473174571990967,0.004355458542704582,-0.020531916990876198,0.016404150053858757,-0.0006650349241681397,0.027317611500620842
0.034072279930114746,0.004582574591040611,-0.02033946104347706,0.01672341488301754,-0.0006907670176587999,0.02734163962304592
0.03463253006339073,0.004486723802983761,-0.02032226137816906,0.016729041934013367,-0.0006940508028492332,0.027325231581926346
0.03476386144757271,0.0049074203707277775,-0.020462097600102425,0.017053330317139626,-0.0006908244104124606,0.027225371450185776
0.036072518676519394,0.004849589895457029,-0.020872527733445168,0.016670580953359604,-0.0007542429375462234,0.027139663696289062
0.03546079248189926,0.004392481409013271,-0.021479405462741852,0.016659796237945557,-0.0008282078197225928,0.027451181784272194
0.03380602225661278,0.004086527973413467,-0.02130693942308426,0.0171806663274765,-0.0008580980938859284,0.02859482355415821
0.03524836152791977,0.003932025749236345,-0.020689737051725388,0.016926616430282593,-0.0008720236364752054,0.02824576012790203
0.03513810783624649,0.004380945116281509,-0.02027066797018051,0.017037728801369667,-0.0011565833119675517,0.027246300131082535
0.034963518381118774,0.004390452988445759,-0.02072809636592865,0.016639553010463715,-0.0011904548155143857,0.027007311582565308
0.03546277433633804,0.004775676876306534,-0.021347202360630035,0.016669727861881256,-0.00114797567948699,0.027658432722091675
0.03634636849164963,0.004304541274905205,-0.021008748561143875,0.01673450693488121,-0.0010927309049293399,0.02775697223842144
0.03456566482782364,0.004429289139807224,-0.020610226318240166,0.01684536039829254,-0.001084864023141563,0.027699433267116547
0.03612571954727173,0.00402502017095685,-0.02132510580122471,0.01702132634818554,-0.000927459797821939,0.029021229594945908
0.035687919706106186,0.004409567918628454,-0.020975839346647263,0.017125803977251053,-0.0009153166902251542,0.028145525604486465
0.03562961518764496,0.0042767212726175785,-0.021052628755569458,0.01698862761259079,-0.0008286795346066356,0.027675364166498184
0.03562961518764496,0.0042767212726175785,-0.021052628755569458,0.01698862761259079,-0.0008286795346066356,0.027675364166498184
0.03583529591560364,0.00500137684866786,-0.021474314853549004,0.01679925248026848,-0.0007414699648506939,0.027220919728279114
0.03603876382112503,0.004857637453824282,-0.02093672752380371,0.016917584463953972,-0.0007318101124837995,0.028666647151112556
0.03595046326518059,0.004368055146187544,-0.021347109228372574,0.016500437632203102,-0.000722771801520139,0.029600199311971664
0.03642623871564865,0.004068000707775354,-0.020406490191817284,0.017217759042978287,-0.0006927117356099188,0.029163625091314316
0.03616177663207054,0.00440729595720768,-0.021672284230589867,0.01715288683772087,-0.0006924417102709413,0.028905561193823814
0.035863544791936874,0.004281589295715094,-0.021222200244665146,0.01720604859292507,-0.0006511367973871529,0.028797632083296776
0.035925719887018204,0.004034454468637705,-0.02086506225168705,0.01787818968296051,-0.0006520113674923778,0.028223998844623566
0.036562856286764145,0.004334446042776108,-0.0215041171759367,0.01746358536183834,-0.000658508506603539,0.028330562636256218
0.03631244972348213,0.004950558301061392,-0.02179122529923916,0.017449617385864258,-0.0006099366000853479,0.028785379603505135
0.036344580352306366,0.00447112089022994,-0.021027669310569763,0.017222050577402115,-0.0006282704998739064,0.028988370671868324
0.036232542246580124,0.004531290382146835,-0.021062560379505157,0.017127547413110733,-0.0006211628788150847,0.028742196038365364
0.03483094274997711,0.004248009528964758,-0.02165105938911438,0.01778208464384079,-0.0006058845901861787,0.028883835300803185
0.037041086703538895,0.004307673778384924,-0.02133030630648136,0.017393136397004128,-0.000646388391032815,0.02915092557668686
0.03681066259741783,0.00474110571667552,-0.020482929423451424,0.01739068701863289,-0.0005788565031252801,0.028955647721886635
0.03677060455083847,0.004842178430408239,-0.021529830992221832,0.017322096973657608,-0.0006088623194955289,0.0295433197170496
0.03674183040857315,0.004798822570592165,-0.021832052618265152,0.01750797964632511,-0.000620113278273493,0.02965613640844822
0.037041034549474716,0.004386381711810827,-0.021373484283685684,0.017788207158446312,-0.0006240708171389997,0.029544811695814133
0.036885909736156464,0.004372524097561836,-0.020959340035915375,0.017908014357089996,-0.0006091450341045856,0.029559073969721794
0.037421707063913345,0.004622140899300575,-0.02129802107810974,0.017931414768099785,-0.0006504699122160673,0.029300175607204437
0.03735014423727989,0.004198557231575251,-0.021509269252419472,0.017903583124279976,-0.0006829491467215121,0.02919233962893486
0.03666616976261139,0.004464013036340475,-0.020944951102137566,0.017681658267974854,-0.0006821298156864941,0.029535124078392982
0.03738502413034439,0.004724707454442978,-0.02159184031188488,0.01764785312116146,-0.0006720792734995484,0.029709726572036743
0.03738502413034439,0.004724707454442978,-0.02159184031188488,0.01764785312116146,-0.0006720792734995484,0.029709726572036743
0.03760451450943947,0.004495006520301104,-0.02152235247194767,0.01851867139339447,-0.0006897617713548243,0.031018733978271484
0.036411602050065994,0.00414056982845068,-0.021097201853990555,0.01870178058743477,-0.0007194230565801263,0.03048311546444893
0.036411602050065994,0.00414056982845068,-0.021097201853990555,0.01870178058743477,-0.0007194230565801263,0.03048311546444893
0.03688247501850128,0.004410823807120323,-0.021229347214102745,0.018811745569109917,-0.0007409596000798047,0.030371876433491707
0.03742349520325661,0.004639266058802605,-0.021252114325761795,0.0188597459346056,-0.0007603801204822958,0.031359609216451645
0.038908928632736206,0.005071870982646942,-0.021302053704857826,0.018362080678343773,-0.0009004630264826119,0.030536644160747528
0.03872320055961609,0.004505453165620565,-0.021498098969459534,0.01910049095749855,-0.0009077087161131203,0.029653167352080345
0.037078287452459335,0.00401346618309617,-0.021307475864887238,0.018653718754649162,-0.000897900084964931,0.02946002595126629
0.03689250722527504,0.0042813061736524105,-0.021708697080612183,0.017976541072130203,-0.0008826751727610826,0.030754830688238144
0.03866437077522278,0.004330452065914869,-0.021593976765871048,0.01893981359899044,-0.000863635737914592,0.030430253595113754
0.03829386085271835,0.004856810439378023,-0.021301118656992912,0.018556080758571625,-0.0009055209811776876,0.030838996171951294
0.038411058485507965,0.004850039258599281,-0.021638233214616776,0.01803174801170826,-0.0009070700034499168,0.031080467626452446
0.03817874193191528,0.004429253749549389,-0.020995834842324257,0.018156254664063454,-0.0009062919998541474,0.030728967860341072
0.03786838799715042,0.004504766780883074,-0.020587773993611336,0.018531236797571182,-0.0009931341046467423,0.029957138001918793
0.03891035541892052,0.004241446033120155,-0.021206749603152275,0.01894577406346798,-0.0009934924310073256,0.02972138673067093
0.03856479004025459,0.004430662840604782,-0.021923772990703583,0.0189653392881155,-0.0008740401244722307,0.031153755262494087
0.03818006068468094,0.004528695251792669,-0.022363368421792984,0.01872234418988228,-0.0008705203654244542,0.031463149935007095
0.03883639723062515,0.00461485655978322,-0.021255627274513245,0.018802326172590256,-0.0008735661394894123,0.031104998663067818
0.03792056068778038,0.004960745107382536,-0.02129705809056759,0.019286053255200386,-0.0008060018881224096,0.030809935182332993
0.03842824697494507,0.0045998599380254745,-0.02205704152584076,0.019045615568757057,-0.000775116088334471,0.030813438817858696
0.039633773267269135,0.004248773213475943,-0.02206527814269066,0.01915796287357807,-0.0007308035274036229,0.03035947121679783
0.03752736747264862,0.004427058156579733,-0.02141238935291767,0.019166970625519753,-0.0007396462606266141,0.03074435517191887
0.0375351719558239,0.004236571025103331,-0.022081533446907997,0.018995599821209908,-0.0007560655358247459,0.031040482223033905
0.03826919570565224,0.004662433639168739,-0.021882090717554092,0.0187788475304842,-0.0008059028768911958,0.030939387157559395
0.0398075170814991,0.004579728003591299,-0.021965747699141502,0.018569493666291237,-0.0007592533947899938,0.03127092495560646
0.0398075170814991,0.004579728003591299,-0.021965747699141502,0.018569493666291237,-0.0007592533947899938,0.03127092495560646
0.03924939036369324,0.004240535665303469,-0.022165756672620773,0.018759746104478836,-0.0007650648476555943,0.03173039108514786
0.03690357878804207,0.004379188176244497,-0.022158244624733925,0.01868722215294838,-0.0006938967853784561,0.030695650726556778
0.0384720154106617,0.0044794632121920586,-0.02223467081785202,0.01807904802262783,-0.0007086601108312607,0.031588390469551086
0.03979775309562683,0.0042419214732944965,-0.022354936227202415,0.018550006672739983,-0.0006882325396873057,0.032481707632541656
0.03879630193114281,0.004263353068381548,-0.02224251814186573,0.018743738532066345,-0.000691175227984786,0.031799349933862686
0.0385562963783741,0.0042823064140975475,-0.022094111889600754,0.018409332260489464,-0.000662169826682657,0.0319833867251873
0.039103809744119644,0.004070623777806759,-0.02258015237748623,0.01879713125526905,-0.0006846485775895417,0.031827256083488464
0.03915761783719063,0.004094059579074383,-0.022249365225434303,0.018801527097821236,-0.0006997282616794109,0.032444633543491364
0.039423950016498566,0.004050345625728369,-0.021788403391838074,0.01878984086215496,-0.0007969692233018577,0.03180423751473427
0.03909847140312195,0.004311647266149521,-0.022221311926841736,0.019159043207764626,-0.0008477132651023567,0.032011546194553375
0.03910360857844353,0.004618731327354908,-0.022654717788100243,0.019019650295376778,-0.0009254810283891857,0.033134300261735916
0.03934040293097496,0.004220038186758757,-0.022550450637936592,0.019063351675868034,-0.0008824061951600015,0.03298696503043175
0.03945758566260338,0.00398714654147625,-0.02206471376121044,0.01961762085556984,-0.0011640064185485244,0.03108641877770424
0.03971443697810173,0.004344241227954626,-0.02222377434372902,0.01986488327383995,-0.0010911490535363555,0.030933478847146034
0.04004660248756409,0.004182267002761364,-0.022240666672587395,0.019661737605929375,-0.0010593368206173182,0.032013632357120514
0.04020966216921806,0.003946893382817507,-0.022324347868561745,0.01959000527858734,-0.0009788908064365387,0.032278288155794144
0.039923083037137985,0.004052531439810991,-0.022708503529429436,0.019026661291718483,-0.0009072949760593474,0.03298725560307503
