davideferrari95/blind_handover_controller/data/Test 281 - [2024-02-08 -- 13-53-55]/joint_states_data.csv
shoulder_pan_joint,shoulder_lift_joint,elbow_joint,wrist_1_joint,wrist_2_joint,wrist_3_joint
0.008335876278579235,0.006303566507995129,-0.010970810428261757,0.006586418487131596,0.00024336187925655395,0.008507122285664082
0.008173731155693531,0.005683952011168003,-0.011820469982922077,0.006003059912472963,0.0002780811919365078,0.008936249651014805
0.008558940142393112,0.00587115716189146,-0.011896536685526371,0.006012339610606432,0.00029412718140520155,0.008248306810855865
0.008747296407818794,0.00563947856426239,-0.011106166057288647,0.005954433232545853,0.0003021949087269604,0.007936064153909683
0.008376502431929111,0.005804864689707756,-0.011313313618302345,0.006364897824823856,0.0003292105393484235,0.007799310144037008
0.008426417596638203,0.005961866583675146,-0.011432094499468803,0.006061152089387178,0.0003183585067745298,0.007981411181390285
0.008861887268722057,0.005664556287229061,-0.011591741815209389,0.005831866059452295,0.0003409376950003207,0.009003817103803158
0.008861887268722057,0.005664556287229061,-0.011591741815209389,0.005831866059452295,0.0003409376950003207,0.009003817103803158
0.008525409735739231,0.005616463720798492,-0.012201890349388123,0.00517463032156229,0.0003308235318399966,0.007980411872267723
0.008296053856611252,0.00541814835742116,-0.011572339572012424,0.0051409099251031876,0.0005620800657197833,0.007551928516477346
0.008691809140145779,0.005794770549982786,-0.01150497142225504,0.0057318489998579025,0.0005155933322384953,0.008125650696456432
0.00857194047421217,0.005866187158972025,-0.011439337395131588,0.006050056777894497,0.00046357567771337926,0.008101257495582104
0.009060260839760303,0.005232951603829861,-0.011670791544020176,0.0055437833070755005,0.0004506198165472597,0.00796748511493206
0.008188202977180481,0.005576315335929394,-0.010577878914773464,0.00554646598175168,0.0004242125141900033,0.008260531350970268
0.007749140728265047,0.005347059573978186,-0.011606314219534397,0.00570512842386961,0.00039384179399348795,0.008095898665487766
0.007493613287806511,0.005808287300169468,-0.011169442906975746,0.005757571663707495,0.0003670889709610492,0.007663188502192497
0.008379400707781315,0.005292640998959541,-0.010636529885232449,0.005813239607959986,0.00034371193032711744,0.00808189157396555
0.008828546851873398,0.005210052710026503,-0.01124482974410057,0.005727387499064207,0.0003231341252103448,0.007859483361244202
0.008005363866686821,0.005569011904299259,-0.011722647584974766,0.005858244840055704,0.00030488212360069156,0.007840405218303204
0.007603684905916452,0.005314148496836424,-0.011570337228477001,0.006122151855379343,0.0003240506339352578,0.007486173417419195
0.007693673484027386,0.005879057105630636,-0.011238440871238708,0.005561173427850008,0.00031877029687166214,0.007609416730701923
0.008378726430237293,0.0056717656552791595,-0.010627847164869308,0.005890253931283951,0.00030410540057346225,0.007952394895255566
0.007790990173816681,0.005622012075036764,-0.011091222986578941,0.005963039118796587,0.0002901441475842148,0.008251293562352657
0.00815874245017767,0.005189693067222834,-0.010756497271358967,0.006187253165990114,0.0002773696614895016,0.007845807820558548
0.008407925255596638,0.0056412904523313046,-0.010659928433597088,0.005720008164644241,0.0002656704164110124,0.008123933337628841
0.007858822122216225,0.005832227878272533,-0.011015416122972965,0.005624764133244753,0.00025491861742921174,0.008286423049867153
0.007456474006175995,0.005832179449498653,-0.010680897161364555,0.005152058321982622,0.00024500361178070307,0.008380616083741188
0.008000582456588745,0.0054780966602265835,-0.011074736714363098,0.005341726820915937,0.00026074767811223865,0.008252955973148346
0.008000582456588745,0.0054780966602265835,-0.011074736714363098,0.005341726820915937,0.00026074767811223865,0.008252955973148346
0.00815113540738821,0.00556211918592453,-0.010972471907734871,0.005652170162647963,0.00025922071654349566,0.008346231654286385
0.008329158648848534,0.006117255426943302,-0.010490034706890583,0.006065370514988899,0.00025070816627703607,0.008299353532493114
0.007936619222164154,0.0056399512104690075,-0.011036251671612263,0.0057348329573869705,0.00024230290728155524,0.008342086337506771
0.007645369973033667,0.006345975678414106,-0.01099059171974659,0.00558033213019371,0.0002344158128835261,0.008744005113840103
0.008109316229820251,0.005774999037384987,-0.010701092891395092,0.005468624643981457,0.00022702365822624415,0.008473058231174946
0.007913902401924133,0.005817526485770941,-0.010830425657331944,0.00583420367911458,0.00018617487512528896,0.00826017465442419
0.0077938963659107685,0.005594407673925161,-0.010971767827868462,0.005684833507984877,0.00016875428264029324,0.008561782538890839
0.007974330335855484,0.005929939448833466,-0.01052333228290081,0.005725379101932049,0.00016199542733374983,0.008701920509338379
0.00803946703672409,0.005718135740607977,-0.010778377763926983,0.006048641633242369,0.00015632255235686898,0.007858174853026867
0.008143605664372444,0.005983741022646427,-0.011153171770274639,0.0054207248613238335,0.00017513445345684886,0.008121160790324211
0.008461978286504745,0.005422278307378292,-0.0104163633659482,0.005506870802491903,0.000169860475580208,0.008380421437323093
0.008085684850811958,0.005974560044705868,-0.010185563005506992,0.005514238029718399,0.00016469501133542508,0.00854281522333622
0.007702699862420559,0.005930933635681868,-0.010843484662473202,0.005623278208076954,0.00015982118202373385,0.008112436160445213
0.008076532743871212,0.005748538766056299,-0.0101482467725873,0.005494135897606611,0.00015522679314017296,0.00790751725435257
0.007998242042958736,0.00550661887973547,-0.010398607701063156,0.005601943004876375,0.00016323447925969958,0.00828141625970602
0.008124555461108685,0.005529644899070263,-0.011053519323468208,0.005215516313910484,0.00017041570390574634,0.008056250400841236
0.00810406543314457,0.005698446184396744,-0.010320058092474937,0.0054709226824343204,0.00016666487499605864,0.008606499992311
0.008341609500348568,0.006170453503727913,-0.010539153590798378,0.005628140643239021,0.00016241725825238973,0.008376425132155418
0.008300735615193844,0.005713206250220537,-0.010822230949997902,0.005613177083432674,0.00015833854558877647,0.008483455516397953
0.007774606812745333,0.005610726773738861,-0.010197259485721588,0.005161258392035961,0.00016529815911781043,0.009023456834256649
0.008436344563961029,0.0052735460922122,-0.010499357245862484,0.005281280260533094,0.0001715644757496193,0.00843192357569933
0.008629872463643551,0.005852792412042618,-0.010224402882158756,0.0056214951910078526,0.0001682224392425269,0.008085902780294418
0.008629872463643551,0.005852792412042618,-0.010224402882158756,0.0056214951910078526,0.0001682224392425269,0.008085902780294418
0.008278843015432358,0.005728832446038723,-0.01042762491852045,0.006138044875115156,0.00016442428750451654,0.00796317309141159
0.008414062671363354,0.005828781519085169,-0.01047060638666153,0.005963630508631468,0.0002138665586244315,0.008169637061655521
0.007921488024294376,0.005510238930583,-0.010425486601889133,0.005707900505512953,0.00022071143030188978,0.008466685190796852
0.007945569232106209,0.0055749015882611275,-0.0100489417091012,0.005285426042973995,0.00021147119696252048,0.007941072806715965
0.007982712239027023,0.006143508013337851,-0.011138120666146278,0.005816682707518339,0.00023705611238256097,0.007596341893076897
0.008685125038027763,0.005512688308954239,-0.010478362441062927,0.005608054809272289,0.00023169022460933775,0.008042576722800732
0.00858942698687315,0.006059413310140371,-0.01042216643691063,0.0059270067140460014,0.00022245696163736284,0.008184375241398811
0.007816245779395103,0.0055933622643351555,-0.010484813712537289,0.005500513594597578,0.0002311029238626361,0.007886797189712524
0.007929733023047447,0.005904774181544781,-0.010319532826542854,0.005227307323366404,0.00023861016961745918,0.0079804090783
0.00816185399889946,0.00543600507080555,-0.01015994418412447,0.005171530414372683,0.0002309256378794089,0.00853019393980503
0.008392133750021458,0.005571870598942041,-0.010548185557126999,0.00537756597623229,0.0002228270604973659,0.008189179003238678
0.007799473591148853,0.005931093357503414,-0.010037820786237717,0.005751878954470158,0.00021521816961467266,0.008066811598837376
0.00819375365972519,0.006104911211878061,-0.010753865353763103,0.0055535295978188515,0.00023011324810795486,0.007902055978775024
0.008302965201437473,0.005758260376751423,-0.010664530098438263,0.005678819492459297,0.00022972741862758994,0.008382444269955158
0.008220245130360126,0.0055100624449551105,-0.010739980265498161,0.005782862659543753,0.00021638930775225163,0.008033144287765026
0.008449621498584747,0.006218763999640942,-0.010759084485471249,0.005863897502422333,0.0002100770070683211,0.007970421575009823
0.008220747113227844,0.006204809062182903,-0.011167487129569054,0.00599661935120821,0.00020412074809428304,0.00897152815014124
0.008121409453451633,0.005948015954345465,-0.011366346850991249,0.00548242824152112,0.00019849334785249084,0.0075661721639335155
0.007735461462289095,0.005997306667268276,-0.010228684172034264,0.005022773053497076,0.00021778972586616874,0.007236857432872057
0.008642242290079594,0.005461312830448151,-0.010758738964796066,0.005093790125101805,0.00023041242093313485,0.00817592442035675
0.008481929078698158,0.0058829039335250854,-0.010957944206893444,0.005892944987863302,0.00022066730889491737,0.008272368460893631
0.008082875050604343,0.006413757801055908,-0.01025926973670721,0.005851341877132654,0.0002104460436385125,0.008186195977032185
0.008549329824745655,0.0059412457048892975,-0.01097110752016306,0.005696326028555632,0.00020104805298615247,0.008148042485117912
0.008456708863377571,0.005974987987428904,-0.010967355221509933,0.005309780593961477,0.0001924483512993902,0.008956994861364365
0.008120439015328884,0.005455593578517437,-0.010318225249648094,0.00544184073805809,0.00018455444660503417,0.008448165841400623
0.008049452677369118,0.00556510966271162,-0.011074261739850044,0.0052311657927930355,0.00017728189413901418,0.008506820537149906
0.008049452677369118,0.00556510966271162,-0.011074261739850044,0.0052311657927930355,0.00017728189413901418,0.008506820537149906
0.008454399183392525,0.0059689003974199295,-0.010339027270674706,0.005341982468962669,0.0001957881759153679,0.008989238180220127
0.008516310714185238,0.005854794755578041,-0.01070884708315134,0.005343982484191656,0.00019661827536765486,0.009070603176951408
0.008337748236954212,0.00526956794783473,-0.01026776060461998,0.00578449247404933,0.00018377159722149372,0.00836403202265501
0.008337748236954212,0.00526956794783473,-0.01026776060461998,0.00578449247404933,0.00018377159722149372,0.00836403202265501
0.008007663302123547,0.004981551319360733,-0.010725729167461395,0.005843913182616234,0.00017772511637303978,0.008200965821743011
0.00871144887059927,0.006833635736256838,-0.010875498875975609,0.005997440777719021,0.00017206156917382032,0.008181339129805565
0.00812294241040945,0.0051648556254804134,-0.010214651934802532,0.006352217867970467,0.000166748053743504,0.007997224107384682
0.008488214574754238,0.005789229646325111,-0.01081965584307909,0.005621676333248615,0.00016175270138774067,0.008674084208905697
0.008487891405820847,0.006077717524021864,-0.010661480017006397,0.005437522195279598,0.0001797662116587162,0.008138622157275677
0.007763054221868515,0.005465203430503607,-0.01020069420337677,0.005504627246409655,0.00017781858332455158,0.007730551064014435
0.008150313049554825,0.00594678008928895,-0.010043415240943432,0.00609493488445878,0.00017313584976363927,0.00797240249812603
0.008226463571190834,0.006448502652347088,-0.010587112978100777,0.005699272267520428,0.00016851778491400182,0.008262615650892258
0.008310210891067982,0.0057507529854774475,-0.010588805191218853,0.005655443761497736,0.00016412795230280608,0.00812486931681633
0.008585890755057335,0.005307029001414776,-0.009854882955551147,0.005686241202056408,0.00015599949983879924,0.00802368950098753
0.008410418406128883,0.005372645799070597,-0.010763851925730705,0.005597156006842852,0.00015222988440655172,0.00835142470896244
0.008285628631711006,0.005879252217710018,-0.010888579301536083,0.00565455062314868,0.00014863806427456439,0.007882202044129372
0.008872086182236671,0.0057680015452206135,-0.011056969873607159,0.005409639794379473,0.00015540870663244277,0.00747720105573535
0.008261683396995068,0.0057259732857346535,-0.010658856481313705,0.005326330661773682,0.00016152860189322382,0.008621616289019585
0.008053064346313477,0.005299817305058241,-0.010455600917339325,0.005215227138251066,0.00015859786071814597,0.008211784064769745
0.007950851693749428,0.005616770591586828,-0.009823768399655819,0.005715911742299795,0.0001552196772536263,0.008039409294724464
0.009058956056833267,0.005490442737936974,-0.010440467856824398,0.0060019586235284805,0.00015194667503237724,0.008105785585939884
0.008431843481957912,0.0052229356952011585,-0.0104226004332304,0.005836809985339642,0.0001488063862780109,0.008026433177292347
0.008315813727676868,0.005181552842259407,-0.010824624449014664,0.005204807035624981,0.00014579300477635115,0.007979415357112885
0.008721957914531231,0.0055408054031431675,-0.010387666523456573,0.005401249043643475,0.0001428995601600036,0.008226752281188965
0.008636340498924255,0.005279315635561943,-0.009829781018197536,0.005353431683033705,0.0001401184272253886,0.008002201095223427
0.008252783678472042,0.004998544696718454,-0.010103587992489338,0.005931876599788666,0.00013744358147960156,0.008137984201312065
0.008109906688332558,0.00524454191327095,-0.010149285197257996,0.005919593386352062,0.00013486898387782276,0.008171177469193935
0.00847721565514803,0.005091844592243433,-0.010667231865227222,0.0056070261634886265,0.0001323891628999263,0.008344565518200397
0.00847721565514803,0.005091844592243433,-0.010667231865227222,0.0056070261634886265,0.0001323891628999263,0.008344565518200397
0.008743642829358578,0.004983700346201658,-0.010423603467643261,0.005192654673010111,0.0001256069226656109,0.008735927753150463
0.008538618683815002,0.005645315162837505,-0.010719254612922668,0.005132231395691633,0.00011839652870548889,0.008693085052073002
0.00829223357141018,0.0052809808403253555,-0.010099443607032299,0.005551332142204046,0.00011511237971717492,0.008636523969471455
0.008290455676615238,0.006156404037028551,-0.010733630508184433,0.006363450083881617,0.00011222479224670678,0.008213500492274761
0.00821285042911768,0.005598333664238453,-0.010511384345591068,0.006048038601875305,0.00010949301213258877,0.008634980767965317
0.007980122230947018,0.005288413725793362,-0.009988340549170971,0.005744354333728552,0.00010689189366530627,0.008473224937915802
0.009155658073723316,0.005407311022281647,-0.011097565293312073,0.005379561334848404,0.0001044117016135715,0.008436553180217743
0.008721275255084038,0.005625616293400526,-0.010389971546828747,0.005360599607229233,0.00010204376303590834,0.00801723450422287
0.008448870852589607,0.005552502349019051,-0.009777864441275597,0.004820375237613916,9.978114394471049e-05,0.008013448677957058
0.008257677778601646,0.005649480037391186,-0.010569355450570583,0.0051594930700957775,9.761651017470285e-05,0.007993482984602451
0.008419147692620754,0.005189451854676008,-0.010428162291646004,0.0058006769977509975,9.554384450893849e-05,0.00814963411539793
0.008351484313607216,0.0053133186884224415,-0.00998835638165474,0.005519612226635218,9.355743532069027e-05,0.00844375416636467
0.008774783462285995,0.005542629398405552,-0.010770292952656746,0.005108160432428122,9.165182564174756e-05,0.008150927722454071
0.008680461905896664,0.0054529206827282906,-0.011120995506644249,0.005589642096310854,8.982239523902535e-05,0.007764413021504879
0.008290722034871578,0.005129021126776934,-0.010177023708820343,0.005724454298615456,9.919199510477483e-05,0.008381715975701809
0.008155204355716705,0.005228312686085701,-0.009784302674233913,0.005208009388297796,0.0001014058871078305,0.007955387234687805
0.008333265781402588,0.005163246300071478,-0.010519865900278091,0.004945576656609774,9.97982278931886e-05,0.007979512214660645
0.008766276761889458,0.005924348719418049,-0.010248273611068726,0.005503709893673658,9.800428233575076e-05,0.007988697849214077
0.008608722127974033,0.005447080824524164,-0.00983916874974966,0.005771272350102663,9.625847451388836e-05,0.008007117547094822
0.008649405092000961,0.005420645698904991,-0.010566662065684795,0.00575189758092165,9.457272972213104e-05,0.007792343385517597
0.008929803967475891,0.005096822045743465,-0.010453938506543636,0.005402746610343456,9.29448870010674e-05,0.008808528073132038
0.009086290374398232,0.004931904841214418,-0.009985534474253654,0.005427548196166754,9.13721596589312e-05,0.007947945035994053
0.008424016647040844,0.005106429569423199,-0.011060364544391632,0.005308305844664574,8.985175372799858e-05,0.008029446005821228
0.00881258212029934,0.005364605225622654,-0.010497636161744595,0.005903118755668402,8.838126086629927e-05,0.008381503634154797
0.008823413401842117,0.005312834866344929,-0.010240319184958935,0.005625387188047171,8.69579307618551e-05,0.00891152210533619
0.00828111544251442,0.0052090235985815525,-0.010400583036243916,0.005357671063393354,8.557995170122012e-05,0.008642558008432388
0.008676629513502121,0.004908321890980005,-0.010312308557331562,0.005103588569909334,8.424474799539894e-05,0.008329824544489384
0.00884966365993023,0.005286413244903088,-0.010190165601670742,0.0052128140814602375,8.295059524243698e-05,0.008198317140340805
0.008407970890402794,0.005585232749581337,-0.010661269538104534,0.005688818171620369,8.169565262505785e-05,0.00894605740904808
0.008407970890402794,0.005585232749581337,-0.010661269538104534,0.005688818171620369,8.169565262505785e-05,0.00894605740904808
0.009772876277565956,0.00542342709377408,-0.010950702242553234,0.006416532211005688,8.047813025768846e-05,0.008580436930060387
0.008850016631186008,0.005357269197702408,-0.010370908305048943,0.0060147130861878395,7.929638377390802e-05,0.008042365312576294
0.00867956317961216,0.0048506916500627995,-0.010699703358113766,0.005395885091274977,7.814885611878708e-05,0.00871975440531969
0.008788193576037884,0.0050683594308793545,-0.01016000472009182,0.005037783179432154,7.703391747782007e-05,0.009199805557727814
0.009002436883747578,0.004916264209896326,-0.010598341003060341,0.005578171461820602,7.595048373332247e-05,0.008564619347453117
0.009158123284578323,0.00499221496284008,-0.010645296424627304,0.005798439960926771,7.489709969377145e-05,0.008517875336110592
0.009217597544193268,0.00520211411640048,-0.010225922800600529,0.005623906385153532,8.301682100864127e-05,0.009039964526891708
0.009171866811811924,0.005500297527760267,-0.010648797266185284,0.005426530726253986,8.48146592034027e-05,0.00884965155273676
0.009176041930913925,0.004995622206479311,-0.01095893606543541,0.005559565965086222,8.387584966840222e-05,0.008081110194325447
0.009308921173214912,0.0046632131561636925,-0.010323462076485157,0.005380858201533556,8.278616587631404e-05,0.008769781328737736
0.009421724826097488,0.005038872826844454,-0.01102917268872261,0.005852616857737303,8.17131731309928e-05,0.008688089437782764
0.008666238747537136,0.00552976131439209,-0.010064677335321903,0.005747889634221792,7.964715041453019e-05,0.00820085033774376
0.009640265256166458,0.0053175329230725765,-0.010527894832193851,0.005402286536991596,7.865284715080634e-05,0.008256166242063046
0.009334527887403965,0.004857909400016069,-0.010023084469139576,0.005330584477633238,7.768299110466614e-05,0.008242201060056686
0.009232038632035255,0.004907155409455299,-0.010912883095443249,0.005680865608155727,7.673679647268727e-05,0.008031554520130157
0.00885462574660778,0.005068625323474407,-0.011173313483595848,0.005607033148407936,7.58133755880408e-05,0.008382290601730347
0.009108413942158222,0.004926874302327633,-0.009963251650333405,0.005701861809939146,7.491187716368586e-05,0.008646455593407154
0.008871330879628658,0.005261319223791361,-0.010165436193346977,0.00566093297675252,7.403161725960672e-05,0.008573927916586399
0.008712985552847385,0.005162824876606464,-0.010124084539711475,0.005858434364199638,7.317182462429628e-05,0.00870585162192583
0.009287265129387379,0.005045948084443808,-0.01050938107073307,0.006137589458376169,7.233168435050175e-05,0.008618527092039585
0.00927329808473587,0.005002275109291077,-0.01129360031336546,0.00597912585362792,7.151066529331729e-05,0.008336191065609455
0.008662816137075424,0.004906500689685345,-0.01041096169501543,0.0057824887335300446,7.07081489963457e-05,0.008318874053657055
0.008882620371878147,0.0045815990306437016,-0.009870768524706364,0.005820364225655794,6.992329144850373e-05,0.00874440185725689
0.009695855900645256,0.004952737130224705,-0.01077809277921915,0.005882747005671263,1.7768523321137764e-05,0.009059489704668522
0.008811408653855324,0.005443480331450701,-0.010590199381113052,0.005861517041921616,1.1601575806707842e-06,0.008584010414779186
0.009103733114898205,0.005168626084923744,-0.01052610669285059,0.00588773749768734,7.5750001826691e-08,0.00822964683175087
0.009103733114898205,0.005168626084923744,-0.01052610669285059,0.00588773749768734,7.5750001826691e-08,0.00822964683175087
0.0089313555508852,0.004802795592695475,-0.010941981337964535,0.006021801847964525,4.9459338846702394e-09,0.008219892159104347
0.008809028193354607,0.004810478538274765,-0.01067736279219389,0.0055323755368590355,3.229341793975493e-10,0.00837671384215355
0.009094546549022198,0.004876356106251478,-0.010913207195699215,0.005708495154976845,2.108529670308279e-11,0.008703160099685192
0.009578005410730839,0.005109695717692375,-0.011074868030846119,0.005854368209838867,1.3767190512603555e-12,0.008357973769307137
0.009119206108152866,0.005461601540446281,-0.010456925258040428,0.00632974598556757,8.988992140695692e-14,0.008381184190511703
0.009291908703744411,0.005009591579437256,-0.01095071155577898,0.005866608582437038,5.869169642072668e-15,0.00844333041459322
0.009306787513196468,0.0046671913005411625,-0.010750573128461838,0.005560556426644325,3.8321480481546817e-16,0.008587753400206566
0.009799925610423088,0.0046874964609742165,-0.010982482694089413,0.0054426840506494045,2.5021189480130747e-17,0.008281896822154522
0.009368041530251503,0.004963913932442665,-0.011509846895933151,0.005758375395089388,1.6337048708493811e-18,0.008531324565410614
0.009279056452214718,0.0052060349844396114,-0.011827968060970306,0.006039960775524378,6.964739588661451e-21,0.008597958832979202
0.009279056452214718,0.0052060349844396114,-0.011827968060970306,0.006039960775524378,6.964739588661451e-21,0.008597958832979202
0.010287241078913212,0.00508841359987855,-0.011105929501354694,0.006235520355403423,2.969177783943262e-23,0.009037206880748272
0.00899587757885456,0.00487431138753891,-0.011202958412468433,0.005727255716919899,1.938660976106145e-24,0.008823138661682606
0.008457571268081665,0.0048464080318808556,-0.011036528274416924,0.006279896944761276,1.2658070713342506e-25,0.008852052502334118
0.00937663670629263,0.0057045044377446175,-0.011421000584959984,0.006213097833096981,8.264815585314854e-27,0.008540811948478222
0.010022835806012154,0.005437155719846487,-0.011340146884322166,0.0058976453728973866,5.396333889104052e-28,0.008378018625080585
0.008938895538449287,0.005037217866629362,-0.01106499694287777,0.0055126044899225235,3.523420522928733e-29,0.008697946555912495
0.009702005423605442,0.005122204311192036,-0.011845927685499191,0.005584090016782284,2.3005419384010703e-30,0.008494239300489426
0.009674194268882275,0.0050006890669465065,-0.011668342165648937,0.006050780415534973,1.5020893519256538e-31,0.008155682124197483
0.00917587149888277,0.004914395976811647,-0.011525074020028114,0.005949753802269697,9.807569608140764e-33,0.008335631340742111
0.009067874401807785,0.005748079624027014,-0.01144835352897644,0.005754630081355572,6.403642310993687e-34,0.009428814984858036
0.00936026033014059,0.005366129335016012,-0.010894810780882835,0.00556952366605401,4.1811206204061576e-35,0.009321683086454868
0.00936026033014059,0.005366129335016012,-0.010894810780882835,0.00556952366605401,4.1811206204061576e-35,0.009321683086454868
0.00946128275245428,0.004908600356429815,-0.011302491649985313,0.005615647416561842,2.72997316717521e-36,0.008372531272470951
0.00900225155055523,0.005060126073658466,-0.011119113303720951,0.005823202431201935,1.7824774305129109e-37,0.008529288694262505
0.009575296193361282,0.005076979752629995,-0.01104713324457407,0.006352384574711323,1.163830362794787e-38,0.008890967816114426
0.00923185795545578,0.0053237006068229675,-0.011693812906742096,0.0062052542343735695,7.598975325325261e-40,0.009044434875249863
0.009027631022036076,0.00524434819817543,-0.011801311746239662,0.006103016436100006,4.96157747263488e-41,0.008966458961367607
0.009460490196943283,0.005683256313204765,-0.011769105680286884,0.006246764678508043,3.239802049518977e-42,0.009515658020973206
0.009492008946835995,0.005284106358885765,-0.011719425208866596,0.006952743511646986,2.1159606811304738e-43,0.00908344704657793
0.009249169379472733,0.0059715271927416325,-0.011358247138559818,0.006704546045511961,1.401298464324817e-44,0.009061262011528015
0.009673857130110264,0.005485291127115488,-0.011455956846475601,0.006425804458558559,1.401298464324817e-45,0.008734212256968021
0.009900584816932678,0.005139542743563652,-0.010822763666510582,0.006032802164554596,0.0,0.008754912763834
0.009116681292653084,0.005868563428521156,-0.009996428154408932,0.005995291285216808,0.0,0.009290951304137707
0.00975731573998928,0.005648990161716938,-0.012391076423227787,0.006214960012584925,0.0,0.009556418284773827
0.009079094976186752,0.005333214066922665,-0.011226195842027664,0.0060404399409890175,0.0,0.009761293418705463
0.009864915162324905,0.005767365451902151,-0.01045082788914442,0.005921000149101019,0.0,0.00977837760001421
0.009704120457172394,0.005587202496826649,-0.010973501950502396,0.006318940315395594,0.0,0.00939581636339426
0.009349958039820194,0.005796423647552729,-0.011033467948436737,0.006375215016305447,0.0,0.008869948796927929
0.009607462212443352,0.005391936283558607,-0.01040526945143938,0.006201399490237236,0.0,0.0089799202978611
0.009674567729234695,0.0053434004075825214,-0.010939679108560085,0.006064205430448055,0.0,0.008838548325002193
0.009223351255059242,0.005373882595449686,-0.01087332796305418,0.006039184983819723,0.0,0.008855568245053291
0.009958196431398392,0.005634542554616928,-0.010740941390395164,0.006088905036449432,0.0,0.009069419465959072
0.009696300141513348,0.005396075081080198,-0.010935412719845772,0.006618475541472435,0.0,0.008967828936874866
0.009023983031511307,0.005869783461093903,-0.010780754499137402,0.006887881085276604,0.0,0.009275753982365131
0.009610903449356556,0.005404079332947731,-0.011052211746573448,0.006450665649026632,0.0,0.009452507831156254
0.009814617224037647,0.005134467501193285,-0.01092022005468607,0.005746093578636646,0.0,0.0092163672670722
0.009485901333391666,0.0056299008429050446,-0.011086796410381794,0.006410832516849041,0.0,0.009673791006207466
0.009724583476781845,0.00533076049759984,-0.011634154245257378,0.0066763232462108135,0.0,0.009243961423635483
0.009884738363325596,0.005427953787147999,-0.010471304878592491,0.006521353032439947,0.0,0.00942500401288271
0.009884738363325596,0.005427953787147999,-0.010471304878592491,0.006521353032439947,0.0,0.00942500401288271
0.009367004968225956,0.005095608066767454,-0.01005551591515541,0.006250808946788311,0.0,0.009277800098061562
0.009651793166995049,0.005058996379375458,-0.011543202213943005,0.006455389782786369,0.0,0.00934604648500681
0.009722533635795116,0.004911154042929411,-0.011000501923263073,0.007070059422403574,0.0,0.009450015611946583
0.009335905313491821,0.004966237116605043,-0.010980619117617607,0.006824870128184557,0.0,0.00917526800185442
0.009690388105809689,0.005824979394674301,-0.011092634871602058,0.005895789247006178,0.0,0.009187472052872181
0.009906924329698086,0.005319355055689812,-0.010655233636498451,0.005771641619503498,0.0,0.009418084286153316
0.009534983895719051,0.004663103725761175,-0.011197015643119812,0.0060502891428768635,0.0,0.009441149421036243
0.009793413802981377,0.004839424509555101,-0.0116325868293643,0.006474747322499752,0.0,0.009132036939263344
0.009852714836597443,0.004865445662289858,-0.01057517435401678,0.0066900914534926414,0.0,0.009540104307234287
0.00928514078259468,0.004744254518300295,-0.011609046719968319,0.005823817569762468,0.0,0.009154409170150757
0.009874265640974045,0.0054931663908064365,-0.011325916275382042,0.006225817371159792,0.0,0.008986160159111023
0.00983766745775938,0.0049895187839865685,-0.010731838643550873,0.006702080834656954,0.0,0.009406611323356628
0.009845143184065819,0.004811388906091452,-0.010441983118653297,0.006355696357786655,0.0,0.008805743418633938
0.009791278280317783,0.004784558899700642,-0.011082552373409271,0.005709613673388958,0.0,0.00890241377055645
0.009621255099773407,0.005095601547509432,-0.01110178604722023,0.005704883486032486,0.0,0.009262850508093834
0.009762250818312168,0.005559501238167286,-0.010273870080709457,0.006485451478511095,0.0,0.009408927522599697
0.010092440992593765,0.0051365685649216175,-0.01175710279494524,0.0063271839171648026,0.0,0.009476847015321255
0.00933998916298151,0.0045653958804905415,-0.011214911006391048,0.005976684391498566,0.0,0.009746018797159195
0.010044749826192856,0.004332308657467365,-0.011083497665822506,0.006115346681326628,0.0,0.00952450092881918
0.009999282658100128,0.00492539256811142,-0.01082109846174717,0.006139904726296663,0.0,0.009704883210361004
0.01007826067507267,0.005074527580291033,-0.010756079107522964,0.006674888078123331,0.0,0.009767325595021248
0.009887895546853542,0.004910014569759369,-0.011334216222167015,0.0070428187027573586,0.0,0.009481141343712807
0.009791391901671886,0.004754912108182907,-0.011264628730714321,0.006900402717292309,0.0,0.009491106495261192
0.010204610414803028,0.00478703947737813,-0.010341731831431389,0.006629886105656624,0.0,0.010672521777451038
0.010008273646235466,0.004803972784429789,-0.011081279255449772,0.006503191310912371,0.0,0.008982446976006031
0.009886816143989563,0.00477433018386364,-0.011819032020866871,0.00706526730209589,0.0,0.008288060314953327
0.009944610297679901,0.005140847526490688,-0.011640699580311775,0.006915233097970486,0.0,0.009455260820686817
0.010201254859566689,0.005140780005604029,-0.011186465620994568,0.006667854730039835,0.0,0.009322634898126125
0.010400969535112381,0.004880904220044613,-0.011100693605840206,0.007143883500248194,0.0,0.00943615660071373
0.00966092012822628,0.004814399406313896,-0.011274902150034904,0.00709132757037878,0.0,0.009776304475963116
0.010065175592899323,0.004837378393858671,-0.01090497151017189,0.007263593841344118,0.0,0.009706941433250904
0.010065175592899323,0.004837378393858671,-0.01090497151017189,0.007263593841344118,0.0,0.009706941433250904
0.010169810615479946,0.004824362229555845,-0.011157531291246414,0.006832832004874945,0.0,0.009601853787899017
0.009831078350543976,0.004804092459380627,-0.011630985885858536,0.006312445271760225,0.0,0.010484034195542336
0.01006575021892786,0.005138980224728584,-0.010652157478034496,0.006673865951597691,0.0,0.00974084809422493
0.010180297307670116,0.0050708092749118805,-0.01196838915348053,0.007216151338070631,0.0,0.009327416308224201
0.009761621244251728,0.0048811896704137325,-0.011396320536732674,0.00696271937340498,0.0,0.009488444775342941
0.010128075256943703,0.005011199042201042,-0.010972335934638977,0.006705730687826872,0.0,0.009571824222803116
0.010135790333151817,0.005029536318033934,-0.011381404474377632,0.006814912427216768,0.0,0.009641400538384914
0.0101055558770895,0.004913394805043936,-0.010651270858943462,0.00691223843023181,0.0,0.009754141792654991
0.010303471237421036,0.005029947962611914,-0.01142110489308834,0.006420318502932787,0.0,0.010294714942574501
0.009992440231144428,0.004928262904286385,-0.011172880418598652,0.00611159298568964,0.0,0.010114478878676891
0.010291078127920628,0.005001282785087824,-0.011565004475414753,0.00633394718170166,0.0,0.010012944228947163
0.010308587923645973,0.004883612040430307,-0.01140049658715725,0.006634896155446768,0.0,0.010238118469715118
0.009482107125222683,0.004788821097463369,-0.010932426899671555,0.0070529719814658165,0.0,0.010711967013776302
0.009833031333982944,0.0050379009917378426,-0.01147998683154583,0.0069281174801290035,0.0,0.010312738828361034
0.010339397005736828,0.005065754055976868,-0.010812436230480671,0.006603526417165995,0.0,0.009905392304062843
0.009795313701033592,0.004806313663721085,-0.011083060875535011,0.006770390551537275,0.0,0.010215247981250286
0.009993181563913822,0.004910354968160391,-0.011473041027784348,0.0067831482738256454,0.0,0.009918605908751488
0.009865747764706612,0.004487980157136917,-0.011003825813531876,0.00638316897675395,4.0861759771360084e-06,0.010143525898456573
0.010793492197990417,0.004545434843748808,-0.011885350570082664,0.006203846074640751,2.6679808229346236e-07,0.010812176391482353
0.010200120508670807,0.004583452828228474,-0.011226988397538662,0.006701670121401548,1.742000854676462e-08,0.010358366183936596
0.009590018540620804,0.0052048563957214355,-0.011207611300051212,0.006674863398075104,1.1374020614240976e-09,0.009986388497054577
0.009990541264414787,0.005032486282289028,-0.011658637784421444,0.00677446136251092,7.426422671263921e-11,0.009994643740355968
0.010632882826030254,0.004784584045410156,-0.011082864366471767,0.006039939820766449,4.848923779859904e-12,0.010353699326515198
0.009809877723455429,0.005064960569143295,-0.01170402206480503,0.006216617301106453,3.166000447918371e-13,0.010042436420917511
0.009864565916359425,0.005093991756439209,-0.011715123429894447,0.006786705460399389,2.0671720493128584e-14,0.009767012670636177
0.009864565916359425,0.005093991756439209,-0.011715123429894447,0.006786705460399389,2.0671720493128584e-14,0.009767012670636177
0.01003350131213665,0.004879841115325689,-0.011665984988212585,0.006704047322273254,1.3497156612306792e-15,0.009749817661941051
0.00968429446220398,0.005318000912666321,-0.011954258196055889,0.006222187075763941,8.81267901399951e-17,0.00993821956217289
0.010550127364695072,0.005005670245736837,-0.011326206848025322,0.006261242087930441,5.75404949347301e-18,0.010192619636654854
0.010296864435076714,0.004536502994596958,-0.011778781190514565,0.006840931251645088,3.756982997888019e-19,0.009891488589346409
0.00974687747657299,0.004977405071258545,-0.011241826228797436,0.006966460961848497,2.4530414265887965e-20,0.01011503767222166
0.009995088912546635,0.004890771582722664,-0.01124381460249424,0.007365213707089424,1.6016606718242818e-21,0.00986044853925705
0.010209567844867706,0.004888512659817934,-0.012040062807500362,0.006641696207225323,1.0457700566396801e-22,0.009878643788397312
0.009831443428993225,0.004826357588171959,-0.011269096285104752,0.0066566686145961285,6.828131504407934e-24,0.010793222114443779
0.010305323638021946,0.004759470000863075,-0.012194416485726833,0.0071940491907298565,4.458281425483086e-25,0.01035622600466013
0.010999783873558044,0.004667551722377539,-0.01203435380011797,0.006980296224355698,2.9109392647987056e-26,0.010039710439741611
0.010926980525255203,0.0046498472802340984,-0.01210276409983635,0.006753094028681517,1.9006351656836428e-27,0.010008313693106174
0.010995732620358467,0.004724331200122833,-0.011909066699445248,0.006791234482079744,1.2409789781969916e-28,0.009930151514708996
0.010923386551439762,0.005057970993220806,-0.011644716374576092,0.007163018453866243,5.290487709632848e-31,0.010132161900401115
0.010892379097640514,0.004762234631925821,-0.011623742990195751,0.006755609530955553,3.4543103441886634e-32,0.009754449129104614
0.010902982205152512,0.004778893664479256,-0.011981897056102753,0.006465352606028318,2.255417521173869e-33,0.009740886278450489
0.011241583153605461,0.004828648176044226,-0.012003028765320778,0.006700205150991678,1.4726266063146555e-34,0.010918572545051575
0.009470724500715733,0.004989893175661564,-0.011834640055894852,0.0071526095271110535,9.615200124080533e-36,0.011055488139390945
0.011606350541114807,0.005379637703299522,-0.012041364796459675,0.007334951311349869,6.278038189020912e-37,0.010090677998960018
0.01181515771895647,0.005506458692252636,-0.011190877296030521,0.007217025384306908,4.0991104977076344e-38,0.01015832182019949
0.011580881662666798,0.005329369101673365,-0.011621054261922836,0.007452673744410276,2.6764268175187563e-39,0.010155091993510723
0.011313996277749538,0.0052368491888046265,-0.011680501513183117,0.007603685837239027,1.7475172759055496e-40,0.010484283789992332
0.011424083262681961,0.005026339087635279,-0.011214897967875004,0.006728357635438442,1.140937209653266e-41,0.010622010566294193
0.011338277719914913,0.004828193224966526,-0.012400830164551735,0.006594440899789333,7.454907830208027e-43,0.010777464136481285
0.011643541976809502,0.004791420418769121,-0.011450404301285744,0.0067974720150232315,4.90454462513686e-44,0.010909859091043472
0.011560983955860138,0.005325228441506624,-0.011821623891592026,0.007132930215448141,2.802596928649634e-45,0.010740771889686584
0.011866074055433273,0.00508827855810523,-0.011765852570533752,0.007823430933058262,0.0,0.010642758570611477
0.01195252500474453,0.0046611870639026165,-0.011365926824510098,0.007352022919803858,0.0,0.01103676576167345
0.011610283516347408,0.004645654000341892,-0.011561805382370949,0.006975859869271517,0.0,0.011211716569960117
0.011610283516347408,0.004645654000341892,-0.011561805382370949,0.006975859869271517,0.0,0.011211716569960117
0.01215487439185381,0.004791541490703821,-0.010967660695314407,0.007320570293813944,0.0,0.010849609971046448
0.01127625908702612,0.004833758343011141,-0.011616920121014118,0.007437943015247583,0.0,0.010777054354548454
0.011611612513661385,0.005104424897581339,-0.011735016480088234,0.007583214435726404,0.0,0.010712314397096634
0.011507511138916016,0.005096099339425564,-0.011571872048079967,0.0071412790566682816,0.0,0.010409305803477764
0.011484538204967976,0.004604420159012079,-0.012134473770856857,0.007220972795039415,0.0,0.010745405219495296
0.012208350002765656,0.004386062268167734,-0.011565101332962513,0.007504522334784269,0.0,0.01065030787140131
0.01152971014380455,0.004459775518625975,-0.011777501553297043,0.007082266267389059,0.0,0.011023450642824173
0.011804444715380669,0.00501368660479784,-0.011522605083882809,0.007280938792973757,0.0,0.011326480656862259
0.011950037442147732,0.00483437767252326,-0.010971774347126484,0.00763309933245182,0.0,0.0111806970089674
0.012049423530697823,0.0049541303887963295,-0.012082717381417751,0.00713326595723629,0.0,0.011348264291882515
0.011940929107367992,0.0048165591433644295,-0.011389634571969509,0.0068379854783415794,0.0,0.011138934642076492
0.011513087898492813,0.0047234175726771355,-0.012003297917544842,0.006807155441492796,-0.00021202843345236033,0.01168619655072689
0.011881601996719837,0.005004527512937784,-0.0112089728936553,0.007687791716307402,-0.00037001899909228086,0.0112950149923563
0.012297512032091618,0.004948273301124573,-0.011791901662945747,0.007463348563760519,-0.0003486107452772558,0.011359390802681446
0.012490087188780308,0.004782762844115496,-0.011052895337343216,0.006989703513681889,-0.00035418473999015987,0.011517024599015713
0.011576666496694088,0.004771303851157427,-0.011532462202012539,0.007140840403735638,-0.0003585232771001756,0.011418046429753304
0.011583278886973858,0.005064438097178936,-0.011630959808826447,0.007276504300534725,-0.0003407321928534657,0.0116185387596488
0.011493366211652756,0.004967574030160904,-0.011391930282115936,0.007126320153474808,-0.0003233432362321764,0.011230171658098698
0.01190926507115364,0.0044766259379684925,-0.012179277837276459,0.0071553015150129795,-0.00033998797880485654,0.011388932354748249
0.0119125721976161,0.00449358019977808,-0.011286444030702114,0.0074852644465863705,-0.00033437961246818304,0.011386534199118614
0.012068928219377995,0.004896028432995081,-0.011423511430621147,0.007045595906674862,-0.0003201740619260818,0.011482397094368935
0.012684120796620846,0.004960159305483103,-0.01153908483684063,0.007137808483093977,-0.0003863698511850089,0.011687707155942917
0.011617540381848812,0.004657072480767965,-0.010696743614971638,0.0074011534452438354,-0.0003670375153888017,0.011021078564226627
0.011917538940906525,0.0045314389280974865,-0.011499770916998386,0.007675279397517443,-0.0003400802379474044,0.011069521307945251
0.011921788565814495,0.004666668828576803,-0.011366688646376133,0.007854582741856575,-0.0003627093101385981,0.0116967111825943
0.012272918596863747,0.004433254711329937,-0.012167030945420265,0.007443728856742382,-0.0003534425632096827,0.011454393155872822
0.012581760063767433,0.004542748909443617,-0.011432895436882973,0.007422591093927622,-0.00033260852796956897,0.011468411423265934
0.012581760063767433,0.004542748909443617,-0.011432895436882973,0.007422591093927622,-0.00033260852796956897,0.011468411423265934
0.012228630483150482,0.004653029143810272,-0.010632375255227089,0.007754848338663578,-0.00031336143729276955,0.011203293688595295
0.012252547778189182,0.00458059087395668,-0.01114185992628336,0.007956494577229023,-0.0003325626312289387,0.011271819472312927
0.012357369065284729,0.004551600199192762,-0.0107055539265275,0.007703328039497137,-0.0003267139254603535,0.011027999222278595
0.01245009433478117,0.0046140532940626144,-0.010827031917870045,0.007297517266124487,-0.00031131066498346627,0.01083082053810358
0.01246659830212593,0.004546739161014557,-0.011287422850728035,0.007471711840480566,-0.00029669550713151693,0.0111058559268713
0.01237406861037016,0.004711827263236046,-0.011039407923817635,0.007528676185756922,-0.000283350411336869,0.011037326417863369
0.012631776742637157,0.00524916173890233,-0.011547507718205452,0.007044138386845589,-0.00030471812351606786,0.011847743764519691
0.01274930965155363,0.004831361118704081,-0.011392824351787567,0.007206038571894169,-0.00029676113626919687,0.0115760313346982
0.012937517836689949,0.004572124686092138,-0.011145180091261864,0.007955051958560944,-0.00028530077543109655,0.011036436073482037
0.012496541254222393,0.0048779575154185295,-0.012066338211297989,0.007770119234919548,-0.0002744443772826344,0.01167686190456152
0.012141421437263489,0.0045631444081664085,-0.011649742722511292,0.007003989070653915,-0.00025424896739423275,0.011861275881528854
0.012617870233952999,0.004501450341194868,-0.011347209103405476,0.007448404096066952,-0.00024091415980365127,0.011852596886456013
0.012694557197391987,0.004631232004612684,-0.011029677465558052,0.007979449816048145,-0.00022868542873766273,0.011870053596794605
0.012708203867077827,0.004568871576339006,-0.011500567197799683,0.007166137918829918,-0.00021762357209809124,0.012006507255136967
0.01311963889747858,0.004716203548014164,-0.01146086398512125,0.006926528178155422,-0.0002435434580547735,0.01201252918690443
0.012962888926267624,0.004448347724974155,-0.011415304616093636,0.008001189678907394,-0.00023774904548190534,0.011840233579277992
0.013236258178949356,0.004524182062596083,-0.01213542278856039,0.007868192158639431,-0.000228030068683438,0.011952211149036884
0.012886455282568932,0.004554274026304483,-0.01127626746892929,0.0075407372787594795,-0.00023665231128688902,0.012113437056541443
0.013104337267577648,0.0046181632205843925,-0.011829705908894539,0.007873306050896645,-0.00024412013590335846,0.012388012371957302
0.012960732914507389,0.004690554924309254,-0.011579730547964573,0.007870223373174667,-0.00023605971364304423,0.01197107695043087
0.013811231590807438,0.004503737669438124,-0.011568806134164333,0.00771439541131258,-0.00022760118008591235,0.012016269378364086
0.01361478678882122,0.004125006031244993,-0.011949137784540653,0.007210727781057358,-0.00021966882923152298,0.012249024584889412
0.013118687085807323,0.0043253242038190365,-0.011684754863381386,0.007752923760563135,-0.00021226699755061418,0.012011506594717503
0.012908931821584702,0.004099517595022917,-0.012407965958118439,0.008019977249205112,-0.00020534757641144097,0.011918117292225361
0.013218384236097336,0.004395842552185059,-0.011716004461050034,0.007880709134042263,-0.0002198978327214718,0.011700611561536789
0.01366594061255455,0.004538336768746376,-0.012141468934714794,0.0075566391460597515,-0.00021983699116390198,0.012231509201228619
0.01366594061255455,0.004538336768746376,-0.012141468934714794,0.0075566391460597515,-0.00021983699116390198,0.012231509201228619
0.013345418497920036,0.004389987792819738,-0.012079092673957348,0.007966446690261364,-0.00021374555944930762,0.012205973267555237
0.01392032578587532,0.004032249096781015,-0.011587178334593773,0.008299094624817371,-0.0002076098753605038,0.012251115404069424
0.013291783630847931,0.004002842586487532,-0.012606598436832428,0.0079462556168437,-0.00020179282000754029,0.01182468794286251
0.013474183157086372,0.003974368795752525,-0.012112242169678211,0.0075933742336928844,-0.00019629084272310138,0.011645994149148464
0.013290934264659882,0.0039173210971057415,-0.012177390977740288,0.007764482405036688,-0.00020289151871111244,0.012212416157126427
0.014114542864263058,0.004396999254822731,-0.01217208243906498,0.008298691362142563,-0.0002050944895017892,0.012162236496806145
0.013683415949344635,0.004263532813638449,-0.013127746991813183,0.008137056604027748,-0.0001968697179108858,0.012350542470812798
0.013939443044364452,0.004519529640674591,-0.012778854928910732,0.007635682355612516,-0.00018866297614295036,0.01214373204857111
0.01363024115562439,0.004091593436896801,-0.012076811864972115,0.007590731605887413,-0.00018107359937857836,0.01212823111563921
0.014077046886086464,0.004339604172855616,-0.012539328075945377,0.008008581586182117,-0.00017406795814167708,0.011756804771721363
0.013886213302612305,0.004112930968403816,-0.012150892056524754,0.007573722396045923,-0.00019664730643853545,0.012103935703635216
0.013806691393256187,0.003956324886530638,-0.011973107233643532,0.00848096702247858,-0.00018714051111601293,0.012508233077824116
0.01384570449590683,0.0038146781735122204,-0.011743527837097645,0.007891377434134483,-0.00018088774231728166,0.012442456558346748
0.01368795521557331,0.004406508058309555,-0.011949746869504452,0.0075464933179318905,-0.00017502553237136453,0.012299383990466595
0.014139078557491302,0.0041847554966807365,-0.011659517884254456,0.007587529718875885,-0.0001958806096808985,0.012183237820863724
0.014321783557534218,0.0038801981136202812,-0.012546362355351448,0.008434933610260487,-0.00019163970137014985,0.012539898976683617
0.014827202074229717,0.003720995271578431,-0.011985852383077145,0.007845672778785229,-0.0001860913325799629,0.012634506449103355
0.014130868948996067,0.004118417855352163,-0.012217296287417412,0.0073829167522490025,-0.00018075846310239285,0.0130077563226223
0.01417842973023653,0.0042441226541996,-0.012228094972670078,0.00755680026486516,-0.00017571737407706678,0.012767456471920013
0.01425478607416153,0.004327526316046715,-0.0120812663808465,0.00857387576252222,-0.0001709486823529005,0.013026774860918522
0.01451107021421194,0.004249847028404474,-0.012308821082115173,0.008596469648182392,-0.00018861412536352873,0.012944995425641537
0.014425587840378284,0.004032550845295191,-0.011651651933789253,0.008279025554656982,-0.00018520838057156652,0.013184948824346066
0.014494623057544231,0.0038888754788786173,-0.012348597869277,0.008216478861868382,-0.00018065559561364353,0.01296904031187296
0.014465535059571266,0.0038274338003247976,-0.012796565890312195,0.007731111720204353,-0.00021616170124616474,0.013341167010366917
0.014510268345475197,0.004085593856871128,-0.012584369629621506,0.008006630465388298,-0.00021188049868214875,0.012406518682837486
0.014614948071539402,0.004145788494497538,-0.012327396310865879,0.007799976971000433,-0.00020271945686545223,0.012128188274800777
0.014888380654156208,0.004273091442883015,-0.012128069996833801,0.008167637512087822,-0.00019400309247430414,0.0127733638510108
0.014888380654156208,0.004273091442883015,-0.012128069996833801,0.008167637512087822,-0.00019400309247430414,0.0127733638510108
0.014448169618844986,0.004031952004879713,-0.01229929644614458,0.008170652203261852,-0.00018598460883367807,0.012872068211436272
0.014647580683231354,0.0044510080479085445,-0.01160522736608982,0.007644031196832657,-0.00017860210209619254,0.0127977654337883
0.014554731547832489,0.004130811430513859,-0.012585494667291641,0.007636075373739004,-0.0001717827981337905,0.012733235023915768
0.015047017484903336,0.004319400992244482,-0.012191807851195335,0.008290908299386501,-0.00018994358833879232,0.013058122247457504
0.014692737720906734,0.004214506130665541,-0.012072484940290451,0.008197723887860775,-0.0001909527345560491,0.013292944990098476
0.014780632220208645,0.004069499205797911,-0.012324478477239609,0.008005534298717976,-0.0001849182153819129,0.013155760243535042
0.014844623394310474,0.003995175939053297,-0.011759020388126373,0.008551063947379589,-0.00017882668180391192,0.013060313649475574
0.01529301144182682,0.003958974964916706,-0.012334953062236309,0.008946090936660767,-0.00017309607937932014,0.01285118144005537
0.014861991629004478,0.00397269893437624,-0.01222296990454197,0.00831969827413559,-0.00016771919035818428,0.01338450238108635
0.015415179543197155,0.0039896066300570965,-0.012430251576006413,0.008395466022193432,-0.00017596788529772311,0.013069210574030876
0.014895088970661163,0.003900944022461772,-0.01230647973716259,0.009089609608054161,-0.00018332587205804884,0.012738903984427452
0.01529893558472395,0.0037966601084917784,-0.012518614530563354,0.007913795299828053,-0.00018625069060362875,0.01290139090269804
0.015648331493139267,0.0037814131937921047,-0.011984583921730518,0.00930036511272192,-0.00019273707584943622,0.01336002629250288
0.015281576663255692,0.003725249320268631,-0.012722045183181763,0.008942673914134502,-0.00018844178703147918,0.0133453868329525
0.015398922376334667,0.003863215446472168,-0.012746223248541355,0.00868714228272438,-0.00018387949967291206,0.013616207987070084
0.015429355204105377,0.0037779684644192457,-0.012817487120628357,0.009121017530560493,-0.0002153673704015091,0.013910508714616299
0.01526651531457901,0.0035489804577082396,-0.012757081538438797,0.008852171711623669,-0.00020804365340154618,0.013647949323058128
0.015410489402711391,0.0035937107168138027,-0.012372775934636593,0.009277514182031155,-0.00023609926574863493,0.01323749776929617
0.015305320732295513,0.004008971154689789,-0.012688936665654182,0.009762212634086609,-0.00022853461268823594,0.013680373318493366
0.015292543917894363,0.00408936245366931,-0.01207744050770998,0.009642085060477257,-0.0002194062399212271,0.013699470087885857
0.015035378746688366,0.00395271135494113,-0.012798181734979153,0.00897813681513071,-0.00023683063045609742,0.013933547772467136
0.01560667809098959,0.00425829878076911,-0.012479720637202263,0.009070973843336105,-0.00023614686506334692,0.013712109997868538
0.015361388213932514,0.004079122561961412,-0.012772503308951855,0.009219964034855366,-0.00022813021496403962,0.013990513049066067
0.0156429223716259,0.003926599398255348,-0.012334377504885197,0.008865749463438988,-0.00022019102470949292,0.013631157577037811
0.015285973437130451,0.004299017135053873,-0.012437724508345127,0.008958171121776104,-0.0002410957677057013,0.013481397181749344
0.015925176441669464,0.004177659284323454,-0.012996098026633263,0.009071892127394676,-0.00023507187142968178,0.013215322047472
0.015925176441669464,0.004177659284323454,-0.012996098026633263,0.009071892127394676,-0.00023507187142968178,0.013215322047472
0.014985992573201656,0.004014215432107449,-0.012495728209614754,0.008878945372998714,-0.0002277563326060772,0.013514102436602116
0.015747619792819023,0.004012490622699261,-0.012630099430680275,0.008564511314034462,-0.0002828869328368455,0.013767504133284092
0.01563081704080105,0.004404238425195217,-0.012193781323730946,0.008585166186094284,-0.000321206112857908,0.013985001482069492
0.015606491826474667,0.004191084764897823,-0.013201470486819744,0.008756876923143864,-0.0003328770399093628,0.013776174746453762
0.016556261107325554,0.0041674720123410225,-0.01296392921358347,0.008505154401063919,-0.0003392943472135812,0.014281953684985638
0.015702378004789352,0.003988452255725861,-0.01303342916071415,0.008755793794989586,-0.0003209141723345965,0.014126129448413849
0.016147980466485023,0.003861004253849387,-0.012918675318360329,0.00906451977789402,-0.0003030160441994667,0.014397386461496353
0.01571366935968399,0.0044320132583379745,-0.012550306506454945,0.008774672634899616,-0.0003283017431385815,0.014193376526236534
0.015420724637806416,0.004639623686671257,-0.012903152033686638,0.009009748697280884,-0.00031742299324832857,0.014219885692000389
0.013666089624166489,0.004332249518483877,-0.012517472729086876,0.009148058481514454,-0.00030254627927206457,0.01443022396415472
0.016718795523047447,0.004339205101132393,-0.01269772369414568,0.00854538194835186,-0.0003151257405988872,0.014027932658791542
0.01619705557823181,0.004389022942632437,-0.013294631615281105,0.00871092826128006,-0.0003022155724465847,0.014025853015482426
0.016213351860642433,0.004136356990784407,-0.0129469009116292,0.009013757109642029,-0.00029115931829437613,0.014761724509298801
0.015712589025497437,0.004327003378421068,-0.013148203492164612,0.008814034052193165,-0.0003359184192959219,0.013620044104754925
0.01687176339328289,0.004124234896153212,-0.013248146511614323,0.00925799272954464,-0.00031663308618590236,0.013879518955945969
0.01647159457206726,0.004485150333493948,-0.013532900251448154,0.009475368075072765,-0.0003396426036488265,0.014265775680541992
0.016823163256049156,0.004172146320343018,-0.013287813402712345,0.008971914649009705,-0.00033234243164770305,0.01445224042981863
0.01646793633699417,0.004408136010169983,-0.013202418573200703,0.008991459384560585,-0.0003139069303870201,0.014321248047053814
0.016806840896606445,0.004222679417580366,-0.013278585858643055,0.009724101051688194,-0.0002967101172544062,0.014418920502066612
0.016700169071555138,0.00424739345908165,-0.012971212156116962,0.00976237840950489,-0.00032182870199903846,0.014390867203474045
0.01582435891032219,0.004099641926586628,-0.014071482233703136,0.009100217372179031,-0.00031147024128586054,0.01454030629247427
0.016399849206209183,0.004345721565186977,-0.013574742712080479,0.00901070423424244,-0.00029713852563872933,0.01438620314002037
0.016203878447413445,0.004103793762624264,-0.01396679412573576,0.008875459432601929,-0.0003035857807844877,0.014452381059527397
0.016966115683317184,0.004414238967001438,-0.013276224955916405,0.008509345352649689,-0.00030898122349753976,0.01431059930473566
0.01715867593884468,0.004628248047083616,-0.013790273107588291,0.009563049301505089,-0.00029741955222561955,0.014467827044427395
0.01703319326043129,0.004270515404641628,-0.013465198688209057,0.009664829820394516,-0.000338503421517089,0.014400146901607513
0.016721276566386223,0.004135440103709698,-0.013923322781920433,0.009185533039271832,-0.0003538759774528444,0.014451145194470882
0.01665213145315647,0.003958146553486586,-0.013622484169900417,0.009884514845907688,-0.00035956973442807794,0.014276768080890179
0.01716587133705616,0.0038435535971075296,-0.014170928858220577,0.009710964746773243,-0.0003805100277531892,0.014325332827866077
0.01716587133705616,0.0038435535971075296,-0.014170928858220577,0.009710964746773243,-0.0003805100277531892,0.014325332827866077
0.016898030415177345,0.003919515758752823,-0.013578291982412338,0.009022125042974949,-0.0003970859106630087,0.01443510502576828
0.016763538122177124,0.004312965087592602,-0.01397978700697422,0.009540235623717308,-0.00039977056439965963,0.014802406542003155
0.017093222588300705,0.004046590533107519,-0.013950218446552753,0.010426039807498455,-0.0006389565533027053,0.014745103195309639
0.017080243676900864,0.004389961715787649,-0.014290344901382923,0.009510616771876812,-0.000593530829064548,0.014790664426982403
0.01748715527355671,0.004154294263571501,-0.014367600902915001,0.010242114774882793,-0.0006240689544938505,0.014524826779961586
0.0172109492123127,0.003937253262847662,-0.014213604852557182,0.009480300359427929,-0.0005652024992741644,0.014868082478642464
0.017240015789866447,0.003901832737028599,-0.014125107787549496,0.009476235136389732,-0.0005744112422689795,0.014722484163939953
0.017484912648797035,0.003935686312615871,-0.014141007326543331,0.00980701856315136,-0.0005440532113425434,0.014896837063133717
0.017249776050448418,0.004381003323942423,-0.013932242058217525,0.009683088399469852,-0.0005019366508349776,0.01561625674366951
0.01772545650601387,0.004596898332238197,-0.013927416875958443,0.009218912571668625,-0.00052668247371912,0.015602628700435162
0.017927231267094612,0.0041500842198729515,-0.01423549372702837,0.00961081963032484,-0.0004694511881098151,0.015403112396597862
0.017815953120589256,0.0038574780337512493,-0.014357796870172024,0.009464127942919731,-0.0005000220844522119,0.01487345714122057
0.017400389537215233,0.0037762599531561136,-0.014387417584657669,0.009821797721087933,-0.0005239637102931738,0.014741647057235241
0.018028631806373596,0.0042859455570578575,-0.01480836421251297,0.010350135155022144,-0.0005353572778403759,0.014796066097915173
0.017600562423467636,0.00463740061968565,-0.01530553586781025,0.010033250786364079,-0.0005288783577270806,0.014847242273390293
0.017946066334843636,0.0043140072375535965,-0.014781943522393703,0.009881135076284409,-0.0006214483291842043,0.015263976529240608
0.018181264400482178,0.0040422286838293076,-0.014536634087562561,0.009886924177408218,-0.0006505684577859938,0.015575665980577469
0.017924407497048378,0.004063094966113567,-0.014582483097910881,0.010077578946948051,-0.0005751399439759552,0.015120814554393291
0.01787702552974224,0.0038772739935666323,-0.014886905439198017,0.010207554325461388,-0.0006048533832654357,0.014765076339244843
0.017731226980686188,0.0038001721259206533,-0.014692160300910473,0.00981726311147213,-0.0005494395736604929,0.015052106231451035
0.017882458865642548,0.0038594964426010847,-0.015122913755476475,0.009679066017270088,-0.0004990078159607947,0.015099707059562206
0.018435673788189888,0.004276715684682131,-0.014337071217596531,0.010516800917685032,-0.0005125913885422051,0.01553983986377716
0.017972977831959724,0.0046073636040091515,-0.01447371207177639,0.009900239296257496,-0.000489983125589788,0.015717459842562675
0.018013019114732742,0.004781568888574839,-0.014436556957662106,0.0093223312869668,-0.00045565294567495584,0.015161823481321335
0.018711229786276817,0.004339142236858606,-0.014904213137924671,0.010232399217784405,-0.0004544601251836866,0.015362619422376156
0.01874343305826187,0.003971095196902752,-0.014571331441402435,0.009958109818398952,-0.0004529392463155091,0.015359720215201378
0.018462080508470535,0.004091512877494097,-0.014172455295920372,0.009290979243814945,-0.0004298128478694707,0.01579805463552475
0.01853201910853386,0.004536876454949379,-0.014127002097666264,0.009716635569930077,-0.00037105035153217614,0.016761910170316696
0.01846577599644661,0.004276503808796406,-0.014746792614459991,0.01056290976703167,-0.0003413457015994936,0.015215342864394188
0.01885928399860859,0.004392150789499283,-0.014609787613153458,0.010030588135123253,-0.00037194936885498464,0.015108070336282253
0.018728109076619148,0.004629896953701973,-0.014509090222418308,0.010497409850358963,-0.00038375219446606934,0.015988444909453392
0.018728109076619148,0.004629896953701973,-0.014509090222418308,0.010497409850358963,-0.00038375219446606934,0.015988444909453392
0.018413709476590157,0.004425741732120514,-0.014312336221337318,0.010069027543067932,-0.0003871149674523622,0.015999168157577515
0.018804723396897316,0.004307494964450598,-0.01469292864203453,0.010529506020247936,-0.00041508409776724875,0.01617012731730938
0.019308065995573997,0.004084657412022352,-0.014677288942039013,0.010392257943749428,-0.0003968449600506574,0.015826338902115822
0.018531637266278267,0.004374639596790075,-0.014564857818186283,0.009844227693974972,-0.000553682679310441,0.015761984512209892
0.019754929468035698,0.004134134855121374,-0.014517775736749172,0.009866771288216114,-0.0005919851246289909,0.015722211450338364
0.019678207114338875,0.004323848523199558,-0.014897393994033337,0.010675439611077309,-0.0005448551382869482,0.015871021896600723
0.01939958706498146,0.004660506267100573,-0.014573621563613415,0.009902097284793854,-0.0005722954520024359,0.016070304438471794
0.019446823745965958,0.00453038327395916,-0.014652363024652004,0.009832228533923626,-0.0005658240406773984,0.016129760071635246
0.019303005188703537,0.004391352646052837,-0.014598035253584385,0.010284005664288998,-0.0006958690355531871,0.01636270061135292
0.019025955349206924,0.004456278868019581,-0.01449910644441843,0.00973662082105875,-0.0006821851711720228,0.016409216448664665
0.01897810399532318,0.004351537209004164,-0.015145828016102314,0.009940029121935368,-0.0006972621195018291,0.016530802473425865
0.019183389842510223,0.004529212601482868,-0.01425651554018259,0.009748843498528004,-0.0006386499735526741,0.01656910963356495
0.019776517525315285,0.004539351910352707,-0.014665129594504833,0.010595216415822506,-0.0006574922590516508,0.016400225460529327
0.019622424617409706,0.004879225045442581,-0.013968802988529205,0.010373009368777275,-0.0006070816307328641,0.016041448339819908
0.01929488778114319,0.0043432642705738544,-0.014723303727805614,0.009422400034964085,-0.0006496561109088361,0.01672959327697754
0.019911974668502808,0.004489850718528032,-0.014355117455124855,0.009451366029679775,-0.0006813876680098474,0.016516951844096184
0.020547064021229744,0.004212440922856331,-0.014999086037278175,0.010371317155659199,-0.0007064345409162343,0.016543492674827576
0.01990465074777603,0.004350854549556971,-0.014252549037337303,0.010231862775981426,-0.000726357102394104,0.016677170991897583
0.019645072519779205,0.0043372525833547115,-0.014666317962110043,0.01051195990294218,-0.0009688434074632823,0.01695101521909237
0.02000165730714798,0.004443745128810406,-0.014252805151045322,0.010512134991586208,-0.0010642901761457324,0.017213378101587296
0.01971847377717495,0.0046415734104812145,-0.015230700373649597,0.010089335031807423,-0.0010467409156262875,0.016608117148280144
0.01934024877846241,0.00426425551995635,-0.014386037364602089,0.010797969996929169,-0.0009421832510270178,0.016742169857025146
0.01967763714492321,0.0039261095225811005,-0.014591089449822903,0.010532533749938011,-0.0009714132756926119,0.01682613603770733
0.02014356292784214,0.0042229886166751385,-0.014052068814635277,0.01043013297021389,-0.0009720314992591739,0.01725851558148861
0.019963974133133888,0.0042518447153270245,-0.014737322926521301,0.011052068322896957,-0.0009615772287361324,0.016853008419275284
0.019963974133133888,0.0042518447153270245,-0.014737322926521301,0.011052068322896957,-0.0009615772287361324,0.016853008419275284
0.019994569942355156,0.00451097683981061,-0.015000046230852604,0.010526197031140327,-0.000841287721414119,0.016810821369290352
0.019713645800948143,0.0047560497187078,-0.014395767822861671,0.010934886522591114,-0.0007721588481217623,0.016966529190540314
0.019713645800948143,0.0047560497187078,-0.014395767822861671,0.010934886522591114,-0.0007721588481217623,0.016966529190540314
0.02017432451248169,0.004312189761549234,-0.01502521988004446,0.010720529593527317,-0.0007701750146225095,0.017313508316874504
0.02037184312939644,0.004385598935186863,-0.014551485888659954,0.010901597328484058,-0.00078577984822914,0.017028452828526497
0.020128348842263222,0.004309777170419693,-0.014835825189948082,0.011236672289669514,-0.0007233778014779091,0.0175065528601408
0.020430592820048332,0.004533621482551098,-0.014280373230576515,0.010572904720902443,-0.0007365813362412155,0.01773112639784813
0.02023717388510704,0.0042469738982617855,-0.014951176010072231,0.010927575640380383,-0.0007548002758994699,0.016910938546061516
0.020723063498735428,0.004033002071082592,-0.014491681009531021,0.011369762010872364,-0.0007183739799074829,0.01735023967921734
0.020200444385409355,0.0042894319631159306,-0.015194695442914963,0.011492191813886166,-0.0007395002758130431,0.017625903710722923
0.020226970314979553,0.0045673600398004055,-0.014218099415302277,0.011734850704669952,-0.0006572453421540558,0.017667334526777267
0.020376812666654587,0.004204209428280592,-0.014656688086688519,0.01132982037961483,-0.0005862714606337249,0.01805429719388485
0.020233064889907837,0.0044188895262777805,-0.01460173912346363,0.011306201107800007,-0.00052879803115502,0.017697352916002274
0.020031753927469254,0.004614677280187607,-0.015182022005319595,0.011097051203250885,-0.0005560917197726667,0.01778937689960003
0.021109821274876595,0.004002784378826618,-0.015409284271299839,0.011227373965084553,-0.00047670709318481386,0.017732545733451843
0.020434461534023285,0.004181383643299341,-0.015009020455181599,0.010687969624996185,-0.0004738971183542162,0.017826596274971962
0.02030790038406849,0.0046447147615253925,-0.01528684888035059,0.01114222127944231,-0.0004710475041065365,0.017789823934435844
0.021651098504662514,0.004269964527338743,-0.015350131317973137,0.011527229100465775,-0.0004438441537786275,0.018236177042126656
0.021078521385788918,0.0044504087418317795,-0.015447374433279037,0.010751424357295036,-0.00041817285818979144,0.018377315253019333
0.021007539704442024,0.004196926485747099,-0.015239705331623554,0.011232057586312294,-0.0003706981660798192,0.019558347761631012
0.02125120721757412,0.003964587580412626,-0.014985341578722,0.010998393408954144,-0.0003225564432796091,0.017651604488492012
0.021300217136740685,0.004372234921902418,-0.015518431551754475,0.010863903909921646,-0.000299649138469249,0.017675230279564857
0.021247128024697304,0.004268743563443422,-0.015629541128873825,0.011657647788524628,-0.00028084428049623966,0.017788568511605263
0.02113385498523712,0.004366050474345684,-0.01582374982535839,0.011483161710202694,-0.0003135317820124328,0.01857655867934227
0.021793115884065628,0.004482925403863192,-0.014964837580919266,0.01169357169419527,-0.00029935306520201266,0.01905086636543274
0.022238839417696,0.004185820464044809,-0.015779679641127586,0.011929339729249477,-0.00028382494929246604,0.018853619694709778
0.021463507786393166,0.004364411812275648,-0.015136776491999626,0.011917595751583576,-0.0002696597366593778,0.018166791647672653
0.02194194495677948,0.004273891914635897,-0.016012657433748245,0.011796923354268074,-0.0002967025793623179,0.01783985272049904
0.021181249991059303,0.0045636179856956005,-0.015531416982412338,0.011471987701952457,-0.000285837595583871,0.01812843792140484
0.021181249991059303,0.0045636179856956005,-0.015531416982412338,0.011471987701952457,-0.000285837595583871,0.01812843792140484
0.021482544019818306,0.004254760220646858,-0.015736941248178482,0.01150152925401926,-0.00030745819094590843,0.018669981509447098
0.021843910217285156,0.004188898950815201,-0.015488047152757645,0.011362539604306221,-0.0002993316447827965,0.018887443467974663
0.021948188543319702,0.00399841507896781,-0.015734773129224777,0.011610697954893112,-0.00028767416370101273,0.018722888082265854
0.021855611354112625,0.004405043087899685,-0.015508399344980717,0.011870044283568859,-0.0002766390680335462,0.018710831180214882
0.021916557103395462,0.004245211370289326,-0.015266737900674343,0.011318894103169441,-0.0003039109578821808,0.018609080463647842
0.02186678722500801,0.004466668702661991,-0.015750495716929436,0.011602569371461868,-0.00029681785963475704,0.019949128851294518
0.02229788713157177,0.004506241530179977,-0.01585787907242775,0.011504336260259151,-0.00033121119486168027,0.019997738301753998
0.022519607096910477,0.004394941031932831,-0.01625818759202957,0.011864461936056614,-0.0003540608158800751,0.018766697496175766
0.0231645368039608,0.004380264785140753,-0.015364306978881359,0.012083194218575954,-0.0003469072107691318,0.018489617854356766
0.022213779389858246,0.004593003541231155,-0.015957878902554512,0.011594400741159916,-0.0003295627248007804,0.018241098150610924
0.02217874675989151,0.004649897571653128,-0.015262285247445107,0.012001979164779186,-0.0003548967943061143,0.018450463190674782
0.023371275514364243,0.004516919143497944,-0.015581397339701653,0.011494306847453117,-0.0005074742948636413,0.020027901977300644
0.02316104806959629,0.004298794083297253,-0.015880286693572998,0.011622018180787563,-0.000526722171343863,0.01964719034731388
0.02298079803586006,0.004416092298924923,-0.015882762148976326,0.01132936216890812,-0.0005194580880925059,0.019601037725806236
0.023082708939909935,0.004514995496720076,-0.015596413053572178,0.012407862581312656,-0.0004764371842611581,0.019763093441724777
0.022998927161097527,0.004618202336132526,-0.015898972749710083,0.012109139934182167,-0.0005057518137618899,0.01934451423585415
0.0231045950204134,0.0043484726920723915,-0.015489635989069939,0.012391213327646255,-0.0005049764295108616,0.019301792606711388
0.02324962615966797,0.004503996577113867,-0.01632469892501831,0.01220512855798006,-0.0005000972887501121,0.019684650003910065
0.02309410832822323,0.004426323808729649,-0.0154580008238554,0.011933106929063797,-0.0004694528179243207,0.019542375579476357
0.02161494828760624,0.004703332670032978,-0.01598512940108776,0.012737826444208622,-0.0005088972393423319,0.019519470632076263
0.023879414424300194,0.0047484165988862514,-0.0156912449747324,0.011783701367676258,-0.00046769226901233196,0.019981421530246735
0.023678982630372047,0.004370308946818113,-0.016077881678938866,0.012165824882686138,-0.00048641610192134976,0.01972530409693718
0.023653080686926842,0.003954699262976646,-0.01622692309319973,0.012152370065450668,-0.00046381671563722193,0.019698508083820343
0.02391001023352146,0.0038145827129483223,-0.01611359789967537,0.012101653032004833,-0.000480658927699551,0.019467635080218315
0.023615533486008644,0.0038821655325591564,-0.01607486978173256,0.012329287827014923,-0.0004617496160790324,0.019750457257032394
0.023425905033946037,0.00392012158408761,-0.015819424763321877,0.01193868089467287,-0.0004884882946498692,0.0197683684527874
0.023425905033946037,0.00392012158408761,-0.015819424763321877,0.01193868089467287,-0.0004884882946498692,0.0197683684527874
0.023751933127641678,0.003942994400858879,-0.016556745395064354,0.012484224513173103,-0.0005754262092523277,0.019680501893162727
0.024315236136317253,0.004142169374972582,-0.016210069879889488,0.012017091736197472,-0.0005652451072819531,0.02003338746726513
0.024315236136317253,0.004142169374972582,-0.016210069879889488,0.012017091736197472,-0.0005652451072819531,0.02003338746726513
0.024416347965598106,0.004198270384222269,-0.015557536855340004,0.012003620155155659,-0.0005867339204996824,0.020356638357043266
0.023571215569972992,0.004095655400305986,-0.016208268702030182,0.011703536845743656,-0.0005459529347717762,0.02023913525044918
0.023983648046851158,0.0040199351496994495,-0.016276760026812553,0.012443309649825096,-0.0005377719644457102,0.020159555599093437
0.0243581123650074,0.003967612981796265,-0.016179732978343964,0.011878537945449352,-0.0005299336044117808,0.020286545157432556
0.02423335239291191,0.003969536162912846,-0.016343751922249794,0.012079083360731602,-0.0004955235053785145,0.02006584033370018
0.024447210133075714,0.003998016007244587,-0.015753915533423424,0.01239585317671299,-0.0005021275719627738,0.019804775714874268
0.024579402059316635,0.004256253596395254,-0.0164837334305048,0.012950663454830647,-0.0005102510331198573,0.019950920715928078
0.02443934604525566,0.004044559318572283,-0.015635039657354355,0.012547753751277924,-0.0005039909156039357,0.019657226279377937
0.024750379845499992,0.004212487023323774,-0.016458552330732346,0.012162650004029274,-0.0005351706640794873,0.019759416580200195
0.024765994399785995,0.004043499939143658,-0.016371920704841614,0.012389770708978176,-0.0005250904941931367,0.020429281517863274
0.025145594030618668,0.004037745296955109,-0.017003823071718216,0.012873890809714794,-0.0004942292580381036,0.020494110882282257
0.02554411254823208,0.004059948958456516,-0.016523452475667,0.012116922065615654,-0.0006029716460034251,0.020284099504351616
0.025369660928845406,0.00405010674148798,-0.01712828315794468,0.012621326372027397,-0.0005418310174718499,0.02005670592188835
0.025136223062872887,0.003928201738744974,-0.016485679894685745,0.012885309755802155,-0.0005674238200299442,0.019758189097046852
0.025178248062729836,0.0038063114043325186,-0.016567664220929146,0.012795181944966316,-0.0005236692377366126,0.019922250881791115
0.02554250694811344,0.00409461697563529,-0.01646668277680874,0.012777375988662243,-0.0005466540460474789,0.02071247436106205
0.026187511160969734,0.0042090341448783875,-0.017181551083922386,0.012392742559313774,-0.0005116098909638822,0.021169474348425865
0.025917457416653633,0.004056894686073065,-0.01785929687321186,0.012827476486563683,-0.0005366267287172377,0.02086954563856125
0.023719437420368195,0.003925806377083063,-0.01701764017343521,0.012983704917132854,-0.000503242074046284,0.02083675004541874
0.026210926473140717,0.003802296007052064,-0.016722066327929497,0.013258186168968678,-0.00047211931087076664,0.021328795701265335
0.026819422841072083,0.00424146419391036,-0.016852986067533493,0.012900218367576599,-0.0004520148504525423,0.021393269300460815
0.02579290047287941,0.003777611767873168,-0.017651325091719627,0.013567214831709862,-0.0004123481921851635,0.021110685542225838
0.02558734640479088,0.0035338597372174263,-0.018071141093969345,0.01360367052257061,-0.000447984755737707,0.020637821406126022
0.026393380016088486,0.0036143988836556673,-0.01665610820055008,0.012950561940670013,-0.0004178818198852241,0.02000909298658371
0.026584256440401077,0.004241542425006628,-0.01686682179570198,0.013239648193120956,-0.0004439805634319782,0.02042311429977417
0.026584256440401077,0.004241542425006628,-0.01686682179570198,0.013239648193120956,-0.0004439805634319782,0.02042311429977417
0.02626175433397293,0.004209965001791716,-0.017018277198076248,0.012976455502212048,-0.00042187501094304025,0.020962819457054138
0.025779910385608673,0.003947715740650892,-0.017715610563755035,0.013532557524740696,-0.00042335744365118444,0.02200770191848278
0.025545887649059296,0.003792981617152691,-0.01703423075377941,0.012595958076417446,-0.0004237829998601228,0.021783914417028427
0.026544028893113136,0.003953585401177406,-0.01633436791598797,0.012851309962570667,-0.00040178687777370214,0.02164577506482601
0.026324927806854248,0.0038924224209040403,-0.017232609912753105,0.012747036293148994,-0.0003806461754720658,0.021183783188462257
0.026194360107183456,0.003756424179300666,-0.01742413640022278,0.01339969877153635,-0.00036153331166133285,0.02123248390853405
0.02675008215010166,0.003545839339494705,-0.017391934990882874,0.013308480381965637,-0.00037402063026092947,0.021549569442868233
0.026428833603858948,0.0037197202909737825,-0.017373545095324516,0.014029128476977348,-0.00035021104849874973,0.021950723603367805
0.026437023654580116,0.00392841687425971,-0.01681140623986721,0.014000262133777142,-0.0003813947841990739,0.02183278277516365
0.026254577562212944,0.0038805115036666393,-0.017505038529634476,0.014055639505386353,-0.00036340023507364094,0.021735800430178642
0.026311051100492477,0.004301120061427355,-0.017507443204522133,0.013764315284788609,-0.00034674062044359744,0.021925605833530426
0.026385623961687088,0.004091806244105101,-0.01751016080379486,0.013659163378179073,-0.0003513979900162667,0.021874258294701576
0.026400502771139145,0.003956362139433622,-0.016845349222421646,0.01365575660020113,-0.00033431610791012645,0.021980613470077515
0.026721647009253502,0.003944452852010727,-0.017361164093017578,0.013879088684916496,-0.00035683700116351247,0.022006120532751083
0.026929611340165138,0.003975540865212679,-0.017005080357193947,0.013424302451312542,-0.0003451158117968589,0.021779866889119148
0.026852834969758987,0.00395240681245923,-0.01756804622709751,0.013671398162841797,-0.00037497238372452557,0.0221113171428442
0.02708950825035572,0.004370977636426687,-0.0178082175552845,0.013306270353496075,-0.00038614292861893773,0.02176557667553425
0.02775650843977928,0.004390784073621035,-0.017236966639757156,0.0135929174721241,-0.00041083586984314024,0.0217167679220438
0.02738059312105179,0.004418518394231796,-0.01770966127514839,0.013436657376587391,-0.00039711594581604004,0.022220410406589508
0.027389977127313614,0.004281167406588793,-0.017562204971909523,0.013888073153793812,-0.0004009287222288549,0.02198617346584797
0.026921631768345833,0.004076959565281868,-0.01719159632921219,0.013511031866073608,-0.00040289730532094836,0.02208511345088482
0.02808091975748539,0.003946795128285885,-0.01763702929019928,0.013900699093937874,-0.0003803707368206233,0.0226630549877882
0.0286236759275198,0.0041053034365177155,-0.016569454222917557,0.013634888455271721,-0.0004065265820827335,0.02258111536502838
0.028292473405599594,0.004023921210318804,-0.017129331827163696,0.01386901643127203,-0.00038774561835452914,0.022629402577877045
0.027461741119623184,0.004356274381279945,-0.017081506550312042,0.013814534060657024,-0.0004243610892444849,0.022577280178666115
0.027472831308841705,0.004044318571686745,-0.017601221799850464,0.014022307470440865,-0.0004373895062599331,0.02263394184410572
0.02794944867491722,0.0038069835864007473,-0.01807989925146103,0.013638055883347988,-0.0004406944790389389,0.022686224430799484
0.028515813872218132,0.00425246125087142,-0.017153998836874962,0.013554524630308151,-0.00047592565533705056,0.022266879677772522
0.02799391932785511,0.004125005099922419,-0.017626339569687843,0.013592113740742207,-0.00047489351709373295,0.022019842639565468
0.02799391932785511,0.004125005099922419,-0.017626339569687843,0.013592113740742207,-0.00047489351709373295,0.022019842639565468
0.02848566137254238,0.0039034015499055386,-0.017978232353925705,0.01356587465852499,-0.0004984742263332009,0.022246476262807846
0.02876589260995388,0.00424568448215723,-0.017267795279622078,0.013746993616223335,-0.0005928255850449204,0.02272168919444084
0.028559070080518723,0.004219959024339914,-0.017820758745074272,0.013763795606791973,-0.000731925421860069,0.022918563336133957
0.027911828830838203,0.00436696270480752,-0.01746401935815811,0.01381184346973896,-0.0007590694585815072,0.022896932438015938
0.0280022993683815,0.004437888506799936,-0.01761932298541069,0.013760160654783249,-0.0007375343120656908,0.022563695907592773
0.028406407684087753,0.004124430939555168,-0.017608631402254105,0.014148298650979996,-0.0008695494616404176,0.022365881130099297
0.028456659987568855,0.003958909772336483,-0.017599603161215782,0.014059929177165031,-0.0008608418283984065,0.022724388167262077
0.028810307383537292,0.003877213690429926,-0.017992721870541573,0.014204655773937702,-0.0008659977465867996,0.023359151557087898
0.02863002009689808,0.004194434266537428,-0.01764489710330963,0.013623119331896305,-0.0008141483995132148,0.023593317717313766
0.028897646814584732,0.0042263176292181015,-0.01785854808986187,0.014296765439212322,-0.0007682152208872139,0.02311496064066887
0.028715837746858597,0.0044880760833621025,-0.01798151805996895,0.014338064007461071,-0.0007349304505623877,0.02228572592139244
0.02904246561229229,0.003775285091251135,-0.01823466829955578,0.014149520546197891,-0.0006449642824009061,0.023277226835489273
0.029356470331549644,0.003752676770091057,-0.01813548617064953,0.014623024500906467,-0.0005640714080072939,0.023730233311653137
0.029340658336877823,0.004157206043601036,-0.017502080649137497,0.01444287784397602,-0.0004964699037373066,0.023256290704011917
0.02962265908718109,0.004192649386823177,-0.017937524244189262,0.014639129862189293,-0.0005120681598782539,0.023398317396640778
0.029821675270795822,0.004344559740275145,-0.018073540180921555,0.01392224058508873,-0.00048603155300952494,0.024648072198033333
0.030105525627732277,0.004085132852196693,-0.01808685064315796,0.014363703317940235,-0.0005113357328809798,0.02414390631020069
0.02815159782767296,0.003952525556087494,-0.017741624265909195,0.014299345202744007,-0.0005144418100826442,0.023643087595701218
0.030223848298192024,0.0038646203465759754,-0.0172849353402853,0.014714316464960575,-0.0005090955528430641,0.02221790701150894
0.02994317188858986,0.004220604430884123,-0.018193496391177177,0.015067017637193203,-0.0004784049524459988,0.023597214370965958
0.029785236343741417,0.004215007647871971,-0.01938801072537899,0.015177769586443901,-0.0005322046345099807,0.024112436920404434
0.029634928330779076,0.004071542993187904,-0.018534226343035698,0.01422392763197422,-0.0005528713809326291,0.023964257910847664
0.030345667153596878,0.003965944983065128,-0.01878216862678528,0.014649183489382267,-0.0005215505370870233,0.02400016039609909
0.030345667153596878,0.003965944983065128,-0.01878216862678528,0.014649183489382267,-0.0005215505370870233,0.02400016039609909
0.030394185334444046,0.004259543959051371,-0.017895445227622986,0.01417648233473301,-0.0005109164630994201,0.024101611226797104
0.030392199754714966,0.0039009209722280502,-0.018441271036863327,0.013965051621198654,-0.0005356426117941737,0.023976633325219154
0.030134238302707672,0.00397116132080555,-0.018000075593590736,0.014787753112614155,-0.0005066785961389542,0.02371906489133835
0.030272459611296654,0.004003439098596573,-0.01894587092101574,0.014534411951899529,-0.0005672536208294332,0.023912547156214714
0.030272459611296654,0.004003439098596573,-0.01894587092101574,0.014534411951899529,-0.0005672536208294332,0.023912547156214714
0.030552584677934647,0.003927816171199083,-0.01876719854772091,0.01513041090220213,-0.00060575659153983,0.023882001638412476
0.030797330662608147,0.004283422138541937,-0.017992248758673668,0.014938673004508018,-0.0006177701288834214,0.024114761501550674
0.030929749831557274,0.004537650849670172,-0.019122755154967308,0.014604979194700718,-0.0005817614146508276,0.024274634197354317
0.030555885285139084,0.004355012904852629,-0.019199751317501068,0.015200754627585411,-0.0006046363268978894,0.02448844350874424
0.03075168840587139,0.004542769398540258,-0.01857585459947586,0.015565175563097,-0.0006939473678357899,0.024558138102293015
0.03119010664522648,0.00415239529684186,-0.018663840368390083,0.015488884411752224,-0.0007516070618294179,0.024849452078342438
0.031837090849876404,0.003921040333807468,-0.018792521208524704,0.015704814344644547,-0.0007293098024092615,0.024477863684296608
0.032242901623249054,0.004218392539769411,-0.01808548904955387,0.015719445422291756,-0.0006976031581871212,0.024389706552028656
0.03074021451175213,0.004594274330884218,-0.019455600529909134,0.014951091259717941,-0.000674285925924778,0.024472231045365334
0.03052973747253418,0.0041733006946742535,-0.018468352034687996,0.015051541849970818,-0.000652472663205117,0.02481190115213394
0.03137081488966942,0.004104133229702711,-0.01949235424399376,0.015122921206057072,-0.0005931226187385619,0.024825261905789375
0.03151322528719902,0.004392004106193781,-0.01879684068262577,0.014711715281009674,-0.0005314366426318884,0.025059938430786133
0.03240246698260307,0.004230419173836708,-0.018254494294524193,0.015598979778587818,-0.0005575096583925188,0.02492435835301876
0.031174400821328163,0.004356423392891884,-0.018854454159736633,0.0156882144510746,-0.000556837534531951,0.0249226912856102
0.030933750793337822,0.004537403583526611,-0.01871119625866413,0.01600092090666294,-0.0005467050359584391,0.024861624464392662
0.031077422201633453,0.004587224684655666,-0.019255708903074265,0.015364786610007286,-0.0005724163493141532,0.02507483772933483
0.031872835010290146,0.004709807224571705,-0.019303753972053528,0.01552982535213232,-0.0006402225117199123,0.025927893817424774
0.03246729075908661,0.0044418442994356155,-0.018754472956061363,0.01531742699444294,-0.0006510441889986396,0.02615048922598362
0.03148961439728737,0.0042568533681333065,-0.019125470891594887,0.015113509260118008,-0.0006282585673034191,0.025921359658241272
0.03275817632675171,0.004258456639945507,-0.01919049583375454,0.015318247489631176,-0.0006469449726864696,0.02506204880774021
0.032085955142974854,0.004447964485734701,-0.018613750115036964,0.015200371854007244,-0.0006703268154524267,0.024739589542150497
0.0313049741089344,0.004561820067465305,-0.019311174750328064,0.015080585144460201,-0.0007773814140819013,0.025459306314587593
0.03197244927287102,0.00468874117359519,-0.019538527354598045,0.014950336888432503,-0.0008332576835528016,0.02588309347629547
0.032658129930496216,0.004515278618782759,-0.018920129165053368,0.015495791099965572,-0.0008287482778541744,0.025470063090324402
0.03204862028360367,0.004169973079115152,-0.019490092992782593,0.015253636054694653,-0.0008094321237877011,0.025634033605456352
0.03232656046748161,0.004394834395498037,-0.01934228464961052,0.015558693557977676,-0.0007708822377026081,0.026910966262221336
0.03283388167619705,0.004609260708093643,-0.018792567774653435,0.015135755762457848,-0.0008306544623337686,0.02583843097090721
0.03259044885635376,0.0043718209490180016,-0.019182996824383736,0.01577156037092209,-0.00085456419037655,0.025510892271995544
0.03277619928121567,0.004471121355891228,-0.019077878445386887,0.01483129058033228,-0.0008530650520697236,0.02548656426370144
0.03277619928121567,0.004471121355891228,-0.019077878445386887,0.01483129058033228,-0.0008530650520697236,0.02548656426370144
0.032347362488508224,0.004222763702273369,-0.019211577251553535,0.015475626103579998,-0.0008440346573479474,0.025455201044678688
0.03320527821779251,0.004330499097704887,-0.019836384803056717,0.01525070145726204,-0.0007780104060657322,0.026998460292816162
0.0340099111199379,0.0046860454604029655,-0.019638584926724434,0.01575528085231781,-0.000771700288169086,0.02741606906056404
0.03259359672665596,0.00432581314817071,-0.01877548359334469,0.015400775708258152,-0.000785405223723501,0.02635619416832924
0.03237775340676308,0.004531226120889187,-0.018869644030928612,0.01589212939143181,-0.0008078888640739024,0.02618042565882206
0.03353828191757202,0.004649891518056393,-0.01899956725537777,0.01589670218527317,-0.0008189275395125151,0.026650939136743546
0.032824404537677765,0.004303119145333767,-0.018483446910977364,0.015606884844601154,-0.0009162603528238833,0.02650274895131588
0.03329687938094139,0.005012925714254379,-0.019139057025313377,0.015752660110592842,-0.0009017937700264156,0.026167897507548332
0.034157272428274155,0.004384046886116266,-0.01897081360220909,0.016219669952988625,-0.000813610793557018,0.0264152679592371
0.03279830515384674,0.004020641557872295,-0.019312167540192604,0.015944860875606537,-0.0008196212584152818,0.026511721312999725
0.03305153176188469,0.004349388647824526,-0.019711393862962723,0.016447201371192932,-0.0007733912789262831,0.026790741831064224
0.03424295037984848,0.004224039614200592,-0.019433144479990005,0.016183853149414062,-0.0007563445833511651,0.02691497653722763
0.03386591747403145,0.00435978127643466,-0.019517971202731133,0.01620439998805523,-0.0007159400847740471,0.02672436647117138
0.03301165997982025,0.0044844928197562695,-0.019852302968502045,0.01619892753660679,-0.0007336152484640479,0.02673158049583435
0.034274354577064514,0.0044488804414868355,-0.019575726240873337,0.015493983402848244,-0.0007085311808623374,0.0273307953029871
0.03403868153691292,0.004240961745381355,-0.019282925873994827,0.015717118978500366,-0.0006826955359429121,0.027286501601338387
0.03446691855788231,0.0039061782881617546,-0.019664060324430466,0.015675392001867294,-0.0007134000188671052,0.027191421017050743
0.03403516858816147,0.0037114762235432863,-0.019518721848726273,0.016025710850954056,-0.0007214976940304041,0.027379943057894707
0.03409332036972046,0.0037788241170346737,-0.01973244734108448,0.01587989367544651,-0.0006618155748583376,0.027517955750226974
0.034344155341386795,0.0038927574642002583,-0.019715232774615288,0.016485808417201042,-0.0006824569427408278,0.027159016579389572
0.03418918699026108,0.004293002653867006,-0.019359203055500984,0.016342006623744965,-0.0006975869182497263,0.02744840830564499
0.03453466296195984,0.0043266331776976585,-0.020075393840670586,0.01680874079465866,-0.0006508681690320373,0.02742936834692955
0.034223102033138275,0.00406944053247571,-0.02130267582833767,0.016877640038728714,-0.0006715745548717678,0.02741498313844204
0.034510720521211624,0.003494441509246826,-0.020990842953324318,0.01671268232166767,-0.0005910006002523005,0.026723818853497505
0.03480714559555054,0.0035933719482272863,-0.020061898976564407,0.01681612990796566,-0.0006195355672389269,0.02754172310233116
0.03453734517097473,0.004213934298604727,-0.02043617144227028,0.016540944576263428,-0.0006064291810616851,0.028233325108885765
0.033130545169115067,0.004195655696094036,-0.0201517716050148,0.017019661143422127,-0.0005904796998947859,0.027720002457499504
0.03509633243083954,0.003926023840904236,-0.01978788897395134,0.016639279201626778,-0.0006090900860726833,0.028222031891345978
0.03509633243083954,0.003926023840904236,-0.01978788897395134,0.016639279201626778,-0.0006090900860726833,0.028222031891345978
0.035291410982608795,0.0038131840992718935,-0.020257456228137016,0.016515782102942467,-0.0005700932233594358,0.028727559372782707
0.03464297205209732,0.003954975865781307,-0.021123159676790237,0.01623493805527687,-0.000529507698956877,0.028019554913043976
0.03501296415925026,0.004001976456493139,-0.021056195721030235,0.01630883850157261,-0.0005024130223318934,0.02718023769557476
0.03536210209131241,0.0038013362791389227,-0.020497117191553116,0.017873749136924744,-0.0004974849871359766,0.02717789076268673
0.035412732511758804,0.003606197191402316,-0.02084248885512352,0.017449351027607918,-0.0005314685986377299,0.028368467465043068
0.03527090325951576,0.003451339900493622,-0.020941607654094696,0.017619512975215912,-0.0005257441662251949,0.02827642858028412
0.0354306623339653,0.0035549490712583065,-0.02079017646610737,0.01705825701355934,-0.0005523118888959289,0.028348345309495926
0.03542096167802811,0.004009537398815155,-0.02075084112584591,0.017177550122141838,-0.0007765621994622052,0.028837157413363457
0.03528468683362007,0.003748539136722684,-0.021052587777376175,0.01694050431251526,-0.0007784735644236207,0.02809254266321659
0.03697076067328453,0.0034542749635875225,-0.02056577429175377,0.017715027555823326,-0.0007166266441345215,0.027427036315202713
0.03703760728240013,0.003583264537155628,-0.020993633195757866,0.01775454357266426,-0.0007303676684387028,0.027691958472132683
0.035076774656772614,0.0037725490983575583,-0.021315986290574074,0.01697651855647564,-0.0007850516121834517,0.029120156541466713
0.0350288487970829,0.003909459337592125,-0.02067776955664158,0.01731235906481743,-0.0008141978178173304,0.028941262513399124
0.03607616946101189,0.00385943241417408,-0.02031281404197216,0.017181605100631714,-0.0008262640913017094,0.028537338599562645
0.036163318902254105,0.0035783867351710796,-0.02089952491223812,0.018061663955450058,-0.0008277511224150658,0.02821468561887741
0.03736717998981476,0.003595227375626564,-0.020745588466525078,0.017546571791172028,-0.0007537754136137664,0.028291579335927963
0.03662074729800224,0.003989017102867365,-0.02028462663292885,0.01673543080687523,-0.0007979088695719838,0.027954978868365288
0.035523805767297745,0.004011653829365969,-0.020868154242634773,0.017262276262044907,-0.0008050969918258488,0.028810927644371986
0.03536967933177948,0.003814182709902525,-0.02109265886247158,0.01653946191072464,-0.0007718296837992966,0.029217418283224106
0.036500826478004456,0.0037142939399927855,-0.020545383915305138,0.016875149682164192,-0.0007333998801186681,0.028934398666024208
0.036486875265836716,0.0037538467440754175,-0.02030962146818638,0.017155684530735016,-0.0007472882862202823,0.02860707975924015
0.03674871101975441,0.004254618659615517,-0.020454373210668564,0.017095493152737617,-0.0006870540091767907,0.028706839308142662
0.036741916090250015,0.0041299182921648026,-0.02061324007809162,0.01715145632624626,-0.000726494356058538,0.029346348717808723
0.03606044501066208,0.004088923335075378,-0.020136769860982895,0.01696445420384407,-0.0006940174498595297,0.029629690572619438
0.03647881746292114,0.003994985483586788,-0.020813876762986183,0.016515135765075684,-0.0007139292429201305,0.027862487360835075
0.03647881746292114,0.003994985483586788,-0.020813876762986183,0.016515135765075684,-0.0007139292429201305,0.027862487360835075
0.03645133972167969,0.004295678343623877,-0.020583119243383408,0.016886325553059578,-0.0008768849656917155,0.02979172393679619
0.03645133972167969,0.004295678343623877,-0.020583119243383408,0.016886325553059578,-0.0008768849656917155,0.02979172393679619
0.036697931587696075,0.004075770732015371,-0.020213071256875992,0.017338639125227928,-0.0008940352126955986,0.029249930754303932
0.03662208467721939,0.003909142222255468,-0.02076208032667637,0.016973523423075676,-0.0008957618847489357,0.02965346910059452
0.03655853867530823,0.003907075151801109,-0.02099446952342987,0.01724940910935402,-0.000852979370392859,0.02930617518723011
0.03729085251688957,0.003954410552978516,-0.020498983561992645,0.017324326559901237,-0.0008068524184636772,0.029474489390850067
0.0367097407579422,0.0044101825915277,-0.020889461040496826,0.01737953908741474,-0.0007884395308792591,0.0292118601500988
0.035531312227249146,0.004196495283395052,-0.02069992758333683,0.017428576946258545,-0.0007995679625310004,0.028806224465370178
0.03690849989652634,0.004113984294235706,-0.020875798538327217,0.01754617504775524,-0.0007251906208693981,0.030102252960205078
0.03690849989652634,0.004113984294235706,-0.020875798538327217,0.01754617504775524,-0.0007251906208693981,0.030102252960205078
0.03829213231801987,0.0040512289851903915,-0.021362673491239548,0.017480630427598953,-0.0006782972486689687,0.028808588162064552
0.03624976798892021,0.004365846514701843,-0.021007655188441277,0.01814846880733967,-0.0006655666511505842,0.029405009001493454
0.03544200211763382,0.004194031935185194,-0.02099503204226494,0.0180650744587183,-0.0006540784961543977,0.030534375458955765
0.037638433277606964,0.004439459647983313,-0.020979508757591248,0.018209507688879967,-0.0006296237115748227,0.030681775882840157
0.03723257780075073,0.004079334903508425,-0.020777828991413116,0.01798837073147297,-0.0006544756470248103,0.03115830570459366
0.037289638072252274,0.0043357680551707745,-0.020864011719822884,0.017601914703845978,-0.0006718359654769301,0.031327903270721436
0.03723112493753433,0.004329879768192768,-0.021399464458227158,0.017932338640093803,-0.0007820113096386194,0.030791906639933586
0.037601981312036514,0.004249638877809048,-0.02099491097033024,0.017627084627747536,-0.0008193838875740767,0.029899289831519127
0.037012770771980286,0.0044508990831673145,-0.02101735770702362,0.017587577924132347,-0.0008318583713844419,0.02971033751964569
0.037208449095487595,0.004645859822630882,-0.020803285762667656,0.017987839877605438,-0.0008130717324092984,0.03104022890329361
0.03744472190737724,0.004373050760477781,-0.02171945571899414,0.01780911721289158,-0.0007816746365278959,0.03083956055343151
0.037108469754457474,0.0044827330857515335,-0.021042879670858383,0.017896359786391258,-0.0009231519652530551,0.030123233795166016
0.03724239021539688,0.004437230993062258,-0.021099843084812164,0.018031753599643707,-0.0008593455422669649,0.03147221356630325
0.037691790610551834,0.004264043178409338,-0.02030406892299652,0.01738678105175495,-0.0008523050346411765,0.031583741307258606
0.03830040991306305,0.004345133900642395,-0.020701220259070396,0.017898067831993103,-0.0008157950360327959,0.031049491837620735
0.038076914846897125,0.004118339158594608,-0.021148398518562317,0.01755436509847641,-0.0007754004909656942,0.031094321981072426
0.038231704384088516,0.004589103162288666,-0.020908473059535027,0.017706550657749176,-0.0007470424752682447,0.03095902130007744
0.03847429156303406,0.004799847956746817,-0.021367285400629044,0.018227536231279373,-0.000761411152780056,0.031131330877542496
0.03841076418757439,0.004511657636612654,-0.021557973697781563,0.01799963414669037,-0.0007636267691850662,0.031405624002218246
0.03841076418757439,0.004511657636612654,-0.021557973697781563,0.01799963414669037,-0.0007636267691850662,0.031405624002218246
0.03880421817302704,0.004323106724768877,-0.021394070237874985,0.01860794983804226,-0.000777975597884506,0.03118928149342537
0.03879209980368614,0.004503113683313131,-0.021009298041462898,0.018518954515457153,-0.0007304212776944041,0.03119932860136032
0.038784243166446686,0.004326967988163233,-0.021385734900832176,0.01903194934129715,-0.0008769907290115952,0.03162741661071777
0.038784243166446686,0.004326967988163233,-0.021385734900832176,0.01903194934129715,-0.0008769907290115952,0.03162741661071777
0.03920002654194832,0.004532738123089075,-0.021263962611556053,0.019522650167346,-0.0008846371783874929,0.03145110234618187
0.03945180028676987,0.004244073294103146,-0.02130208909511566,0.019006289541721344,-0.0008470482425764203,0.031670909374952316
0.03959222882986069,0.004681244492530823,-0.021353967487812042,0.018283996731042862,-0.0009791223565116525,0.031608302146196365
0.03971104696393013,0.004822488874197006,-0.021280741319060326,0.01780872605741024,-0.0009064087644219398,0.031904224306344986
0.03942141309380531,0.004806069657206535,-0.02106477878987789,0.018523434177041054,-0.0009014037786982954,0.032331984490156174
0.040481436997652054,0.004337640479207039,-0.02150896191596985,0.018221605569124222,-0.0008865853305906057,0.032644063234329224
0.04117443040013313,0.004326977767050266,-0.02143455483019352,0.018664902076125145,-0.0008950146147981286,0.031287986785173416
0.039373308420181274,0.004087414592504501,-0.02158106490969658,0.018620828166604042,-0.0008959798724390566,0.03301370143890381
0.03877447172999382,0.004291647579520941,-0.0212181955575943,0.018117373809218407,-0.0008887110161595047,0.0340489000082016
0.040923312306404114,0.004623656626790762,-0.021487079560756683,0.01876894012093544,-0.0009176591411232948,0.03383312746882439
0.040704574435949326,0.004722151905298233,-0.0216953307390213,0.019140761345624924,-0.0009368082392029464,0.03162644803524017
0.04109799489378929,0.004512134473770857,-0.021412109956145287,0.0192276481539011,-0.0009148534154519439,0.032068416476249695
0.041099824011325836,0.004404586739838123,-0.021073538810014725,0.018585970625281334,-0.0008823623647913337,0.03254891559481621
0.039355725049972534,0.004319287370890379,-0.021527325734496117,0.01800013706088066,-0.0008426271961070597,0.03264541178941727
0.04126608371734619,0.003982557915151119,-0.021468844264745712,0.017927207052707672,-0.0009446842595934868,0.03407773748040199
0.04109462350606918,0.004405560903251171,-0.021383488550782204,0.01825159229338169,-0.000962418329436332,0.0339856892824173
0.04110089689493179,0.004746601916849613,-0.021229464560747147,0.018293458968400955,-0.0009555632714182138,0.033544011414051056
0.04068784788250923,0.004420395940542221,-0.021308237686753273,0.018675433471798897,-0.0010444275103509426,0.03228268399834633
0.041023869067430496,0.005024266894906759,-0.021879160776734352,0.018865488469600677,-0.0010360385058447719,0.03326309844851494
0.04100563004612923,0.004908190108835697,-0.021763669326901436,0.01838669925928116,-0.0010145925916731358,0.03384063392877579
0.04081692174077034,0.0043557994067668915,-0.02122161164879799,0.018671918660402298,-0.0009042940801009536,0.033543407917022705
0.04081692174077034,0.0043557994067668915,-0.02122161164879799,0.018671918660402298,-0.0009042940801009536,0.033543407917022705
0.04069796949625015,0.004441958386451006,-0.021899379789829254,0.019071219488978386,-0.000889683433342725,0.03310152888298035
0.04116716608405113,0.004410044755786657,-0.022757209837436676,0.018600068986415863,-0.0008139906567521393,0.03299861028790474
0.043241795152425766,0.004919163882732391,-0.02322901412844658,0.018410565331578255,-0.000706589431501925,0.03309177607297897
0.04014023765921593,0.004846696276217699,-0.02255362831056118,0.018907597288489342,-0.0007246921304613352,0.03439747542142868
0.040181443095207214,0.004867434035986662,-0.022378427907824516,0.018766317516565323,-0.0007377750589512289,0.034239206463098526
