davideferrari95/blind_handover_controller/data/Test 271 - [2024-02-08 -- 12-54-02]/joint_states_data.csv
shoulder_pan_joint,shoulder_lift_joint,elbow_joint,wrist_1_joint,wrist_2_joint,wrist_3_joint
0.0038403254002332687,0.008585418574512005,-0.011702842079102993,0.004812366794794798,-9.97974485345288e-31,0.005450851749628782
0.0038403254002332687,0.008585418574512005,-0.011702842079102993,0.004812366794794798,-9.97974485345288e-31,0.005450851749628782
0.004085870459675789,0.010464292950928211,-0.012255647219717503,0.004643941298127174,-6.516060235689996e-32,0.005336628295481205
0.004085870459675789,0.010464292950928211,-0.012255647219717503,0.004643941298127174,-6.516060235689996e-32,0.005336628295481205
0.003950690384954214,0.008353742770850658,-0.012425842694938183,0.004595802631229162,-4.2545218052288e-33,0.004860627930611372
0.004074289463460445,0.009654591791331768,-0.012151753529906273,0.0039495015516877174,-1.813769416219558e-35,0.004342089407145977
0.004074289463460445,0.009654591791331768,-0.012151753529906273,0.0039495015516877174,-1.813769416219558e-35,0.004342089407145977
0.004032440017908812,0.009529056027531624,-0.012849578633904457,0.0037897098809480667,-1.1842617708461207e-36,0.004431308712810278
0.0035900177899748087,0.009435445070266724,-0.011581874452531338,0.004124394617974758,-7.73238342328407e-38,0.00464664539322257
0.004081255756318569,0.00951867550611496,-0.012082633562386036,0.004115843679755926,-5.048693395565025e-39,0.004645214416086674
0.004088672809302807,0.009816234931349754,-0.012255284935235977,0.004020943306386471,-3.296442533446986e-40,0.0045900410041213036
0.004157342482358217,0.009491615928709507,-0.012165834195911884,0.0035189413465559483,-2.152394441202919e-41,0.004539082758128643
0.0039640795439481735,0.009625110775232315,-0.012501598335802555,0.0031699277460575104,-1.4055023597177915e-42,0.004418353550136089
0.0043637254275381565,0.009203030727803707,-0.012134791351854801,0.0031319609843194485,-9.10844001811131e-44,0.004502315539866686
0.00416294950991869,0.008734142407774925,-0.012238334864377975,0.0034033479169011116,-5.605193857299268e-45,0.004268235992640257
0.004038318060338497,0.008983276784420013,-0.012136030942201614,0.0035885265097022057,-0.0,0.004430615343153477
0.0039785802364349365,0.009302142076194286,-0.012448222376406193,0.003463479457423091,-0.0,0.0044625792652368546
0.0039807697758078575,0.009200269356369972,-0.012017148546874523,0.0035661228466778994,-0.0,0.004097935277968645
0.004375115502625704,0.008617646060883999,-0.011501586064696312,0.003471316071227193,-0.0,0.003983270842581987
0.004198545124381781,0.009313790127635002,-0.012143820524215698,0.003424757858738303,-0.0,0.004028660245239735
0.003876606933772564,0.008885449729859829,-0.011927629821002483,0.003567831125110388,-0.0,0.004254777450114489
0.004046623595058918,0.008663988672196865,-0.01231526117771864,0.004096604883670807,-0.0,0.004543893504887819
0.004067537374794483,0.008624290116131306,-0.012252450920641422,0.0041569555178284645,-0.0,0.004447756335139275
0.004319396335631609,0.008611103519797325,-0.011717491783201694,0.0035103901755064726,-0.0,0.00441473675891757
0.004165695048868656,0.00852601882070303,-0.012128601782023907,0.0034975772723555565,-0.0,0.004178897477686405
0.004084060899913311,0.009198869578540325,-0.011584046296775341,0.003267057240009308,-0.0,0.004342003725469112
0.0044532944448292255,0.008361185900866985,-0.011694934219121933,0.0037181596271693707,-0.0,0.00457422761246562
0.0044532944448292255,0.008361185900866985,-0.011694934219121933,0.0037181596271693707,-0.0,0.00457422761246562
0.004535386338829994,0.008688005618751049,-0.011615192517638206,0.0036856508813798428,-0.0,0.004281979985535145
0.00438027223572135,0.009275717660784721,-0.012416242621839046,0.003597533330321312,-0.0,0.004339678678661585
0.004093980882316828,0.00848523061722517,-0.011509484611451626,0.00331552023999393,-0.0,0.004874859470874071
0.003900678362697363,0.008410448208451271,-0.012035700492560863,0.0032205753959715366,-0.0,0.005366567987948656
0.004158688709139824,0.008960285224020481,-0.011995164677500725,0.0033768964931368828,-0.0,0.004408934619277716
0.004658217076212168,0.008835318498313427,-0.012175560928881168,0.003447866067290306,-0.0,0.003941388335078955
0.004710981156677008,0.008493555709719658,-0.012044963426887989,0.003768317401409149,-0.0,0.004259850829839706
0.004380904603749514,0.008554629981517792,-0.01175538171082735,0.004031125921756029,-0.0,0.0043654972687363625
0.00451200595125556,0.008801879361271858,-0.012072126381099224,0.003994151018559933,-0.0,0.004774652887135744
0.004269967321306467,0.008349508047103882,-0.011439439840614796,0.003803703933954239,-0.0,0.004751746077090502
0.0040225381962955,0.008853846229612827,-0.012056620791554451,0.0035800926852971315,-0.0,0.0043909428641200066
0.004273628816008568,0.008906559087336063,-0.012040093541145325,0.0034633090253919363,-0.0,0.004527725744992495
0.004635380115360022,0.008697433397173882,-0.011120151728391647,0.003616809146478772,-0.0,0.004672850947827101
0.004569153301417828,0.008505853824317455,-0.011691790074110031,0.003733118064701557,-0.0,0.004610611125826836
0.004275699146091938,0.008521697483956814,-0.01128238346427679,0.003524823347106576,-0.0,0.004614093340933323
0.004461037460714579,0.008224762044847012,-0.011823623441159725,0.00359818572178483,-0.0,0.00466698594391346
0.004129421431571245,0.007960048504173756,-0.011931895278394222,0.003728051669895649,-0.0,0.004288851749151945
0.004172913264483213,0.008539115078747272,-0.011975714936852455,0.0038583376444876194,-0.0,0.004171266220510006
0.004099760204553604,0.008623168803751469,-0.011502991430461407,0.0034691551700234413,-0.0,0.004116859752684832
0.004301613662391901,0.007959201000630856,-0.0109754903241992,0.0035161511041224003,-0.0,0.0040252008475363255
0.00447793398052454,0.007697793655097485,-0.011686554178595543,0.00375538831576705,-0.0,0.004276596009731293
0.004636313766241074,0.007537366356700659,-0.011835130862891674,0.00340666389092803,-0.0,0.004437592811882496
0.0044710529036819935,0.008081846870481968,-0.011556683108210564,0.003513074479997158,-0.0,0.004417331423610449
0.0042467787861824036,0.00823608972132206,-0.011960473842918873,0.003244085470214486,-0.0,0.004532841965556145
0.004426059778779745,0.007958147674798965,-0.011326882056891918,0.003925730474293232,-0.0,0.004271561745554209
0.004686438012868166,0.0076725659891963005,-0.011791720986366272,0.00414617033675313,-0.0,0.004314383026212454
0.00463112210854888,0.007896757684648037,-0.011745262891054153,0.0033330952282994986,-0.0,0.004709069617092609
0.0048368158750236034,0.007603376638144255,-0.012246332131326199,0.003161552594974637,-0.0,0.004473109729588032
0.0048368158750236034,0.007603376638144255,-0.012246332131326199,0.003161552594974637,-0.0,0.004473109729588032
0.004759418778121471,0.007958916947245598,-0.0118630426004529,0.003417248371988535,-0.0,0.004638512618839741
0.004288498777896166,0.007811256684362888,-0.012351186946034431,0.003634888445958495,-0.0,0.004203611984848976
0.00445972103625536,0.007507858797907829,-0.012031462974846363,0.0037793770898133516,-0.0,0.0042464639991521835
0.0047009969130158424,0.008057673461735249,-0.011876729317009449,0.0037971201818436384,-0.0,0.0045280298218131065
0.0049489159137010574,0.008436049334704876,-0.011576657183468342,0.0034516931045800447,-0.0,0.004539958201348782
0.004384464584290981,0.007931964471936226,-0.01132299192249775,0.003519022837281227,-0.0,0.004640104714781046
0.00451571773737669,0.00783014576882124,-0.01242384035140276,0.0036862280685454607,-0.0,0.00455687940120697
0.004534926265478134,0.007561080623418093,-0.01210921723395586,0.0038255031686276197,-0.0,0.0049191974103450775
0.004636502359062433,0.008183645084500313,-0.012196116149425507,0.003886590013280511,-0.0,0.004814996384084225
0.004261605907231569,0.008153951726853848,-0.012122521176934242,0.003913122694939375,-0.0,0.004429616034030914
0.004510228987783194,0.008265212178230286,-0.012118928134441376,0.0038864631205797195,-0.0,0.004495725035667419
0.004650354851037264,0.00784333422780037,-0.012126811780035496,0.003821296151727438,-0.0,0.004286444280296564
0.004674591589719057,0.008232492953538895,-0.011576174758374691,0.0037652705796062946,-0.0,0.004400938283652067
0.004529506899416447,0.008119221776723862,-0.01240413449704647,0.004075000062584877,-0.0,0.00466653099283576
0.004576585721224546,0.008191125467419624,-0.011851213872432709,0.004160144366323948,-0.0,0.004787559621036053
0.004685212858021259,0.008450638502836227,-0.011772611178457737,0.0041229152120649815,-0.0,0.004752850625663996
0.004690757021307945,0.008561602793633938,-0.011868244037032127,0.0040804012678563595,-0.0,0.004621739499270916
0.004812284372746944,0.008021611720323563,-0.011523917317390442,0.004034986719489098,-0.0,0.004762993659824133
0.0047614919021725655,0.008830164559185505,-0.01227657962590456,0.003946611657738686,-0.0,0.004740430973470211
0.004747305531054735,0.008421133272349834,-0.012069711461663246,0.0039564091712236404,-0.0,0.004449236206710339
0.004548154305666685,0.008218148723244667,-0.012098361738026142,0.0041921427473425865,-0.0,0.004606877453625202
0.004842896480113268,0.0079097431153059,-0.01039694994688034,0.004167527426034212,-0.0,0.004645928740501404
0.004803767427802086,0.00871677603572607,-0.011656343005597591,0.003969114739447832,-0.0,0.004564995411783457
0.004857509862631559,0.007963838055729866,-0.012795345857739449,0.004163410980254412,-0.0,0.004486204124987125
0.004688106942921877,0.00791163183748722,-0.011529740877449512,0.0037069593090564013,-0.0,0.004352755844593048
0.004618434701114893,0.008576443418860435,-0.01139549259096384,0.003496383083984256,-0.0,0.004343097563832998
0.004645318258553743,0.008558808825910091,-0.011049929074943066,0.0038743726909160614,-0.0,0.004366923589259386
0.004645318258553743,0.008558808825910091,-0.011049929074943066,0.0038743726909160614,-0.0,0.004366923589259386
0.004660682287067175,0.008079160936176777,-0.012383894994854927,0.0039794351905584335,-0.0,0.004227846395224333
0.0050941877998411655,0.008468330837786198,-0.011598436161875725,0.0042385137639939785,-0.0,0.004686269443482161
0.004954393487423658,0.008545949123799801,-0.011188920587301254,0.004078209400177002,-0.0,0.004873576574027538
0.004706172272562981,0.008548727259039879,-0.011585252359509468,0.0036600797902792692,-0.0,0.004604038316756487
0.0042631421238183975,0.007970319129526615,-0.011629956774413586,0.0035440356004983187,-0.0,0.004509334918111563
0.004259155131876469,0.008569668047130108,-0.012148169800639153,0.004084375221282244,-0.0,0.00455139484256506
0.004064151551574469,0.00835478026419878,-0.01128651574254036,0.004067760892212391,-0.0,0.0045877802185714245
0.004461788106709719,0.008322866633534431,-0.01148307602852583,0.004445970524102449,-0.0,0.004594153258949518
0.004717136267572641,0.008426698856055737,-0.011695288121700287,0.004223497584462166,-0.0,0.00446276692673564
0.0042509580962359905,0.008369607850909233,-0.010917487554252148,0.004351750947535038,-0.0,0.004441070836037397
0.004246796015650034,0.008155977353453636,-0.011485515162348747,0.004219543654471636,-0.0,0.004746646620333195
0.004120576195418835,0.00831698440015316,-0.011684292927384377,0.004000243730843067,-0.0,0.004824381787329912
0.004471145570278168,0.00857999362051487,-0.011543367989361286,0.003871571971103549,-0.0,0.0045923469588160515
0.004210615064948797,0.00825501512736082,-0.011298169381916523,0.003886772785335779,-0.0,0.004491494037210941
0.00446031941100955,0.0076890913769602776,-0.010554665699601173,0.004324678797274828,-0.0,0.004499814473092556
0.0046211061999201775,0.008784649893641472,-0.011408963240683079,0.004391446243971586,-0.0,0.004927818197757006
0.004212420433759689,0.008637073449790478,-0.011599388904869556,0.0037501065526157618,-0.0,0.004640578757971525
0.004280654713511467,0.008257231675088406,-0.011664383113384247,0.0033666149247437716,-0.0,0.004556179512292147
0.00459682522341609,0.008357402868568897,-0.011286594904959202,0.003450242104008794,-0.0,0.004655151162296534
0.004263958893716335,0.008588273078203201,-0.01077970676124096,0.003520855214446783,-0.0,0.004642982501536608
0.004539187066257,0.008198607712984085,-0.011755535379052162,0.003596685826778412,-0.0,0.004690132569521666
0.00467964680865407,0.008043637499213219,-0.011259877122938633,0.003401854308322072,-0.0,0.005028435494750738
0.004589778836816549,0.00781659223139286,-0.011116227135062218,0.003942416049540043,-0.0,0.005078366957604885
0.004207142628729343,0.008776321075856686,-0.011207028292119503,0.004164437763392925,-0.0,0.004843724425882101
0.004323912318795919,0.007965917699038982,-0.010820038616657257,0.00428922800347209,-0.0,0.004609714727848768
0.004323912318795919,0.007965917699038982,-0.010820038616657257,0.00428922800347209,-0.0,0.004609714727848768
0.004426892846822739,0.008354699239134789,-0.01091266144067049,0.003712876234203577,-0.0,0.004888556431978941
0.004724483005702496,0.008491087704896927,-0.010441695339977741,0.00352746550925076,-0.0,0.004814710468053818
0.004379144869744778,0.0077539896592497826,-0.011174087412655354,0.0036041955463588238,-0.0,0.004604277200996876
0.004387278575450182,0.00808768067508936,-0.010970056988298893,0.003961294423788786,-0.0,0.004492746200412512
0.004481532145291567,0.00847164448350668,-0.010483577847480774,0.004105401691049337,-0.0,0.004854238126426935
0.004666977096349001,0.008149020373821259,-0.011046716943383217,0.004318296909332275,-0.0,0.005377757828682661
0.004790363367646933,0.007591771427541971,-0.010511385276913643,0.004139345604926348,-0.0,0.0050245919264853
0.004293432924896479,0.00811013299971819,-0.010746832937002182,0.004314384888857603,-0.0,0.004755813162773848
0.004401922691613436,0.008443063125014305,-0.010723966173827648,0.0036063885781913996,-0.0,0.004691969137638807
0.00513773737475276,0.007966398261487484,-0.010458442382514477,0.003246075240895152,-0.0,0.004683580715209246
0.004983057267963886,0.00790395401418209,-0.011053861118853092,0.0031686387956142426,-0.0,0.004945602733641863
0.004638624843209982,0.00841528084129095,-0.011009159497916698,0.0035256166011095047,-0.0,0.004985019564628601
0.004313564393669367,0.008383603766560555,-0.011221032589673996,0.0043153646402060986,-0.0,0.004826531279832125
0.004905771929770708,0.008133374154567719,-0.01148596964776516,0.004163268022239208,-0.0,0.004578793421387672
0.005135855637490749,0.008052348159253597,-0.011188024654984474,0.0038605444133281708,-0.0,0.004543289076536894
0.004977356176823378,0.009097029455006123,-0.011508644558489323,0.0037015588022768497,-0.0,0.004471928812563419
0.005070728715509176,0.008221679367125034,-0.010670519433915615,0.004137574695050716,-0.0,0.004421581979840994
0.004885268863290548,0.008014927618205547,-0.01053713820874691,0.004143406171351671,-0.0,0.005040985532104969
0.004816609900444746,0.008261110633611679,-0.011323080398142338,0.0036857412196695805,-0.0,0.005055297166109085
0.004906074609607458,0.008770985528826714,-0.011557597666978836,0.0034569278359413147,-0.0,0.004828454926609993
0.0047755674459040165,0.007973621599376202,-0.011454921215772629,0.003941845614463091,-0.0,0.0045541119761765
0.004990131128579378,0.008127644658088684,-0.011171137914061546,0.004264479037374258,-0.0,0.004589393734931946
0.004972482565790415,0.008851364254951477,-0.0107636833563447,0.004037096630781889,-0.0,0.004620798397809267
0.004835793282836676,0.008377214893698692,-0.0112370690330863,0.003813216695562005,-0.0,0.004725812468677759
0.004835793282836676,0.008377214893698692,-0.0112370690330863,0.003813216695562005,-0.0,0.004725812468677759
0.004838375374674797,0.00803679134696722,-0.01102454587817192,0.00371376471593976,-0.0,0.004862774629145861
0.004923208616673946,0.00905516091734171,-0.011011960916221142,0.00337631325237453,-0.0,0.004799811635166407
0.004946681670844555,0.008077114820480347,-0.011033928021788597,0.0036001296248286963,-0.0,0.004738989286124706
0.005602626129984856,0.007889562286436558,-0.010893424972891808,0.0037685001734644175,-0.0,0.004644032567739487
0.0053354958072304726,0.008802255615592003,-0.011256336234509945,0.0038238908164203167,-0.0,0.004915167111903429
0.004919480066746473,0.008746761828660965,-0.010698500089347363,0.003412316320464015,-0.0,0.00540428701788187
0.005201535765081644,0.007843111641705036,-0.011292954906821251,0.0034550782293081284,-0.0,0.005203506909310818
0.005207972135394812,0.008049488998949528,-0.011503792367875576,0.003629840910434723,-0.0,0.004334169439971447
0.005127024371176958,0.008235959336161613,-0.01071123592555523,0.003657001769170165,-0.0,0.0042341323569417
0.0056925551034510136,0.00801208894699812,-0.011164863593876362,0.0036452580243349075,-0.0,0.004882771987468004
0.005294877104461193,0.008240766823291779,-0.011133064515888691,0.0036941252183169127,-0.0,0.005175137426704168
0.005441660527139902,0.008471494540572166,-0.01131435390561819,0.004194666165858507,-0.0,0.005702612455934286
0.00500475661829114,0.008127324283123016,-0.011201530694961548,0.0039923060685396194,-0.0,0.005366272758692503
0.0049141873605549335,0.00760274613276124,-0.010842147283256054,0.0035224556922912598,-0.0,0.005131757352501154
0.0054260785691440105,0.008152017369866371,-0.011920912191271782,0.003393926192075014,-0.0,0.005006800405681133
0.005335398018360138,0.0083056865260005,-0.011437331326305866,0.0034916959702968597,-0.0,0.004796449560672045
0.005016426555812359,0.008110231719911098,-0.011167328804731369,0.003661604830995202,-0.0,0.005167406518012285
0.005216130055487156,0.008154031820595264,-0.011603995226323605,0.0036782710812985897,-0.0,0.0056476532481610775
0.0051727257668972015,0.008475936017930508,-0.01082309614866972,0.004072370007634163,-0.0,0.0052382308058440685
0.005326116923242807,0.00834632944315672,-0.011495263315737247,0.004102549981325865,-0.0,0.00508912606164813
0.005266929976642132,0.007633385248482227,-0.011557117104530334,0.0036351291928440332,-0.0,0.005066922400146723
0.005699180532246828,0.007716162595897913,-0.010762330144643784,0.003473524935543537,-0.0,0.005005904473364353
0.0053442553617060184,0.007845590822398663,-0.011536953039467335,0.00408906489610672,-0.0,0.005649038590490818
0.0053479671478271484,0.007817268371582031,-0.011003202758729458,0.004204299300909042,-0.0,0.005501268897205591
0.0056899916380643845,0.007767625153064728,-0.011247128248214722,0.004006651230156422,-0.0,0.0049527534283697605
0.00624953443184495,0.008156874217092991,-0.01093344297260046,0.004253183491528034,-0.0,0.005072959698736668
0.005603906698524952,0.00846171099692583,-0.010851508006453514,0.004139229655265808,-0.0,0.005281955469399691
0.005559025332331657,0.007466218434274197,-0.011228235438466072,0.0038004079833626747,-0.0,0.005247218068689108
0.0060677300207316875,0.007497986778616905,-0.011735978536307812,0.0037105833180248737,-0.0,0.005575601942837238
0.0060677300207316875,0.007497986778616905,-0.011735978536307812,0.0037105833180248737,-0.0,0.005575601942837238
0.005557631608098745,0.007392107974737883,-0.010585132986307144,0.00425419956445694,-0.0,0.0050165108405053616
0.005557631608098745,0.007392107974737883,-0.010585132986307144,0.00425419956445694,-0.0,0.0050165108405053616
0.005425873212516308,0.007337380200624466,-0.011827764101326466,0.004045034293085337,-0.0,0.005198525730520487
0.005618601571768522,0.007660678122192621,-0.01154946256428957,0.003878045128658414,-0.0,0.005208099726587534
0.005273445975035429,0.007718880660831928,-0.011212067678570747,0.0038045449182391167,-0.0,0.005109538324177265
0.005793690215796232,0.007328846491873264,-0.011173445731401443,0.004161817487329245,-0.0,0.005293900612741709
0.005987594835460186,0.007202854845672846,-0.010802136734127998,0.004023802932351828,-0.0,0.005160342901945114
0.006043894682079554,0.007478523999452591,-0.011354892514646053,0.0038285728078335524,-0.0,0.005563683342188597
0.005811379291117191,0.007576511707156897,-0.011004367843270302,0.004277681466192007,-0.0,0.0054172733798623085
0.005811379291117191,0.007576511707156897,-0.011004367843270302,0.004277681466192007,-0.0,0.0054172733798623085
0.005428135395050049,0.006918337196111679,-0.011751568876206875,0.00385561166331172,-4.1201406020263676e-07,0.005499808583408594
0.005968713667243719,0.007421158254146576,-0.011182943359017372,0.004087899811565876,-2.690157430151885e-08,0.0051284050568938255
0.0056168208830058575,0.007357656955718994,-0.011014040559530258,0.004316008184105158,-1.7564805165903863e-09,0.0052248639985919
0.005588310770690441,0.0069535574875772,-0.011902837082743645,0.004487534984946251,-1.1468563598793224e-10,0.0054261330515146255
0.005220399238169193,0.006670093629509211,-0.010634173639118671,0.004247281700372696,-7.488151591850123e-12,0.00600267993286252
0.005649179685860872,0.007141574751585722,-0.011760069988667965,0.003599365707486868,-4.889228128260314e-13,0.005820936523377895
0.006446956191211939,0.007339017000049353,-0.011232133023440838,0.003934345208108425,-3.1923167451500256e-14,0.005665919743478298
0.006236098241060972,0.0073308637365698814,-0.011002413928508759,0.004146133549511433,-2.0843547479226223e-15,0.005287739913910627
0.00615409342572093,0.006904027424752712,-0.011319823563098907,0.004044816829264164,-1.3609347184961808e-16,0.005311614368110895
0.005802353378385305,0.006727724801748991,-0.010862786322832108,0.004312844481319189,-8.885931482069246e-18,0.00517133716493845
0.005812649615108967,0.006906443275511265,-0.011240086518228054,0.004468856379389763,-5.801878420659321e-19,0.005062854383140802
0.0062095546163618565,0.006864925846457481,-0.011331479996442795,0.004197000991553068,-3.7882119094452514e-20,0.0056549725122749805
0.006021437700837851,0.006868730764836073,-0.010600459761917591,0.004363192245364189,-2.473431590246942e-21,0.005466734059154987
0.006254774518311024,0.006607723888009787,-0.011223969981074333,0.004201908130198717,-1.6149742205237117e-22,0.005340005271136761
0.005718192085623741,0.007204817142337561,-0.010840055532753468,0.0044325427152216434,-1.0544626411720553e-23,0.005169393960386515
0.005883278325200081,0.0066277822479605675,-0.010866890661418438,0.0037394408136606216,-6.884887581348257e-25,0.005014670547097921
0.006604942958801985,0.006529565900564194,-0.011413606815040112,0.003434982616454363,-4.495339583990282e-26,0.005542408209294081
0.006603112444281578,0.0065773408859968185,-0.01140818651765585,0.004196456633508205,-2.9351353389876247e-27,0.005565199535340071
0.005613651592284441,0.007482714951038361,-0.011087042279541492,0.004271579906344414,-1.2512942138401466e-29,0.005274785682559013
0.005613651592284441,0.007482714951038361,-0.011087042279541492,0.004271579906344414,-1.2512942138401466e-29,0.005274785682559013
0.005723161157220602,0.007436316926032305,-0.010958950035274029,0.003962484188377857,-8.170056254034277e-31,0.005563489161431789
0.006239043083041906,0.006941031664609909,-0.011657764203846455,0.004278674256056547,-5.334463305945415e-32,0.005676534958183765
0.006710767280310392,0.006494294386357069,-0.011109576560556889,0.004194898996502161,-3.4830231896070394e-33,0.0061436486430466175
0.006319990381598473,0.006797700189054012,-0.011371553875505924,0.00399825582280755,-2.2741653244547902e-34,0.00575227802619338
0.006070702336728573,0.007048642262816429,-0.011100025847554207,0.004306016024202108,-1.4848674743919244e-35,0.0059587410651147366
0.006584536284208298,0.006703679449856281,-0.010601971298456192,0.0042143575847148895,-9.69512444876711e-37,0.005733887664973736
0.006174101028591394,0.0068876552395522594,-0.011754394508898258,0.00404700543731451,-6.330223440663386e-38,0.005852087866514921
0.0063384464010596275,0.007588950917124748,-0.011311314068734646,0.003918477799743414,-4.1331844711661566e-39,0.0065045407973229885
0.006413132417947054,0.007026092614978552,-0.011882301419973373,0.003949702251702547,-2.6986766345353057e-40,0.006573306396603584
0.006526467390358448,0.007241794373840094,-0.011758379638195038,0.003946553450077772,-1.761992689042025e-41,0.005710409488528967
0.006459311582148075,0.006926222704350948,-0.01165982149541378,0.004556109197437763,-7.567011707354012e-44,0.00547522958368063
0.0069513339549303055,0.007077744696289301,-0.011262482032179832,0.004652870818972588,-5.605193857299268e-45,0.005929484963417053
0.0069513339549303055,0.007077744696289301,-0.011262482032179832,0.004652870818972588,-5.605193857299268e-45,0.005929484963417053
0.006158336531370878,0.0067523629404604435,-0.010949872434139252,0.004282413516193628,-0.0,0.00602020975202322
0.006043582689017057,0.0067183151841163635,-0.011030484922230244,0.003882053541019559,-0.0,0.005688702687621117
0.006689576897770166,0.006995605304837227,-0.010919436812400818,0.004184349440038204,-0.0,0.005715950857847929
0.006851001176983118,0.007328012026846409,-0.011356260627508163,0.004202720709145069,-0.0,0.0059187449514865875
0.006546353455632925,0.006894958671182394,-0.010935247875750065,0.0044253915548324585,-0.0,0.005992291960865259
0.006531514693051577,0.006427465006709099,-0.01079039741307497,0.004836388863623142,-0.0,0.006029941141605377
0.006744364742189646,0.006516058463603258,-0.011267619207501411,0.004517085384577513,-0.0,0.0059796408750116825
0.006991930305957794,0.007151514757424593,-0.010980877093970776,0.004082440864294767,-0.0,0.006069612223654985
0.007049471605569124,0.006998589728027582,-0.011071015149354935,0.00421375734731555,-0.0,0.006117676850408316
0.006780827417969704,0.006856375373899937,-0.011216937564313412,0.0041333697736263275,-0.0,0.00613600667566061
0.007270876318216324,0.00663586612790823,-0.011634950526058674,0.0039949375204741955,-0.0,0.006150511093437672
0.006929765455424786,0.00716504966840148,-0.011574732139706612,0.003973470069468021,-0.0,0.006055878009647131
0.006882139947265387,0.0072272662073373795,-0.011327902786433697,0.004251575097441673,-0.0,0.006144896615296602
0.006830375175923109,0.006616673432290554,-0.01120872050523758,0.004629733040928841,-0.0,0.005992511752992868
0.007206512149423361,0.007043799385428429,-0.011383598670363426,0.004334544762969017,-0.0,0.006445646286010742
0.007206512149423361,0.007043799385428429,-0.011383598670363426,0.004334544762969017,-0.0,0.006445646286010742
0.0069955335929989815,0.0073798345401883125,-0.011790943332016468,0.004041002131998539,-0.0,0.0057914601638913155
0.007362955249845982,0.006914711091667414,-0.011341284960508347,0.004070505499839783,-0.0,0.005792809184640646
0.006996737327426672,0.006415467243641615,-0.011272954754531384,0.004168190062046051,-0.0,0.006017185747623444
0.0072197383269667625,0.006685154978185892,-0.012064930982887745,0.0040959566831588745,-0.0,0.006308224052190781
0.007388870231807232,0.007147643715143204,-0.011335854418575764,0.004288930911570787,-0.0,0.006060836836695671
0.0074420226737856865,0.007041480392217636,-0.011902574449777603,0.004481832031160593,-0.0,0.00573649862781167
0.006813384592533112,0.006771792657673359,-0.011561812832951546,0.004460107535123825,-0.0,0.006371723487973213
0.0071234432980418205,0.007168464362621307,-0.011145621538162231,0.004585007671266794,-0.0,0.006693794392049313
0.008129813708364964,0.007116664666682482,-0.011982817202806473,0.004418503493070602,-0.0,0.006107795983552933
0.007076343521475792,0.007387413177639246,-0.0119062140583992,0.004391522146761417,-0.0,0.005741753615438938
0.0070547680370509624,0.006541743874549866,-0.012172960676252842,0.004602379631251097,-0.0,0.005402172915637493
0.007385168224573135,0.00632471451535821,-0.011362901888787746,0.004691538400948048,-0.0,0.00570688396692276
0.007113371975719929,0.006886490620672703,-0.011672758497297764,0.0048528932966291904,-0.0,0.00607295660302043
0.006924156099557877,0.00689332140609622,-0.011847148649394512,0.004748078994452953,-0.0,0.006728160660713911
0.006950511131435633,0.0065323663875460625,-0.011379953473806381,0.004307679366320372,-0.0,0.0063643138855695724
0.007305488921701908,0.00653099175542593,-0.012316637672483921,0.003865577280521393,-0.0,0.00634220615029335
0.0073117101565003395,0.006575859617441893,-0.012323391623795033,0.00428232504054904,-0.0,0.006255448330193758
0.007050430867820978,0.006992559414356947,-0.01224308181554079,0.004826806485652924,-0.0,0.0065841213800013065
0.007204621564596891,0.007163591682910919,-0.011927507817745209,0.004982908256351948,-0.0,0.007066536229103804
0.0076774777844548225,0.006926414556801319,-0.011508791707456112,0.0050059230998158455,-0.0,0.006851694546639919
0.007786913309246302,0.006319988984614611,-0.012325725518167019,0.004429243970662355,-0.0,0.006276166066527367
0.007208128925412893,0.006672623101621866,-0.012287477031350136,0.00395367294549942,-0.0,0.006509894039481878
0.007308964617550373,0.0070222364738583565,-0.012502435594797134,0.00428640516474843,-0.0,0.006878255400806665
0.007308964617550373,0.0070222364738583565,-0.012502435594797134,0.00428640516474843,-0.0,0.006878255400806665
0.007583642844110727,0.007092617452144623,-0.01217945758253336,0.004960349295288324,-0.0,0.006529869977384806
0.0073037585243582726,0.006504844408482313,-0.011779576539993286,0.005171267315745354,-0.0,0.006316017359495163
0.007241843268275261,0.006784806028008461,-0.011559508740901947,0.004575804807245731,-0.0,0.006440109573304653
0.008025268092751503,0.006777983624488115,-0.013130683451890945,0.004473182372748852,-0.0,0.006976259406656027
0.0079731410369277,0.006942677777260542,-0.011896382085978985,0.004195090848952532,-0.0,0.006922864820808172
0.0077507104724645615,0.006298283115029335,-0.012226881459355354,0.0039416030049324036,-0.0,0.0066847363486886024
0.007102543953806162,0.006485693156719208,-0.012336012907326221,0.004353934433311224,-0.0,0.0065254163928329945
0.007913589477539062,0.006587779615074396,-0.011629483662545681,0.00494828075170517,-3.3355692721670493e-05,0.006552182603627443
0.00791914016008377,0.006335507147014141,-0.012321016751229763,0.005060811061412096,-5.341821815818548e-05,0.006791269406676292
0.007956674322485924,0.006417722906917334,-0.011855348944664001,0.004640677943825722,-5.411144593381323e-05,0.006816013716161251
0.007271778304129839,0.006270997226238251,-0.011746739037334919,0.00438736192882061,-5.3554700571112335e-05,0.006691041402518749
0.007371197920292616,0.006864082533866167,-0.011330652050673962,0.004447396844625473,-5.2930499805370346e-05,0.007433911319822073
0.007549997419118881,0.0068891956470906734,-0.010883787646889687,0.004486505873501301,-5.231551403994672e-05,0.00696084089577198
0.00782915111631155,0.006681061815470457,-0.011379355564713478,0.004807626362890005,-5.171431985218078e-05,0.006596582941710949
0.007423863746225834,0.006329828407615423,-0.011346193961799145,0.0046933433040976524,-5.112678627483547e-05,0.006526947021484375
0.008269920013844967,0.00644823769107461,-0.01068885251879692,0.004795074462890625,-5.055241854279302e-05,0.0065680197440087795
0.007473760284483433,0.006858397275209427,-0.012382546439766884,0.004753189627081156,-4.999084922019392e-05,0.007090671919286251
0.007474789395928383,0.0070279547944664955,-0.011722088791429996,0.004495811183005571,-1.270333359570941e-05,0.006680096033960581
0.008121989667415619,0.006871195510029793,-0.011683928780257702,0.0046234396286308765,-8.294368285532983e-07,0.006539528723806143
0.008584859780967236,0.0071792337112128735,-0.011015011928975582,0.005103590898215771,-5.4156295448137826e-08,0.006649634800851345
0.007863108068704605,0.00739556597545743,-0.01222666259855032,0.005351328756660223,-3.5360192551792125e-09,0.007100299000740051
0.007823960855603218,0.00744158960878849,-0.01208562683314085,0.004788670688867569,-2.3087678990840743e-10,0.007382539100944996
0.007757809478789568,0.006659498903900385,-0.011716349050402641,0.004551198333501816,-1.5074604758913424e-11,0.007523803971707821
0.008113125339150429,0.007123665418475866,-0.011073814705014229,0.004583036061376333,-6.42653993714569e-14,0.007548582274466753
0.008265919983386993,0.0070731970481574535,-0.011530263349413872,0.00472673587501049,-4.196071624656874e-15,0.006905104964971542
0.007923020981252193,0.007044100668281317,-0.01148722879588604,0.004688373301178217,-2.739734950036731e-16,0.006623635068535805
0.007923020981252193,0.007044100668281317,-0.01148722879588604,0.004688373301178217,-2.739734950036731e-16,0.006623635068535805
0.00817299634218216,0.006802741438150406,-0.011489304713904858,0.0052962233312428,-1.788851197412072e-17,0.006905434653162956
0.008125306107103825,0.007413952145725489,-0.01233096793293953,0.005345718469470739,-1.1679921564170994e-18,0.007041266653686762
0.008136872202157974,0.006818926427513361,-0.012305906042456627,0.0054293470457196236,-7.626154175811132e-20,0.007339269854128361
0.00830021221190691,0.00667596235871315,-0.011750692501664162,0.005616143345832825,-4.979334058504425e-21,0.007294220384210348
0.008649985305964947,0.006664766930043697,-0.011330647394061089,0.006089739967137575,-3.251149235647419e-22,0.007343382108956575
0.008541653864085674,0.006943641696125269,-0.01138985063880682,0.005678518209606409,-2.12276837128111e-23,0.007381018251180649
0.00848335213959217,0.007058014161884785,-0.01229863427579403,0.005234152544289827,-1.3860160873064474e-24,0.007483509369194508
0.008700691163539886,0.006841855589300394,-0.011583399027585983,0.005129058379679918,-9.049693359262082e-26,0.007566714193671942
0.008596313185989857,0.007358854170888662,-0.012058692052960396,0.004890631418675184,-5.908803143558594e-27,0.007671539206057787
0.008256855420768261,0.00673329783603549,-0.011835412122309208,0.0053820232860744,-3.8580259942326705e-28,0.007147882133722305
0.008837787434458733,0.007072457578033209,-0.011839901097118855,0.005384410731494427,-2.5190152559364242e-29,0.007323446683585644
0.008494187146425247,0.006751764100044966,-0.011557023972272873,0.005331375636160374,-1.6447368374219503e-30,0.007459631189703941
0.008342701941728592,0.007042665500193834,-0.011347068473696709,0.005033453926444054,-1.0738956687841067e-31,0.007057446055114269
0.008822793141007423,0.007015794049948454,-0.012492412701249123,0.004783245734870434,-7.011771640093127e-33,0.00693894550204277
0.009134951047599316,0.00733210239559412,-0.011492743156850338,0.00473169656470418,-8.044917194638401e-05,0.007407808676362038
0.008609015494585037,0.007223508320748806,-0.012038027867674828,0.005120737943798304,-0.0001248801709152758,0.007995248772203922
0.008514933288097382,0.006789457518607378,-0.01241562981158495,0.005189076531678438,-0.0001244728046003729,0.008159377612173557
0.008877100422978401,0.006442386191338301,-0.011971584521234035,0.0049827974289655685,-0.0001213159630424343,0.007893234491348267
0.009001843631267548,0.0067466851323843,-0.011969163082540035,0.004764957819133997,-0.00011814395111287013,0.0077218301594257355
0.009004104882478714,0.00720110721886158,-0.01187397912144661,0.005096870008856058,-0.00011512185301398858,0.00759992515668273
0.008559025824069977,0.006634546909481287,-0.012673694640398026,0.005024396348744631,-0.00013174492050893605,0.007926967926323414
0.008612900972366333,0.006710502784699202,-0.011515776626765728,0.005719235632568598,-0.00012828670151066035,0.0077215395867824554
0.008612900972366333,0.006710502784699202,-0.011515776626765728,0.005719235632568598,-0.00012828670151066035,0.0077215395867824554
0.009220613166689873,0.006500816438347101,-0.011600707657635212,0.005569847300648689,-0.00012247898848727345,0.008321074768900871
0.009220613166689873,0.006500816438347101,-0.011600707657635212,0.005569847300648689,-0.00012247898848727345,0.008321074768900871
0.008695872500538826,0.0069574094377458096,-0.012632062658667564,0.005079897120594978,-0.00013538800703827292,0.00902673602104187
0.008695872500538826,0.0069574094377458096,-0.012632062658667564,0.005079897120594978,-0.00013538800703827292,0.00902673602104187
0.00900389812886715,0.007593611720949411,-0.012061715126037598,0.0058458419516682625,-0.00013370320084504783,0.00833403505384922
0.009093125350773335,0.006944792810827494,-0.012052956037223339,0.005900579504668713,-0.00013100077921990305,0.007424315437674522
0.008738404139876366,0.006287396419793367,-0.011357917450368404,0.005768719129264355,-0.00014544920122716576,0.00799831748008728
0.009414572268724442,0.006325993221253157,-0.012093191035091877,0.005640189629048109,-0.00014366321556735784,0.008291526697576046
0.009206200949847698,0.006866064388304949,-0.01179002970457077,0.005455539561808109,-0.0001409243996022269,0.008334768936038017
0.0092356838285923,0.006913200486451387,-0.012522118166089058,0.005691367667168379,-0.00019133496971335262,0.00868269708007574
0.00922789890319109,0.006465748883783817,-0.012294057756662369,0.005889223422855139,-0.00023157837858889252,0.008724108338356018
0.010051405988633633,0.006505351047962904,-0.01169629953801632,0.006335461046546698,-0.00022335886023938656,0.008819656446576118
0.009124716743826866,0.006606368348002434,-0.011896390467882156,0.005831392016261816,-0.0002129977074218914,0.009014210663735867
0.009651152417063713,0.006702674552798271,-0.012246254831552505,0.005864075385034084,-0.0002033825876424089,0.008274930529296398
0.009799418039619923,0.006558649707585573,-0.012234692461788654,0.005462185945361853,-0.00021361444669310004,0.00798125471919775
0.009367315098643303,0.0062652211636304855,-0.012288195081055164,0.005461385473608971,-0.00022252477356232703,0.00821181945502758
0.009507689625024796,0.006737909279763699,-0.012822858989238739,0.005523835774511099,-0.00021482953161466867,0.008472518995404243
0.010063836351037025,0.006508167367428541,-0.012338965199887753,0.005253259092569351,-0.00020668143406510353,0.008489382453262806
0.009465018287301064,0.007083968259394169,-0.011527891270816326,0.005601865239441395,-0.00019906568923033774,0.008781090378761292
0.009369555860757828,0.006402327213436365,-0.012300827540457249,0.0055707222782075405,-0.0001919876376632601,0.008448859676718712
0.00968161690980196,0.006195160560309887,-0.01174472738057375,0.006048837676644325,-0.00018539532902650535,0.008589018136262894
0.009563074447214603,0.006502686534076929,-0.01283169537782669,0.006095654796808958,-0.0002013517078012228,0.008557921275496483
0.00958992913365364,0.006538331974297762,-0.01228141225874424,0.005892413668334484,-0.0002018884988501668,0.008362042717635632
0.009942134842276573,0.0067776041105389595,-0.012038161046802998,0.006088220048695803,-0.00019606188288889825,0.008604472503066063
0.009757652878761292,0.006408298388123512,-0.012337284162640572,0.006017303094267845,-0.00019017289741896093,0.00869402103126049
0.010640397667884827,0.006516278255730867,-0.011747929267585278,0.006456882692873478,-0.00018460208957549185,0.008849747478961945
0.010168279521167278,0.006161197554320097,-0.01284267008304596,0.006653241813182831,-0.00017934641800820827,0.008758177980780602
0.010449931025505066,0.0068355463445186615,-0.012544259428977966,0.006734559312462807,-0.0001696846156846732,0.009048759005963802
0.010449931025505066,0.0068355463445186615,-0.012544259428977966,0.006734559312462807,-0.0001696846156846732,0.009048759005963802
0.010070151649415493,0.006054606754332781,-0.01218406856060028,0.007198215927928686,-0.00018725580594036728,0.009104897268116474
0.009284223429858685,0.006174434907734394,-0.01205720379948616,0.006511414423584938,-0.00018390898185316473,0.008787302300333977
0.009864671155810356,0.006612021941691637,-0.01261421199887991,0.006086787208914757,-0.00017941957048606128,0.008835733868181705
0.010333745740354061,0.006672884337604046,-0.011584697291254997,0.005583631340414286,-0.00018892405205406249,0.009038686752319336
0.009729588404297829,0.006336337421089411,-0.01274715457111597,0.005344900768250227,-0.00018589600222185254,0.009048109874129295
0.010127282701432705,0.006123858969658613,-0.012421290390193462,0.005187356844544411,-0.00017881998792290688,0.009336072951555252
0.011137882247567177,0.0066705746576189995,-0.012622770853340626,0.005885440390557051,-0.0001974434417206794,0.009077969007194042
0.010122847743332386,0.006877248175442219,-0.012636197730898857,0.005731403827667236,-0.00019822137255687267,0.009549868293106556
0.010097858496010303,0.006602567154914141,-0.012315022759139538,0.006261975504457951,-0.00019170819723512977,0.009509652853012085
0.01029328815639019,0.00622252793982625,-0.012531169690191746,0.0058698346838355064,-0.00018516795535106212,0.009237159974873066
0.010349662974476814,0.00647745793685317,-0.01193614024668932,0.0058824908919632435,-0.00020685349591076374,0.009224307723343372
0.010043621994554996,0.005921360105276108,-0.012973083183169365,0.006361837964504957,-0.0002020337851718068,0.009507929906249046
0.009955300018191338,0.006552452687174082,-0.012507488019764423,0.005896734539419413,-0.00019587049609981477,0.00937478244304657
0.009893725626170635,0.006410804111510515,-0.012745138257741928,0.006341126747429371,-0.00021528334764298052,0.0091530941426754
0.010437514632940292,0.006616207771003246,-0.012593132443726063,0.006763662211596966,-0.00021063572785351425,0.009748830460011959
0.009993419982492924,0.006248174700886011,-0.012861314229667187,0.007032335270196199,-0.00020475313067436218,0.009592150337994099
0.009665311314165592,0.006603233516216278,-0.012621340341866016,0.006774224806576967,-0.00019909781985916197,0.009251076728105545
0.010310515761375427,0.006430818233639002,-0.012178010307252407,0.006466275546699762,-0.00027998752193525434,0.00900459848344326
0.010114770382642746,0.006061478517949581,-0.012859197333455086,0.006344924680888653,-0.00029000540962442756,0.009497623890638351
0.009855027310550213,0.0063093570061028,-0.012517794966697693,0.0062994821928441525,-0.0002741677453741431,0.00915906298905611
0.010496458038687706,0.006833935156464577,-0.012706294655799866,0.006823285017162561,-0.00025852947146631777,0.009508628398180008
0.010118708945810795,0.006952338851988316,-0.012391064316034317,0.006724103819578886,-0.00024448579642921686,0.009600060060620308
0.010030928067862988,0.006648094393312931,-0.012583097442984581,0.006602561101317406,-0.00023188343038782477,0.0094901816919446
0.010030928067862988,0.006648094393312931,-0.012583097442984581,0.006602561101317406,-0.00023188343038782477,0.0094901816919446
0.009836670942604542,0.006754168309271336,-0.013274210505187511,0.006504914723336697,-0.00024096928245853633,0.009753000922501087
0.009836670942604542,0.006754168309271336,-0.013274210505187511,0.006504914723336697,-0.00024096928245853633,0.009753000922501087
0.010130920447409153,0.0065396432764828205,-0.012990361079573631,0.00664539635181427,-0.00022124224051367491,0.009417393244802952
0.010130920447409153,0.0065396432764828205,-0.012990361079573631,0.00664539635181427,-0.00022124224051367491,0.009417393244802952
0.01000008825212717,0.006439809687435627,-0.012235320173203945,0.006717688404023647,-0.00024324009427800775,0.009287621825933456
0.010521206073462963,0.006575965788215399,-0.012873204424977303,0.006860011722892523,-0.00023825721291359514,0.01106308214366436
0.009598644450306892,0.006709660403430462,-0.012618660926818848,0.006772866938263178,-0.00022983872622717172,0.009974725544452667
0.010240750387310982,0.006570784840732813,-0.012630181387066841,0.006602216046303511,-0.00022176523634698242,0.00920161884278059
0.010051215998828411,0.006310307886451483,-0.012645496055483818,0.006608540657907724,-0.00021422392455860972,0.009655998088419437
0.009629586711525917,0.006456844974309206,-0.012221663258969784,0.00685048708692193,-0.00020717897859867662,0.010255767963826656
0.010246869176626205,0.006570359226316214,-0.012747282162308693,0.007216844242066145,-0.00020058182417415082,0.01020258478820324
0.01012642402201891,0.006551232188940048,-0.012441309168934822,0.007220725063234568,-0.0002080142148770392,0.010401166044175625
0.009765262715518475,0.006182946730405092,-0.012954962439835072,0.006543691735714674,-0.00021458775154314935,0.010118609294295311
0.010435952804982662,0.00606727646663785,-0.012807722203433514,0.006583632901310921,-0.00020918821974191815,0.010711326263844967
0.01050538569688797,0.0061028185300529,-0.012909937649965286,0.007099897600710392,-0.0002033342607319355,0.01044596079736948
0.010151175782084465,0.006334199570119381,-0.012892690487205982,0.006975548807531595,-0.00019775253895204514,0.009914151392877102
0.01022837683558464,0.00671349186450243,-0.012175433337688446,0.006651714444160461,-0.00019246607553213835,0.01005826611071825
0.010641871951520443,0.006424902472645044,-0.012733221985399723,0.006583670154213905,-0.0001874550653155893,0.010407217778265476
0.010038711130619049,0.006027804687619209,-0.012136789970099926,0.006747196428477764,-0.000182698160642758,0.010743374936282635
0.01037444919347763,0.006126430816948414,-0.013030598871409893,0.0071462588384747505,-0.00017817679326981306,0.010511167347431183
0.010496824979782104,0.006601346656680107,-0.012325676158070564,0.006845882628113031,-0.00016667775344103575,0.010706127621233463
0.010389693081378937,0.006430058274418116,-0.012884638272225857,0.006667934823781252,-0.0001587261795066297,0.010187354870140553
0.01248565036803484,0.006106338929384947,-0.012598915956914425,0.006743799429386854,-0.00015318667283281684,0.010195671580731869
0.012379147112369537,0.006487629376351833,-0.012266688048839569,0.007329606916755438,-0.00014813445159234107,0.010233556851744652
0.011883584782481194,0.006710195913910866,-0.012617344036698341,0.007441896479576826,-0.00014341235510073602,0.009735706262290478
0.011910369619727135,0.007530183997005224,-0.01253519393503666,0.006583149079233408,-0.00013898253382649273,0.0099879065528512
0.011867444030940533,0.006579674314707518,-0.013129683211445808,0.006579729728400707,-0.0001348184741800651,0.010016865096986294
0.012057210318744183,0.006357297301292419,-0.012482360936701298,0.006803232245147228,-0.00013089622370898724,0.010313489474356174
0.012159882113337517,0.006306948605924845,-0.012532051652669907,0.007142335642129183,-0.00014604171155951917,0.010026059113442898
0.012621900998055935,0.0070779453963041306,-0.012462109327316284,0.006937618367373943,-0.00014800885401200503,0.009900392033159733
0.011656813323497772,0.006729385815560818,-0.012538893148303032,0.00668379059061408,-0.00014443983673118055,0.010017696768045425
0.01255201268941164,0.006503414828330278,-0.01234779879450798,0.0069459970109164715,-0.00013712998770643026,0.00981469638645649
0.012361666187644005,0.006768796127289534,-0.012965450063347816,0.006620131898671389,-0.00015308901492971927,0.009906203486025333
0.012361666187644005,0.006768796127289534,-0.012965450063347816,0.006620131898671389,-0.00015308901492971927,0.009906203486025333
0.012479432858526707,0.006228458136320114,-0.012863908894360065,0.007361052557826042,-0.00014864662080071867,0.010069225914776325
0.012479432858526707,0.006228458136320114,-0.012863908894360065,0.007361052557826042,-0.00014864662080071867,0.010069225914776325
0.012582385912537575,0.005962085444480181,-0.012494768016040325,0.007005175109952688,-0.00014195927360560745,0.010340251959860325
0.012582385912537575,0.005962085444480181,-0.012494768016040325,0.007005175109952688,-0.00014195927360560745,0.010340251959860325
0.01294552069157362,0.006229563616216183,-0.0127908019348979,0.007269344292581081,-0.00013883097562938929,0.010511144995689392
0.01303536631166935,0.006619616411626339,-0.01225141528993845,0.007744805421680212,-0.00013583738473244011,0.010377148166298866
0.012919372878968716,0.006635208148509264,-0.012787742540240288,0.007725108414888382,-0.0001329703809460625,0.01058224868029356
0.012839303351938725,0.0061759548261761665,-0.011967768892645836,0.0071055032312870026,-0.0001475843891967088,0.010544300079345703
0.012695162557065487,0.006382091902196407,-0.01261642575263977,0.007164670620113611,-0.0001457296748412773,0.010938472114503384
0.012727772817015648,0.0067443400621414185,-0.012341306544840336,0.007938751950860023,-0.0001429113035555929,0.010352020151913166
0.012395226396620274,0.006450932007282972,-0.01222588773816824,0.00799877941608429,-0.00014013465261086822,0.010831264778971672
0.012771167792379856,0.0062405201606452465,-0.012795085087418556,0.007705925032496452,-0.0001374592975480482,0.011319120414555073
0.012601939961314201,0.0065859644673764706,-0.012357530184090137,0.0074108862318098545,-0.00016065505042206496,0.011236499063670635
0.012852874584496021,0.006200638599693775,-0.012318240478634834,0.007443686947226524,-0.0001632738276384771,0.011050338856875896
0.012745465151965618,0.006523066200315952,-0.01227019913494587,0.00741926534101367,-0.00015808912576176226,0.0109756113961339
0.01305062510073185,0.006406707223504782,-0.012723292224109173,0.007341906428337097,-0.000152758409967646,0.011047138832509518
0.013177253305912018,0.005596242845058441,-0.012794195674359798,0.007290604058653116,-0.0001733801036607474,0.011701243929564953
0.01281086914241314,0.004942094441503286,-0.012637416832149029,0.007369101047515869,-0.00017140212003141642,0.011738373897969723
0.01315245684236288,0.004363181069493294,-0.013059533201158047,0.007639242336153984,-0.0001663513685343787,0.011443297378718853
0.012708568014204502,0.004966699983924627,-0.012327758595347404,0.007599781267344952,-0.0001864827936515212,0.012514883652329445
0.013057130388915539,0.005600869655609131,-0.013305095955729485,0.0075005232356488705,-0.00018271147564519197,0.01110632810741663
0.012838837690651417,0.005094618536531925,-0.01270018145442009,0.0076705594547092915,-0.00019969750428572297,0.011145154014229774
0.01321549154818058,0.005286444444209337,-0.013224554248154163,0.007575402967631817,-0.00019726592290680856,0.011500955559313297
0.01275020744651556,0.005520426202565432,-0.012836095876991749,0.0078174639493227,-0.00028763766749762,0.011629652231931686
0.012928207404911518,0.005050671752542257,-0.01331293024122715,0.007624541409313679,-0.00038907569251023233,0.011553337797522545
0.013265985064208508,0.00514685595408082,-0.013052537105977535,0.007890529930591583,-0.0004032566212117672,0.011875356547534466
0.013163089752197266,0.005287020932883024,-0.013573376461863518,0.007969718426465988,-0.000405178579967469,0.012205246835947037
0.013104249723255634,0.005536628421396017,-0.013442140072584152,0.00781969353556633,-0.00042264407966285944,0.012158896774053574
0.013505167327821255,0.00515705207362771,-0.013390409760177135,0.008255403488874435,-0.0004111983871553093,0.01257104892283678
0.01284741424024105,0.00540513452142477,-0.013603311963379383,0.007866015657782555,-0.000501289265230298,0.01204436644911766
0.01284741424024105,0.00540513452142477,-0.013603311963379383,0.007866015657782555,-0.000501289265230298,0.01204436644911766
0.013047398068010807,0.005265788175165653,-0.013868450187146664,0.007799706421792507,-0.0005448549054563046,0.01193199772387743
0.013216977007687092,0.004866448231041431,-0.013293328694999218,0.007633617613464594,-0.0005833820323459804,0.011647984385490417
0.013663385063409805,0.004730298183858395,-0.013720786198973656,0.006519385613501072,-0.0005322326323948801,0.011887481436133385
0.013388879597187042,0.005225475877523422,-0.013235587626695633,0.0074434042908251286,-0.0005238241865299642,0.012066501192748547
0.0138374213129282,0.00508413789793849,-0.013777767308056355,0.0073610153049230576,-0.0005162720335647464,0.011649039573967457
0.01379843708127737,0.005435479339212179,-0.013447570614516735,0.007678948808461428,-0.00047929215361364186,0.012077615596354008
0.014017047360539436,0.005124871619045734,-0.013929053209722042,0.007901572622358799,-0.00044552329927682877,0.011924345046281815
0.013958814553916454,0.005285401828587055,-0.013518975116312504,0.008100907318294048,-0.0004713739617727697,0.012369731441140175
0.013835623860359192,0.005433304701000452,-0.014048829674720764,0.008210279047489166,-0.0004457839531823993,0.012773062102496624
0.01410232950001955,0.00519631477072835,-0.013569124974310398,0.008921196684241295,-0.0004332632233854383,0.012838562950491905
0.014112007804214954,0.005310330539941788,-0.013637656345963478,0.009112419560551643,-0.00040117805474437773,0.012959211133420467
0.013630700297653675,0.0051818895153701305,-0.013082491233944893,0.008100220933556557,-0.0004372108378447592,0.012551234103739262
0.013926642946898937,0.005798617377877235,-0.013678899966180325,0.007782416883856058,-0.00040860570152290165,0.012610860168933868
0.01394910179078579,0.00532997353002429,-0.013676784001290798,0.008548242971301079,-0.00042669172398746014,0.012494347058236599
0.013893567956984043,0.004991482477635145,-0.01362878829240799,0.008811271749436855,-0.00041321400203742087,0.012730328366160393
0.01422813069075346,0.005236727651208639,-0.013916905969381332,0.008087465539574623,-0.0003886606718879193,0.012681673280894756
0.014209111221134663,0.005534679163247347,-0.013437563553452492,0.008599304594099522,-0.00041136491927318275,0.013017631135880947
0.014595290645956993,0.005979957990348339,-0.013527482748031616,0.008445028215646744,-0.0003949816746171564,0.013044366613030434
0.014631319791078568,0.005473523400723934,-0.013383896090090275,0.008436314761638641,-0.00042624271009117365,0.013113654218614101
0.014672919176518917,0.005221114493906498,-0.01384857576340437,0.008445502258837223,-0.0004341465828474611,0.013447467237710953
0.014306075870990753,0.0053049796260893345,-0.012812699191272259,0.008323726244270802,-0.00047295476542785764,0.01311925146728754
0.014990357682108879,0.005584763828665018,-0.013883243314921856,0.008358284831047058,-0.0004932660376653075,0.013019812293350697
0.014576421119272709,0.005593476817011833,-0.013759609311819077,0.008546881377696991,-0.0005019123200327158,0.012982333078980446
0.014909720979630947,0.005102763883769512,-0.01367159653455019,0.008806858211755753,-0.000648953951895237,0.012733005918562412
0.014850465580821037,0.00530963996425271,-0.014170880429446697,0.008754223585128784,-0.000710046966560185,0.013072441332042217
0.015001832507550716,0.005659869406372309,-0.013163969852030277,0.00821119174361229,-0.0007077036425471306,0.012698194943368435
0.015522518195211887,0.006026084069162607,-0.013927477411925793,0.008860927075147629,-0.0006800559349358082,0.012848694808781147
0.015522518195211887,0.006026084069162607,-0.013927477411925793,0.008860927075147629,-0.0006800559349358082,0.012848694808781147
0.015402520075440407,0.005917554255574942,-0.01374177634716034,0.008985345251858234,-0.0006924616172909737,0.013171980157494545
0.014982197433710098,0.006032933015376329,-0.014103320427238941,0.008138654753565788,-0.0007223800639621913,0.014384177513420582
0.01546473242342472,0.005473725963383913,-0.013542047701776028,0.00819514412432909,-0.0007599767995998263,0.013559707440435886
0.015401726588606834,0.005944840610027313,-0.013798626139760017,0.008654449135065079,-0.0007796596037223935,0.012583904899656773
0.01576436683535576,0.00579318031668663,-0.014205132611095905,0.008516046218574047,-0.0007429639808833599,0.013006259687244892
0.015197878703474998,0.006147501524537802,-0.014286470599472523,0.008077990263700485,-0.0007562088430859149,0.013142588548362255
0.016100291162729263,0.005955497268587351,-0.013829940930008888,0.00862125214189291,-0.0008536299574188888,0.013488514348864555
0.015714086592197418,0.005346711724996567,-0.013788308016955853,0.009095510467886925,-0.00074224011041224,0.013184537179768085
0.016174988821148872,0.005856979172676802,-0.01388462819159031,0.008798564784228802,-0.0007477893959730864,0.013534748926758766
0.015526646748185158,0.005736339371651411,-0.013787600211799145,0.009562619961798191,-0.0006697180797345936,0.013371845707297325
0.015620964579284191,0.0062726158648729324,-0.014007377438247204,0.008931613527238369,-0.0005965611198917031,0.01347112376242876
0.01567990332841873,0.005688550882041454,-0.0136594632640481,0.008503837510943413,-0.0005371847655624151,0.01344298105686903
0.015826065093278885,0.005849163047969341,-0.013959009200334549,0.008890016935765743,-0.0005481530679389834,0.013435457833111286
0.016338134184479713,0.0057205152697861195,-0.014024033211171627,0.009143577888607979,-0.0005211940733715892,0.013275963254272938
0.015759548172354698,0.006082713138312101,-0.014227181673049927,0.009189423173666,-0.00048245684592984617,0.013411464169621468
0.016243230551481247,0.006251866463571787,-0.013589783571660519,0.008921640925109386,-0.0004481866490095854,0.013891137205064297
0.01595775969326496,0.0063462890684604645,-0.013621488586068153,0.009549589827656746,-0.00041840883204713464,0.013660307042300701
0.01618841104209423,0.0059368787333369255,-0.013310345821082592,0.009270168840885162,-0.0003923362819477916,0.01345514040440321
0.015820521861314774,0.006121553014963865,-0.01434360258281231,0.009058071300387383,-0.00036932536750100553,0.013361727818846703
0.016298314556479454,0.00588474003598094,-0.013819283805787563,0.008899315260350704,-0.00038560538087040186,0.013938752934336662
0.016262266784906387,0.006315591279417276,-0.014133825898170471,0.008904235437512398,-0.0003769204195123166,0.01379374973475933
0.016026662662625313,0.0058923810720443726,-0.013575340621173382,0.008875608444213867,-0.0003588807594496757,0.013857602141797543
0.016478125005960464,0.005770694464445114,-0.014265515841543674,0.009839100763201714,-0.00034188354038633406,0.013649839907884598
0.01599486917257309,0.00597249623388052,-0.013556607998907566,0.009695063345134258,-0.00032638508128002286,0.01391866896301508
0.016503281891345978,0.0064394548535346985,-0.01370935421437025,0.009267021901905537,-0.000299247563816607,0.014105518348515034
0.016431298106908798,0.006085538771003485,-0.014530392363667488,0.009327308274805546,-0.0002873048360925168,0.014011576771736145
0.016704309731721878,0.005703544709831476,-0.013896468095481396,0.009148545563220978,-0.0002762781805358827,0.014332898892462254
0.016704309731721878,0.005703544709831476,-0.013896468095481396,0.009148545563220978,-0.0002762781805358827,0.014332898892462254
0.01677657663822174,0.006245551165193319,-0.01416991651058197,0.009627429768443108,-0.0002660674217622727,0.01417232770472765
0.01702498272061348,0.006397564895451069,-0.013911794871091843,0.009616591967642307,-0.0002247598604299128,0.014334478415548801
0.01664946973323822,0.0070876567624509335,-0.014617920853197575,0.009584968909621239,-0.00018555841234046966,0.014202439226210117
0.017055487260222435,0.006093733943998814,-0.014264226891100407,0.009733199141919613,-0.0001763270702213049,0.014386963099241257
0.016980258747935295,0.006367150694131851,-0.014906292781233788,0.009616033174097538,-0.0001695540122454986,0.014417256228625774
0.01669905334711075,0.006110739428550005,-0.01383132953196764,0.009326387196779251,-0.00016338832210749388,0.014765756204724312
0.017016850411891937,0.0065913125872612,-0.014715065248310566,0.009723914787173271,-0.00015766271098982543,0.014250475913286209
0.01693657785654068,0.006557943765074015,-0.014303096570074558,0.009883002378046513,-0.00015232486475724727,0.014453783631324768
0.017211783677339554,0.006600894965231419,-0.01471075788140297,0.00914847943931818,-0.0001729020441416651,0.014303939417004585
0.016891170293092728,0.006067889742553234,-0.014411743730306625,0.009271828457713127,-0.0001709436473902315,0.014490261673927307
0.017135078087449074,0.006015375722199678,-0.014615503139793873,0.009469163604080677,-0.00016592041356489062,0.014207679778337479
0.017304422333836555,0.006670666392892599,-0.014189568348228931,0.00912767369300127,-0.0001808600063668564,0.014641372486948967
0.01715289056301117,0.0062705148011446,-0.015037572011351585,0.010010899044573307,-0.0001819288736442104,0.015389297157526016
0.017510106787085533,0.005885741673409939,-0.01492944173514843,0.010050165466964245,-0.0001772219402482733,0.014675626531243324
0.01744268648326397,0.005424810107797384,-0.015246719121932983,0.009138662368059158,-0.00017239891167264432,0.013803895562887192
0.017519287765026093,0.0054109119810163975,-0.0143332090228796,0.009451190941035748,-0.00019017263548448682,0.014486754313111305
0.01757116988301277,0.005459686275571585,-0.01502021960914135,0.010233371518552303,-0.00018669986457098275,0.014970546588301659
0.01739935576915741,0.005899239797145128,-0.014728100039064884,0.00979177188128233,-0.00018207357788924128,0.014888442121446133
0.017865965142846107,0.005538375582545996,-0.015949036926031113,0.00969546940177679,-0.0001778750156518072,0.014720275066792965
0.01721511036157608,0.005686281714588404,-0.015275398269295692,0.010159810073673725,-0.00024223719083238393,0.01532839983701706
0.017734386026859283,0.005981456488370895,-0.015582913532853127,0.00944520253688097,-0.00023445108672603965,0.015192633494734764
0.01794486492872238,0.0055296774953603745,-0.015320107340812683,0.00939448643475771,-0.00026178258121944964,0.015267572365701199
0.017970316112041473,0.005885067395865917,-0.015737371519207954,0.009810165502130985,-0.00025474492576904595,0.015054292045533657
0.018222862854599953,0.0056685651652514935,-0.015441207215189934,0.009586346335709095,-0.000273587298579514,0.015532087534666061
0.018222862854599953,0.0056685651652514935,-0.015441207215189934,0.009586346335709095,-0.000273587298579514,0.015532087534666061
0.018038149923086166,0.005218188278377056,-0.015562895685434341,0.009768734686076641,-0.0002953600778710097,0.014605635777115822
0.017947204411029816,0.005002469290047884,-0.015462410636246204,0.009961346164345741,-0.0002859324449673295,0.014789390377700329
0.017018448561429977,0.005698776338249445,-0.01607320085167885,0.009751678444445133,-0.00027515352121554315,0.015470181591808796
0.019269799813628197,0.005413628648966551,-0.015239154919981956,0.010072227567434311,-0.000427785562351346,0.015558496117591858
0.018906807526946068,0.0052137975580990314,-0.01569819636642933,0.009913761168718338,-0.0004123873368371278,0.0157438013702631
0.018373221158981323,0.004980262368917465,-0.014865676872432232,0.009869910776615143,-0.0003791710769291967,0.015939267352223396
0.018146606162190437,0.0049172816798090935,-0.016017351299524307,0.01052206102758646,-0.00041477891500107944,0.01518294122070074
0.01891872100532055,0.005676737986505032,-0.015503980219364166,0.009995092637836933,-0.000389119639294222,0.015511679463088512
0.018645796924829483,0.005189442541450262,-0.01568918488919735,0.010007034055888653,-0.00039261652273125947,0.015544697642326355
0.018783537670969963,0.004914038814604282,-0.01519332267343998,0.010538754984736443,-0.0003950128157157451,0.015813488513231277
0.01881738193333149,0.005197651218622923,-0.015439647249877453,0.010002131573855877,-0.00037336270906962454,0.015806596726179123
0.018887799233198166,0.004980717785656452,-0.015409408137202263,0.009852730669081211,-0.0003897010756190866,0.015972493216395378
0.01894395425915718,0.004975868389010429,-0.01532060094177723,0.009853355586528778,-0.00038072370807640254,0.015539690852165222
0.018372807651758194,0.005397798493504524,-0.015712209045886993,0.009651519358158112,-0.00036400940734893084,0.015165640972554684
0.01819033920764923,0.0051230317912995815,-0.015570891089737415,0.010419245809316635,-0.00038391989073716104,0.014988113194704056
0.01919010654091835,0.005055379122495651,-0.01578262820839882,0.010230603627860546,-0.00035680559813044965,0.015565605834126472
0.019553108140826225,0.004969435278326273,-0.01506276149302721,0.009722285903990269,-0.00037938510649837554,0.015707677230238914
0.01882651261985302,0.004949172493070364,-0.015638846904039383,0.010612376034259796,-0.0003686059208121151,0.015657007694244385
0.01943906396627426,0.005181120242923498,-0.014888864941895008,0.01084020547568798,-0.0003459719882812351,0.016561293974518776
0.01935632899403572,0.0050766002386808395,-0.01552486326545477,0.010023066774010658,-0.0003720555978361517,0.01632681116461754
0.0186611395329237,0.005641124211251736,-0.014960802160203457,0.010589413344860077,-0.00035735705750994384,0.016479572281241417
0.019080588594079018,0.005129565019160509,-0.015762221068143845,0.01012436207383871,-0.0003804232401307672,0.016086654737591743
0.019479241222143173,0.004508051089942455,-0.015255827456712723,0.010002365335822105,-0.0003667953424155712,0.016226012259721756
0.019479241222143173,0.004508051089942455,-0.015255827456712723,0.010002365335822105,-0.0003667953424155712,0.016226012259721756
0.019593050703406334,0.005045802798122168,-0.015596707351505756,0.009862459264695644,-0.0004084167012479156,0.01584034599363804
0.019489159807562828,0.0049056923016905785,-0.015425882302224636,0.009786540642380714,-0.00041374220745638013,0.01609598845243454
0.019278069958090782,0.004749059211462736,-0.015425552614033222,0.010569303296506405,-0.0004153225745540112,0.016449784860014915
0.019890131428837776,0.0050050499849021435,-0.015277094207704067,0.010099641978740692,-0.00044777372386306524,0.01581493392586708
0.019991081207990646,0.004856881219893694,-0.015723491087555885,0.01037871465086937,-0.00045113760279491544,0.0163421630859375
0.019656775519251823,0.004491404164582491,-0.0157647505402565,0.010687124915421009,-0.00045009510358795524,0.016744818538427353
0.01988956704735756,0.004588655196130276,-0.01615564338862896,0.009671644307672977,-0.000425278558395803,0.016223667189478874
0.020052187144756317,0.004941494669765234,-0.015190640464425087,0.009701075963675976,-0.0005320768686942756,0.01624312810599804
0.019871940836310387,0.0050274948589503765,-0.015619488433003426,0.010315501131117344,-0.0004939430509693921,0.01624353602528572
0.020135950297117233,0.004763555247336626,-0.015476751141250134,0.010064981877803802,-0.00048921222332865,0.016673633828759193
0.020368007943034172,0.004883565939962864,-0.01603192463517189,0.010141137056052685,-0.0004841857880819589,0.016954416409134865
0.02018100954592228,0.005011284723877907,-0.015663854777812958,0.010468592867255211,-0.0005108711775392294,0.016711967065930367
0.019753260537981987,0.004874617327004671,-0.015493945218622684,0.01012569759041071,-0.0004807677469216287,0.016546761617064476
0.02032657340168953,0.005328963976353407,-0.015219883993268013,0.010585698299109936,-0.0005066049052402377,0.016460377722978592
0.020406927913427353,0.005341704934835434,-0.015630176290869713,0.010829947888851166,-0.0004769429506268352,0.016697997227311134
0.02030426636338234,0.004718927666544914,-0.015938490629196167,0.010703680105507374,-0.0005082109710201621,0.01691453345119953
0.02013208530843258,0.004403798375278711,-0.015448639169335365,0.010822499170899391,-0.0005109714693389833,0.0167065542191267
0.020187828689813614,0.004871810786426067,-0.015571780502796173,0.01040450669825077,-0.0005043295095674694,0.017006928101181984
0.020351888611912727,0.005030530504882336,-0.015173876658082008,0.010811001062393188,-0.0005303245270624757,0.016859764233231544
0.020527763292193413,0.004689512308686972,-0.015820927917957306,0.011416522786021233,-0.0004976480267941952,0.017223987728357315
0.02108040638267994,0.0049442145973443985,-0.01523526106029749,0.010997307486832142,-0.000461750925751403,0.016845209524035454
0.020911453291773796,0.005205816589295864,-0.015680383890867233,0.010807828977704048,-0.0004873905854765326,0.016849473118782043
0.02054256573319435,0.0046601430512964725,-0.014906437136232853,0.010785079561173916,-0.0004599694220814854,0.017315225675702095
0.021059619262814522,0.005029810592532158,-0.015763038769364357,0.010733962059020996,-0.0005075617809779942,0.017667539417743683
0.020931560546159744,0.005006344988942146,-0.015314025804400444,0.011532806791365147,-0.0005121871363371611,0.017658280208706856
0.020719919353723526,0.00521422503516078,-0.015701118856668472,0.011249464005231857,-0.0005055330111645162,0.01716674491763115
0.020724933594465256,0.005460069980472326,-0.015712471678853035,0.011764442548155785,-0.00046470490633510053,0.017339030280709267
0.020724933594465256,0.005460069980472326,-0.015712471678853035,0.011764442548155785,-0.00046470490633510053,0.017339030280709267
0.021517399698495865,0.005074709188193083,-0.015475922264158726,0.010806980542838573,-0.00043096859008073807,0.016899630427360535
0.021517399698495865,0.005074709188193083,-0.015475922264158726,0.010806980542838573,-0.00043096859008073807,0.016899630427360535
0.021088192239403725,0.005086933262646198,-0.015911374241113663,0.01108475960791111,-0.00040337731479667127,0.017354493960738182
0.02113206870853901,0.005689457058906555,-0.015445558354258537,0.01010189950466156,-0.0003790924674831331,0.017885589972138405
0.021714968606829643,0.005470285192131996,-0.016232196241617203,0.010487444698810577,-0.00040511094266548753,0.01788090355694294
0.021473586559295654,0.005155874881893396,-0.016282452270388603,0.010981290601193905,-0.00038646170287393034,0.017377454787492752
0.020580338314175606,0.0052625625394284725,-0.01656072400510311,0.011705473996698856,-0.00036695945891551673,0.01769692823290825
0.02101433463394642,0.005152060184627771,-0.015844188630580902,0.011846707202494144,-0.0003491729439701885,0.017614120617508888
0.021147454157471657,0.005252491682767868,-0.01622621901333332,0.011589473113417625,-0.0003348424506839365,0.018089953809976578
0.021416516974568367,0.005110243335366249,-0.016802698373794556,0.011728555895388126,-0.00030613073613494635,0.01786615513265133
0.021051568910479546,0.0053114877082407475,-0.01605243794620037,0.011490169912576675,-0.0002862565452232957,0.017113149166107178
0.021309370175004005,0.005376698914915323,-0.016376331448554993,0.011224014684557915,-0.0003087472287006676,0.01724308729171753
0.021520156413316727,0.00508555443957448,-0.01584731787443161,0.011751317419111729,-0.00030376805807463825,0.017289888113737106
0.02182300016283989,0.00551528250798583,-0.01683422178030014,0.01114638987928629,-0.0002883532433770597,0.01826389878988266
0.021480923518538475,0.0052856686525046825,-0.016502656042575836,0.011634761467576027,-0.0002737824397627264,0.017162248492240906
0.021718880161643028,0.005025662016123533,-0.015981554985046387,0.011407861486077309,-0.00029262586031109095,0.01702234148979187
0.021320298314094543,0.005230711307376623,-0.016400592401623726,0.011442855931818485,-0.0002892589254770428,0.01793896220624447
0.020821411162614822,0.005055847577750683,-0.01606239192187786,0.01186535693705082,-0.0002771883155219257,0.01827281527221203
0.021279292181134224,0.005165664479136467,-0.016792679205536842,0.011242158710956573,-0.0002840976230800152,0.017970139160752296
0.02195938676595688,0.004973528906702995,-0.015845218673348427,0.011286726221442223,-0.00028994077001698315,0.017908751964569092
0.022150931879878044,0.004868319258093834,-0.01616743579506874,0.011088371276855469,-0.000279801752185449,0.018162021413445473
0.02147333137691021,0.005641755647957325,-0.015617070719599724,0.010763932019472122,-0.0002700602344702929,0.01821005530655384
0.021791372448205948,0.005399364046752453,-0.016125759109854698,0.01095856074243784,-0.00031698436941951513,0.018043700605630875
0.021960003301501274,0.004796510096639395,-0.01588265784084797,0.010874749161303043,-0.0003001541772391647,0.01808253303170204
0.022109678015112877,0.004882134031504393,-0.01618148572742939,0.010997951962053776,-0.00033405018621124327,0.018380368128418922
0.021949343383312225,0.0048327879048883915,-0.016354860737919807,0.011808064766228199,-0.0003178190381731838,0.01862478442490101
0.022190403193235397,0.004866803530603647,-0.016194337978959084,0.01139828935265541,-0.00034696055809035897,0.018434954807162285
0.022582044824957848,0.00533420080319047,-0.01636814884841442,0.011959022842347622,-0.0003587912942748517,0.018685705959796906
0.02192264422774315,0.004692210350185633,-0.016631605103611946,0.012140234000980854,-0.0005367559497244656,0.018286556005477905
0.02184998244047165,0.004928783047944307,-0.016130559146404266,0.012078608386218548,-0.0005055558867752552,0.018727457150816917
0.02184998244047165,0.004928783047944307,-0.016130559146404266,0.012078608386218548,-0.0005055558867752552,0.018727457150816917
0.02218191884458065,0.004992391914129257,-0.016283854842185974,0.011723055504262447,-0.0005407821154221892,0.018647493794560432
0.022303137928247452,0.005159702617675066,-0.017051881179213524,0.011836009100079536,-0.0004966502892784774,0.018607856705784798
0.022179311141371727,0.005542028229683638,-0.016520649194717407,0.0112454229965806,-0.0004551181336864829,0.018859252333641052
0.022160828113555908,0.005135220941156149,-0.016737284138798714,0.011817265301942825,-0.00048473424976691604,0.01907912828028202
0.022089505568146706,0.0052298083901405334,-0.01629503071308136,0.011902526021003723,-0.00045402339310385287,0.019123492762446404
0.02068270370364189,0.005505784414708614,-0.01642923802137375,0.011800461448729038,-0.00045315103488974273,0.01908142678439617
0.0232149176299572,0.0051603796891868114,-0.016787301748991013,0.01191486231982708,-0.00045172934187576175,0.019026873633265495
0.022729281336069107,0.005656525492668152,-0.01686435006558895,0.011135966517031193,-0.0004296363331377506,0.019221073016524315
0.02265903539955616,0.0054678721353411674,-0.01713910885155201,0.011786404065787792,-0.00042577952262945473,0.01918293908238411
0.022735411301255226,0.00522615248337388,-0.016151146963238716,0.011457783170044422,-0.00046382416621781886,0.01937556080520153
0.022861754521727562,0.0049897655844688416,-0.016661332920193672,0.011339333839714527,-0.0004985167761333287,0.01945154182612896
0.022551847621798515,0.005339702125638723,-0.016491537913680077,0.011496694758534431,-0.0005238268058747053,0.01909128576517105
0.022579507902264595,0.005554984323680401,-0.01690296083688736,0.012141562066972256,-0.0004976893542334437,0.01893658936023712
0.02352236956357956,0.005557777360081673,-0.01678404211997986,0.012098332867026329,-0.0007288218475878239,0.01940995454788208
0.023635460063815117,0.005126417148858309,-0.01616746000945568,0.012559538707137108,-0.0007385977660305798,0.01945606619119644
0.023504851385951042,0.004751742351800203,-0.016683058813214302,0.011635220609605312,-0.000675784598570317,0.019199296832084656
0.02323630079627037,0.004217695910483599,-0.016156503930687904,0.012025348842144012,-0.0006884761387482285,0.019648293033242226
0.022284435108304024,0.004335615783929825,-0.016651596873998642,0.011781255714595318,-0.0006312175537459552,0.020106825977563858
0.02309458889067173,0.00466203736141324,-0.016262264922261238,0.0124543821439147,-0.0006344601861201227,0.020062880590558052
0.023491915315389633,0.005205039866268635,-0.016503922641277313,0.012385000474750996,-0.0006001439178362489,0.019895223900675774
0.023572606965899467,0.004856606479734182,-0.016568781808018684,0.011337646283209324,-0.0005581080913543701,0.02004581317305565
0.023464316502213478,0.0044593242928385735,-0.016489889472723007,0.011511461809277534,-0.0005081944400444627,0.0199815072119236
0.02383679710328579,0.004425497725605965,-0.01709570549428463,0.011439000256359577,-0.0005241851322352886,0.020002176985144615
0.023876329883933067,0.004640541505068541,-0.016113156452775,0.012274246662855148,-0.0005573485977947712,0.020302411168813705
0.023868747055530548,0.004729748237878084,-0.017038168385624886,0.01230575516819954,-0.0005862356629222631,0.02009756490588188
0.023217041045427322,0.004969102796167135,-0.016765223816037178,0.012564826756715775,-0.000743432086892426,0.019876966252923012
0.023217041045427322,0.004969102796167135,-0.016765223816037178,0.012564826756715775,-0.000743432086892426,0.019876966252923012
0.023792767897248268,0.0048911613412201405,-0.01724877953529358,0.01322842575609684,-0.0007484115776605904,0.020108383148908615
0.02424139715731144,0.004637402947992086,-0.016877679154276848,0.013649187050759792,-0.0006834695232100785,0.019431492313742638
0.024182936176657677,0.004645141772925854,-0.01772133633494377,0.013449614867568016,-0.0006083032349124551,0.01957072876393795
0.02441684529185295,0.0047498419880867004,-0.017095915973186493,0.013796761631965637,-0.0006312418263405561,0.0205930657684803
0.02467728778719902,0.004455285612493753,-0.017274053767323494,0.013474334962666035,-0.0005787192494608462,0.020998330786824226
0.024747833609580994,0.0045995512045919895,-0.0173939261585474,0.013648120686411858,-0.0005669454112648964,0.02066347375512123
0.024730905890464783,0.00461313733831048,-0.01684880070388317,0.012789804488420486,-0.000556447368580848,0.019885053858160973
0.024441206827759743,0.004560221452265978,-0.017531322315335274,0.012347905896604061,-0.000518533808644861,0.019727354869246483
0.024468636140227318,0.004603469278663397,-0.017459701746702194,0.012506547383964062,-0.00046334852231666446,0.020358892157673836
0.023550137877464294,0.0043497271835803986,-0.018181048333644867,0.012634512037038803,-0.0004158634983468801,0.021164583042263985
0.025205258280038834,0.00455286493524909,-0.018002396449446678,0.0128861665725708,-0.0004510096041485667,0.020761191844940186
0.025454502552747726,0.00445095170289278,-0.016636041924357414,0.01248270645737648,-0.00047194407670758665,0.020263973623514175
0.025376802310347557,0.004461184609681368,-0.017849501222372055,0.012849648483097553,-0.000454188120784238,0.020550789311528206
0.025469506159424782,0.00439289677888155,-0.01787024363875389,0.012745844200253487,-0.0004770405648741871,0.02195928618311882
0.02522674947977066,0.004470892250537872,-0.01784108392894268,0.013204120099544525,-0.0004567743744701147,0.02173321321606636
0.025066299363970757,0.004503051284700632,-0.01755444146692753,0.01237707119435072,-0.0005902432021684945,0.020801061764359474
0.02528301626443863,0.004381890408694744,-0.017177702859044075,0.012470630928874016,-0.0006246742559596896,0.020252997055649757
0.025261977687478065,0.004290304612368345,-0.01835726387798786,0.012511459179222584,-0.0005717006861232221,0.020275019109249115
0.025967901572585106,0.004283485002815723,-0.017821813002228737,0.01238911971449852,-0.0005919684190303087,0.021129319444298744
0.02590133622288704,0.004889636766165495,-0.01687191240489483,0.012841321527957916,-0.0005503514548763633,0.021776827052235603
0.025971191003918648,0.0044655329547822475,-0.01777082122862339,0.012625094503164291,-0.0005067087477073073,0.021799148991703987
0.026129309087991714,0.0040114582516252995,-0.0178635586053133,0.012926032766699791,-0.0005014805356040597,0.021542971953749657
0.026139331981539726,0.004318913444876671,-0.01781921274960041,0.013118617236614227,-0.0004965874832123518,0.021265530958771706
0.025979051366448402,0.0043896823190152645,-0.017643794417381287,0.013414929620921612,-0.0004663533763960004,0.020943783223628998
0.026604261249303818,0.004882683977484703,-0.017289329320192337,0.013079683296382427,-0.00044136561336927116,0.021071413531899452
0.026507936418056488,0.004973066970705986,-0.017582833766937256,0.013159782625734806,-0.00044259801506996155,0.02147926762700081
0.026695163920521736,0.004407945089042187,-0.017844459041953087,0.012946004047989845,-0.00046842065057717264,0.02113339491188526
0.026695163920521736,0.004407945089042187,-0.017844459041953087,0.012946004047989845,-0.00046842065057717264,0.02113339491188526
0.026695163920521736,0.004407945089042187,-0.017844459041953087,0.012946004047989845,-0.00046842065057717264,0.02113339491188526
0.027172621339559555,0.004585791379213333,-0.017338164150714874,0.013007542118430138,-0.0004824337374884635,0.021623309701681137
0.027038894593715668,0.004816151224076748,-0.017770880833268166,0.013509715907275677,-0.0007972302846610546,0.021432645618915558
0.02693083882331848,0.0047982605174183846,-0.018065866082906723,0.013419097289443016,-0.0007672713836655021,0.021730398759245872
0.02717108279466629,0.004691351670771837,-0.01751893199980259,0.014137026853859425,-0.0007585238199681044,0.021876713261008263
0.027387963607907295,0.0048738159239292145,-0.01795228384435177,0.013732596300542355,-0.0006995636504143476,0.021399084478616714
0.028557371348142624,0.004678030498325825,-0.017690112814307213,0.01404375396668911,-0.0007086255354806781,0.021554678678512573
0.02837092988193035,0.004613847471773624,-0.017776690423488617,0.013679441064596176,-0.0006547542288899422,0.0215844064950943
0.025774002075195312,0.0044861133210361,-0.018042556941509247,0.014161517843604088,-0.0006441288278438151,0.021783068776130676
0.02741951495409012,0.004310031421482563,-0.017578450962901115,0.01398526318371296,-0.0006547606317326427,0.021443409845232964
0.028489122167229652,0.004822817165404558,-0.018017223104834557,0.014242681674659252,-0.0006557385204359889,0.021939363330602646
0.027871113270521164,0.004978938959538937,-0.017701923847198486,0.013828922994434834,-0.0006349164177663624,0.021709635853767395
0.027449725195765495,0.004502436146140099,-0.017487624660134315,0.014676823280751705,-0.0006562885246239603,0.021890437230467796
0.028746312484145164,0.004177565686404705,-0.01812850683927536,0.013960259966552258,-0.0007633168715983629,0.0223220381885767
0.029416745528578758,0.0040131802670657635,-0.017442304641008377,0.013939508236944675,-0.0008005864219740033,0.02201392687857151
0.028740951791405678,0.00431541632860899,-0.017751183360815048,0.013168304227292538,-0.0007912698201835155,0.022261371836066246
0.02747759036719799,0.004423045087605715,-0.01798330619931221,0.013847683556377888,-0.0007265693857334554,0.022671259939670563
0.027948342263698578,0.004304458387196064,-0.017459267750382423,0.013682344928383827,-0.0006977684097364545,0.023008964955806732
0.029107792302966118,0.004530087113380432,-0.018032893538475037,0.014010594226419926,-0.0006729759625159204,0.02300514280796051
0.02889680676162243,0.004217379726469517,-0.017648812383413315,0.014027389697730541,-0.0006217627669684589,0.022703001275658607
0.02880563773214817,0.004202970769256353,-0.017917731776833534,0.014156889170408249,-0.0005852109752595425,0.022048145532608032
0.028869230300188065,0.004041698295623064,-0.018344111740589142,0.014553752727806568,-0.0006167727988213301,0.02186676859855652
0.029023582115769386,0.004280311521142721,-0.017566747963428497,0.013939890079200268,-0.0006395314121618867,0.022534335032105446
0.02876642346382141,0.004032858647406101,-0.018057802692055702,0.013380743563175201,-0.0006635786849074066,0.023004688322544098
0.02880185656249523,0.004314676858484745,-0.018130961805582047,0.013448870740830898,-0.0008257241570390761,0.022707609459757805
0.028402825817465782,0.004405970219522715,-0.018162459135055542,0.013719620183110237,-0.0007821146864444017,0.023451954126358032
0.02859966829419136,0.004216027911752462,-0.018074501305818558,0.014209133572876453,-0.0007681965944357216,0.023358913138508797
0.02863706462085247,0.004059081431478262,-0.018432611599564552,0.013471538200974464,-0.0007072979933582246,0.023334909230470657
0.02862953394651413,0.004438190255314112,-0.018658362329006195,0.013485722243785858,-0.0007156439241953194,0.022665763273835182
0.02862953394651413,0.004438190255314112,-0.018658362329006195,0.013485722243785858,-0.0007156439241953194,0.022665763273835182
0.028215592727065086,0.0042418222874403,-0.017429620027542114,0.013606531545519829,-0.0006606468232348561,0.022097136825323105
0.028681231662631035,0.004520806949585676,-0.01795187219977379,0.01435142196714878,-0.0006096003926359117,0.022516433149576187
0.028881365433335304,0.004699321463704109,-0.018564725294709206,0.01306544803082943,-0.0005439872620627284,0.02355145663022995
0.028853124007582664,0.0042700511403381824,-0.018175609409809113,0.013376235961914062,-0.0005757390172220767,0.023770252242684364
0.02822135016322136,0.004204766359180212,-0.01848248764872551,0.013574228622019291,-0.0005896725342608988,0.02356918342411518
0.029672499746084213,0.004103753250092268,-0.017841024324297905,0.014698519371449947,-0.0005575868999585509,0.023139996454119682
0.030042439699172974,0.00439437897875905,-0.017867036163806915,0.014737128280103207,-0.0005815712502226233,0.02335197664797306
0.029805568978190422,0.004100780002772808,-0.018608903512358665,0.015195718966424465,-0.0006774657522328198,0.023469069972634315
0.028638003394007683,0.0044448538683354855,-0.018794437870383263,0.014606275595724583,-0.000721969990991056,0.02386225387454033
0.028550827875733376,0.004628359340131283,-0.01917893998324871,0.015117446891963482,-0.0006640937062911689,0.02394011616706848
0.029306236654520035,0.004557556938380003,-0.01894010230898857,0.014935784041881561,-0.0005930743063800037,0.023529797792434692
0.0299467071890831,0.004355233628302813,-0.017763881012797356,0.015509536489844322,-0.0005773072480224073,0.023564588278532028
0.029758336022496223,0.0048439339734613895,-0.01828453503549099,0.015563417226076126,-0.0005642668111249804,0.023973871022462845
0.030240682885050774,0.004427219741046429,-0.018664812669157982,0.01575346849858761,-0.0005201781168580055,0.024077802896499634
0.029887262731790543,0.004361466970294714,-0.018292251974344254,0.015633851289749146,-0.0004806259530596435,0.024207334965467453
0.030083822086453438,0.004277177155017853,-0.019031433388590813,0.015562678687274456,-0.0005058516981080174,0.024167584255337715
0.029099809005856514,0.004522888921201229,-0.01880938746035099,0.015701130032539368,-0.00047624524449929595,0.024154797196388245
0.029387908056378365,0.004518676083534956,-0.01782359555363655,0.014979265630245209,-0.0004469210107345134,0.023702291771769524
0.02995409443974495,0.004514347296208143,-0.018656441941857338,0.015164504759013653,-0.0003970636462327093,0.023579200729727745
0.02998264692723751,0.004350361414253712,-0.018628453835844994,0.014594766311347485,-0.0003630837891250849,0.024129947647452354
0.02998623438179493,0.004536301828920841,-0.01904318854212761,0.01475025899708271,-0.0003851727524306625,0.024236492812633514
0.03029515966773033,0.004512455314397812,-0.01921159401535988,0.014220980927348137,-0.0004041643696837127,0.024116260930895805
0.02988939918577671,0.004691834095865488,-0.018669549375772476,0.01486577745527029,-0.00040688563603907824,0.02439129166305065
0.029503213241696358,0.004180740099400282,-0.018288759514689445,0.01472609955817461,-0.0004350224044173956,0.024264156818389893
0.029503213241696358,0.004180740099400282,-0.018288759514689445,0.01472609955817461,-0.0004350224044173956,0.024264156818389893
0.030087843537330627,0.004455743357539177,-0.017967822030186653,0.0145527683198452,-0.0005833609611727297,0.02422134019434452
0.02966979146003723,0.004330560564994812,-0.01811293512582779,0.014649718068540096,-0.0005801658844575286,0.024360500276088715
0.029965367168188095,0.004354333505034447,-0.019760815426707268,0.014618294313549995,-0.0005656999419443309,0.024362508207559586
0.030179906636476517,0.004214963875710964,-0.019067050889134407,0.01542020682245493,-0.0005775584722869098,0.024324888363480568
0.030574005097150803,0.004387999884784222,-0.019005531445145607,0.015224399045109749,-0.0005847968277521431,0.02439008839428425
0.029047999531030655,0.004531436134129763,-0.019262969493865967,0.01557048037648201,-0.0005738264298997819,0.024333123117685318
0.03051220066845417,0.004617876838892698,-0.018511954694986343,0.015602800995111465,-0.0006361603736877441,0.0242150966078043
0.03089291974902153,0.004271992482244968,-0.01857895217835903,0.015835057944059372,-0.0006565690855495632,0.024278461933135986
0.03051387146115303,0.004332766402512789,-0.018681246787309647,0.0154607268050313,-0.0006833386141806841,0.024276748299598694
0.03028450533747673,0.004539345856755972,-0.018578439950942993,0.0154521893709898,-0.0006825418095104396,0.02439727447926998
0.030889760702848434,0.00461552431806922,-0.019441163167357445,0.01538399700075388,-0.000661098281852901,0.024866094812750816
0.03108431026339531,0.004696051590144634,-0.01940435729920864,0.01541143748909235,-0.0007515588076785207,0.025189248844981194
0.031000599265098572,0.004387281835079193,-0.018661942332983017,0.015642555430531502,-0.0007871438283473253,0.025018859654664993
0.03122718818485737,0.004095996730029583,-0.019112413749098778,0.015527023933827877,-0.0007732622907496989,0.024050472304224968
0.031483523547649384,0.004226669669151306,-0.01872885785996914,0.016017209738492966,-0.000786327407695353,0.02406124584376812
0.031156573444604874,0.004516626708209515,-0.01829560473561287,0.015410947613418102,-0.0007527607958763838,0.024751964956521988
0.030977437272667885,0.004113690461963415,-0.01940288580954075,0.015473519451916218,-0.0007950881845317781,0.0253529641777277
0.03154728561639786,0.004449028987437487,-0.018945934250950813,0.014693409204483032,-0.0008216295973397791,0.02518780715763569
0.03141791373491287,0.004121886100620031,-0.018390167504549026,0.015227525494992733,-0.0007788031361997128,0.0250443983823061
0.031053941696882248,0.003839238779619336,-0.01863591931760311,0.015415293164551258,-0.0007896462338976562,0.02634289488196373
0.03127816691994667,0.003749209688976407,-0.017895987257361412,0.016222871840000153,-0.0007555068586952984,0.02564924582839012
0.03155412897467613,0.0042634764686226845,-0.0182031262665987,0.016304323449730873,-0.0007648729369975626,0.02497485652565956
0.03285396099090576,0.004146783147007227,-0.019232530146837234,0.016377532854676247,-0.0007449911790899932,0.02439187839627266
0.031134463846683502,0.0037953853607177734,-0.018768345937132835,0.015700634568929672,-0.0007177911465987563,0.025789137929677963
0.03120720200240612,0.004087918903678656,-0.01898810639977455,0.016184205189347267,-0.000655435083899647,0.025589987635612488
0.03120720200240612,0.004087918903678656,-0.01898810639977455,0.016184205189347267,-0.000655435083899647,0.025589987635612488
0.031946711242198944,0.0037513980641961098,-0.019042033702135086,0.01619352027773857,-0.0006202779477462173,0.024999400600790977
0.031946711242198944,0.0037513980641961098,-0.019042033702135086,0.01619352027773857,-0.0006202779477462173,0.024999400600790977
0.032215602695941925,0.004259056411683559,-0.01913541555404663,0.015562686137855053,-0.0005963004077784717,0.025251880288124084
0.03317913040518761,0.004194153938442469,-0.018785301595926285,0.015608936548233032,-0.0005361246876418591,0.025343045592308044
0.03273511305451393,0.004362420178949833,-0.019245833158493042,0.015113921836018562,-0.0004796060093212873,0.025764225050807
0.03191550076007843,0.00428425008431077,-0.0189471747726202,0.015405182726681232,-0.0005138060078024864,0.025528699159622192
0.03177231550216675,0.0040976135060191154,-0.01862206868827343,0.015970857813954353,-0.00047392441774718463,0.025583211332559586
0.0330892950296402,0.003929064609110355,-0.01917189359664917,0.016025250777602196,-0.0004986422718502581,0.025698045268654823
0.032357219606637955,0.004304452799260616,-0.019752494990825653,0.016337232664227486,-0.0004699765704572201,0.025851761922240257
0.03237934783101082,0.004207955673336983,-0.018739178776741028,0.015660159289836884,-0.0004918817430734634,0.025570111349225044
0.03325282782316208,0.003961791284382343,-0.019465964287519455,0.01608980819582939,-0.0004949455615133047,0.025791574269533157
0.03306832164525986,0.004031626507639885,-0.019041888415813446,0.01554448064416647,-0.0005180406733416021,0.025297939777374268
0.03267339617013931,0.003909052815288305,-0.018056407570838928,0.01587057299911976,-0.0005532724317163229,0.025504587218165398
0.03297935798764229,0.003791376017034054,-0.01890430971980095,0.015135264955461025,-0.000545585760846734,0.02561204694211483
0.03277542069554329,0.003823364619165659,-0.019426552578806877,0.015896232798695564,-0.0005714859580621123,0.026131249964237213
0.03211693838238716,0.004276903346180916,-0.01935916766524315,0.016186414286494255,-0.0007779322913847864,0.026081766933202744
0.03289817273616791,0.0037046277429908514,-0.019312771037220955,0.016790805384516716,-0.0007339986623264849,0.02626192942261696
0.03321995958685875,0.0034002140164375305,-0.019382435828447342,0.01707659289240837,-0.0006355533841997385,0.026202388107776642
0.03304041922092438,0.00346931884996593,-0.018870901316404343,0.01688247360289097,-0.0005570349167101085,0.02657422423362732
0.03303061053156853,0.003675708780065179,-0.019669855013489723,0.01742553524672985,-0.0005431586178019643,0.026096178218722343
0.03320958837866783,0.0037271669134497643,-0.019588511437177658,0.017031490802764893,-0.0005322484648786485,0.026131397113204002
0.03320958837866783,0.0037271669134497643,-0.019588511437177658,0.017031490802764893,-0.0005322484648786485,0.026131397113204002
0.03380417451262474,0.003686963813379407,-0.02032415382564068,0.01695937104523182,-0.0005110634956508875,0.027640068903565407
0.03219936043024063,0.0037084671203047037,-0.01974138803780079,0.01638783887028694,-0.0004807884688489139,0.02714593894779682
0.033392246812582016,0.0036601314786821604,-0.019281765446066856,0.016919413581490517,-0.0004941733204759657,0.02649378962814808
0.034458331763744354,0.0035802912898361683,-0.019642461091279984,0.016099438071250916,-0.00047613546485081315,0.026288816705346107
0.03379158303141594,0.0035049926955252886,-0.02024240233004093,0.016431480646133423,-0.0004474880697671324,0.026992090046405792
0.03461170569062233,0.0034790262579917908,-0.01982160098850727,0.01634971983730793,-0.000373075861716643,0.027393346652388573
0.0343894436955452,0.0034307034220546484,-0.01973159797489643,0.016857711598277092,-0.0003977792803198099,0.026945870369672775
0.03352503851056099,0.0034741677809506655,-0.020079227164387703,0.01784403808414936,-0.00043198573985137045,0.027560580521821976
0.033380549401044846,0.003657445078715682,-0.019980203360319138,0.01754046604037285,-0.0004625644942279905,0.028702182695269585
0.03535298630595207,0.003880145726725459,-0.019772997125983238,0.017118237912654877,-0.0009007506887428463,0.027411701157689095
0.03513776883482933,0.0036000509280711412,-0.019779136404395103,0.016579288989305496,-0.0009578261524438858,0.02698769047856331
0.03356609866023064,0.003614707151427865,-0.020084451884031296,0.016509009525179863,-0.0009431068901903927,0.026510095223784447
0.03413156792521477,0.003917409107089043,-0.019806038588285446,0.01677454262971878,-0.0008346645627170801,0.026946526020765305
0.03462092950940132,0.004022861830890179,-0.01993216946721077,0.016636136919260025,-0.000835413986351341,0.027997558936476707
0.0350700281560421,0.003551781177520752,-0.0201267059892416,0.016861526295542717,-0.0007610222091898322,0.027941079810261726
0.03481128066778183,0.0035091915633529425,-0.01980624720454216,0.016963638365268707,-0.0006764686550013721,0.027091536670923233
0.03458571806550026,0.0037705034483224154,-0.019924648106098175,0.017426567152142525,-0.0006906305206939578,0.027309823781251907
0.0342211052775383,0.004223096650093794,-0.01984940841794014,0.01727594994008541,-0.000624406966380775,0.02725926972925663
0.0348513089120388,0.00430050166323781,-0.02027267776429653,0.016968948766589165,-0.0006407278124243021,0.027243420481681824
0.03525759279727936,0.0036034330260008574,-0.02057552896440029,0.017323078587651253,-0.000653382739983499,0.02769327163696289
0.03498774766921997,0.0035476703196763992,-0.020052175968885422,0.017168274149298668,-0.0006236210465431213,0.02796514891088009
0.035019878298044205,0.0036846741568297148,-0.01984289102256298,0.017331676557660103,-0.0007373539847321808,0.027990713715553284
0.03542458638548851,0.0037938414607197046,-0.019807379692792892,0.01728118024766445,-0.0006801775307394564,0.028397640213370323
0.035265740007162094,0.003777845297008753,-0.02035401202738285,0.017104635015130043,-0.0006996617303229868,0.028677813708782196
0.035239532589912415,0.003783880965784192,-0.02059520035982132,0.017308376729488373,-0.0006790062179788947,0.02843647263944149
0.03610576316714287,0.0037239347584545612,-0.019994933158159256,0.016798395663499832,-0.0006705470732413232,0.028874823823571205
0.03604188933968544,0.0037297536619007587,-0.02033991366624832,0.016503557562828064,-0.0007012374117039144,0.028744801878929138
0.03587433695793152,0.004181400872766972,-0.019705666229128838,0.016805915161967278,-0.0006722286925651133,0.02867373824119568
0.03568817302584648,0.004178354516625404,-0.01973622478544712,0.016967711970210075,-0.000693995039910078,0.02912074699997902
0.03635774180293083,0.0035636737011373043,-0.020388107746839523,0.016729559749364853,-0.000696663570124656,0.029129033908247948
0.036773599684238434,0.003600172698497772,-0.020358581095933914,0.017311150208115578,-0.0006547578377649188,0.02935843914747238
0.036388080567121506,0.0038811417762190104,-0.019811337813735008,0.017434366047382355,-0.0007142940885387361,0.029708392918109894
0.036388080567121506,0.0038811417762190104,-0.019811337813735008,0.017434366047382355,-0.0007142940885387361,0.029708392918109894
0.03637820482254028,0.003943589515984058,-0.020052628591656685,0.01774221658706665,-0.0007328398642130196,0.02965986542403698
0.036276694387197495,0.0038045537658035755,-0.020178835839033127,0.017789186909794807,-0.0007528032874688506,0.029548300430178642
0.03684370219707489,0.003696794854477048,-0.019788362085819244,0.017416900023818016,-0.0007561194361187518,0.028746623545885086
0.037850331515073776,0.003634754568338394,-0.020718518644571304,0.017989521846175194,-0.0007048550760373473,0.029837999492883682
0.036908745765686035,0.003700029803439975,-0.02056029811501503,0.01786314696073532,-0.0007564289844594896,0.029318073764443398
0.03578021749854088,0.003737773047760129,-0.02003861404955387,0.017395678907632828,-0.0007792009273543954,0.029604798182845116
0.03638258948922157,0.0038205827586352825,-0.020278755575418472,0.017470583319664,-0.0008028108277358115,0.030133677646517754
0.03646885231137276,0.003919142764061689,-0.020773518830537796,0.017666712403297424,-0.0008143993327394128,0.029532508924603462
0.03757775202393532,0.003955347463488579,-0.022077566012740135,0.017982982099056244,-0.0009033629903569818,0.028608722612261772
0.03869609162211418,0.003972221165895462,-0.021473830565810204,0.018758084625005722,-0.0008042590343393385,0.0287922490388155
0.03739004209637642,0.004013447090983391,-0.021386651322245598,0.017918063327670097,-0.0008120465790852904,0.030282847583293915
0.03598771244287491,0.004042592830955982,-0.021344590932130814,0.018151134252548218,-0.000799530535005033,0.03007831610739231
0.0375758521258831,0.003997913096100092,-0.021052855998277664,0.017687540501356125,-0.0007835065480321646,0.029998164623975754
0.03781784698367119,0.004396579694002867,-0.02091764286160469,0.017315441742539406,-0.0007550255977548659,0.030684739351272583
0.03743115812540054,0.004121492616832256,-0.021764546632766724,0.018064623698592186,-0.0007829232490621507,0.03053506836295128
0.03793191909790039,0.004121093545109034,-0.021630192175507545,0.01813361980021,-0.0007995609194040298,0.02964608557522297
0.037925828248262405,0.004075007978826761,-0.021342558786273003,0.018461834639310837,-0.0008118827827274799,0.02926631085574627
0.037690676748752594,0.0038444234523922205,-0.021294234320521355,0.018370414152741432,-0.0007823372143320739,0.03024463914334774
0.038311515003442764,0.0037571676075458527,-0.022171054035425186,0.01759735681116581,-0.0010292255319654942,0.030805572867393494
0.03737814724445343,0.004228948149830103,-0.021398799493908882,0.018539439886808395,-0.0010057975305244327,0.030076956376433372
0.03742729872465134,0.003988652024418116,-0.020681828260421753,0.018657822161912918,-0.0009095889399759471,0.030095605179667473
0.03810057416558266,0.0038835923187434673,-0.021210845559835434,0.018565546721220016,-0.0008925027796067297,0.029900968074798584
0.038652244955301285,0.00385880284011364,-0.021470876410603523,0.01772920973598957,-0.0008699974860064685,0.03012319654226303
0.03785376623272896,0.003814163152128458,-0.02162613719701767,0.017661074176430702,-0.000872844539117068,0.030259594321250916
0.036966472864151,0.004169238265603781,-0.021465357393026352,0.018147224560379982,-0.0008478852105326951,0.030379336327314377
0.037991560995578766,0.004219959955662489,-0.021509066224098206,0.018131839111447334,-0.0008780255448073149,0.030309488996863365
0.03739799186587334,0.004078072030097246,-0.021320177242159843,0.01864924468100071,-0.0009225101093761623,0.03039116971194744
0.03739799186587334,0.004078072030097246,-0.021320177242159843,0.01864924468100071,-0.0009225101093761623,0.03039116971194744
0.03833675757050514,0.003995219711214304,-0.021603992208838463,0.019029658287763596,-0.000921902188565582,0.030651384964585304
0.03921707347035408,0.003984346985816956,-0.021249134093523026,0.018573427572846413,-0.0008895064238458872,0.031140657141804695
0.03719617426395416,0.004478146322071552,-0.021318811923265457,0.018833771347999573,-0.0008392077288590372,0.030190713703632355
0.036880604922771454,0.004253769293427467,-0.021426580846309662,0.018649963662028313,-0.0008852130849845707,0.03148571029305458
0.03843463212251663,0.0041305553168058395,-0.02136295661330223,0.018382173031568527,-0.0008793084998615086,0.03147417679429054
0.03813999146223068,0.003891139989718795,-0.02121310494840145,0.018590206280350685,-0.0007714932435192168,0.031052377074956894
