davideferrari95/blind_handover_controller/data/Test 222 - [2024-02-08 -- 12-15-28]/joint_states_data.csv
shoulder_pan_joint,shoulder_lift_joint,elbow_joint,wrist_1_joint,wrist_2_joint,wrist_3_joint
-0.0029085881542414427,-0.010380798950791359,-0.00010676348756533116,0.011812973767518997,7.73420324549079e-05,-0.003548476379364729
-0.0029085881542414427,-0.010380798950791359,-0.00010676348756533116,0.011812973767518997,7.73420324549079e-05,-0.003548476379364729
-0.0029731474351137877,-0.010537865571677685,-0.00010469355038367212,0.011895908042788506,7.603511767229065e-05,-0.00367184029892087
-0.00338555034250021,-0.01061096042394638,-0.00011913478374481201,0.011370000429451466,7.477171311620623e-05,-0.0035161084961146116
-0.003715558908879757,-0.010786851868033409,-0.00011757402535295114,0.01110320258885622,7.354962144745514e-05,-0.0035224880557507277
-0.0032598034013062716,-0.011344164609909058,-0.00011543163418537006,0.010981818661093712,7.236681267386302e-05,-0.003639630740508437
-0.0030787873547524214,-0.011261564679443836,-0.0001293239911319688,0.01127550657838583,8.179689757525921e-05,-0.0035129378084093332
-0.0026427896227687597,-0.010311690159142017,-0.00012725568376481533,0.011319548822939396,8.389460708713159e-05,-0.0034002773463726044
-0.002646647859364748,-0.010871393606066704,-0.00012504600454121828,0.01142451073974371,8.282779162982479e-05,-0.0030308954883366823
-0.0027961055748164654,-0.01025127898901701,-0.0001229137706104666,0.012430247850716114,8.159069693647325e-05,-0.0029751842375844717
-0.0030974827241152525,-0.010426264256238937,-0.00012118089944124222,0.01167414803057909,8.037716906983405e-05,-0.00295835267752409
-0.0030333620961755514,-0.010419615544378757,-0.000122302386444062,0.01198218110948801,7.91983911767602e-05,-0.002988619264215231
-0.0029672160744667053,-0.010309282690286636,-0.00011912049376405776,0.011995412409305573,7.80536065576598e-05,-0.002974171657115221
-0.003275376744568348,-0.010910524055361748,-0.00011605271720327437,0.011089140549302101,7.694151281611994e-05,-0.0030665562953799963
-0.0029651110526174307,-0.010449848137795925,-0.00011313561844872311,0.011022387072443962,7.586061110487208e-05,-0.0031932981219142675
-0.0030766732525080442,-0.010369570925831795,-0.00012984039494767785,0.010448452085256577,7.480966451112181e-05,-0.0030284111853688955
-0.0030165212228894234,-0.010348585434257984,-0.00012922813766635954,0.010686238296329975,7.378745794994757e-05,-0.002618330530822277
-0.0030483559239655733,-0.010421249084174633,-0.00012624064402189106,0.010773071087896824,7.279276906047016e-05,-0.002651453949511051
-0.0030483559239655733,-0.010421249084174633,-0.00012624064402189106,0.010773071087896824,7.279276906047016e-05,-0.002651453949511051
-0.0032661105506122112,-0.010232564993202686,-0.00012335732753854245,0.01029965654015541,7.182458648458123e-05,-0.0029847503174096346
-0.0031091978307813406,-0.01085679978132248,-0.00012059871369274333,0.010426070541143417,7.088177517289296e-05,-0.003353083273395896
-0.0030867557507008314,-0.01042184978723526,-0.00013684072473552078,0.010438348166644573,7.862495112931356e-05,-0.0034628664143383503
-0.002920094644650817,-0.01065958384424448,-0.00013467618555296212,0.010801403783261776,8.038415398914367e-05,-0.0032035112380981445
-0.003167665796354413,-0.011042797937989235,-0.00013186353316996247,0.01099181268364191,7.954960892675444e-05,-0.0030402548145502806
-0.0033067164476960897,-0.010165074840188026,-0.00014736280718352646,0.010587938129901886,7.856930460548028e-05,-0.003064576303586364
-0.0034102601930499077,-0.010596909560263157,-0.00014464683772530407,0.011022638529539108,7.760224980302155e-05,-0.0033607291989028454
-0.0031701812986284494,-0.010865073651075363,-0.00027872598730027676,0.011157248169183731,7.665802695555612e-05,-0.003409843659028411
-0.00311754341237247,-0.009974722750484943,-0.00027902223519049585,0.011119101196527481,7.573650509584695e-05,-0.0035565949510782957
-0.0032173714134842157,-0.010029626078903675,-0.00026295214775018394,0.011476904153823853,7.483685476472601e-05,-0.003729520831257105
-0.003129933960735798,-0.01044381596148014,-0.00029218324925750494,0.010567832738161087,7.395832653855905e-05,-0.0033945422619581223
-0.0028059850446879864,-0.010578355751931667,-0.0002684758510440588,0.010776503011584282,7.226171146612614e-05,-0.002833832520991564
-0.002881510416045785,-0.010395941324532032,-0.00029332609847187996,0.01137948501855135,7.144224946387112e-05,-0.002875718753784895
-0.0029214120004326105,-0.010143531486392021,-0.0002848247531801462,0.010752602480351925,7.064118835842237e-05,-0.003374367021024227
-0.0029545086435973644,-0.01018260233104229,-0.0003068743972107768,0.01077601220458746,6.985789514146745e-05,-0.0038300268352031708
-0.0028738663531839848,-0.010706238448619843,-0.000298522412776947,0.010700933635234833,8.998469638754614e-06,-0.0038627763278782368
-0.003070023376494646,-0.010214859619736671,-0.0002866938302759081,0.011036677286028862,5.875357373952284e-07,-0.0033560728188604116
-0.0028567775152623653,-0.01059581246227026,-0.0003483209584373981,0.011346104554831982,3.8361886112170396e-08,-0.00306389550678432
-0.0027635167352855206,-0.01004734169691801,-0.00035716505954042077,0.010276971384882927,2.5047568463776315e-09,-0.0027610482648015022
-0.002561768749728799,-0.010254770517349243,-0.00037463687476702034,0.010478625074028969,1.6354272103225043e-10,-0.0028968455735594034
-0.0028638243675231934,-0.010155567899346352,-0.00037004356272518635,0.010411147028207779,1.0678171021016869e-11,-0.003374766558408737
-0.003004423575475812,-0.009798402898013592,-0.00034657545620575547,0.010505754500627518,6.972082416609182e-13,-0.003496303455904126
-0.0029709141235798597,-0.010603491216897964,-0.00032567407470196486,0.010818653739988804,4.552271510053704e-14,-0.0034293385688215494
-0.002707956824451685,-0.010696200653910637,-0.00035760810715146363,0.010812118649482727,2.9723082803752516e-15,-0.003172264201566577
-0.002680520061403513,-0.009798523969948292,-0.00033903951407410204,0.010421243496239185,1.9407049480901079e-16,-0.0028982507064938545
-0.00270666996948421,-0.010165316984057426,-0.0003622054646257311,0.01067808922380209,7.894459849921986e-05,-0.002961633261293173
-0.00253110914491117,-0.009889519773423672,-0.0003497531288303435,0.011529568582773209,8.355431782547385e-05,-0.003353886306285858
-0.0026983346324414015,-0.009786548092961311,-0.00040313033969141543,0.010601546615362167,8.242074545705691e-05,-0.0036767625715583563
-0.0026971481274813414,-0.010140051133930683,-0.00040169546264223754,0.010209420695900917,8.096372766885906e-05,-0.003564637154340744
-0.0026971481274813414,-0.010140051133930683,-0.00040169546264223754,0.010209420695900917,8.096372766885906e-05,-0.003564637154340744
-0.0025515202432870865,-0.010372929275035858,-0.0003691971942316741,0.010015180334448814,7.953439489938319e-05,-0.002966119209304452
-0.0027909446507692337,-0.009682247415184975,-0.0004084506072103977,0.010684211738407612,7.815318531356752e-05,-0.0027773405890911818
-0.002944514388218522,-0.009941603988409042,-0.00038056334597058594,0.010982093401253223,7.681900751776993e-05,-0.0027774684131145477
-0.002985661383718252,-0.009861176833510399,-0.00041231358773075044,0.010310309939086437,7.552968600066379e-05,-0.003205664688721299
-0.002725905040279031,-0.009574612602591515,-0.00042548132478259504,0.010575797408819199,7.428284152410924e-05,-0.0036293126177042723
-0.002638783771544695,-0.009953981265425682,-0.00041860097553581,0.010097184218466282,7.307659689104185e-05,-0.004008999094367027
-0.0027148399967700243,-0.00999547727406025,-0.0005343329976312816,0.00992010347545147,7.899121555965394e-05,-0.0037467225920408964
-0.002539715962484479,-0.009480440057814121,-0.0005756440805271268,0.01071736216545105,8.445671119261533e-05,-0.003527360502630472
-0.0028347126208245754,-0.009749766439199448,-0.000580459600314498,0.010194116272032261,8.358705235878006e-05,-0.0032305456697940826
-0.002684173872694373,-0.009542983025312424,-0.0005593782989308238,0.010095852427184582,8.110619091894478e-05,-0.0033257147297263145
-0.002696465700864792,-0.010481907986104488,-0.0005405106930993497,0.009330060333013535,7.990613084984943e-05,-0.003206323366612196
-0.0024732034653425217,-0.009835191071033478,-0.0006117535522207618,0.009623423218727112,7.874098082538694e-05,-0.0032258653081953526
-0.002379066776484251,-0.009688932448625565,-0.0005870336317457259,0.009795824065804482,7.760932930978015e-05,-0.003302408382296562
-0.0025748300831764936,-0.00973875354975462,-0.0006111038383096457,0.00946181919425726,7.650973566342145e-05,-0.003391746897250414
-0.0024220719933509827,-0.009654039517045021,-0.0005590757937170565,0.00904292892664671,7.544081745436415e-05,-0.003600490279495716
-0.0023193443194031715,-0.009943457320332527,-0.0005899439565837383,0.0092026861384511,7.440138142555952e-05,-0.003404774470254779
-0.002353603020310402,-0.00979817658662796,-0.0005907844752073288,0.009308994747698307,7.339022704400122e-05,-0.0035635577514767647
-0.002138890326023102,-0.009450613521039486,-0.0005684891948476434,0.009101593866944313,7.240616105264053e-05,-0.003316280199214816
-0.0022245075087994337,-0.00917857140302658,-0.0006137651507742703,0.009330312721431255,7.144815754145384e-05,-0.003485236782580614
-0.0023327157832682133,-0.009606136940419674,-0.0006223612581379712,0.009339640848338604,7.051520515233278e-05,-0.0032776251900941133
-0.0022275904193520546,-0.00992805790156126,-0.0005885622231289744,0.009363924153149128,7.532385643571615e-05,-0.0034238111693412066
-0.002159637166187167,-0.009440992958843708,-0.0006088393274694681,0.009257107973098755,7.978968642419204e-05,-0.0035843253135681152
-0.002131987828761339,-0.009582329541444778,-0.0006164921214804053,0.009713134728372097,7.914130401331931e-05,-0.0036526652984321117
-0.002131987828761339,-0.009582329541444778,-0.0006164921214804053,0.009713134728372097,7.914130401331931e-05,-0.0036526652984321117
-0.0020892133470624685,-0.010188566520810127,-0.0005913294735364616,0.00922239851206541,7.818227459210902e-05,-0.00357174314558506
-0.0022024125792086124,-0.009658708237111568,-0.0007014631410129368,0.00962330587208271,7.629036554135382e-05,-0.0033699923660606146
-0.0022024125792086124,-0.009658708237111568,-0.0007014631410129368,0.00962330587208271,7.629036554135382e-05,-0.0033699923660606146
-0.001972584053874016,-0.009728849865496159,-0.0007246342720463872,0.009159102104604244,7.537760393461213e-05,-0.0033206320367753506
-0.0020599865820258856,-0.009305574931204319,-0.0007215961231850088,0.0090157650411129,7.448640826623887e-05,-0.0033533922396600246
-0.0019130695145577192,-0.008876540698111057,-0.0006826798780821264,0.009108194150030613,7.361605094047263e-05,-0.00332965818233788
-0.0020763284992426634,-0.009570930153131485,-0.0007815239951014519,0.008966738358139992,7.276576070580631e-05,-0.003351897234097123
-0.002001428045332432,-0.009224524721503258,-0.0008047150913625956,0.009092126972973347,7.193493365775794e-05,-0.0035482957027852535
-0.0020077943336218596,-0.009353689849376678,-0.0007777385762892663,0.009512241929769516,7.112282764865085e-05,-0.0032869423739612103
-0.0019598689395934343,-0.009428275749087334,-0.0007241163402795792,0.009241702035069466,7.779416046105325e-05,-0.003338378621265292
-0.0019763202872127295,-0.00918414257466793,-0.000710251450072974,0.009042657911777496,7.931995787657797e-05,-0.003515477292239666
-0.0019095269963145256,-0.008414845913648605,-0.0006752916378900409,0.009305672720074654,5.1790270845231134e-06,-0.0035048476420342922
-0.0019007375231012702,-0.008822567760944366,-0.0006892774254083633,0.009216397069394588,2.207900351436365e-08,-0.0032475402113050222
-0.002108164830133319,-0.008579591289162636,-0.0006125829531811178,0.009832283481955528,1.4416011717699462e-09,-0.0031372332014143467
-0.0022103646770119667,-0.009240703657269478,-0.0004598327213898301,0.009659326635301113,9.412625540106134e-11,-0.0033862292766571045
-0.0021803772542625666,-0.008978520520031452,-0.00041607205639593303,0.009421422146260738,6.145771391796728e-12,-0.004212937317788601
-0.0021216317545622587,-0.008477245457470417,-0.00045378925278782845,0.008695291355252266,8.247827645391226e-05,-0.004112198483198881
-0.002036014338955283,-0.008724167011678219,-0.00042128533823415637,0.009064176119863987,9.54246788751334e-05,-0.0038793825078755617
-0.001961560221388936,-0.009240035898983479,-0.0003908263170160353,0.00870420690625906,9.438299457542598e-05,-0.0033801652025431395
-0.0018581500044092536,-0.009104474447667599,-0.00036444386932998896,0.008626861497759819,9.250540460925549e-05,-0.003422514535486698
-0.0018848826875910163,-0.008737447671592236,-0.00034139928175136447,0.00939522311091423,9.064601908903569e-05,-0.003187979804351926
-0.0018748573493212461,-0.008820858784019947,-0.0003210970025975257,0.009165167808532715,8.885643910616636e-05,-0.003408347722142935
-0.0020315907895565033,-0.008648808114230633,-0.0003030709340237081,0.009169785305857658,8.713574788998812e-05,-0.0035611740313470364
-0.0019775903783738613,-0.00860888883471489,-0.0002869637974072248,0.009712856262922287,9.816622332436964e-05,-0.0036046942695975304
-0.0019826102070510387,-0.00896011758595705,-0.00027248248807154596,0.009326771833002567,0.0001003764191409573,-0.0035066239070147276
-0.0019380258163437247,-0.008777610026299953,-0.0002593919634819031,0.008529684506356716,9.880347352009267e-05,-0.003245138330385089
-0.0015784380957484245,-0.008726025931537151,-0.0002475018263794482,0.009301655925810337,9.704498370410874e-05,-0.003242603037506342
-0.0015784380957484245,-0.008726025931537151,-0.0002475018263794482,0.009301655925810337,9.704498370410874e-05,-0.003242603037506342
-0.0016128161223605275,-0.00872888881713152,-0.00023665529442951083,0.009119701571762562,9.533287084195763e-05,-0.003569959895685315
-0.0016656185034662485,-0.008946511894464493,-0.00022671854821965098,0.008897623047232628,0.00010825473873410374,-0.0038395978044718504
-0.0019232232589274645,-0.008917024359107018,-0.00021758262300863862,0.008627026341855526,0.00010736087278928608,-0.003998113330453634
-0.002177145332098007,-0.008958261460065842,-0.000209154692129232,0.00833350233733654,0.00010562298120930791,-0.003510718233883381
-0.0019303489243611693,-0.008987153880298138,-0.0002344474196434021,0.008092544041574001,0.00010388524970039725,-0.0035474381875246763
-0.0018024694873020053,-0.009066611528396606,-0.0002264635550091043,0.008233880624175072,0.00011489113967400044,-0.0036994509864598513
-0.0018222082871943712,-0.009129423648118973,-0.00021861102140974253,0.00852561742067337,0.00011481117689982057,-0.0040850029326975346
-0.001670820638537407,-0.009235176257789135,-0.00021127906802576035,0.007852467708289623,0.00011312177957734093,-0.004260161891579628
-0.0018091306556016207,-0.009218728169798851,-0.00020442371896933764,0.007855277508497238,0.00011158199777128175,-0.004459239076822996
-0.0014655578415840864,-0.009800128638744354,-0.00021934424876235425,0.008120176382362843,0.00021010877389926463,-0.0035585614386945963
-0.0014826664701104164,-0.009216557256877422,-0.00021290151926223189,0.008239769376814365,0.00023089286696631461,-0.0031937218736857176
-0.0014248508960008621,-0.009558837860822678,-0.00020678702276200056,0.00821281410753727,0.000230419886065647,-0.003487330162897706
-0.0014205900952219963,-0.009235460311174393,-0.0002010138996411115,0.008279198780655861,0.00024887730251066387,-0.003814182011410594
-0.0013739686692133546,-0.009550852701067924,-0.00019555416656658053,0.00842229463160038,0.00024773148470558226,-0.004245060030370951
-0.001327901496551931,-0.008770719170570374,-0.00019038350728806108,0.008292021229863167,0.00025561352958902717,-0.004210478160530329
-0.0014540352858603,-0.009643986821174622,-0.00018547882791608572,0.00789366103708744,0.00026195679674856365,-0.0037314549554139376
-0.0014674237463623285,-0.009737303480505943,-0.00013829451927449554,0.008100978098809719,0.00025374608230777085,-0.003471489530056715
-0.001383502851240337,-0.009030605666339397,-0.00012891035294160247,0.00795767828822136,0.0003939495945814997,-0.003153636120259762
-0.001459298306144774,-0.009169908240437508,-0.00012524955673143268,0.0080379918217659,0.00044608779717236757,-0.0032886434346437454
-0.0013927227118983865,-0.00953875295817852,-0.00012185677041998133,0.008247092366218567,0.0004481062351260334,-0.0036653971765190363
-0.0014958457322791219,-0.009135953150689602,-0.00011864380940096453,0.008762066252529621,0.00041611285996623337,-0.004235244821757078
-0.0014958457322791219,-0.009135953150689602,-0.00011864380940096453,0.008762066252529621,0.00041611285996623337,-0.004235244821757078
-0.0013442463241517544,-0.010095383040606976,-0.0001351350947516039,0.008056141436100006,0.00042019630200229585,-0.003963701892644167
-0.001235425123013556,-0.009382864460349083,-0.0001319356233580038,0.008031195029616356,0.00039437616942450404,-0.0034691605251282454
-0.001235425123013556,-0.009382864460349083,-0.0001319356233580038,0.008031195029616356,0.00039437616942450404,-0.0034691605251282454
-0.0012296279892325401,-0.009585726074874401,-0.0001257902622455731,0.008012381382286549,0.0004003376525361091,-0.003636797657236457
-0.0012296279892325401,-0.009585726074874401,-0.0001257902622455731,0.008012381382286549,0.0004003376525361091,-0.003636797657236457
-0.0011880922829732299,-0.0093075605109334,-0.0001229266927111894,0.008097250014543533,0.00042372848838567734,-0.003704983973875642
-0.0012948495568707585,-0.008885218761861324,-0.00013336607662495226,0.008041203953325748,0.00042776938062161207,-0.004186393693089485
-0.0012684210669249296,-0.009283187799155712,-0.000137077528052032,0.007501740474253893,0.00039326483965851367,-0.004359009210020304
-0.0014672079123556614,-0.009055713191628456,-0.00013144544209353626,0.007040723226964474,0.0004011971759609878,-0.003971695434302092
-0.0014672079123556614,-0.009055713191628456,-0.00013144544209353626,0.007040723226964474,0.0004011971759609878,-0.003971695434302092
-0.0013591316528618336,-0.009122911840677261,-0.00012875930406153202,0.008106806315481663,0.00041978544322773814,-0.0037669495213776827
-0.00119616964366287,-0.009353311732411385,-0.00013803975889459252,0.007751392666250467,0.00040697012445889413,-0.004118300508707762
-0.00112930650357157,-0.008870812132954597,-0.0001412919955328107,0.00724441884085536,0.000430479267379269,-0.004165873862802982
-0.001203844789415598,-0.009309666231274605,-0.00013879516336601228,0.006943640299141407,0.000412348541431129,-0.004348217975348234
-0.001389731070958078,-0.009001517668366432,-0.0002195708075305447,0.007849199697375298,0.0004490039427764714,-0.004189659841358662
-0.00133932672906667,-0.009062445722520351,-0.00020937141380272806,0.007544105406850576,0.00048505503218621016,-0.003981734160333872
-0.0013382736360654235,-0.009042463265359402,-0.00020006252452731133,0.007388388738036156,0.00044965342385694385,-0.00347417825832963
-0.0012612558202818036,-0.008848235942423344,-0.00022829494264442474,0.007864728569984436,0.00046619874774478376,-0.003508743131533265
-0.0011926086153835058,-0.008864780887961388,-0.0002204491465818137,0.007697189226746559,0.00044878001790493727,-0.004185836296528578
-0.0011457084910944104,-0.009163608774542809,-0.00021182185446377844,0.007058924995362759,0.00046402160660363734,-0.004053445067256689
-0.0011019848752766848,-0.009084586054086685,-0.00020382623188197613,0.006932314019650221,0.0004489081911742687,-0.003860791679471731
-0.0011031891917809844,-0.008723752573132515,-0.00022782073938287795,0.007350455038249493,0.00042340418440289795,-0.003737285966053605
-0.0010839675087481737,-0.009056502021849155,-0.00022108727716840804,0.007515557110309601,0.00044620095286518335,-0.004198083188384771
-0.0011532232165336609,-0.009230394847691059,-0.00021360785467550159,0.0070493207313120365,0.00046193436719477177,-0.004164387471973896
-0.0012283846735954285,-0.009276212193071842,-0.00022598760551773012,0.006670922506600618,0.0004604962596204132,-0.00436828751116991
-0.0011742120841518044,-0.009118045680224895,-0.00022848413209430873,0.006820548791438341,0.0004879453044850379,-0.004210967104882002
-0.0010631439508870244,-0.00953000970184803,-0.00022158192587085068,0.007248072884976864,0.000509188394062221,-0.003924957476556301
-0.001096917549148202,-0.008772983215749264,-0.00021528567594941705,0.007217104081064463,0.0004901314387097955,-0.003979811444878578
-0.001096917549148202,-0.008772983215749264,-0.00021528567594941705,0.007217104081064463,0.0004901314387097955,-0.003979811444878578
-0.0010630222968757153,-0.009635076858103275,-0.00028101340285502374,0.006781232077628374,0.0007330114021897316,-0.0041109840385615826
-0.0009493353427387774,-0.008520091883838177,-0.0002507174212951213,0.006971920374780893,0.0007439774926751852,-0.004322363529354334
-0.0009493353427387774,-0.008520091883838177,-0.0002507174212951213,0.006971920374780893,0.0007439774926751852,-0.004322363529354334
-0.0010134467156603932,-0.008941409178078175,-0.0002843090333044529,0.006849231198430061,0.0007539829821325839,-0.004174176603555679
-0.0009957486763596535,-0.00856698863208294,-0.00027068518102169037,0.006099993828684092,0.0008682760526426136,-0.0044067250564694405
-0.0010115518234670162,-0.00874792318791151,-0.0002989758213516325,0.006043220404535532,0.0009161055204458535,-0.004150919616222382
-0.0010476944735273719,-0.008774926885962486,-0.0002870075695682317,0.006654183380305767,0.0008990028291009367,-0.004346982575953007
-0.0010709729976952076,-0.008415967226028442,-0.0003002428275067359,0.006385052110999823,0.0008134989184327424,-0.004261337220668793
-0.0010081699583679438,-0.008785180747509003,-0.0003004578757099807,0.006122322753071785,0.0008176633273251355,-0.004375873599201441
-0.0009082274045795202,-0.008641035296022892,-0.00039426650619134307,0.005619229283183813,0.000788227072916925,-0.004033633507788181
-0.0008936686790548265,-0.008515536785125732,-0.0004105430271010846,0.0056924461387097836,0.0007835312280803919,-0.003815528703853488
-0.0008058334933593869,-0.008513238281011581,-0.0003768579044844955,0.00588871818035841,0.0007391481194645166,-0.004221330396831036
-0.0007258573896251619,-0.00885461363941431,-0.00041627362952567637,0.00598587142303586,0.0007329947547987103,-0.004580073989927769
-0.0007674464141018689,-0.008580582216382027,-0.00041914856410585344,0.005496365018188953,0.0006952401017770171,-0.0050042495131492615
-0.0007790990057401359,-0.009098723530769348,-0.00039516136166639626,0.005622107069939375,0.000681515084579587,-0.004709626082330942
-0.0007123418035916984,-0.00818686280399561,-0.00040663237450644374,0.006275199819356203,0.0007227924652397633,-0.00458359532058239
-0.000771375373005867,-0.008598553948104382,-0.0004010514821857214,0.006545566022396088,0.0007177651859819889,-0.004377199336886406
-0.0007459123153239489,-0.009137067012488842,-0.0003801056882366538,0.005797558464109898,0.0006886100745759904,-0.004504834301769733
-0.0006904713227413595,-0.008652858436107635,-0.0004277803818695247,0.005221322178840637,0.0007062730146571994,-0.004603601526468992
-0.000702184101101011,-0.007979972288012505,-0.00039899791590869427,0.005434800870716572,0.000749282306060195,-0.0047196317464113235
-0.0006417058175429702,-0.008801079355180264,-0.0004368438385426998,0.006161862518638372,0.0008338972111232579,-0.004782619886100292
-0.0005824955878779292,-0.008832009509205818,-0.00045100870192982256,0.005956757348030806,0.0008158094133250415,-0.004730706103146076
-0.0006082329200580716,-0.00797255802899599,-0.0004410056571941823,0.005795304197818041,0.0007714444654993713,-0.004778463859111071
-0.0005617754068225622,-0.007598424330353737,-0.0004509469144977629,0.0053532859310507774,0.0007818641606718302,-0.0050867157988250256
-0.0005228514783084393,-0.008204219862818718,-0.00044210298801772296,0.0051825991831719875,0.000850917655043304,-0.004956163931638002
-0.0005228514783084393,-0.008204219862818718,-0.00044210298801772296,0.0051825991831719875,0.000850917655043304,-0.004956163931638002
-0.00040915014687925577,-0.007795736193656921,-0.0005964665324427187,0.005739046726375818,0.0008690425311215222,-0.005102420691400766
-0.00040915014687925577,-0.007795736193656921,-0.0005964665324427187,0.005739046726375818,0.0008690425311215222,-0.005102420691400766
-0.0003750355099327862,-0.008092241361737251,-0.0005671950639225543,0.005396177060902119,0.0008804293465800583,-0.004955514334142208
-0.0003461763262748718,-0.008717622607946396,-0.0005888706655241549,0.005664426367729902,0.0009225471294485033,-0.005029069259762764
-0.00038480115472339094,-0.008477059192955494,-0.0005470728501677513,0.005451136268675327,0.0009462395100854337,-0.004451461136341095
-0.0003599967749323696,-0.007743474096059799,-0.0005667060031555593,0.005083943717181683,0.0009229768184013665,-0.004458022769540548
-0.00033750440343283117,-0.008009261451661587,-0.0005326825776137412,0.00517625454813242,0.0009189082775264978,-0.00459476700052619
-0.0003176492464262992,-0.008258860558271408,-0.0004960822989232838,0.005346300546079874,0.000842806592117995,-0.004827781114727259
-0.0003327425511088222,-0.007706095464527607,-0.0005406115669757128,0.00549296336248517,0.0008321203640662134,-0.0048116641119122505
-0.0003313449851702899,-0.008134501054883003,-0.0004860362969338894,0.005263478495180607,0.0009723667171783745,-0.0047380621545016766
-0.00031499244505539536,-0.008464827202260494,-0.000525114533957094,0.004778863862156868,0.0009466296178288758,-0.004704886581748724
-0.0002999958524014801,-0.007842786610126495,-0.0005561860161833465,0.004878607112914324,0.0008614123216830194,-0.004654633346945047
-0.0002739075571298599,-0.007754587102681398,-0.0005426830030046403,0.0052184173837304115,0.0007870381814427674,-0.00503262784332037
-0.00026249405345879495,-0.007895641028881073,-0.0005053569911979139,0.004838270600885153,0.0007865045336075127,-0.005140663590282202
-0.0002519939444027841,-0.007665544282644987,-0.000587335554882884,0.0046325260773301125,0.000799855450168252,-0.005313816014677286
-0.00024230241251643747,-0.008152003400027752,-0.0006210227147676051,0.00437471317127347,0.0008111195638775826,-0.005117586813867092
-0.0002333283773623407,-0.007947733625769615,-0.0006212812731973827,0.0042698620818555355,0.0008139717974700034,-0.004922705702483654
-0.00022499484475702047,-0.00829409807920456,-0.0005920300027355552,0.005010765511542559,0.0007553331670351326,-0.0050576128996908665
-0.0002172363892896101,-0.007839292287826538,-0.0006095105782151222,0.005059755872935057,0.0008328631520271301,-0.0050124721601605415
-0.00020999531261622906,-0.00758074875921011,-0.0005697549786418676,0.004814779385924339,0.000846402021124959,-0.004979242570698261
-0.00020322159980423748,-0.0075662583112716675,-0.0006473453831858933,0.004298316780477762,0.0007987577700987458,-0.00517059862613678
-0.00019687057647388428,-0.007933062501251698,-0.0006832982180640101,0.00424079829826951,0.0008065385045483708,-0.005188280250877142
-0.0001148748560808599,-0.007326101418584585,-0.0007048812694847584,0.004047020338475704,0.0008568744524382055,-0.005137416534125805
-4.088610876351595e-05,-0.007518650498241186,-0.0006374046788550913,0.003946623764932156,0.0008904894348233938,-0.00488358736038208
-4.088610876351595e-05,-0.007518650498241186,-0.0006374046788550913,0.003946623764932156,0.0008904894348233938,-0.00488358736038208
-3.476138590485789e-05,-0.007384080905467272,-0.0006580573972314596,0.0044394684955477715,0.0008765581296756864,-0.004935643635690212
-3.340973853482865e-05,-0.007666970137506723,-0.000709928513970226,0.005082463379949331,0.0008785689133219421,-0.005572780035436153
-6.0626782214967534e-05,-0.007397548761218786,-0.0007724610040895641,0.004760554991662502,0.0009060263982973993,-0.005780142266303301
-6.214897439349443e-05,-0.007059257943183184,-0.0006886596092954278,0.004599723499268293,0.0009161297348327935,-0.005786469671875238
-6.012148151057772e-05,-0.0071963099762797356,-0.0007111646118573844,0.004399958997964859,0.0008471411420032382,-0.005342390388250351
-3.0264631277532317e-05,-0.007879151962697506,-0.0007277699187397957,0.004064726177603006,0.0008413934265263379,-0.005670891143381596
-2.8194468541187234e-05,-0.00732813635841012,-0.0006722846883349121,0.003974242135882378,0.0008475572685711086,-0.005530735477805138
-2.732340362854302e-05,-0.0073343198746442795,-0.0007086473051458597,0.004359691869467497,0.0008350657881237566,-0.005833225790411234
-2.6518160666455515e-05,-0.0073155006393790245,-0.0007213109056465328,0.0048392596654593945,0.0007981638773344457,-0.005875010974705219
-2.575917460490018e-05,-0.007309283129870892,-0.0006479293224401772,0.004469492472708225,0.0007495082099922001,-0.0054130335338413715
-2.5042443667189218e-05,-0.00693057244643569,-0.0006709352601319551,0.00402074446901679,0.000756225548684597,-0.004973493050783873
-2.4364448108826764e-05,-0.0076559437438845634,-0.0006930463132448494,0.003781547537073493,0.0007711546495556831,-0.005233954172581434
-2.3722261175862513e-05,-0.007699050009250641,-0.0006998220342211425,0.0036058174446225166,0.0007075798930600286,-0.005468280054628849
-2.311308344360441e-05,-0.007122104521840811,-0.0007187503506429493,0.0036635661963373423,0.0006979348254390061,-0.005434031598269939
-2.198392030550167e-05,-0.006970654707401991,-0.0007587773143313825,0.00389772467315197,0.0007412933628074825,-0.00544026168063283
-2.145975668099709e-05,-0.007658637594431639,-0.0007264941814355552,0.0038643989246338606,0.0007453521247953176,-0.005636225920170546
-2.879100406971702e-07,-0.007464470341801643,-0.0010254845255985856,0.0037481102626770735,0.0008201564196497202,-0.005424750968813896
-3.862680397759277e-09,-0.006911692209541798,-0.0010087755508720875,0.0037183992099016905,0.0007985386182554066,-0.005898742936551571
-5.182278217663594e-11,-0.006900227162986994,-0.00099359848536551,0.0037381253205239773,0.0008114247466437519,-0.005633846390992403
-6.952687666046675e-13,-0.007622607983648777,-0.0009016069234348834,0.0035263223107904196,0.0008147557382471859,-0.00537570845335722
-9.327918144385987e-15,-0.007615864742547274,-0.0009908101055771112,0.003357257694005966,0.0007340055308304727,-0.005406967364251614
-1.2514594158327067e-16,-0.006874171085655689,-0.0008824488031677902,0.003125468734651804,0.0007453098078258336,-0.0055675990879535675
-1.6789924923987766e-18,-0.00684867100790143,-0.0008835206972435117,0.002904728753492236,0.0007083261152729392,-0.005257719662040472
-2.25258276774838e-20,-0.007170489523559809,-0.0008854591869749129,0.002962952246889472,0.0007295443210750818,-0.005812325049191713
-3.022127137643655e-22,-0.006969491019845009,-0.0008775166934356093,0.003357034409418702,0.0007225433364510536,-0.005507091525942087
-4.054569531284589e-24,-0.006918411236256361,-0.0008677025325596333,0.003395435167476535,0.0007652080967091024,-0.005731556098908186
-5.439722259634079e-26,-0.00709210429340601,-0.0007610550965182483,0.0034365064930170774,0.0009524493361823261,-0.005492525640875101
-5.439722259634079e-26,-0.00709210429340601,-0.0007610550965182483,0.0034365064930170774,0.0009524493361823261,-0.005492525640875101
-7.298081375627076e-28,-0.007104299496859312,-0.0007766392081975937,0.003198664402589202,0.0010039039188995957,-0.00534105347469449
-9.791307466643183e-30,-0.007599656004458666,-0.0007569845183752477,0.002933342242613435,0.0010698012774810195,-0.0055711399763822556
-1.3136290429761162e-31,-0.006956333760172129,-0.0007127355202101171,0.0029940505046397448,0.001146517926827073,-0.005528562236577272
-1.7624010477725933e-33,-0.006243204232305288,-0.0006610793061554432,0.002930915215983987,0.0011921513359993696,-0.005765828769654036
-2.3644862236923958e-35,-0.0068552810698747635,-0.000680383644066751,0.0026242698077112436,0.0011436265194788575,-0.0057004289701581
-3.1722599119540295e-37,-0.007042751647531986,-0.0007053003646433353,0.0026216022670269012,0.0011051706969738007,-0.00582099799066782
-4.255991465982655e-39,-0.0073173148557543755,-0.0007252442883327603,0.002656530123203993,0.0010602859547361732,-0.00564847607165575
-5.710010982430765e-41,-0.0067898272536695,-0.000671548186801374,0.002480747178196907,0.0010405716020613909,-0.005818773992359638
-7.66510259985675e-43,-0.006608976982533932,-0.0008063727873377502,0.0025604397524148226,0.0010882825590670109,-0.00601017102599144
-9.80908925027372e-45,-0.006780093070119619,-0.000817900407128036,0.002694567898288369,0.0011601282749325037,-0.005925003904849291
-0.0,-0.007056398782879114,-0.0008191352826543152,0.002544185845181346,0.0013298667035996914,-0.006200399715453386
0.0,-0.006615281570702791,-0.0008045278373174369,0.002604975365102291,0.001306485035456717,-0.00640280544757843
0.00011245026689721271,-0.0063801477663218975,-0.0007538606878370047,0.00268938229419291,0.001318987924605608,-0.006248779594898224
0.0002968100307043642,-0.00699044531211257,-0.0007752002566121519,0.0024897498078644276,0.001192979863844812,-0.006443022284656763
0.00027847636374644935,-0.00680856266990304,-0.0007908373954705894,0.0023268035147339106,0.0011445353738963604,-0.006256011314690113
0.000262246816419065,-0.006343827582895756,-0.0008078283281065524,0.0020892147440463305,0.0009941281750798225,-0.006413938011974096
0.00029532526968978345,-0.006811634171754122,-0.0010365748312324286,0.0017517120577394962,0.0009405360906384885,-0.0065469080582261086
0.00028181500965729356,-0.006920501124113798,-0.001016467111185193,0.0016543171368539333,0.0009318905649706721,-0.00624551996588707
0.0002678601013030857,-0.006576512940227985,-0.0009996930602937937,0.00159654940944165,0.000943208928219974,-0.006342859473079443
0.00025520025519654155,-0.006310454104095697,-0.0009259569924324751,0.0017356799216941,0.0011723723728209734,-0.005968400742858648
0.00024368330196011811,-0.0060379235073924065,-0.0010244845179840922,0.001658491906709969,0.0011974769877269864,-0.006000540219247341
0.0002586494665592909,-0.005593767389655113,-0.0010051756398752332,0.0019185194978490472,0.0011532381176948547,-0.006055275909602642
0.00026058225193992257,-0.004680443089455366,-0.0009901686571538448,0.0018097416032105684,0.0011554684024304152,-0.005939309950917959
0.0002870065800379962,-0.004846029449254274,-0.0009109046077355742,0.0017563484143465757,0.001131830271333456,-0.006255730055272579
0.0004133489273954183,-0.0050988150760531425,-0.0010479105403646827,0.0015576333971694112,0.0011036510113626719,-0.006615375634282827
0.00045109775965102017,-0.00522910850122571,-0.001037498703226447,0.0014665849739685655,0.0010770467342808843,-0.006775713060051203
0.00048119205166585743,-0.005279442295432091,-0.0010288456687703729,0.0012368338648229837,0.0011976694222539663,-0.006532439962029457
0.00048119205166585743,-0.005279442295432091,-0.0010288456687703729,0.0012368338648229837,0.0011976694222539663,-0.006532439962029457
0.0010796475689858198,-0.004663048777729273,-0.001337031600996852,0.0011614912655204535,0.0011517696548253298,-0.006210001185536385
0.0010680496925488114,-0.005120774731040001,-0.0012532137334346771,0.0011897434014827013,0.0011309661203995347,-0.006250393111258745
0.0008937661768868566,-0.005517994984984398,-0.0011937087401747704,0.0012029922800138593,0.0011209655785933137,-0.005940453615039587
0.0008925336878746748,-0.005090321414172649,-0.0010951540898531675,0.001238054595887661,0.0012024963507428765,-0.00618927413597703
0.0008557502878829837,-0.004959980025887489,-0.0009112238767556846,0.0011803645174950361,0.0011975480010733008,-0.006408791523426771
0.0007812244584783912,-0.004878304898738861,-0.0009071077220141888,0.0011356670875102282,0.001461263163946569,-0.006275230087339878
0.0008745965897105634,-0.004878647159785032,-0.0009059442090801895,0.0010531176812946796,0.0015655072638764977,-0.006630627438426018
0.0009178798063658178,-0.005129560362547636,-0.0009126284276135266,0.0010282949078828096,0.0017752741696313024,-0.007120619993656874
0.0015980424359440804,-0.004989955574274063,-0.000987643375992775,0.0009974223794415593,0.001851545413956046,-0.006985199172049761
0.0013718601549044251,-0.004605186637490988,-0.000964272883720696,0.0008774652960710227,0.0014308696845546365,-0.006059176288545132
0.0011625569313764572,-0.004698082804679871,-0.000889696937520057,0.0007989939185790718,0.0013114750618115067,-0.006461337208747864
0.0010893840808421373,-0.004737541079521179,-0.0009038805146701634,0.0006845683674328029,0.001157076912932098,-0.0067599196918308735
0.0010692939395084977,-0.004759551957249641,-0.0009031989029608667,0.0007042908691801131,0.0011112847132608294,-0.007389833219349384
0.001176358899101615,-0.00450921431183815,-0.0008989291964098811,0.0006292916950769722,0.0009223923552781343,-0.00680334260687232
0.001353737199679017,-0.0049743945710361,-0.0008899332024157047,0.000563932815566659,0.0009790913900360465,-0.006860650610178709
0.00198921631090343,-0.004998104181140661,-0.0008714089635759592,0.0005105686723254621,0.0010043476941064,-0.0068436977453529835
0.00212568836286664,-0.004805752541869879,-0.0009028904023580253,0.0005334173329174519,0.0012606653617694974,-0.007105480879545212
0.0021318928338587284,-0.004581160843372345,-0.0009027790511026978,0.0005001479876227677,0.0013384767808020115,-0.006549031473696232
0.0018583913333714008,-0.004314602818340063,-0.0009023994207382202,0.00046389218186959624,0.001483393833041191,-0.0064191557466983795
0.0016374042024835944,-0.004372722003608942,-0.00099882110953331,0.0004320935404393822,0.0015038074925541878,-0.006244354415684938
0.001433987868949771,-0.004572818987071514,-0.0010009310208261013,0.0004043464141432196,0.001394420862197876,-0.006800835486501455
0.0015581946354359388,-0.004644528031349182,-0.0009893064852803946,0.00037994858575984836,0.0013046585954725742,-0.006989472080022097
0.0025594562757760286,-0.0045083328150212765,-0.0009831611532717943,0.00035832860157825053,0.0012199479388073087,-0.006799347698688507
0.0025594562757760286,-0.0045083328150212765,-0.0009831611532717943,0.00035832860157825053,0.0012199479388073087,-0.006799347698688507
0.0025822995230555534,-0.00464265700429678,-0.0011372852604836226,0.00033903823350556195,0.0011584727326408029,-0.006407649256289005
0.0025328684132546186,-0.004786172416061163,-0.0011342682410031557,0.00032171732163988054,0.0011528844479471445,-0.0069320667535066605
0.0024674800224602222,-0.004651918075978756,-0.001066591590642929,0.0003060822782572359,0.0011468842858448625,-0.007006691303104162
0.0024891907814890146,-0.004332296550273895,-0.0009683953248895705,0.00029189742053858936,0.001122265704907477,-0.006962707731872797
0.0024784645065665245,-0.004413065034896135,-0.001027595135383308,0.0002789691789075732,0.001209935755468905,-0.006914997007697821
0.002750745275989175,-0.004641781561076641,-0.0010072918375954032,0.0002671373658813536,0.0012743650004267693,-0.00712004816159606
0.002854415448382497,-0.0046537648886442184,-0.001021606964059174,0.0002562683366704732,0.0013493327423930168,-0.0070217689499258995
0.0030815566424280405,-0.004358476493507624,-0.0011163937160745263,0.00024625015794299543,0.001317233545705676,-0.006903599016368389
0.0033005811274051666,-0.004466255195438862,-0.0011003556428477168,0.00023698537552263588,0.0012165115913376212,-0.006880051922053099
0.0032492794562131166,-0.004185356665402651,-0.0010664842557162046,0.00022839242592453957,0.001186456298455596,-0.007210023235529661
0.003146476112306118,-0.004230675753206015,-0.0010421823244541883,0.0002204017509939149,0.0011476147919893265,-0.00769808841869235
0.0031393268145620823,-0.004231351427733898,-0.0010027505923062563,0.0002129506756318733,0.0011295567965134978,-0.00748051842674613
0.0035274315159767866,-0.004510155878961086,-0.001064797630533576,0.00019946489192079753,0.001274478854611516,-0.006376282777637243
0.004274086095392704,-0.004657094366848469,-0.0009851936483755708,9.849406342254952e-05,0.001378666958771646,-0.007106502540409565
0.004206023644655943,-0.004325545858591795,-0.0011099382536485791,6.507724901894107e-05,0.0014440561644732952,-0.0073991152457892895
0.0035520822275429964,-0.00431305356323719,-0.0010882086353376508,6.091998511692509e-05,0.0013920345809310675,-0.007663982920348644
0.0036050763446837664,-0.004540655296295881,-0.0010642430279403925,5.8801790146389976e-05,0.001313220476731658,-0.007306690327823162
0.0038589208852499723,-0.004537015222012997,-0.0012771786423400044,3.22332234645728e-05,0.0013521098298951983,-0.007259567268192768
0.004430109169334173,-0.004291222896426916,-0.0012264993274584413,2.783952368190512e-05,0.001317602233029902,-0.007325234357267618
0.004346249625086784,-0.004365250468254089,-0.0011774084996432066,2.6788691684487276e-05,0.001387177617289126,-0.007487948518246412
0.00418746005743742,-0.004352213349193335,-0.0013131884625181556,3.4336064800299937e-06,0.0013742914889007807,-0.00749040674418211
0.004482196643948555,-0.0044118245132267475,-0.0012787338346242905,2.241899750288212e-07,0.0013136300258338451,-0.007681016810238361
0.004726378712803125,-0.004602062050253153,-0.0012270646402612329,1.4638002809874706e-08,0.0013849386014044285,-0.007516121957451105
0.004908780101686716,-0.004217035602778196,-0.0013081744546070695,9.557570290752437e-10,0.0013788548531010747,-0.0075898985378444195
0.004817345179617405,-0.004311100114136934,-0.0012734471820294857,6.240410271862729e-11,0.0014658275758847594,-0.007616253104060888
0.004893357865512371,-0.004287272691726685,-0.0012102775508537889,4.07454191914125e-12,0.0016377263236790895,-0.007645386271178722
0.004825247917324305,-0.004045560024678707,-0.0011690171668305993,2.660384933184101e-13,0.0015260789077728987,-0.007674290332943201
0.004825247917324305,-0.004045560024678707,-0.0011690171668305993,2.660384933184101e-13,0.0015260789077728987,-0.007674290332943201
0.004862647969275713,-0.003992023877799511,-0.001251130597665906,1.7370411275270843e-14,0.0015954009722918272,-0.007876883260905743
0.004803326912224293,-0.004389263689517975,-0.0012408114271238446,-0.0010788897052407265,0.001600621035322547,-0.00810702983289957
0.005026884377002716,-0.004467083141207695,-0.0014565743040293455,-0.0011431783204898238,0.0014994905795902014,-0.00781244458630681
0.005090980790555477,-0.0041072433814406395,-0.0013909079134464264,-0.0011467752046883106,0.0016091064317151904,-0.007547792047262192
0.005141547881066799,-0.0038081558886915445,-0.0013149823062121868,-0.0013141543604433537,0.0017072559567168355,-0.008128812536597252
0.005466642323881388,-0.0037079406902194023,-0.0013784565962851048,-0.0015129025559872389,0.0018608106765896082,-0.00796434935182333
0.0053482637740671635,-0.0037081376649439335,-0.0013275683159008622,-0.002629254013299942,0.00186537962872535,-0.007976935245096684
0.005341947078704834,-0.00421330938115716,-0.0012656021863222122,-0.0034344273153692484,0.0018543737241998315,-0.007969156838953495
0.005555849056690931,-0.004071677569299936,-0.001369122532196343,-0.003762555541470647,0.0017105571459978819,-0.008952525444328785
0.005985816940665245,-0.0038761727046221495,-0.001321567571721971,-0.003831051290035248,0.0014654238475486636,-0.008805363439023495
0.005868080072104931,-0.003747390117496252,-0.001286310376599431,-0.003464528126642108,0.0014999283012002707,-0.008297217078506947
0.0060112448409199715,-0.0034015874844044447,-0.0014608143828809261,-0.004497679881751537,0.0017417988274246454,-0.008572007529437542
0.007120274007320404,-0.00353112630546093,-0.0013996103079989552,-0.004781769588589668,0.0018254799069836736,-0.008525392040610313
0.0065671405754983425,-0.004205332603305578,-0.001337762805633247,-0.005128674674779177,0.0018588427919894457,-0.008378373458981514
0.006311980076134205,-0.004068995825946331,-0.0013714471133425832,-0.005249734967947006,0.0017470776801928878,-0.008611313998699188
0.006344622932374477,-0.003915467299520969,-0.0013206376461312175,-0.005300749093294144,0.0018605053192004561,-0.008711500093340874
0.006170556880533695,-0.003913747146725655,-0.0012729992158710957,-0.005041148979216814,0.0017499008681625128,-0.00890403799712658
0.006650920957326889,-0.0035033284220844507,-0.001317851128987968,-0.005304274149239063,0.0018232662696391344,-0.008725479245185852
0.006739466916769743,-0.003412797814235091,-0.0012819853145629168,-0.005637230817228556,0.0018517693970352411,-0.008319566026329994
0.0066527109593153,-0.003421229310333729,-0.0012459002900868654,-0.005964175332337618,0.002080884063616395,-0.00824801530689001
0.006363091990351677,-0.0034615308977663517,-0.0013341467129066586,-0.006050951313227415,0.0019432404078543186,-0.008929017931222916
0.00681344885379076,-0.003464089473709464,-0.0014986532041803002,-0.0058189877308905125,0.0020884221885353327,-0.008801664225757122
0.0068846410140395164,-0.0035948564764112234,-0.001437086844816804,-0.0057729752734303474,0.0020567181054502726,-0.009074241854250431
0.007092539221048355,-0.0037864111363887787,-0.0013707755133509636,-0.005869199521839619,0.0020761829800903797,-0.0086463438346982
0.006938779726624489,-0.0037922924384474754,-0.001502797706052661,-0.005436514969915152,0.001953510334715247,-0.008880102075636387
0.0072974273934960365,-0.003394009079784155,-0.001516832853667438,-0.0060969069600105286,0.001970193814486265,-0.009174136444926262
0.007553170435130596,-0.0034425565972924232,-0.0014341776259243488,-0.0065887244418263435,0.0018566992366686463,-0.008810563012957573
0.007473544683307409,-0.0037450790405273438,-0.0015600278275087476,-0.0065363007597625256,0.0018688396085053682,-0.008671953342854977
0.007473544683307409,-0.0037450790405273438,-0.0015600278275087476,-0.0065363007597625256,0.0018688396085053682,-0.008671953342854977
0.007490482646971941,-0.003405916504561901,-0.0014752314891666174,-0.006279597990214825,0.0018209991976618767,-0.008693522773683071
0.00764122698456049,-0.003486907808110118,-0.0018077491549775004,-0.006304021459072828,0.0017963306745514274,-0.008691011928021908
0.00767540093511343,-0.003178223269060254,-0.0016576284542679787,-0.00682740518823266,0.0018209752161055803,-0.009291242808103561
0.007600105833262205,-0.0035200470592826605,-0.001737952814437449,-0.007032948080450296,0.0018404772272333503,-0.009156494401395321
0.007655302993953228,-0.0036935110110789537,-0.0017590320203453302,-0.006993812043219805,0.001747475704178214,-0.009443243965506554
0.007715973537415266,-0.0031213508918881416,-0.0018113602418452501,-0.007120236288756132,0.0018754221964627504,-0.008629918098449707
0.007980850525200367,-0.003449693089351058,-0.0018254261231049895,-0.006643765140324831,0.002199876820668578,-0.00868531409651041
0.007645552046597004,-0.0037378899287432432,-0.0016442373162135482,-0.006626424845308065,0.002351261442527175,-0.008663991466164589
0.008063615299761295,-0.003755052573978901,-0.00171767664141953,-0.007149007637053728,0.002512216567993164,-0.008476097136735916
0.00855038408190012,-0.003679228015244007,-0.0017944040009751916,-0.007397366221994162,0.0023544065188616514,-0.008529052138328552
0.008423213846981525,-0.003231040434911847,-0.001810926478356123,-0.007424165494740009,0.002221850212663412,-0.00881885550916195
0.00777495838701725,-0.0030871788039803505,-0.001877555507235229,-0.006933645345270634,0.0018407914321869612,-0.008623876608908176
0.008244491182267666,-0.0033819444943219423,-0.001761903869919479,-0.007343475241214037,0.001763340551406145,-0.008474085479974747
0.008373669348657131,-0.0035014755558222532,-0.0019431763794273138,-0.008074416778981686,0.00191310397349298,-0.008701321668922901
0.008172553032636642,-0.0034262975677847862,-0.002030225470662117,-0.007866494357585907,0.002153581939637661,-0.008352760225534439
0.00954509899020195,-0.003456505248323083,-0.002052051480859518,-0.007720648776739836,0.0022923401556909084,-0.008455585688352585
0.009027039632201195,-0.003303359029814601,-0.0018555164569988847,-0.008512362837791443,0.002292045159265399,-0.008922324515879154
0.008519981056451797,-0.0034469864331185818,-0.0018693710444495082,-0.008132458664476871,0.002078381832689047,-0.00920939352363348
0.00874899048358202,-0.003388409037142992,-0.0017510541947558522,-0.008008099161088467,0.0017067363951355219,-0.008890260942280293
0.00878836214542389,-0.002978443168103695,-0.0019287059549242258,-0.008481393568217754,0.0015929033979773521,-0.009321118704974651
0.008574307896196842,-0.0029848578851670027,-0.0020329749677330256,-0.00843007117509842,0.001511228270828724,-0.009459137916564941
0.0060464804992079735,-0.003155240323394537,-0.002060697181150317,-0.00830174796283245,0.001787252607755363,-0.009343763813376427
0.005859525874257088,-0.0031294801738113165,-0.0018694369355216622,-0.00789429247379303,0.002337086945772171,-0.009468285366892815
0.0071292417123913765,-0.0032694879919290543,-0.0018780010286718607,-0.008838246576488018,0.002554221311584115,-0.009675629436969757
0.007562978658825159,-0.003113032318651676,-0.001774768577888608,-0.009403112344443798,0.0026493496261537075,-0.0095292329788208
0.006569705903530121,-0.0034769540652632713,-0.0019136271439492702,-0.0086561543866992,0.002348468406125903,-0.009301506914198399
0.00643761083483696,-0.0032639303244650364,-0.0018047898774966598,-0.008579292334616184,0.0023897839710116386,-0.009645117446780205
0.0070001170970499516,-0.003189390292391181,-0.0019375570118427277,-0.009782243520021439,0.002079135738313198,-0.00952224526554346
0.006875884253531694,-0.0031910391990095377,-0.0018117668805643916,-0.008448711596429348,0.0021533581893891096,-0.009320048615336418
0.007252180483192205,-0.0027191753033548594,-0.001932649640366435,-0.00838265847414732,0.001890367828309536,-0.00937748234719038
0.007252180483192205,-0.0027191753033548594,-0.001932649640366435,-0.00838265847414732,0.001890367828309536,-0.00937748234719038
0.006862999405711889,-0.00267727836035192,-0.0020370949059724808,-0.010022916831076145,0.0017654818948358297,-0.009461530484259129
0.006862999405711889,-0.00267727836035192,-0.0020370949059724808,-0.010022916831076145,0.0017654818948358297,-0.009461530484259129
0.0071736047975718975,-0.0028008860535919666,-0.001940396148711443,-0.009966416284441948,0.001746946363709867,-0.009959842078387737
0.006998972035944462,-0.0028933794237673283,-0.0021340399980545044,-0.010306320153176785,0.0016443795757368207,-0.009895632974803448
0.006821948103606701,-0.0026668545324355364,-0.002128906548023224,-0.009836429730057716,0.001664741663262248,-0.01026424765586853
0.007296781521290541,-0.0025151364970952272,-0.002054306911304593,-0.010233717039227486,0.0017057583900168538,-0.009947342798113823
0.007972215302288532,-0.0025861780159175396,-0.0020600506104528904,-0.010079449974000454,0.0019919013138860464,-0.00931696966290474
0.0077489144168794155,-0.002454902045428753,-0.002071582479402423,-0.009582191705703735,0.002938065445050597,-0.009734106250107288
0.007425892632454634,-0.0025418123695999384,-0.002049469156190753,-0.009763338603079319,0.003182175336405635,-0.011328168213367462
0.007824438624083996,-0.0024023500736802816,-0.00203034863807261,-0.009877673350274563,0.002998337848111987,-0.009826418943703175
0.008052012883126736,-0.0026710268575698137,-0.001945911324582994,-0.010507347993552685,0.0023268689401447773,-0.009583668783307076
0.007779083680361509,-0.0025040018372237682,-0.0020251646637916565,-0.010454973205924034,0.002354992087930441,-0.009835709817707539
0.008431604132056236,-0.0025780193973332644,-0.0018254845635965466,-0.00956763606518507,0.0024380539543926716,-0.00993720255792141
0.008023567497730255,-0.0026693232357501984,-0.0020185853354632854,-0.009865326806902885,0.002443194156512618,-0.010339547879993916
0.00782451406121254,-0.0024494051467627287,-0.0018828153843060136,-0.010573351755738258,0.002712866524234414,-0.00988407339900732
0.007622392848134041,-0.0025256925728172064,-0.0021492373198270798,-0.009892693720757961,0.0025279191322624683,-0.009964248165488243
0.008059529587626457,-0.002688493113964796,-0.0023156050592660904,-0.00970760453492403,0.002389610046520829,-0.009775514714419842
0.007978122681379318,-0.002499984111636877,-0.0022263999562710524,-0.010263782925903797,0.002308312337845564,-0.009506049565970898
0.008662817068397999,-0.0025602965615689754,-0.0022271142806857824,-0.00998414121568203,0.0023765158839523792,-0.00999749731272459
0.008215648122131824,-0.0023654289543628693,-0.0021197516471147537,-0.010816466994583607,0.0023846598342061043,-0.010053726844489574
0.00856789667159319,-0.002269526245072484,-0.0022365315817296505,-0.011776002123951912,0.0025484783109277487,-0.010016524232923985
0.008594631217420101,-0.0022039867471903563,-0.0020600627176463604,-0.01158000249415636,0.0022857810836285353,-0.010289367288351059
0.0078063951805233955,-0.0021111981477588415,-0.0021809672471135855,-0.011440194211900234,0.002203576033934951,-0.010326607152819633
0.008397839963436127,-0.002072835573926568,-0.0019685139413923025,-0.01045535784214735,0.0022900972981005907,-0.010377708822488785
0.009010802023112774,-0.0022725884336978197,-0.001934078405611217,-0.010792587883770466,0.0023170222993940115,-0.010758303105831146
0.008811431005597115,-0.0021569698583334684,-0.001956208376213908,-0.011828719638288021,0.0026212900411337614,-0.01101054809987545
0.008926475420594215,-0.0020971675403416157,-0.0021883922163397074,-0.011648611165583134,0.002816963940858841,-0.01056490559130907
0.008926475420594215,-0.0020971675403416157,-0.0021883922163397074,-0.011648611165583134,0.002816963940858841,-0.01056490559130907
0.009105850011110306,-0.002027018927037716,-0.002351149218156934,-0.011570390313863754,0.002700961194932461,-0.010758285410702229
0.00924734678119421,-0.002024784917011857,-0.0022874583955854177,-0.01168758049607277,0.0027506211772561073,-0.010587789118289948
0.009012535214424133,-0.0017925335559993982,-0.0022836215794086456,-0.011451282538473606,0.002834320068359375,-0.010794122703373432
0.0094075258821249,-0.001761555322445929,-0.0020583660807460546,-0.011533618904650211,0.002785574411973357,-0.011070997454226017
0.009078244678676128,-0.0018112793331965804,-0.002080006990581751,-0.01118437945842743,0.0026940556708723307,-0.010201528668403625
0.0089942067861557,-0.0018275207839906216,-0.002393208909779787,-0.011449610814452171,0.0029025874100625515,-0.00999628659337759
0.009572205133736134,-0.001883823424577713,-0.0023225059267133474,-0.01118424627929926,0.0029317152220755816,-0.010569638572633266
0.009729566983878613,-0.0016752619994804263,-0.0024132102262228727,-0.010650974698364735,0.0029714307747781277,-0.010396629571914673
0.009491227567195892,-0.0015643552178516984,-0.0023023763205856085,-0.01103285513818264,0.0031694569624960423,-0.01044509932398796
0.009489326737821102,-0.0014782194048166275,-0.0024107492063194513,-0.010996106080710888,0.0030188732780516148,-0.010793598368763924
0.010052863508462906,-0.0015109858941286802,-0.0024056024849414825,-0.011067291721701622,0.0027712814044207335,-0.011020425707101822
0.00966183003038168,-0.001570058986544609,-0.00230153976008296,-0.011203095316886902,0.0025209076702594757,-0.011063018813729286
0.009457284584641457,-0.0015851440839469433,-0.002469063503667712,-0.011110857129096985,0.0022155463229864836,-0.010618166998028755
0.009500530548393726,-0.0014817197807133198,-0.0023933695629239082,-0.011559651233255863,0.002209041966125369,-0.010879564099013805
0.009679851122200489,-0.0013841778272762895,-0.0026911504101008177,-0.01199331134557724,0.002548810327425599,-0.010645615868270397
0.010548913851380348,-0.0013839652528986335,-0.0023315486032515764,-0.01171438954770565,0.002803744748234749,-0.010568195953965187
0.00959800649434328,-0.001329833292402327,-0.0023879834916442633,-0.01123355608433485,0.0028656490612775087,-0.01115543581545353
0.010028636083006859,-0.0012673818273469806,-0.0021541418973356485,-0.011651554144918919,0.0027093433309346437,-0.011606632731854916
0.010068997740745544,-0.0013664388097822666,-0.002056597964838147,-0.012078134343028069,0.002728645224124193,-0.011727514676749706
0.009676325134932995,-0.0013185965362936258,-0.002411490771919489,-0.012110008858144283,0.002751253079622984,-0.011791680008172989
0.010538012720644474,-0.0012585907243192196,-0.0027700720820575953,-0.012521248310804367,0.002595443045720458,-0.01129821129143238
0.009638737887144089,-0.0011629980290308595,-0.0026418878696858883,-0.0115980114787817,0.0025286986492574215,-0.011215755715966225
0.010181652382016182,-0.001231360132806003,-0.002319375751540065,-0.011880986392498016,0.002591404365375638,-0.011020651087164879
0.010004285722970963,-0.001176494057290256,-0.002163645112887025,-0.011927755549550056,0.002966021653264761,-0.011311178095638752
0.010248391889035702,-0.0010733919916674495,-0.002200627001002431,-0.012398981489241123,0.0029474443290382624,-0.011324983090162277
0.00974234938621521,-0.0011361431097611785,-0.002201647264882922,-0.012418794445693493,0.0030886742752045393,-0.011322801932692528
0.010237056761980057,-0.0011087388265877962,-0.0024732404854148626,-0.012675434350967407,0.002944610547274351,-0.011502308771014214
0.010237056761980057,-0.0011087388265877962,-0.0024732404854148626,-0.012675434350967407,0.002944610547274351,-0.011502308771014214
0.01091361790895462,-0.0010813000844791532,-0.0027828009333461523,-0.012922648340463638,0.0028030092362314463,-0.011074861511588097
0.010402199812233448,-0.0010918346233665943,-0.002645798260346055,-0.012484096921980381,0.0025809830985963345,-0.010828792117536068
0.010713828727602959,-0.001054440508596599,-0.002373568946495652,-0.013119617477059364,0.0025209130253642797,-0.010806442238390446
0.010006437078118324,-0.0008876169449649751,-0.002160279080271721,-0.01295972429215908,0.002586271148175001,-0.010878671891987324
0.010517099872231483,-0.0007622516131959856,-0.002089274348691106,-0.013317394070327282,0.002522326074540615,-0.01169676799327135
0.010532091371715069,-0.0007654583896510303,-0.00236391369253397,-0.012932234443724155,0.002824791008606553,-0.011565916240215302
0.010450266301631927,-0.0006931998068466783,-0.002644296968355775,-0.013042166829109192,0.0029993164353072643,-0.011320830322802067
0.011007490567862988,-0.0007100265356712043,-0.0024669156409800053,-0.01280899066478014,0.002926454646512866,-0.011378694325685501
0.01100472453981638,-0.0006539700552821159,-0.00237196939997375,-0.012775451876223087,0.0028504321817308664,-0.011155098676681519
0.011165867559611797,-0.0005146936746314168,-0.0021777674555778503,-0.013021226041018963,0.003088702680543065,-0.011406801640987396
0.011608508415520191,-0.00046105077490210533,-0.0021050050854682922,-0.013086831197142601,0.003233014838770032,-0.012154940515756607
0.011374883353710175,-0.000263604597421363,-0.002304478781297803,-0.013562483713030815,0.003173202509060502,-0.011753403581678867
0.011012228205800056,0.0008787365513853729,-0.0024138859007507563,-0.013535370118916035,0.0033070764038711786,-0.012059330008924007
0.010749485343694687,0.0006081702304072678,-0.0025946209207177162,-0.013158035464584827,0.0031860312446951866,-0.012008975259959698
0.011221630498766899,0.00031185703119263053,-0.002482449170202017,-0.013791348785161972,0.002997437957674265,-0.011410231702029705
0.01082527358084917,0.00018307905702386051,-0.0025594907347112894,-0.013927945867180824,0.0028495502192527056,-0.011247638612985611
0.010258883237838745,0.00015131518011912704,-0.0023500642273575068,-0.01417078822851181,0.002836803440004587,-0.011752811260521412
0.011199799366295338,0.000242834139498882,-0.0024283574894070625,-0.014032654464244843,0.0028734756633639336,-0.011258007027208805
0.011000188998878002,0.00033444230211898685,-0.002280469983816147,-0.014069351367652416,0.002944815205410123,-0.011686109937727451
0.010627076961100101,0.00038975992356427014,-0.0022207468282431364,-0.014064324088394642,0.0031244102865457535,-0.011873438954353333
0.011187520809471607,0.0003615717578213662,-0.0023744446225464344,-0.01460045762360096,0.002812957391142845,-0.01211151946336031
0.010211680084466934,0.00032869246206246316,-0.002576769795268774,-0.014277792535722256,0.002997217234224081,-0.012542854063212872
0.011055700480937958,0.00022905644436832517,-0.0024823013227432966,-0.014559507369995117,0.002908485010266304,-0.012408487498760223
0.011062824167311192,0.0002084869920508936,-0.0026111826300621033,-0.01454661600291729,0.0030907492619007826,-0.012668553739786148
0.011062824167311192,0.0002084869920508936,-0.0026111826300621033,-0.01454661600291729,0.0030907492619007826,-0.012668553739786148
0.010589340701699257,0.0002570727083366364,-0.0027217785827815533,-0.014811172150075436,0.003067839192226529,-0.012380269356071949
0.011059435084462166,0.00024184957146644592,-0.0024858047254383564,-0.016218360513448715,0.0029503980185836554,-0.012512842193245888
0.010550834238529205,0.00014351593563333154,-0.0023257017601281404,-0.014876250177621841,0.0027557597495615482,-0.012183851562440395
0.010320090688765049,0.000131926077301614,-0.002266312250867486,-0.014035300351679325,0.0027307092677801847,-0.012133187614381313
0.011048047803342342,0.00012290275481063873,-0.0025674686767160892,-0.014741146937012672,0.002731125568971038,-0.012681307271122932
0.010933111421763897,0.00011504535359563306,-0.002556269057095051,-0.015270317904651165,0.0028845721390098333,-0.012237836606800556
0.01078874059021473,0.0001081329319276847,-0.0024678173940628767,-0.015790659934282303,0.0029051261954009533,-0.012426173314452171
0.010956428945064545,0.00013539855717681348,-0.0026429658755660057,-0.015388050116598606,0.003225474851205945,-0.01270337589085102
0.01062916312366724,0.00014456346980296075,-0.0025221032556146383,-0.01571730151772499,0.0035494943149387836,-0.013099505566060543
0.010944393463432789,0.00017779039626475424,-0.002445895690470934,-0.01555815152823925,0.0036018439568579197,-0.01261282991617918
0.01077819149941206,0.00017429004947189242,-0.0026794387958943844,-0.015880044549703598,0.0034826816990971565,-0.012478550896048546
0.010536544024944305,0.0001663063303567469,-0.002787654986605048,-0.015810489654541016,0.0029471872840076685,-0.012271594256162643
0.01089206337928772,0.00019399663142394274,-0.0025232811458408833,-0.015898700803518295,0.002724464051425457,-0.012514538131654263
0.010903348214924335,0.0001835461298469454,-0.002666857559233904,-0.01593497209250927,0.0030371572356671095,-0.013070081360638142
0.011088177561759949,0.00031985409441404045,-0.0027911250945180655,-0.01687796227633953,0.00314441230148077,-0.01303955353796482
0.010607113130390644,0.00033980238367803395,-0.0026065015699714422,-0.016204064711928368,0.0030383497942239046,-0.013044831342995167
0.011301809921860695,0.0003377788816578686,-0.0026164441369473934,-0.01684127002954483,0.003237830474972725,-0.012624523602426052
0.011346641927957535,0.0003648307756520808,-0.002407809253782034,-0.016462186351418495,0.0030519342981278896,-0.012559687718749046
0.011047390289604664,0.0003832110087387264,-0.0024842836428433657,-0.016705241054296494,0.0031878824811428785,-0.012850797735154629
0.011515194550156593,0.0003792342613451183,-0.002340175211429596,-0.017482852563261986,0.00328853540122509,-0.012951890006661415
0.010799902491271496,0.0006239816430024803,-0.0023088224697858095,-0.01753811351954937,0.0033779616933315992,-0.012907951138913631
0.010970129631459713,0.0006303333793766797,-0.00257369433529675,-0.018052875995635986,0.00334776914678514,-0.012901891954243183
0.011249260045588017,0.0005952603532932699,-0.002809641184285283,-0.01775706186890602,0.0035759711172431707,-0.012651342898607254
0.01188749447464943,0.0005365444230847061,-0.0028680874966084957,-0.017383961006999016,0.0033656232990324497,-0.012698205187916756
0.01145777478814125,0.0004880409105680883,-0.002607339760288596,-0.01782980188727379,0.003467713948339224,-0.012748432345688343
0.011028753593564034,0.0005210773670114577,-0.0025022481568157673,-0.01702023111283779,0.0036090679932385683,-0.013170894235372543
0.011222721077501774,0.0005481814732775092,-0.002622968517243862,-0.01775197684764862,0.0037555410526692867,-0.013227052986621857
0.011390440165996552,0.0005704051582142711,-0.002540959045290947,-0.018570993095636368,0.0038820458576083183,-0.013247279450297356
0.011390440165996552,0.0005704051582142711,-0.002540959045290947,-0.018570993095636368,0.0038820458576083183,-0.013247279450297356
0.011119450442492962,0.0006093369447626173,-0.0029449108988046646,-0.018689163029193878,0.003846131032332778,-0.013353883288800716
0.011467618867754936,0.0006983969360589981,-0.0030265420209616423,-0.018783213570713997,0.003732782555744052,-0.013500836677849293
0.011368227191269398,0.0006713132606819272,-0.002937754848971963,-0.018577346578240395,0.003397888969630003,-0.013545757159590721
0.012065961956977844,0.001127514406107366,-0.0026871669106185436,-0.01882964000105858,0.003208703361451626,-0.013514353893697262
0.01171327568590641,0.0010930190328508615,-0.002586965449154377,-0.01945689134299755,0.0031979698687791824,-0.01350175030529499
0.011239448562264442,0.001075055217370391,-0.0029635911341756582,-0.01916184276342392,0.003536617150530219,-0.01349700428545475
0.011729545891284943,0.0010828502709046006,-0.003077830420807004,-0.018615050241351128,0.003393348539248109,-0.013862592168152332
0.01176930870860815,0.001060952665284276,-0.003115803236141801,-0.019184337928891182,0.003548853565007448,-0.013785825110971928
0.01174596231430769,0.0010223158169537783,-0.0030593217816203833,-0.018516812473535538,0.0038099123630672693,-0.013894212432205677
0.011847483925521374,0.000893126183655113,-0.002789116930216551,-0.018274476751685143,0.0038773834239691496,-0.013770663179457188
0.011636821553111076,0.0008923818822950125,-0.0027335186023265123,-0.018532579764723778,0.003766433335840702,-0.014336218126118183
0.012653152458369732,0.0008093334035947919,-0.002687315922230482,-0.019040003418922424,0.0034083323553204536,-0.014743544161319733
0.011856060475111008,0.0007844286737963557,-0.0029819649644196033,-0.01922846958041191,0.0034775203093886375,-0.014750980772078037
0.011789613403379917,0.0013627205044031143,-0.0031213252805173397,-0.01837601512670517,0.0033469409681856632,-0.01401672512292862
0.011838587932288647,0.0016170346643775702,-0.003017992712557316,-0.018546385690569878,0.003524510655552149,-0.013981999829411507
0.012268822640180588,0.0022287897299975157,-0.0027502216398715973,-0.018777698278427124,0.003681944217532873,-0.014046482741832733
0.011994206346571445,0.002062448998913169,-0.00301607814617455,-0.018537191674113274,0.0035016669426113367,-0.013749774545431137
0.012456554919481277,0.0016805637860670686,-0.0030423852149397135,-0.018873373046517372,0.003253816394135356,-0.014403593726456165
0.01229152549058199,0.001454112702049315,-0.0030680671334266663,-0.01927105337381363,0.0033021557610481977,-0.014419629238545895
0.012469194829463959,0.0014744964428246021,-0.002857712795957923,-0.020953554660081863,0.003661911003291607,-0.014826160855591297
0.012667302042245865,0.0015489222714677453,-0.002976569812744856,-0.019273098558187485,0.003839686047285795,-0.014596011489629745
0.012464351952075958,0.0016887884121388197,-0.0029620074201375246,-0.019457397982478142,0.004254183731973171,-0.014311431907117367
0.012497813440859318,0.002470101695507765,-0.0030128667131066322,-0.019862979650497437,0.0038109745364636183,-0.013935672119259834
0.01276577077805996,0.0022227875888347626,-0.0028475658036768436,-0.02045212686061859,0.003557693911716342,-0.013904041610658169
0.012880644761025906,0.002113866386935115,-0.0028740479610860348,-0.020964834839105606,0.003400251967832446,-0.014155669137835503
0.012632302939891815,0.001901083393022418,-0.0029846399556845427,-0.02139459177851677,0.003343094140291214,-0.01485828123986721
0.013208230026066303,0.002056870609521866,-0.0032947887666523457,-0.02121071331202984,0.0035809949040412903,-0.015061482787132263
0.013208230026066303,0.002056870609521866,-0.0032947887666523457,-0.02121071331202984,0.0035809949040412903,-0.015061482787132263
0.012819431722164154,0.0023434078320860863,-0.0031707552261650562,-0.02069518156349659,0.003681591246277094,-0.014831564389169216
0.012841365300118923,0.002342702355235815,-0.0028468919917941093,-0.020864898338913918,0.004022782202810049,-0.013983717188239098
0.013017945922911167,0.002676229691132903,-0.0029453590977936983,-0.021165823563933372,0.0042393323965370655,-0.013798538595438004
0.012921332381665707,0.002514668507501483,-0.0030105893965810537,-0.021029209718108177,0.004118120763450861,-0.013887384906411171
0.012987546622753143,0.002439815318211913,-0.003033378394320607,-0.021025851368904114,0.004398870747536421,-0.01433238573372364
0.012475816532969475,0.0027563043404370546,-0.002949193585664034,-0.021708417683839798,0.004311681259423494,-0.014720943756401539
0.013184376060962677,0.003193120937794447,-0.0029503745026886463,-0.022288374602794647,0.004114190582185984,-0.015135133638978004
0.013098735362291336,0.0032263894099742174,-0.0031976322643458843,-0.022195320576429367,0.004049135837703943,-0.015736617147922516
0.013324582017958164,0.0034933651331812143,-0.003724663518369198,-0.02195105142891407,0.0038991672918200493,-0.014851555228233337
0.013319699093699455,0.003210690338164568,-0.0035573113709688187,-0.02140791341662407,0.003763012122362852,-0.014719264581799507
0.013096646405756474,0.003411676734685898,-0.003549426095560193,-0.02082616463303566,0.00363015104085207,-0.015136637724936008
0.01320023275911808,0.0042964802123606205,-0.0034313478972762823,-0.0219255443662405,0.0039168549701571465,-0.015176534652709961
0.0138112036511302,0.0036161059979349375,-0.0031464817002415657,-0.02209201641380787,0.0038611870259046555,-0.014755857177078724
0.01342896930873394,0.003578747855499387,-0.0034092760179191828,-0.02153935842216015,0.003713178215548396,-0.014790544286370277
0.01381704118102789,0.0036380388773977757,-0.00354699045419693,-0.021582258865237236,0.003460983047261834,-0.014887119643390179
0.013247265480458736,0.004126475192606449,-0.003443014109507203,-0.02237115055322647,0.0035322883632034063,-0.015096317045390606
0.013593308627605438,0.0042213695123791695,-0.0033738096244633198,-0.022399066016077995,0.003919398412108421,-0.014912992715835571
0.014844642020761967,0.0041238171979784966,-0.0036292525473982096,-0.021652506664395332,0.004243989009410143,-0.015262008644640446
0.015678824856877327,0.0039640674367547035,-0.003959467634558678,-0.0216058362275362,0.004415539093315601,-0.01537376083433628
0.014231320470571518,0.003864885773509741,-0.0035127061419188976,-0.021489549428224564,0.004466554149985313,-0.01532077044248581
0.014264626428484917,0.003774693002924323,-0.0032040730584412813,-0.021696140989661217,0.004367514047771692,-0.015120946802198887
0.014890573918819427,0.004292543977499008,-0.003304194426164031,-0.022019948810338974,0.00403135409578681,-0.015113433822989464
0.015334620140492916,0.004478340037167072,-0.0036182140465825796,-0.022362684831023216,0.003911818377673626,-0.015584671869874
0.015386480838060379,0.004636809229850769,-0.0037875333800911903,-0.02226407639682293,0.004018780775368214,-0.015618890523910522
0.014033256098628044,0.00468074344098568,-0.003835088573396206,-0.022415976971387863,0.0040810550563037395,-0.015688637271523476
0.015317520126700401,0.004881931934505701,-0.0033533251844346523,-0.022607335820794106,0.004087152425199747,-0.015479596331715584
0.015317520126700401,0.004881931934505701,-0.0033533251844346523,-0.022607335820794106,0.004087152425199747,-0.015479596331715584
0.015554407611489296,0.004697205498814583,-0.003465670393779874,-0.024020077660679817,0.004660598002374172,-0.015687288716435432
0.015357266180217266,0.004885490518063307,-0.00349387782625854,-0.022419380024075508,0.004897812381386757,-0.015723101794719696
0.015397323295474052,0.004933601710945368,-0.003527940483763814,-0.0227485504001379,0.004546128213405609,-0.015795953571796417
0.015414662659168243,0.005782712250947952,-0.003627697704359889,-0.02381061390042305,0.004466993734240532,-0.01597941294312477
0.015414662659168243,0.005782712250947952,-0.003627697704359889,-0.02381061390042305,0.004466993734240532,-0.01597941294312477
0.015703074634075165,0.005479305516928434,-0.0037593345623463392,-0.023477233946323395,0.004203133285045624,-0.015847040340304375
0.01537376083433628,0.005405911244452,-0.003832427551969886,-0.023192500695586205,0.004371820017695427,-0.015745442360639572
0.01615435816347599,0.005624512676149607,-0.003872551256790757,-0.023512618616223335,0.004569984972476959,-0.01568038947880268
0.01572057232260704,0.005634863395243883,-0.003595644375309348,-0.0237607192248106,0.004671551752835512,-0.015614903531968594
0.016134953126311302,0.006580045912414789,-0.0034568081609904766,-0.02421761490404606,0.004278825595974922,-0.01636953093111515
0.015726858749985695,0.005370479542762041,-0.003672737395390868,-0.024005070328712463,0.003881408367305994,-0.016153614968061447
0.016095221042633057,0.005957833491265774,-0.004000909626483917,-0.02393660880625248,0.004174359142780304,-0.0160002950578928
0.015871785581111908,0.006037283223122358,-0.003478276077657938,-0.024483496323227882,0.004321061074733734,-0.0162991750985384
0.016116008162498474,0.006476441863924265,-0.00352670275606215,-0.024721037596464157,0.004640932194888592,-0.016356736421585083
0.015724482014775276,0.006821149494498968,-0.004103478975594044,-0.02476155385375023,0.004355635493993759,-0.01646101288497448
0.016290102154016495,0.006587699055671692,-0.004326686263084412,-0.02481943741440773,0.003993924707174301,-0.01639738865196705
0.015855830162763596,0.006071487441658974,-0.004051452036947012,-0.02445445954799652,0.0037769495975226164,-0.016316834837198257
0.016270676627755165,0.006188591942191124,-0.0033989062067121267,-0.024680793285369873,0.004260449204593897,-0.01656060293316841
0.015979181975126266,0.006525842938572168,-0.0034732292406260967,-0.02519202046096325,0.004386187065392733,-0.016800101846456528
0.016014134511351585,0.006718275602906942,-0.0036942828446626663,-0.025114499032497406,0.004434495698660612,-0.016773028299212456
0.016288157552480698,0.006601227913051844,-0.004346115048974752,-0.025504199787974358,0.0044411784037947655,-0.016362493857741356
0.01600622944533825,0.006686056964099407,-0.004171282518655062,-0.025646274909377098,0.0046804784797132015,-0.01624467968940735
0.016292091459035873,0.0066680507734417915,-0.003975036554038525,-0.025284579023718834,0.004654696211218834,-0.01624438725411892
0.01614757999777794,0.0074151488952338696,-0.00402497174218297,-0.025322437286376953,0.004628592636436224,-0.01610318198800087
0.01673782430589199,0.00691268453374505,-0.003969316370785236,-0.025130631402134895,0.004397608805447817,-0.016416117548942566
0.016290349885821342,0.006755979731678963,-0.004173459950834513,-0.02529430389404297,0.004121382255107164,-0.016275230795145035
0.016615763306617737,0.006648655980825424,-0.004089801572263241,-0.02589033544063568,0.004417344927787781,-0.016419777646660805
0.016626587137579918,0.0069308155216276646,-0.004271484911441803,-0.025760574266314507,0.005117091815918684,-0.01649526320397854
0.016626587137579918,0.0069308155216276646,-0.004271484911441803,-0.025760574266314507,0.005117091815918684,-0.01649526320397854
0.016913052648305893,0.007299159653484821,-0.004082383122295141,-0.02537989616394043,0.0045771524310112,-0.01667775772511959
0.016913052648305893,0.007299159653484821,-0.004082383122295141,-0.02537989616394043,0.0045771524310112,-0.01667775772511959
0.016496950760483742,0.007394509855657816,-0.004059832077473402,-0.027183527126908302,0.004589041229337454,-0.01643500104546547
0.01696770079433918,0.006963682826608419,-0.004059396684169769,-0.027431683614850044,0.004274066537618637,-0.01656612940132618
0.016657263040542603,0.00792943499982357,-0.003923557233065367,-0.026634585112333298,0.004045151639729738,-0.017203975468873978
0.01693827100098133,0.007936655543744564,-0.003839164972305298,-0.025975365191698074,0.004416387528181076,-0.016994884237647057
0.017270725220441818,0.007153335027396679,-0.003792222822085023,-0.025407135486602783,0.004701726604253054,-0.01691504567861557
0.01679261587560177,0.007488470058888197,-0.003760590450838208,-0.02579525113105774,0.005305337253957987,-0.017102301120758057
0.01711154729127884,0.007709153927862644,-0.003944410942494869,-0.026908135041594505,0.0050856489688158035,-0.017404165118932724
0.01687833108007908,0.008088372647762299,-0.003965927753597498,-0.026992250233888626,0.004323387984186411,-0.01752191223204136
0.017152762040495872,0.007827802561223507,-0.0038401433266699314,-0.027209501713514328,0.004352542571723461,-0.0171539094299078
0.01732225902378559,0.008001696318387985,-0.0036589151713997126,-0.028165949508547783,0.004594830796122551,-0.017621096223592758
0.017714740708470345,0.00761681143194437,-0.003751834388822317,-0.027796823531389236,0.004984749015420675,-0.018154026940464973
0.0172243844717741,0.0074225193820893764,-0.003863619640469551,-0.026527101173996925,0.004959531128406525,-0.017835792154073715
0.01737566478550434,0.007937440648674965,-0.004364664200693369,-0.027145523577928543,0.004843089729547501,-0.0172986201941967
0.016894975677132607,0.008311274461448193,-0.0041553424671292305,-0.02814212627708912,0.005082669667899609,-0.017679434269666672
0.016609087586402893,0.007683880161494017,-0.004028114955872297,-0.0285064447671175,0.004861443769186735,-0.017996592447161674
0.01738632097840309,0.008099199272692204,-0.004043747205287218,-0.028148481622338295,0.0048560407012701035,-0.01794414408504963
0.01730908453464508,0.007881672121584415,-0.003957568202167749,-0.0279676616191864,0.004887720104306936,-0.01814967393875122
0.017893468961119652,0.00793982483446598,-0.004332159645855427,-0.028418034315109253,0.00516166677698493,-0.017483722418546677
0.01776769943535328,0.008163286373019218,-0.0041091833263635635,-0.028543779626488686,0.005053522530943155,-0.01752339117228985
0.017324402928352356,0.006897600367665291,-0.004419915843755007,-0.0285177081823349,0.004875122103840113,-0.01731988787651062
0.01808507926762104,0.006037367973476648,-0.004263962619006634,-0.029025111347436905,0.004551244899630547,-0.017512312158942223
0.017769601196050644,0.006016667000949383,-0.004051208961755037,-0.028628235682845116,0.004086893983185291,-0.017697200179100037
0.018193336203694344,0.006362250540405512,-0.003966331947594881,-0.028793400153517723,0.004716116469353437,-0.017961667850613594
0.018619246780872345,0.006938511971384287,-0.004009390249848366,-0.02885299175977707,0.005056024994701147,-0.018464908003807068
0.018619246780872345,0.006938511971384287,-0.004009390249848366,-0.02885299175977707,0.005056024994701147,-0.018464908003807068
0.018358321860432625,0.007272150833159685,-0.003984404262155294,-0.02893185429275036,0.005310842301696539,-0.018379583954811096
0.01803983934223652,0.006967085413634777,-0.0038009039126336575,-0.02965637668967247,0.004883178975433111,-0.01837984286248684
0.017698461189866066,0.007211135234683752,-0.0042913262732326984,-0.028621861711144447,0.00439920648932457,-0.018228165805339813
0.017698461189866066,0.007211135234683752,-0.0042913262732326984,-0.028621861711144447,0.00439920648932457,-0.018228165805339813
0.019122131168842316,0.007438169326633215,-0.004057507496327162,-0.028903331607580185,0.005040244199335575,-0.01876617595553398
0.019122131168842316,0.007438169326633215,-0.004057507496327162,-0.028903331607580185,0.005040244199335575,-0.01876617595553398
0.018180446699261665,0.00723930262029171,-0.004023986402899027,-0.02913636341691017,0.004919202532619238,-0.018716121092438698
0.01880309171974659,0.0073633017018437386,-0.003960459027439356,-0.03018803708255291,0.005125577095896006,-0.018580859526991844
0.019240273162722588,0.007461112458258867,-0.00387170328758657,-0.030527053400874138,0.005113660823553801,-0.018649166449904442
0.018620440736413002,0.007624413818120956,-0.00420802878215909,-0.029643995687365532,0.005207552574574947,-0.018616968765854836
0.01909102313220501,0.0072151352651417255,-0.004251770209521055,-0.028884245082736015,0.005219241138547659,-0.01895476132631302
0.018939096480607986,0.007079191040247679,-0.004494437016546726,-0.029744520783424377,0.005002436228096485,-0.019269216805696487
0.019765662029385567,0.008007043972611427,-0.004061173181980848,-0.029662378132343292,0.005300565622746944,-0.01942749321460724
0.019688298925757408,0.007437203079462051,-0.0042060925625264645,-0.029940862208604813,0.005096036475151777,-0.020007628947496414
0.01926993764936924,0.007632450666278601,-0.004256680607795715,-0.03051164746284485,0.00543243857100606,-0.019468879327178
0.01974710077047348,0.00784540455788374,-0.004394906107336283,-0.02981361746788025,0.005224221386015415,-0.018841998651623726
0.020083455368876457,0.008069752715528011,-0.004134845454245806,-0.02862074412405491,0.004907814785838127,-0.018814681097865105
0.02002442255616188,0.008132892660796642,-0.003965186420828104,-0.02893749624490738,0.005155714228749275,-0.01891629956662655
0.020027246326208115,0.007668889593333006,-0.004415842704474926,-0.029885971918702126,0.00540634011849761,-0.019351808354258537
0.02005469612777233,0.008302796632051468,-0.0047305794432759285,-0.029948513954877853,0.005582161247730255,-0.01957101933658123
0.0199038777500391,0.008809830993413925,-0.004688382614403963,-0.030106855556368828,0.005299855023622513,-0.019396789371967316
0.01989603601396084,0.007928346283733845,-0.004326744936406612,-0.02993357554078102,0.0053556435741484165,-0.019648384302854538
0.02041895128786564,0.008239282295107841,-0.004406302701681852,-0.030357757583260536,0.005522914230823517,-0.019956130534410477
0.02027842029929161,0.008872667327523232,-0.004601297900080681,-0.030584609135985374,0.005255118478089571,-0.01975361257791519
0.020278964191675186,0.008428052067756653,-0.0048479437828063965,-0.031077155843377113,0.005393411964178085,-0.019825173541903496
0.020762410014867783,0.008533223532140255,-0.004555311053991318,-0.031450532376766205,0.005124302115291357,-0.019893458113074303
0.020615115761756897,0.009077725000679493,-0.00495558138936758,-0.03278070688247681,0.005158775020390749,-0.019143646582961082
0.020409708842635155,0.009202462621033192,-0.004949137102812529,-0.031499192118644714,0.005497153382748365,-0.01886863447725773
0.020488224923610687,0.008343774825334549,-0.004730915650725365,-0.03182396665215492,0.005103804171085358,-0.019282832741737366
0.021017413586378098,0.008828584104776382,-0.004652281291782856,-0.03218095377087593,0.005048898048698902,-0.0193837471306324
0.02076934650540352,0.0093332938849926,-0.004988685715943575,-0.031972162425518036,0.005001458339393139,-0.020140940323472023
0.020716657862067223,0.009276991710066795,-0.00452533271163702,-0.032289519906044006,0.005342378281056881,-0.020061908289790154
0.020716657862067223,0.009276991710066795,-0.00452533271163702,-0.032289519906044006,0.005342378281056881,-0.020061908289790154
0.02109820768237114,0.009088724851608276,-0.004631779156625271,-0.0322728306055069,0.005534640047699213,-0.019781997427344322
0.020790595561265945,0.01009407825767994,-0.005156016442924738,-0.032083917409181595,0.004920856095850468,-0.019796837121248245
0.021182166412472725,0.009098750539124012,-0.004923299886286259,-0.03263873979449272,0.00491632055491209,-0.0203586146235466
0.02110609970986843,0.009851472452282906,-0.004744991194456816,-0.032731037586927414,0.005366456229239702,-0.020937003195285797
0.02210332080721855,0.00978096853941679,-0.0046813031658530235,-0.03310345113277435,0.005282595753669739,-0.0204938892275095
0.02185758575797081,0.009339485317468643,-0.00491616316139698,-0.03257613629102707,0.0057719675824046135,-0.019723430275917053
0.0213247649371624,0.008749785833060741,-0.004945571534335613,-0.03193330764770508,0.005458016414195299,-0.0193476565182209
0.022062471136450768,0.009596758522093296,-0.005088043864816427,-0.032762158662080765,0.005586792714893818,-0.019991671666502953
0.022563857957720757,0.009133054874837399,-0.004827494733035564,-0.032989129424095154,0.005656708497554064,-0.020595017820596695
0.0219228807836771,0.009712775237858295,-0.004733263980597258,-0.0325838066637516,0.005669752135872841,-0.020534558221697807
0.021366316825151443,0.009414811618626118,-0.0052191102877259254,-0.033400360494852066,0.005402045790106058,-0.021724848076701164
0.02231135219335556,0.009696771390736103,-0.005043436773121357,-0.03481119126081467,0.005042323376983404,-0.02042100951075554
0.02191609889268875,0.010697612538933754,-0.004867725074291229,-0.03451557829976082,0.005123003851622343,-0.019795870408415794
0.02202432230114937,0.01004438940435648,-0.0048957401886582375,-0.03304247930645943,0.005642438307404518,-0.020017189905047417
0.022151345387101173,0.009724822826683521,-0.004761154297739267,-0.033061858266592026,0.005294579081237316,-0.020543528720736504
0.02178427204489708,0.010148785077035427,-0.004858875647187233,-0.03491679206490517,0.005197444930672646,-0.02071729116141796
0.021407460793852806,0.009591229259967804,-0.0046141063794493675,-0.03498036041855812,0.005490532144904137,-0.020464571192860603
0.0216265507042408,0.009470450691878796,-0.004811256192624569,-0.03575636446475983,0.00555321853607893,-0.020769597962498665
0.0221344456076622,0.01005344558507204,-0.005398524925112724,-0.034745391458272934,0.005543993320316076,-0.020966261625289917
0.022589897736907005,0.010279734618961811,-0.004836648236960173,-0.03415719419717789,0.005598809570074081,-0.020884957164525986
0.02224915660917759,0.009787840768694878,-0.00455666147172451,-0.033934734761714935,0.005653842352330685,-0.021037394180893898
0.022172080352902412,0.010025950148701668,-0.004917459096759558,-0.035056814551353455,0.006086763925850391,-0.021074695512652397
0.021800274029374123,0.009982979856431484,-0.0049911686219275,-0.03541179001331329,0.005583387799561024,-0.02101477049291134
0.021795937791466713,0.009614433161914349,-0.004798839800059795,-0.03485041856765747,0.005344010889530182,-0.020754100754857063
0.02281123399734497,0.009912630543112755,-0.005324203055351973,-0.03510255739092827,0.00541824521496892,-0.02111469954252243
0.0230218805372715,0.009915368631482124,-0.005085677374154329,-0.03526516631245613,0.005508833564817905,-0.020991871133446693
0.0230218805372715,0.009915368631482124,-0.005085677374154329,-0.03526516631245613,0.005508833564817905,-0.020991871133446693
0.02266724966466427,0.010878607630729675,-0.004752379842102528,-0.03512043133378029,0.005883164703845978,-0.02095004916191101
0.0223846435546875,0.0102407056838274,-0.004940176848322153,-0.03456563875079155,0.005870531313121319,-0.021275265142321587
0.022988516837358475,0.00969880074262619,-0.005348848644644022,-0.03435371816158295,0.005505657289177179,-0.02123088203370571
0.02319764904677868,0.010346120223402977,-0.005050120409578085,-0.035277388989925385,0.005613671615719795,-0.021611472591757774
0.02322242222726345,0.010305249132215977,-0.005539608653634787,-0.03538532182574272,0.00549302576109767,-0.02165214903652668
0.0232232678681612,0.01064697839319706,-0.005130229517817497,-0.03510050103068352,0.005719934590160847,-0.021792564541101456
0.022915970534086227,0.011647465638816357,-0.004766755271703005,-0.034874532371759415,0.005626693833619356,-0.02179921232163906
0.023196358233690262,0.011670449748635292,-0.0049497829750180244,-0.03497037664055824,0.00576971797272563,-0.0220784954726696
0.02352937124669552,0.01044917106628418,-0.004843269940465689,-0.03513935208320618,0.005918770097196102,-0.021824387833476067
0.0236100684851408,0.01098498236387968,-0.004827516153454781,-0.03546064719557762,0.006011629011482,-0.02185025066137314
0.02289801836013794,0.010625026188790798,-0.005412283353507519,-0.035304367542266846,0.005965015850961208,-0.021299881860613823
0.023524610325694084,0.011055960319936275,-0.004449756350368261,-0.03644142672419548,0.005776975303888321,-0.021595610305666924
0.02368764393031597,0.010424106381833553,-0.004382505547255278,-0.03555766120553017,0.006308517884463072,-0.021862708032131195
0.02336736023426056,0.010382791981101036,-0.005136421415954828,-0.03442596644163132,0.006326877046376467,-0.022160721942782402
0.0233797337859869,0.010656679980456829,-0.005124466959387064,-0.03678375110030174,0.006497191730886698,-0.022444361820816994
0.023863332346081734,0.010127603076398373,-0.00493959616869688,-0.03578007221221924,0.006380653008818626,-0.02279375120997429
0.023666923865675926,0.010880034416913986,-0.005201946943998337,-0.036141619086265564,0.006112437229603529,-0.022145843133330345
0.02329453080892563,0.010397622361779213,-0.00488246837630868,-0.037548646330833435,0.0060894847847521305,-0.022490883246064186
0.023798415437340736,0.01077275536954403,-0.004503064788877964,-0.03629647195339203,0.006379344500601292,-0.02307894639670849
0.024210741743445396,0.011217120103538036,-0.005009298678487539,-0.03625323995947838,0.006238482426851988,-0.023152265697717667
0.023859165608882904,0.01067574042826891,-0.005370637401938438,-0.03766552358865738,0.006169411353766918,-0.022761529311537743
0.023770388215780258,0.010912926867604256,-0.005122162401676178,-0.03772672265768051,0.005757320672273636,-0.022314559668302536
0.023297114297747612,0.011303825303912163,-0.00552270608022809,-0.03802146390080452,0.005660047754645348,-0.022846220061182976
0.024551760405302048,0.011241166852414608,-0.005233882460743189,-0.03793046995997429,0.0057664294727146626,-0.023665111511945724
0.024917826056480408,0.01165842916816473,-0.004888790659606457,-0.03824490308761597,0.006280128378421068,-0.024231886491179466
0.024763301014900208,0.011477883905172348,-0.005393712315708399,-0.03818483650684357,0.006594997830688953,-0.023932838812470436
0.02473863773047924,0.010380503721535206,-0.00515299616381526,-0.03815514221787453,0.006346131209284067,-0.02296665869653225
0.024369463324546814,0.010848931968212128,-0.005435744766145945,-0.03815861791372299,0.006280215457081795,-0.022199098020792007
0.02340550906956196,0.010438034310936928,-0.005551496986299753,-0.03847099095582962,0.00657659349963069,-0.022469885647296906
0.02430454082787037,0.010346245020627975,-0.005182286724448204,-0.038942594081163406,0.007025968283414841,-0.02365216426551342
0.02430454082787037,0.010346245020627975,-0.005182286724448204,-0.038942594081163406,0.007025968283414841,-0.02365216426551342
0.0249380711466074,0.011149111203849316,-0.005256617441773415,-0.03845138102769852,0.00701324176043272,-0.02390613593161106
0.02440149150788784,0.010716121643781662,-0.005106614902615547,-0.03881489485502243,0.0062486049719154835,-0.023706089705228806
0.024508394300937653,0.01088715996593237,-0.00498436763882637,-0.039166707545518875,0.005920491646975279,-0.023332303389906883
0.024736693128943443,0.01086902990937233,-0.00579112721607089,-0.03961873799562454,0.006202006246894598,-0.02352883480489254
0.025330763310194016,0.010579073801636696,-0.005788101814687252,-0.039599787443876266,0.006413666997104883,-0.023679586127400398
0.024668145924806595,0.011017674580216408,-0.0055473968386650085,-0.03964250907301903,0.005995566491037607,-0.023368820548057556
0.025207387283444405,0.01109952013939619,-0.005075623281300068,-0.03965559974312782,0.005989389959722757,-0.022683970630168915
0.02476654201745987,0.010708426125347614,-0.005437502171844244,-0.039948660880327225,0.005954698659479618,-0.023110264912247658
0.025305215269327164,0.010297263041138649,-0.006090029142796993,-0.04064859077334404,0.006210179999470711,-0.02385290339589119
0.02538651041686535,0.010368028655648232,-0.005542741157114506,-0.04090669006109238,0.006284408271312714,-0.023616842925548553
0.02505643293261528,0.010811911895871162,-0.005371978972107172,-0.039598654955625534,0.006145605351775885,-0.023744983598589897
0.025128381326794624,0.010755270719528198,-0.005476455204188824,-0.03869575262069702,0.006834425497800112,-0.02392154186964035
0.025197815150022507,0.011229406110942364,-0.005216860678046942,-0.0394895002245903,0.007026137784123421,-0.02436836250126362
0.02539690211415291,0.010784444399178028,-0.005877037066966295,-0.0404403991997242,0.006259880494326353,-0.023796506226062775
0.02537667006254196,0.010647212155163288,-0.006159586366266012,-0.04087794944643974,0.006020671222358942,-0.023455392569303513
0.025421591475605965,0.01117177028208971,-0.0054403613321483135,-0.0411577969789505,0.006404803600162268,-0.024061141535639763
0.025648511946201324,0.011159725487232208,-0.005508780013769865,-0.039681609719991684,0.006774266250431538,-0.024040140211582184
0.025453785434365273,0.011592806316912174,-0.005746070295572281,-0.039040014147758484,0.0070871938951313496,-0.024043580517172813
0.025053486227989197,0.011599062941968441,-0.006302683614194393,-0.040065329521894455,0.006770694628357887,-0.023725207895040512
0.0254927109926939,0.010387022979557514,-0.005853110458701849,-0.039902593940496445,0.0066159870475530624,-0.0236134584993124
0.024747366085648537,0.010830683633685112,-0.005858211312443018,-0.03949470445513725,0.006357946433126926,-0.024160023778676987
0.02545919455587864,0.010625340975821018,-0.005717898719012737,-0.03967605158686638,0.006519031245261431,-0.026097163558006287
0.025632886216044426,0.010538195259869099,-0.005580172874033451,-0.03999059647321701,0.00665587792173028,-0.02378971315920353
0.025391314178705215,0.01111014373600483,-0.00557163218036294,-0.0396539680659771,0.006647780537605286,-0.023236433044075966
0.025391314178705215,0.01111014373600483,-0.00557163218036294,-0.0396539680659771,0.006647780537605286,-0.023236433044075966
0.02646634913980961,0.011294933967292309,-0.006246671080589294,-0.04013732448220253,0.006502175237983465,-0.02375982329249382
0.02634097822010517,0.010600508190691471,-0.005741360131651163,-0.040442392230033875,0.006336656399071217,-0.024610189720988274
0.02627677656710148,0.011570933274924755,-0.005807919893413782,-0.04085579514503479,0.006957564037293196,-0.025297852233052254
0.02607746422290802,0.011043778620660305,-0.005778532009571791,-0.041125088930130005,0.006543241906911135,-0.024560527876019478
0.025965379551053047,0.011991888284683228,-0.005872401874512434,-0.04166452959179878,0.006422101985663176,-0.024043772369623184
0.026045994833111763,0.01143233384937048,-0.0060140229761600494,-0.04211583361029625,0.006832982413470745,-0.024149002507328987
0.027206137776374817,0.01113076414912939,-0.00579683855175972,-0.041838645935058594,0.0069131734780967236,-0.024406488984823227
0.026759544387459755,0.011681370437145233,-0.006210708990693092,-0.04242916777729988,0.00690918043255806,-0.025050338357686996
0.02712954208254814,0.011716687120497227,-0.005645892582833767,-0.04203229770064354,0.00675058551132679,-0.024431880563497543
0.026136228814721107,0.01147918775677681,-0.0058633857406675816,-0.04394327476620674,0.006643954664468765,-0.0244476068764925
0.02700168453156948,0.011770942248404026,-0.005864492617547512,-0.04410563409328461,0.006857767701148987,-0.025540616363286972
0.02751939184963703,0.011889619752764702,-0.0060258787125349045,-0.04192762076854706,0.007466606795787811,-0.02451864629983902
0.027688179165124893,0.011709037236869335,-0.006139446049928665,-0.04349592328071594,0.0077192471362650394,-0.023717086762189865
0.028252698481082916,0.012184943072497845,-0.0062138657085597515,-0.044005654752254486,0.007089520338922739,-0.023984497413039207
0.02836688607931137,0.012112877331674099,-0.00663245003670454,-0.0437939316034317,0.007339539006352425,-0.024698838591575623
0.028496189042925835,0.011691508814692497,-0.005955208092927933,-0.04175758361816406,0.00659965630620718,-0.025300271809101105
0.027152646332979202,0.011854153126478195,-0.005944531876593828,-0.0429655946791172,0.006502380594611168,-0.025841498747467995
0.027631377801299095,0.011657197959721088,-0.006615516729652882,-0.04423759877681732,0.006798082031309605,-0.024787506088614464
0.0284917913377285,0.012077299878001213,-0.007345969323068857,-0.04460038244724274,0.006822851020842791,-0.02492789551615715
0.02863427996635437,0.012449650093913078,-0.006358944345265627,-0.04424143210053444,0.007411534432321787,-0.025302957743406296
0.028512949123978615,0.01341317780315876,-0.005857962649315596,-0.04452592134475708,0.006803466938436031,-0.025582993403077126
0.028520815074443817,0.013451174832880497,-0.006177403498440981,-0.04453552886843681,0.006610276643186808,-0.025188377127051353
0.028663964942097664,0.013529449701309204,-0.006147906184196472,-0.04526294022798538,0.006937640719115734,-0.025490444153547287
0.028752774000167847,0.013696379959583282,-0.006728865206241608,-0.04514915123581886,0.007417141925543547,-0.026185981929302216
0.028742358088493347,0.012956676073372364,-0.0065455990843474865,-0.045161567628383636,0.007769991178065538,-0.026448627933859825
0.028277134522795677,0.013147499412298203,-0.005931819323450327,-0.04535314440727234,0.006445462349802256,-0.026054754853248596
0.028277134522795677,0.013147499412298203,-0.005931819323450327,-0.04535314440727234,0.006445462349802256,-0.026054754853248596
0.029755989089608192,0.012996487319469452,-0.005928794853389263,-0.045813314616680145,0.00607229582965374,-0.025899561122059822
0.029546139761805534,0.013270302675664425,-0.006614313926547766,-0.045807596296072006,0.006779327057301998,-0.02618892677128315
0.02947179786860943,0.012795175425708294,-0.00676735769957304,-0.04548533633351326,0.007057887502014637,-0.026374462991952896
0.02972867712378502,0.013709481805562973,-0.006253229454159737,-0.04629652202129364,0.007286730222404003,-0.02661609835922718
0.02973606064915657,0.01324832160025835,-0.005982732400298119,-0.046158865094184875,0.007422369439154863,-0.026392176747322083
0.02976328320801258,0.013653476722538471,-0.006202815566211939,-0.04540247097611427,0.0070991069078445435,-0.026580218225717545
0.030254684388637543,0.01294361799955368,-0.0073910360224545,-0.04672696441411972,0.006660200655460358,-0.026481425389647484
0.02987380139529705,0.013157883659005165,-0.006813781801611185,-0.04674035310745239,0.006700639612972736,-0.02649570442736149
0.029720423743128777,0.013508442789316177,-0.006276506464928389,-0.044031672179698944,0.007112072315067053,-0.027702510356903076
0.030297568067908287,0.013432498089969158,-0.006157455965876579,-0.04506835713982582,0.007010910660028458,-0.02672945149242878
0.029871469363570213,0.013959682546555996,-0.006166515871882439,-0.04551186412572861,0.007045299280434847,-0.026337506249547005
0.030469870194792747,0.013961656019091606,-0.006694071926176548,-0.046622369438409805,0.007086085621267557,-0.027429362758994102
0.03034895285964012,0.01370396837592125,-0.006747571751475334,-0.04521123319864273,0.007377509959042072,-0.0276739951223135
0.030400115996599197,0.014333071187138557,-0.006552289240062237,-0.04674137383699417,0.007646302692592144,-0.02766093611717224
0.030498113483190536,0.013348208740353584,-0.006415797397494316,-0.04737185314297676,0.007647612132132053,-0.027525141835212708
0.030830295756459236,0.014121286571025848,-0.006428906228393316,-0.04733164608478546,0.007075243629515171,-0.027739765122532845
0.03080517239868641,0.01364113762974739,-0.006743318866938353,-0.04769008979201317,0.006680534686893225,-0.027699900791049004
0.030738873407244682,0.014323676936328411,-0.006926845293492079,-0.04854113608598709,0.006818023044615984,-0.028014812618494034
0.031388189643621445,0.013742619194090366,-0.006263034883886576,-0.04851962625980377,0.0068590533919632435,-0.02789134718477726
0.032078396528959274,0.014126778580248356,-0.006467344239354134,-0.04832874983549118,0.0070389648899436,-0.027721673250198364
0.03269406035542488,0.013718821108341217,-0.006364284083247185,-0.048263635486364365,0.0069491746835410595,-0.02779572643339634
0.029995620250701904,0.014557755552232265,-0.00656753359362483,-0.048490893095731735,0.007153618615120649,-0.027938267216086388
0.03139713406562805,0.014050922356545925,-0.006469419226050377,-0.048802342265844345,0.007494920399039984,-0.027538254857063293
0.032490864396095276,0.014190652407705784,-0.006677401717752218,-0.04877804219722748,0.007786302827298641,-0.027831416577100754
0.03175525739789009,0.014111272059381008,-0.006851172540336847,-0.04921168088912964,0.007776688784360886,-0.028368817642331123
0.03175525739789009,0.014111272059381008,-0.006851172540336847,-0.04921168088912964,0.007776688784360886,-0.028368817642331123
0.032212696969509125,0.014682717621326447,-0.006221476010978222,-0.04912480339407921,0.008126314729452133,-0.029377996921539307
0.03307140991091728,0.01405933778733015,-0.005850437097251415,-0.049531370401382446,0.00805946160107851,-0.027905704453587532
0.033064015209674835,0.014470284804701805,-0.006157353986054659,-0.051357973366975784,0.0077968379482626915,-0.02657361701130867
