davideferrari95/blind_handover_controller/data/Test 24 - [2024-02-07 -- 14-20-24]/joint_states_data.csv
shoulder_pan_joint,shoulder_lift_joint,elbow_joint,wrist_1_joint,wrist_2_joint,wrist_3_joint
0.009006112813949585,0.005616892594844103,-0.0073314993642270565,0.006055647972971201,-0.0006368239410221577,0.007974965497851372
0.009006112813949585,0.005616892594844103,-0.0073314993642270565,0.006055647972971201,-0.0006368239410221577,0.007974965497851372
0.009251739829778671,0.005516469944268465,-0.007329307030886412,0.005874083377420902,-0.0005759611376561224,0.008160766214132309
0.009251739829778671,0.005516469944268465,-0.007329307030886412,0.005874083377420902,-0.0005759611376561224,0.008160766214132309
0.009232467971742153,0.00634220615029335,-0.00630034739151597,0.0058739823289215565,-0.0005208015791140497,0.00835192296653986
0.00892611313611269,0.006589988712221384,-0.0064559453167021275,0.00529846828430891,-0.0005329669802449644,0.008087502792477608
0.00930616445839405,0.006428562570363283,-0.0067701623775064945,0.005276395473629236,-0.000507907010614872,0.007914266549050808
0.009133264422416687,0.006288172211498022,-0.00681329844519496,0.005501405335962772,-0.0004710774519480765,0.007740003056824207
0.008898836560547352,0.0070775821805000305,-0.007615767884999514,0.00545881362631917,-0.0004687574109993875,0.008233181200921535
0.008573740720748901,0.006106805056333542,-0.00768977589905262,0.005583147052675486,-0.0004662678111344576,0.008202245458960533
0.00879337452352047,0.00580725260078907,-0.0074959066696465015,0.005153581500053406,-0.00043961353367194533,0.007722695358097553
0.00889601930975914,0.005672197323292494,-0.007278447039425373,0.005025338847190142,-0.0004144164267927408,0.007920202799141407
0.008737360127270222,0.006074254401028156,-0.007239624857902527,0.004938893485814333,-0.0003939481102861464,0.007955208420753479
0.008794010616838932,0.005979369394481182,-0.007365027908235788,0.004380755126476288,-0.00034335735836066306,0.007862910628318787
0.008895203471183777,0.005817551631480455,-0.007783828303217888,0.004252844024449587,-0.00031774427043274045,0.008163810707628727
0.008490870706737041,0.005551581736654043,-0.007452196441590786,0.003943364601582289,-0.0002966919564642012,0.008245399221777916
0.008562115952372551,0.005573325324803591,-0.007273422554135323,0.003465424757450819,-0.00027832621708512306,0.007954814471304417
0.008963954634964466,0.005129589699208736,-0.008447282947599888,0.003513975301757455,-0.00031089282128959894,0.007736639119684696
0.00848312582820654,0.005499606486409903,-0.008525005541741848,0.0033160352613776922,-0.000296972953947261,0.007823068648576736
0.008246511220932007,0.0050669158808887005,-0.00802038237452507,0.003162017557770014,-0.0002816840133164078,0.007921608164906502
0.00886318925768137,0.0047557116486132145,-0.007688944693654776,0.0033450894989073277,-0.00026772721321322024,0.00799219124019146
0.008840666152536869,0.00494207302108407,-0.008253931067883968,0.0036574515979737043,-0.00025507836835458875,0.007943887263536453
0.008406301960349083,0.004818333778530359,-0.008103566244244576,0.0034241811372339725,-0.000243568851146847,0.00767375435680151
0.009112718515098095,0.004854107275605202,-0.008155971765518188,0.004056612960994244,-0.00026924710255116224,0.007637101225554943
0.008417986333370209,0.004402292426675558,-0.008177547715604305,0.00393444811925292,-0.0002502781280782074,0.007840634323656559
0.008784623816609383,0.004982199519872665,-0.008079326711595058,0.0038013304583728313,-0.00024072336964309216,0.007580256555229425
0.008727704174816608,0.005100784357637167,-0.0074961245991289616,0.00411261199042201,-0.00023186283942777663,0.00749107263982296
0.008904863148927689,0.00470496853813529,-0.007396633271127939,0.0042854598723351955,-0.00022363146126735955,0.007807289250195026
0.008513709530234337,0.004809767473489046,-0.007565352134406567,0.00447862409055233,-0.00021596411534119397,0.007527825888246298
0.008592390455305576,0.004947231616824865,-0.007308324798941612,0.0043411655351519585,-0.0002088054607156664,0.007792049553245306
0.009613770991563797,0.004896816331893206,-0.007179794367402792,0.004498080816119909,-0.0002021059044636786,0.007826841436326504
0.009613770991563797,0.004896816331893206,-0.007179794367402792,0.004498080816119909,-0.0002021059044636786,0.007826841436326504
0.008399786427617073,0.005167217459529638,-0.007479866035282612,0.00487841060385108,-0.0001958237699000165,0.007517518475651741
0.00858813151717186,0.005484463181346655,-0.007539383135735989,0.00449873972684145,-0.0001899196213344112,0.007922695018351078
0.009294780902564526,0.005139040295034647,-0.0068810973316431046,0.004499854054301977,-0.00018436108075547963,0.008429078385233879
0.008443383499979973,0.004878473933786154,-0.007000849582254887,0.004282626323401928,-0.0001791193353710696,0.008022268302738667
0.00854017585515976,0.005089929793030024,-0.007472559809684753,0.0042039030231535435,-0.0001741670275805518,0.007688281591981649
0.009208261035382748,0.004901103675365448,-0.007548041641712189,0.0042356508783996105,-0.00019206829892937094,0.007743294816464186
0.008661558851599693,0.0048767500557005405,-0.007078422233462334,0.004071538802236319,-0.00018851240747608244,0.007852028124034405
0.008354885503649712,0.004813189152628183,-0.0071462541818618774,0.004194146487861872,-0.00018379649554844946,0.0076390765607357025
0.009166626259684563,0.004775744862854481,-0.007567171938717365,0.004045437090098858,-0.00017922715051099658,0.0074902866035699844
0.008825517259538174,0.004987094085663557,-0.007713980041444302,0.0034759037662297487,-0.00017487435252405703,0.0075010452419519424
0.008425017818808556,0.004973677918314934,-0.007090116385370493,0.0033629336394369602,-0.0001707274786895141,0.008003159426152706
0.008664206601679325,0.004851893987506628,-0.007036889903247356,0.0033324009273201227,-0.00016677280655130744,0.00782046839594841
0.008729580789804459,0.004711737856268883,-0.007468418218195438,0.0037393164820969105,-0.00016299705021083355,0.007519982755184174
0.008938059210777283,0.00494722556322813,-0.007907846011221409,0.0040735951624810696,-0.0001595529611222446,0.007522558327764273
0.00849318876862526,0.00509110651910305,-0.0074393595568835735,0.0039039538241922855,-0.00013408795348368585,0.0072020976804196835
0.008589339442551136,0.004862246103584766,-0.007031346205621958,0.003629070706665516,-0.00012889278877992183,0.006945462431758642
0.008676286786794662,0.004834490362554789,-0.007653058972209692,0.003409791039302945,-0.00012521748431026936,0.0073187267407774925
0.00830933265388012,0.00482246233150363,-0.008578998036682606,0.0035812773276120424,-0.00012182153295725584,0.007452181540429592
0.008350121788680553,0.004663052037358284,-0.007807220332324505,0.0037871720269322395,-0.00011861005623359233,0.007620905991643667
0.00881250575184822,0.00449968921020627,-0.008061163127422333,0.003156879683956504,-0.00011556383833521977,0.007289899978786707
0.008535204455256462,0.0046447222121059895,-0.00807857420295477,0.0029104966670274734,-0.00011267026275163516,0.007125748321413994
0.008310006000101566,0.004652007017284632,-0.007878351956605911,0.0035030038561671972,-0.00013043024227954447,0.0073000723496079445
0.008553996682167053,0.005191010423004627,-0.007509781513363123,0.003829758381471038,-0.0001257514231838286,0.007252973038703203
0.008061252534389496,0.005087255034595728,-0.00816455576568842,0.003710131160914898,-0.00012289518781471997,0.007270442321896553
0.008165874518454075,0.004844056908041239,-0.008346001617610455,0.003281870624050498,-0.0001350123930023983,0.007099676877260208
0.00912503432482481,0.004720645025372505,-0.008307556621730328,0.0033845610450953245,-0.00013679807307198644,0.0073684570379555225
0.008065263740718365,0.00518108019605279,-0.007999573834240437,0.003703636582940817,-0.000134192276163958,0.00736204581335187
0.008065263740718365,0.00518108019605279,-0.007999573834240437,0.003703636582940817,-0.000134192276163958,0.00736204581335187
0.007856554351747036,0.005182027351111174,-0.007904913276433945,0.003906113561242819,-0.0001314132969127968,0.007297869306057692
0.008237943053245544,0.0049767629243433475,-0.008160087279975414,0.0034567087423056364,-0.00012872921070083976,0.007334418594837189
0.008381562307476997,0.005312447436153889,-0.007957708090543747,0.0033767535351216793,-0.0001261517609236762,0.007032312918454409
0.00814964808523655,0.005034408997744322,-0.008944152854382992,0.0033395676873624325,-0.00012367517047096044,0.007350458763539791
0.008405165746808052,0.004809993784874678,-0.008106398396193981,0.0034739586990326643,-0.00013746804324910045,0.007578717544674873
0.008896074257791042,0.0049359844997525215,-0.007510282099246979,0.003735816339030862,-0.00013592781033366919,0.006763217505067587
0.008559802547097206,0.005333931650966406,-0.008035610429942608,0.0034302733838558197,-0.00013347693311516196,0.006742159370332956
0.008635805919766426,0.005125216208398342,-0.008636611513793468,0.0035521341487765312,-0.0001957177883014083,0.006917952094227076
0.009229800663888454,0.005192844197154045,-0.007995416410267353,0.0032962150871753693,-0.00019641932158265263,0.006759832613170147
0.00875844992697239,0.005023890640586615,-0.007509315386414528,0.0035098246298730373,-0.00018878233095165342,0.006668059155344963
0.00819462165236473,0.004935320001095533,-0.008175477385520935,0.0034058070741593838,-0.0001812180707929656,0.007176120765507221
0.009228294715285301,0.005196828860789537,-0.008364232257008553,0.0033425523433834314,-0.00017420394578948617,0.007513388525694609
0.009028609842061996,0.004913780372589827,-0.007983559742569923,0.003400243818759918,-0.00018413564248476177,0.00741579569876194
0.009448457509279251,0.005185599438846111,-0.007542810868471861,0.003375010332092643,-0.00019290320051368326,0.006833162624388933
0.008573493920266628,0.004952459596097469,-0.008305663242936134,0.0031560093630105257,-0.0001872176508186385,0.0063329036347568035
0.00872331578284502,0.00477857468649745,-0.008384519256651402,0.0033015827648341656,-0.00018100666056852788,0.006734398193657398
0.008846830576658249,0.005037821829319,-0.007892446592450142,0.003192006377503276,-0.00017513976490590721,0.006691695656627417
0.008501865901052952,0.004980132915079594,-0.007860667072236538,0.003108545206487179,-0.0001696377294138074,0.0064339968375861645
0.008965354412794113,0.004854447208344936,-0.008646967820823193,0.0031402860768139362,-0.00016447038797196,0.006174542475491762
0.008601662702858448,0.005129780620336533,-0.008450840599834919,0.0032038630452007055,-0.00018269609427079558,0.006174945738166571
0.008281267248094082,0.005230473354458809,-0.007719722110778093,0.0035017533227801323,-0.0001806344953365624,0.0070906286127865314
0.00896427035331726,0.00493236118927598,-0.0077173663303256035,0.0037648100405931473,-0.00017580101848579943,0.006511370651423931
0.00886518508195877,0.005400781985372305,-0.008427857421338558,0.0033411867916584015,-0.00017104155267588794,0.006368403322994709
0.008873050101101398,0.005264769773930311,-0.007667962461709976,0.0030478888656944036,-0.000166521014762111,0.006438492331653833
0.008942495100200176,0.005214856471866369,-0.008158298209309578,0.002561036264523864,-0.00017998389375861734,0.006471115630120039
0.009157220833003521,0.005353346932679415,-0.008429884910583496,0.0026872623711824417,-0.00017627693887334317,0.006491396576166153
0.008831593208014965,0.005523583851754665,-0.007684509735554457,0.00268353708088398,-0.00017210892110597342,0.005974532570689917
0.008831593208014965,0.005523583851754665,-0.007684509735554457,0.00268353708088398,-0.00017210892110597342,0.005974532570689917
0.009007587097585201,0.005179096944630146,-0.0076896799728274345,0.0029592865612357855,-0.0001680935238255188,0.006217663642019033
0.008977928198873997,0.0049726711586117744,-0.007888443768024445,0.003300377633422613,-0.00019029765098821372,0.006664558779448271
0.009132077917456627,0.00513065792620182,-0.007942979224026203,0.003158564679324627,-0.00019087702094111592,0.006435409653931856
0.009082362987101078,0.005429605953395367,-0.007577314041554928,0.0030024913139641285,-0.00018365179130341858,0.0056101796217262745
0.009283731691539288,0.005558294709771872,-0.007395397871732712,0.0027298880741000175,-0.00017648478387854993,0.005374855361878872
0.008887839503586292,0.00505655724555254,-0.008076478727161884,0.002908156719058752,-0.00016982623492367566,0.005632433108985424
0.009536857716739178,0.004891366232186556,-0.007690982427448034,0.0030233345460146666,-0.00016364891780540347,0.00599859980866313
0.009049984626471996,0.005438255146145821,-0.008028971962630749,0.0030491547659039497,-0.00015790582983754575,0.006060814950615168
0.008862077258527279,0.005253897048532963,-0.0077667683362960815,0.0033055986277759075,-0.00017901835963129997,0.005829393398016691
0.00878203846514225,0.005205392371863127,-0.00824313797056675,0.0031159594655036926,-0.0001767953363014385,0.005456449929624796
0.00917139183729887,0.004793958272784948,-0.008119734935462475,0.003029870567843318,-0.00017142007709480822,0.0053999461233615875
0.008959603495895863,0.004741765558719635,-0.007826082408428192,0.0028830075170844793,-0.00016616085486020893,0.005844186060130596
0.008625488728284836,0.005722155794501305,-0.007820039987564087,0.0028760568238794804,-0.00017438341455999762,0.006094324868172407
0.009436419233679771,0.005421469919383526,-0.00876863393932581,0.0027681405190378428,-0.00018172257114201784,0.005647200625389814
0.009018936194479465,0.006056882441043854,-0.007993065752089024,0.0028580762445926666,-0.00017741300689522177,0.005711766891181469
0.009419979527592659,0.005432441830635071,-0.007864654995501041,0.0028662229888141155,-0.00017260474851354957,0.005991457495838404
0.009121612645685673,0.005047892685979605,-0.008326034992933273,0.0029533994384109974,-0.00019039565813727677,0.005863280035555363
0.00892896018922329,0.005653116386383772,-0.008299605920910835,0.0032644106540828943,-0.00018691286095418036,0.005785187240689993
0.008450961671769619,0.005872631911188364,-0.008455957286059856,0.0030530577059835196,-0.00018227631517220289,0.00535120302811265
0.009017338976264,0.005939170718193054,-0.008049617521464825,0.0030844365246593952,-0.00017778198525775224,0.005605506245046854
0.00915617123246193,0.005920679308474064,-0.008472130633890629,0.0029552679043263197,-0.00020152429351583123,0.0054360562935471535
0.00912422128021717,0.005558929871767759,-0.00869598239660263,0.0028700793627649546,-0.00021841743728145957,0.005771425552666187
0.00914816651493311,0.005647451151162386,-0.008394129574298859,0.0027253017760813236,-0.00020996970124542713,0.006009174045175314
0.009485643357038498,0.005319410003721714,-0.008191113360226154,0.002875132719054818,-0.00023036811035126448,0.005466750357300043
0.009434780105948448,0.005588432773947716,-0.008434543386101723,0.0026561154518276453,-0.00022989641001913697,0.004963949788361788
0.008960060775279999,0.005842945538461208,-0.008497345261275768,0.00252669514156878,-0.00022109257406555116,0.00458354689180851
0.00963712390512228,0.005478320177644491,-0.00862976722419262,0.002766983350738883,-0.00022958563931751996,0.004854527302086353
0.00963712390512228,0.005478320177644491,-0.00862976722419262,0.002766983350738883,-0.00022958563931751996,0.004854527302086353
0.00937668513506651,0.005163744557648897,-0.008288717828691006,0.0028358851559460163,-0.00022918211470823735,0.004997098818421364
0.009756146930158138,0.005335046444088221,-0.008110788650810719,0.0027450830675661564,-0.00022163857647683471,0.005097256042063236
0.008987744338810444,0.005837472155690193,-0.008346189744770527,0.0027100215665996075,-0.00022160449589136988,0.004855683539062738
0.008987744338810444,0.005837472155690193,-0.008346189744770527,0.0027100215665996075,-0.00022160449589136988,0.004855683539062738
0.009628691710531712,0.005396392196416855,-0.008169914595782757,0.0026641380973160267,-0.00022816720593255013,0.004616851918399334
0.009813091717660427,0.005032110959291458,-0.007601055782288313,0.0026893680915236473,-0.0002220187452621758,0.004705512430518866
0.00939691998064518,0.00523290503770113,-0.007572614122182131,0.0027537427376955748,-0.0002154331305064261,0.0047548008151352406
0.009597375057637691,0.00511082261800766,-0.008134891279041767,0.002801799215376377,-0.00027220966876484454,0.004852471873164177
0.009759324602782726,0.005842557642608881,-0.007749499287456274,0.0027664280496537685,-0.0002761675859801471,0.00475526787340641
0.009896514005959034,0.005338807124644518,-0.008153550326824188,0.0027965926565229893,-0.00026146843447349966,0.004640261642634869
0.010058327578008175,0.0044405641965568066,-0.007938554510474205,0.002789858030155301,-0.00028996646869927645,0.004305562935769558
0.010195520706474781,0.004999334458261728,-0.007697334513068199,0.002845190931111574,-0.0002807469863910228,0.0043245479464530945
0.009244649671018124,0.005074226763099432,-0.007168752606958151,0.0028577856719493866,-0.00026723294286057353,0.004602652974426746
0.00990376342087984,0.0051547749899327755,-0.007228751201182604,0.0030789938755333424,-0.0002546531322877854,0.004478152841329575
0.01031211856752634,0.005609407089650631,-0.008058723993599415,0.003213677555322647,-0.00024318315263371915,0.004353602882474661
0.00962809193879366,0.005187235772609711,-0.007476886734366417,0.003149701515212655,-0.0002688382228370756,0.004108234774321318
0.009668278507888317,0.005390291102230549,-0.007179825101047754,0.0031096567399799824,-0.00026009351131506264,0.004270946606993675
0.01014197152107954,0.00558974826708436,-0.007269836496561766,0.0031806384213268757,-0.0002499282418284565,0.004188380669802427
0.009578920900821686,0.005339817143976688,-0.00781355332583189,0.002927609486505389,-0.0002572122903075069,0.003992543555796146
0.010030630975961685,0.005812257062643766,-0.0074754864908754826,0.0027703435625880957,-0.0002634985139593482,0.004342828877270222
0.011105936020612717,0.005612952169030905,-0.00725206546485424,0.002588477451354265,-0.00025518456823192537,0.00421947194263339
0.009468050673604012,0.005329468287527561,-0.00825884472578764,0.0024964117910712957,-0.0002465132565703243,0.003907071426510811
0.00948726199567318,0.005036399699747562,-0.007778063882142305,0.0027215038426220417,-0.00028311708592809737,0.003686247393488884
0.010297253727912903,0.005179089028388262,-0.008079231716692448,0.003079826245084405,-0.0002727736718952656,0.003292341250926256
0.009838232770562172,0.00555609492585063,-0.007766518276184797,0.003307987004518509,-0.000295571080641821,0.003373260609805584
0.009939891286194324,0.005793159361928701,-0.007787320762872696,0.0030415470246225595,-0.00027732746093533933,0.003061610274016857
0.010592677630484104,0.005115621257573366,-0.007730760611593723,0.002904793480411172,-0.0002962784201372415,0.003365395125001669
0.010592677630484104,0.005115621257573366,-0.007730760611593723,0.002904793480411172,-0.0002962784201372415,0.003365395125001669
0.010331210680305958,0.004167608916759491,-0.007846241816878319,0.002749151550233364,-0.00028034549904987216,0.0034722588025033474
0.010034228675067425,0.004466786049306393,-0.007503633387386799,0.0027356662321835756,-0.00029677688144147396,0.0031981279607862234
0.010034228675067425,0.004466786049306393,-0.007503633387386799,0.0027356662321835756,-0.00029677688144147396,0.0031981279607862234
0.010234013199806213,0.00471099279820919,-0.0072662923485040665,0.0029066770803183317,-0.00029359865584410727,0.0028899898752570152
0.010578865185379982,0.0047481185756623745,-0.0076232291758060455,0.003202306805178523,-0.0002826546551659703,0.002806795993819833
0.010418913327157497,0.004490135237574577,-0.007803702261298895,0.00317457877099514,-0.000354201125446707,0.003143199486657977
0.010615290142595768,0.0040572346188127995,-0.007287261541932821,0.00349102052859962,-0.0003538547898642719,0.003709920449182391
0.01002926379442215,0.003954633139073849,-0.007279869168996811,0.0032990630716085434,-0.0003297158982604742,0.003952458500862122
0.010449421592056751,0.003945213742554188,-0.007382968906313181,0.003026314778253436,-0.00030730466824024916,0.0039000415708869696
0.010317657142877579,0.004386615473777056,-0.008100462146103382,0.003097201231867075,-0.0003411741927266121,0.0034657097421586514
0.010380291379988194,0.004168564919382334,-0.00783522054553032,0.0032643291633576155,-0.00032417490729130805,0.003196563571691513
0.011072494089603424,0.004413704853504896,-0.008081099949777126,0.003170359879732132,-0.00030602587503381073,0.0028933361172676086
0.010351615026593208,0.004174875095486641,-0.007992253638803959,0.0030328528955578804,-0.00031315433443523943,0.002791516249999404
0.010096743702888489,0.003944357857108116,-0.007753636687994003,0.0029700256418436766,-0.0003190714051015675,0.0027474621310830116
0.010530870407819748,0.0039147199131548405,-0.007413941901177168,0.0029737018048763275,-0.00030504362075589597,0.002548281569033861
0.010384364053606987,0.003960444126278162,-0.0080536138266325,0.0029047962743788958,-0.000327054294757545,0.002605337416753173
0.01052813045680523,0.003953243605792522,-0.0078435018658638,0.0027247476391494274,-0.0003175706369802356,0.0026619357522577047
0.010903794318437576,0.004404427018016577,-0.008085733279585838,0.0030903262086212635,-0.0003578756586648524,0.0024820028338581324
0.01018587313592434,0.004241396673023701,-0.006798701826483011,0.002989373868331313,-0.0003394102677702904,0.0024990008678287268
0.010995371267199516,0.003928003832697868,-0.007787265349179506,0.0033052319195121527,-0.00036259469925425947,0.0023039570078253746
0.011422599665820599,0.004232686944305897,-0.009441052563488483,0.003401315538212657,-0.000353369046933949,0.0021631333511322737
0.010216956026852131,0.00416463753208518,-0.00839801412075758,0.0032736335415393114,-0.0003804750449489802,0.002017396967858076
0.010554601438343525,0.004019221290946007,-0.007723493035882711,0.0032698630820959806,-0.0003650360740721226,0.0018030541250482202
0.010775397531688213,0.003905147546902299,-0.007750083226710558,0.0031738753896206617,-0.00038814949220977724,0.001736268401145935
0.0101674385368824,0.004286636132746935,-0.008118570782244205,0.0034352096263319254,-0.0003738616651389748,0.0017771691782400012
0.010449602268636227,0.0042836531065404415,-0.008065701462328434,0.00312132784165442,-0.00046714258496649563,0.0016494614537805319
0.010636565275490284,0.004484699573367834,-0.00787116028368473,0.003409523284062743,-0.00042773684253916144,0.001651373808272183
0.010636565275490284,0.004484699573367834,-0.00787116028368473,0.003409523284062743,-0.00042773684253916144,0.001651373808272183
0.01091863214969635,0.004220984876155853,-0.008610748685896397,0.0032952341716736555,-0.00039087265031412244,0.0014586743200197816
0.011040505953133106,0.0035861721262335777,-0.00838386733084917,0.003167378483340144,-0.0003596249152906239,0.001505526714026928
0.010481419041752815,0.0034838297870010138,-0.008357645012438297,0.003357144771143794,-0.0003904818731825799,0.0014247513609007
0.01070638932287693,0.004165897145867348,-0.008146101608872414,0.0031195934861898422,-0.00037144622183404863,0.0015014221426099539
0.009939855895936489,0.00420770887285471,-0.008139186538755894,0.0032839132472872734,-0.00034801001311279833,0.0014063065173104405
0.01047265063971281,0.00450211763381958,-0.00798864383250475,0.0033198902383446693,-0.0003269612789154053,0.0014316352317109704
0.010587766766548157,0.004182690288871527,-0.008325612172484398,0.003238552249968052,-0.00034615257754921913,0.0013916143216192722
0.010391689836978912,0.003523001680150628,-0.00857342965900898,0.0034039076417684555,-0.0003393545048311353,0.0012941609602421522
0.01107409130781889,0.0035791145637631416,-0.007921972312033176,0.0036650854162871838,-0.000322741485433653,0.0012256212066859007
0.010455894283950329,0.0042902580462396145,-0.0074392822571098804,0.003840674879029393,-0.0003394317755009979,0.0010881521739065647
0.009816870093345642,0.004192416090518236,-0.008115225471556187,0.0038903160020709038,-0.0003338616224937141,0.001045833108946681
0.010573051869869232,0.003941780887544155,-0.00896752905100584,0.0034210497979074717,-0.0003196998150087893,0.0010314732789993286
0.010642001405358315,0.003887744853273034,-0.008043626323342323,0.003166514215990901,-0.00029927794821560383,0.0010273399529978633
0.010121390223503113,0.004310708958655596,-0.007823367603123188,0.0030869569163769484,-0.00028028394444845617,0.0011711824918165803
0.010977855883538723,0.004240419249981642,-0.00847551878541708,0.002950511872768402,-0.00030945477192290127,0.0011543178698047996
0.011124095879495144,0.004030480980873108,-0.008894299156963825,0.0031191795133054256,-0.00032286817440763116,0.0011161634465679526
0.010155991651117802,0.003663485636934638,-0.008320050314068794,0.003087489865720272,-0.00032887276029214263,0.0009952698601409793
0.009843578562140465,0.003542285179719329,-0.00840286910533905,0.003130667842924595,-0.00035576013033278286,0.0009049961809068918
0.01000568550080061,0.003648308804258704,-0.009200172498822212,0.003170885145664215,-0.0005767886759713292,0.000759039307013154
0.011030873283743858,0.004207046702504158,-0.008169402368366718,0.0033865412697196007,-0.0006640556384809315,0.0006495262496173382
0.011227438226342201,0.0041250488720834255,-0.008089343085885048,0.0036349184811115265,-0.0006188407423906028,0.0005674160784110427
0.010343569330871105,0.003934173844754696,-0.0090792803093791,0.0035372793208807707,-0.000636804208625108,0.0005970966885797679
0.010814023204147816,0.00380123732611537,-0.008543773554265499,0.0035191781353205442,-0.000588244991376996,0.0005430696764960885
0.011120828799903393,0.0037526614032685757,-0.008148053660988808,0.003273221431300044,-0.0006100772297941148,0.0004937500925734639
0.010594956576824188,0.0040871454402804375,-0.008328735828399658,0.0032786482479423285,-0.0006613347795791924,0.0004523680545389652
0.010679950937628746,0.004578939639031887,-0.008831748738884926,0.0033379208762198687,-0.0007106225239112973,0.0004173711931798607
0.010152245871722698,0.0037546558305621147,-0.00880693830549717,0.0035587844904512167,-0.0007343562901951373,0.00038740519084967673
0.009901580400764942,0.004056409001350403,-0.00924209225922823,0.0037774043157696724,-0.0007157594081945717,0.00036145703052170575
0.009700058959424496,0.004526835400611162,-0.008775838650763035,0.0034415856935083866,-0.0007895181770436466,0.0003187604888807982
0.010360850021243095,0.004153850022703409,-0.00850591529160738,0.0036126431077718735,-0.0006944498745724559,0.00030098549905233085
0.010937870480120182,0.003881168784573674,-0.008694696240127087,0.0037088096141815186,-0.0007144264527596533,0.0002439641102682799
0.010937870480120182,0.003881168784573674,-0.008694696240127087,0.0037088096141815186,-0.0007144264527596533,0.0002439641102682799
0.010282181203365326,0.004264160059392452,-0.008731659501791,0.003669220954179764,-0.000637364515569061,0.00022607400023844093
0.01062267366796732,0.004165130667388439,-0.008558380417525768,0.003563854843378067,-0.0006521337782032788,0.0002149053616449237
0.010520276613533497,0.00390154798515141,-0.008941356092691422,0.0033671425189822912,-0.0006009706994518638,0.00020508425950538367
0.010676458477973938,0.0040840706788003445,-0.009085765108466148,0.0034709179308265448,-0.0006221041548997164,0.00017696183931548148
0.011011901311576366,0.004120380152016878,-0.008757422678172588,0.003697942942380905,-0.0005779267521575093,0.00015166684170253575
0.010626683942973614,0.004290599841624498,-0.008896264247596264,0.003903085133060813,-0.0005163023597560823,0.00014441407984122634
0.01059092115610838,0.00400767894461751,-0.009216309525072575,0.003945168107748032,-0.0005079378606751561,0.00013876990124117583
0.010554435662925243,0.003829643363133073,-0.009177306666970253,0.003924572840332985,-0.0005009406595490873,0.00010464864317327738
0.010733612813055515,0.004336887504905462,-0.008696731179952621,0.0034387456253170967,-0.0005171136581338942,9.691309242043644e-05
0.011327740736305714,0.004117196891456842,-0.009887219406664371,0.0033441490959376097,-0.0004941376973874867,1.2471921763790306e-05
0.011356934905052185,0.0039618294686079025,-0.009026246145367622,0.0033487912733107805,-0.0005074621294625103,-6.382803258020431e-05
0.01139719970524311,0.004433595109730959,-0.008455040864646435,0.003563272999599576,-0.0004881158238276839,-9.754328493727371e-05
0.011670087464153767,0.004133682698011398,-0.008923576213419437,0.0037092554848641157,-0.00045917154056951404,-0.00011218555300729349
0.011563951149582863,0.00393071211874485,-0.008792512118816376,0.004301451146602631,-0.000505386502481997,-0.00012324776616878808
0.010612854734063148,0.004076864570379257,-0.008538085967302322,0.004103182815015316,-0.0005455182399600744,-0.0001423463982064277
0.011620087549090385,0.0041018323972821236,-0.00894849468022585,0.0035490624140948057,-0.000572827470023185,-0.0001454320881748572
0.011802155524492264,0.003921411000192165,-0.009304754436016083,0.003198106773197651,-0.0005713268765248358,-0.0007532576564699411
0.011970823630690575,0.004237290471792221,-0.008741219528019428,0.0031046047806739807,-0.0005610562511719763,-0.0008396737393923104
0.011756451800465584,0.004469195380806923,-0.008713453076779842,0.0032389878761023283,-0.0006352459313347936,-0.0015868842601776123
0.011712455190718174,0.004253780003637075,-0.009524333290755749,0.003481169929727912,-0.0006523647462017834,-0.0017192853847518563
0.012044265866279602,0.0039521390572190285,-0.008809013292193413,0.003627391764894128,-0.0006826134049333632,-0.001951868529431522
0.011597678065299988,0.004322212655097246,-0.008743328973650932,0.003704878268763423,-0.00068700808333233,-0.001947161857970059
0.012412209063768387,0.004144488368183374,-0.00919963140040636,0.0038351244293153286,-0.0006845450261607766,-0.001816222327761352
0.011711658909916878,0.004201240371912718,-0.00937702413648367,0.0041253045201301575,-0.0006627826951444149,-0.0016866456717252731
0.011951849795877934,0.004000653978437185,-0.008677348494529724,0.0041147335432469845,-0.0007229932816699147,-0.001626769546419382
0.011947590857744217,0.004128050524741411,-0.009469777345657349,0.004210369195789099,-0.0006431664223782718,-0.002391981426626444
0.012306305579841137,0.0044168527238070965,-0.00930224359035492,0.004086419474333525,-0.0005969835328869522,-0.0028652793262153864
0.012442773208022118,0.004150323569774628,-0.008709626272320747,0.003978128079324961,-0.0005389556172303855,-0.002878753235563636
0.01234301459044218,0.004401028621941805,-0.010027467273175716,0.0038803350180387497,-0.0005604423931799829,-0.0026336966548115015
0.012598619796335697,0.004122678190469742,-0.009026115760207176,0.004291625693440437,-0.0005234162090346217,-0.0024246294051408768
0.01318944338709116,0.0041574351489543915,-0.008595273829996586,0.004189855419099331,-0.0004838132008444518,-0.002384566469117999
0.01318944338709116,0.0041574351489543915,-0.008595273829996586,0.004189855419099331,-0.0004838132008444518,-0.002384566469117999
0.012079896405339241,0.004133889451622963,-0.009334560483694077,0.0035760586615651846,-0.0004493200685828924,-0.002889906521886587
0.011089256033301353,0.004362823907285929,-0.009108668193221092,0.0038678401615470648,-0.00047511342563666403,-0.003297861199826002
0.01216547004878521,0.0040529221296310425,-0.00867468398064375,0.004201754927635193,-0.00044910144060850143,-0.0035397233441472054
0.012127725407481194,0.004253401421010494,-0.009439123794436455,0.004089197143912315,-0.00039064508746378124,-0.003721725195646286
0.012088553979992867,0.004265565890818834,-0.009530726820230484,0.004052654840052128,-0.0004176413349341601,-0.00376225751824677
0.012499227188527584,0.004407914355397224,-0.009523121640086174,0.003944739233702421,-0.0004436666495166719,-0.003700458211824298
0.011983584612607956,0.0043503642082214355,-0.009717602282762527,0.004202255047857761,-0.00045889418106526136,-0.003633792046457529
0.012314879335463047,0.004532110411673784,-0.009526041336357594,0.004195648245513439,-0.0006848015473224223,-0.0032793658319860697
0.011857856996357441,0.004540229216217995,-0.008814329281449318,0.004074979107826948,-0.0008915962534956634,-0.0033087830524891615
0.01195975299924612,0.004155278205871582,-0.009298700839281082,0.0037654927000403404,-0.0009220173233188689,-0.004020168911665678
0.012284270487725735,0.003888957668095827,-0.00956557784229517,0.003517440054565668,-0.0009210662683472037,-0.005049533676356077
0.012132290750741959,0.0043530757538974285,-0.009312366135418415,0.003637087531387806,-0.0010295378742739558,-0.006162824109196663
0.012148849666118622,0.004448274150490761,-0.010114242322742939,0.0038884535897523165,-0.0010268850019201636,-0.005644864868372679
0.011847596615552902,0.004305377136915922,-0.00970318540930748,0.00447675958275795,-0.0008988390909507871,-0.004918254911899567
0.012253141961991787,0.004248995799571276,-0.009038601070642471,0.00458187609910965,-0.0008339075138792396,-0.005001361016184092
0.012347213923931122,0.0041656289249658585,-0.009402641095221043,0.0043511418625712395,-0.0007840977050364017,-0.005280303303152323
0.01214168593287468,0.003952708560973406,-0.00939878262579441,0.003934229724109173,-0.000773353676777333,-0.005893494933843613
0.012142963707447052,0.004325549118220806,-0.00872804969549179,0.003796433564275503,-0.0007227027672342956,-0.005728961434215307
0.011952029541134834,0.004498593043535948,-0.009182006120681763,0.004328329581767321,-0.0006621587672270834,-0.005682583898305893
0.012645376846194267,0.0043136440217494965,-0.009888066910207272,0.00465494254603982,-0.00068477145396173,-0.005751855671405792
0.012136624194681644,0.00443539721891284,-0.009451204910874367,0.004931537434458733,-0.0007072298903949559,-0.005880945362150669
0.012245300225913525,0.004256194923073053,-0.009470101445913315,0.00427424069494009,-0.0008352999575436115,-0.00569590600207448
0.012112599797546864,0.00392310693860054,-0.009449334815144539,0.004126749001443386,-0.0008963456493802369,-0.005898003466427326
0.012726616114377975,0.004218276124447584,-0.008798197843134403,0.004446865525096655,-0.0008830182487145066,-0.005911785643547773
0.012269976548850536,0.004077364690601826,-0.009775576181709766,0.004590605851262808,-0.0008008907898329198,-0.006474084220826626
0.013080966658890247,0.004470439162105322,-0.009095578454434872,0.004842271097004414,-0.0007995684281922877,-0.006627791561186314
0.013080966658890247,0.004470439162105322,-0.009095578454434872,0.004842271097004414,-0.0007995684281922877,-0.006627791561186314
0.01237556617707014,0.004134088288992643,-0.009637827053666115,0.005166932940483093,-0.0007303245947696269,-0.00709973881021142
0.012571081519126892,0.00442615058273077,-0.009617885574698448,0.004893561825156212,-0.0006888415664434433,-0.007030037231743336
0.012392953969538212,0.004419530741870403,-0.009355928748846054,0.0043777464888989925,-0.0007152405451051891,-0.007168496027588844
0.013128748163580894,0.0037421779707074165,-0.009230094030499458,0.00460547860711813,-0.0007553866016678512,-0.006901394110172987
0.013128748163580894,0.0037421779707074165,-0.009230094030499458,0.00460547860711813,-0.0007553866016678512,-0.006901394110172987
0.012929338030517101,0.003769300878047943,-0.009221624583005905,0.00468598073348403,-0.0009404057054780424,-0.006807634141296148
0.012696960009634495,0.0038990951143205166,-0.008927208371460438,0.004827726632356644,-0.0009434209787286818,-0.007050640415400267
0.01275539305061102,0.004389824345707893,-0.009291061200201511,0.004761627875268459,-0.0009280280792154372,-0.007058913819491863
0.012591014616191387,0.004637119360268116,-0.009593852795660496,0.004601781722158194,-0.0009084040648303926,-0.006865638308227062
0.012850206345319748,0.004361282102763653,-0.009841080754995346,0.00422750785946846,-0.0008305596420541406,-0.007163559086620808
0.012770814821124077,0.004012350924313068,-0.009096874855458736,0.0043085915967822075,-0.0007659412221983075,-0.006857829634100199
0.01269745547324419,0.0038316622376441956,-0.009449013508856297,0.0045316219329833984,-0.000761665403842926,-0.006953506264835596
0.012528534978628159,0.0038125996943563223,-0.0087258480489254,0.004707776475697756,-0.0007490682182833552,-0.007296614348888397
0.012758675031363964,0.004296418279409409,-0.008976343087852001,0.004859285894781351,-0.0007900043856352568,-0.00797287281602621
0.012695611454546452,0.00423356331884861,-0.00959638599306345,0.004989125765860081,-0.0008648764342069626,-0.007752127014100552
0.01320985984057188,0.004000029060989618,-0.00958274956792593,0.004763557575643063,-0.000950714573264122,-0.0076470645144581795
0.012970968149602413,0.0038871841970831156,-0.008797160349786282,0.004453655797988176,-0.0009481753222644329,-0.008070160634815693
0.0132894366979599,0.0041982391849160194,-0.0097342599183321,0.004309043288230896,-0.0009420576971024275,-0.008044729009270668
0.01257045567035675,0.0040749176405370235,-0.009244425222277641,0.004744304809719324,-0.0008587248739786446,-0.007852037437260151
0.01336497999727726,0.004206520970910788,-0.009391474537551403,0.005288062617182732,-0.000845638511236757,-0.008031871169805527
0.013035166077315807,0.004143135156482458,-0.00968526303768158,0.005180392414331436,-0.0008593720849603415,-0.008958208374679089
0.01328349020332098,0.004060751758515835,-0.009302604012191296,0.005306137725710869,-0.0008566607721149921,-0.00833735242486
0.013002400286495686,0.00401217071339488,-0.00973408855497837,0.004780442453920841,-0.0007892094436101615,-0.008535286411643028
0.013591213151812553,0.004496983252465725,-0.009960412979125977,0.00475650280714035,-0.000854406738653779,-0.008643019013106823
0.013591213151812553,0.004496983252465725,-0.009960412979125977,0.00475650280714035,-0.000854406738653779,-0.008643019013106823
0.012954190373420715,0.004562607500702143,-0.008717809803783894,0.00521526113152504,-0.0008006551652215421,-0.00870218314230442
0.013599983416497707,0.003879788564518094,-0.0094398008659482,0.005044196732342243,-0.0008094272343441844,-0.008898884989321232
0.013394174166023731,0.0027958250138908625,-0.009439817629754543,0.0049238139763474464,-0.0008125084568746388,-0.00868004746735096
0.01388589944690466,0.002346646972000599,-0.009573067538440228,0.004742874298244715,-0.0008581758011132479,-0.008511535823345184
0.01321173645555973,0.0022101919166743755,-0.00925571471452713,0.004173317924141884,-0.0008875231724232435,-0.008785324171185493
0.013552594929933548,0.0030439626425504684,-0.009314972907304764,0.004423569887876511,-0.0008737939060665667,-0.008656991645693779
0.013655349612236023,0.003100890666246414,-0.009250587783753872,0.005147841759026051,-0.0008477794472128153,-0.009127412922680378
0.01407106313854456,0.003303861478343606,-0.009074049070477486,0.005710427183657885,-0.0008034693310037255,-0.009091210551559925
0.01395355723798275,0.0032171725761145353,-0.009409788995981216,0.005216435994952917,-0.0008873045444488525,-0.00942597072571516
0.013770530000329018,0.0030121360905468464,-0.008976652286946774,0.004785509780049324,-0.0008939157705754042,-0.008960742503404617
0.01417564321309328,0.0029785812366753817,-0.007723999675363302,0.004567415919154882,-0.0009251607116311789,-0.008655259385704994
0.014053658582270145,0.0027448865585029125,-0.010157056152820587,0.00481151370331645,-0.0010844592470675707,-0.009385413490235806
0.013967771083116531,0.0030211959965527058,-0.00976570788770914,0.004812426399439573,-0.001108055468648672,-0.009911666624248028
0.013943958096206188,0.003033082000911236,-0.009251778945326805,0.0053523872047662735,-0.0010550280567258596,-0.009194218553602695
0.013885821215808392,0.002633498515933752,-0.009450828656554222,0.005165696144104004,-0.000997495953924954,-0.009501074440777302
0.01396868471056223,0.0026229997165501118,-0.008932833559811115,0.004881312604993582,-0.0009270322043448687,-0.010535500012338161
0.014152204617857933,0.002644227584823966,-0.008857708424329758,0.004606095142662525,-0.0008479246171191335,-0.010151649825274944
0.01432319637387991,0.0024394041392952204,-0.00996294617652893,0.004537519998848438,-0.0008439694647677243,-0.01041456963866949
0.014622175134718418,0.0025294641964137554,-0.009808404371142387,0.004595233593136072,-0.0008508775499649346,-0.009703588671982288
0.014250232838094234,0.0027129212394356728,-0.009328705258667469,0.004564377479255199,-0.0008425862179137766,-0.009164082817733288
0.01440555788576603,0.002835296094417572,-0.01088955532759428,0.0048789530992507935,-0.0008595549734309316,-0.009842215105891228
0.015241209417581558,0.0025802263990044594,-0.009057938121259212,0.00454895431175828,-0.001033878419548273,-0.010669276118278503
0.014121811836957932,0.0023264794144779444,-0.009567158296704292,0.004624580033123493,-0.0012447405606508255,-0.010917152278125286
0.014578583650290966,0.0024238331243395805,-0.009717575274407864,0.005279940087348223,-0.0012614874867722392,-0.010700270533561707
0.014917883090674877,0.0026427803095430136,-0.00956603605300188,0.005461312830448151,-0.0011977788526564837,-0.010156981647014618
0.014917883090674877,0.0026427803095430136,-0.00956603605300188,0.005461312830448151,-0.0011977788526564837,-0.010156981647014618
0.015047797933220863,0.002539054024964571,-0.009973553940653801,0.005268753040581942,-0.0009973006090149283,-0.01037988904863596
0.015047797933220863,0.002539054024964571,-0.009973553940653801,0.005268753040581942,-0.0009973006090149283,-0.01037988904863596
0.015128201805055141,0.0024403997231274843,-0.009303685277700424,0.005556831136345863,-0.0008452715119346976,-0.010194567032158375
0.015212280675768852,0.002379089593887329,-0.010191600769758224,0.005659125745296478,-0.00081540213432163,-0.010866563767194748
0.01510857604444027,0.002656574361026287,-0.01006685383617878,0.006107801105827093,-0.0008244893397204578,-0.011285538785159588
0.015265208669006824,0.002848117146641016,-0.009239081293344498,0.005670525599271059,-0.0008334689191542566,-0.010973476804792881
0.015073087066411972,0.002839395310729742,-0.009738495573401451,0.005344873759895563,-0.0009106218931265175,-0.011300213634967804
0.015563727356493473,0.0026465551927685738,-0.009915877133607864,0.00506592495366931,-0.0009413006482645869,-0.011936558410525322
0.015455125831067562,0.002613726304844022,-0.010145972482860088,0.005216593854129314,-0.0010115497279912233,-0.01176951453089714
0.01580403372645378,0.0025797809939831495,-0.010719223879277706,0.005644733551889658,-0.001228379551321268,-0.012217209674417973
0.015105686150491238,0.002569442382082343,-0.010329922661185265,0.0061441152356565,-0.001395719824358821,-0.012545904144644737
0.01591366156935692,0.002773050917312503,-0.009106780402362347,0.005985380616039038,-0.0013403568882495165,-0.012198337353765965
0.015581797808408737,0.0027867238968610764,-0.010168604552745819,0.005638325586915016,-0.0014468529261648655,-0.011581260710954666
0.01600252278149128,0.002848799806088209,-0.010106675326824188,0.005166432820260525,-0.0013503703521564603,-0.012333537451922894
0.01595068722963333,0.0026373949367552996,-0.010901368223130703,0.005250098183751106,-0.0011867581633850932,-0.012239725328981876
0.015560820698738098,0.00289740483276546,-0.010529305785894394,0.005540633108466864,-0.00110663624946028,-0.012240024283528328
0.015792759135365486,0.0030649411492049694,-0.01034573744982481,0.0054264008067548275,-0.0009862517472356558,-0.012092898599803448
0.015902692452073097,0.003048255806788802,-0.009903637692332268,0.005606040358543396,-0.0008104951702989638,-0.012167149223387241
0.016406888142228127,0.002872765064239502,-0.010136199183762074,0.006026327144354582,-0.0007899121847003698,-0.012311588041484356
0.015978515148162842,0.002818383974954486,-0.010784982703626156,0.00555539783090353,-0.00086585822282359,-0.011990848928689957
0.01622161827981472,0.002819719025865197,-0.010298658162355423,0.00585260521620512,-0.0010245281737297773,-0.012071684934198856
0.016257261857390404,0.0028600904624909163,-0.009970095008611679,0.005853353068232536,-0.0013052765280008316,-0.012388764880597591
0.015720073133707047,0.002905408153310418,-0.010256500914692879,0.005729971453547478,-0.0017475653439760208,-0.012088476680219173
0.01588069647550583,0.0025426321662962437,-0.009914993308484554,0.006288003176450729,-0.001652932958677411,-0.012129873037338257
0.01588069647550583,0.0025426321662962437,-0.009914993308484554,0.006288003176450729,-0.001652932958677411,-0.012129873037338257
0.016200222074985504,0.0025236112996935844,-0.009835577569901943,0.006748402491211891,-0.0014504545833915472,-0.012584093026816845
0.01606880873441696,0.002666492946445942,-0.010256447829306126,0.006340711377561092,-0.0012600509217008948,-0.012574629858136177
0.016762856394052505,0.0031529872212558985,-0.010337426327168941,0.006151427049189806,-0.0010966798290610313,-0.012611592188477516
0.01587068848311901,0.003159130923449993,-0.01056590210646391,0.005723652429878712,-0.0010567068820819259,-0.012184293940663338
0.016233844682574272,0.002637249883264303,-0.010154785588383675,0.005887166131287813,-0.0010243356227874756,-0.012483437545597553
0.016293304041028023,0.002610418712720275,-0.009576463140547276,0.0062525467947125435,-0.0008732317364774644,-0.012758237309753895
0.016033727675676346,0.0026897238567471504,-0.009403027594089508,0.00637634564191103,-0.0008347593829967082,-0.012774201110005379
0.016330832615494728,0.002902119653299451,-0.010373907163739204,0.006053260061889887,-0.0008410991285927594,-0.013226130045950413
0.01631074585020542,0.0028608753345906734,-0.010149502195417881,0.005946132354438305,-0.0008624885813333094,-0.013445904478430748
0.016907168552279472,0.0029035916086286306,-0.009718727320432663,0.005832975264638662,-0.0009964079363271594,-0.013147248886525631
0.016597643494606018,0.002555505372583866,-0.010559668764472008,0.0063152797520160675,-0.0010838519083335996,-0.012717768549919128
0.0168308075517416,0.0023969728499650955,-0.009742289781570435,0.006463381461799145,-0.0010974546894431114,-0.01293823029845953
0.016465911641716957,0.002607011469081044,-0.00907390657812357,0.00638004532083869,-0.0012760227546095848,-0.013389244675636292
0.016427790746092796,0.002926918910816312,-0.009550456888973713,0.006234812084585428,-0.0013346070190891623,-0.013808616437017918
0.016784382984042168,0.0031545052770525217,-0.009908081032335758,0.006176445167511702,-0.0015111069660633802,-0.01382142212241888
0.017078958451747894,0.002855547470971942,-0.009741011075675488,0.005732004996389151,-0.00168301269877702,-0.013565214350819588
0.017034415155649185,0.002779190894216299,-0.01039859838783741,0.005873546935617924,-0.0016057922039180994,-0.013783725909888744
0.016542114317417145,0.0025448747910559177,-0.009834972210228443,0.005974244326353073,-0.0014349458506330848,-0.01349726878106594
0.017269665375351906,0.002630397444590926,-0.009403690695762634,0.00615979079157114,-0.0013166393619030714,-0.013679584488272667
0.01663263514637947,0.002772136591374874,-0.010314121842384338,0.006172453053295612,-0.0013173390179872513,-0.01368534192442894
0.01630958914756775,0.0028830321971327066,-0.0098024383187294,0.006132388021796942,-0.0012070428347215056,-0.013766135089099407
0.01675201952457428,0.0027161564212292433,-0.009568003937602043,0.006326030474156141,-0.0011368368286639452,-0.014299808070063591
0.01695943996310234,0.002425694139674306,-0.009981353767216206,0.006206387188285589,-0.0010935997124761343,-0.014286735095083714
0.01770281046628952,0.002481953939422965,-0.00963667407631874,0.006045208312571049,-0.0010819184826686978,-0.013692457228899002
0.017203880473971367,0.002801652532070875,-0.009350035339593887,0.006725297309458256,-0.0012543484335765243,-0.01356836874037981
0.016931386664509773,0.0026959057431668043,-0.00984944123774767,0.006866849958896637,-0.0012340316316112876,-0.013994676992297173
0.01712990365922451,0.0030392154585570097,-0.009569202549755573,0.006723031401634216,-0.0013890963746234775,-0.014028641395270824
0.016779545694589615,0.003041562158614397,-0.009365192614495754,0.006484963931143284,-0.001560892560519278,-0.014331487938761711
0.016716914251446724,0.0027051351498812437,-0.009840067476034164,0.006421898491680622,-0.0013836872531101108,-0.013879823498427868
0.017171191051602364,0.002796229673549533,-0.009145067073404789,0.006608213298022747,-0.00128748279530555,-0.014327061362564564
0.017171191051602364,0.002796229673549533,-0.009145067073404789,0.006608213298022747,-0.00128748279530555,-0.014327061362564564
0.018180066719651222,0.002878159051761031,-0.010108108632266521,0.007019206415861845,-0.0013074434828013182,-0.014506010338664055
0.016431543976068497,0.0027899015694856644,-0.009084543213248253,0.006583719048649073,-0.0012259582290425897,-0.014731796458363533
0.017447754740715027,0.002756840316578746,-0.008760332129895687,0.006550627760589123,-0.001190496375784278,-0.01444088015705347
0.01760263927280903,0.0027210877742618322,-0.009154384955763817,0.006928152870386839,-0.0011505750007927418,-0.014086669310927391
0.017588898539543152,0.002662667306140065,-0.009054359048604965,0.006567530799657106,-0.0012426453176885843,-0.014615797437727451
0.017588898539543152,0.002662667306140065,-0.009054359048604965,0.006567530799657106,-0.0012426453176885843,-0.014615797437727451
0.01748230867087841,0.002956016920506954,-0.009799406863749027,0.006521492265164852,-0.001209991634823382,-0.014579794369637966
0.01788175292313099,0.002968915505334735,-0.01052028313279152,0.00690018106251955,-0.0013095178874209523,-0.014241929166018963
0.01779003255069256,0.0029525940772145987,-0.009130412712693214,0.0070262509398162365,-0.0013279615668579936,-0.01439975667744875
0.017504023388028145,0.0027007772587239742,-0.00965744350105524,0.006812899373471737,-0.0013470419216901064,-0.014450483955442905
0.017884187400341034,0.002675783121958375,-0.010850902646780014,0.006666458677500486,-0.001308103441260755,-0.014724341221153736
0.017428535968065262,0.0027297516353428364,-0.00995879340916872,0.006811689119786024,-0.001401519519276917,-0.014900913462042809
0.01788715086877346,0.0027250589337199926,-0.010745900683104992,0.007145020179450512,-0.0013156560016795993,-0.014748025685548782
0.017807012423872948,0.0027310133446007967,-0.011624721810221672,0.006766605656594038,-0.0011951896594837308,-0.014801686629652977
0.017569368705153465,0.0027643449138849974,-0.01096713449805975,0.00686250627040863,-0.0011605394538491964,-0.015275138430297375
0.017856307327747345,0.002804164309054613,-0.011240430176258087,0.007440575398504734,-0.0011127638863399625,-0.01536954753100872
0.017785705626010895,0.002781681716442108,-0.010834315791726112,0.007697499822825193,-0.0011147729819640517,-0.015811627730727196
0.01787889190018177,0.0029874753672629595,-0.010787581093609333,0.007017914671450853,-0.001059449859894812,-0.015789220109581947
0.01755385659635067,0.002809130819514394,-0.011044674552977085,0.006466046907007694,-0.0010676796082407236,-0.016096558421850204
0.01744672656059265,0.0027534556575119495,-0.010914401151239872,0.006213555112481117,-0.0011622629826888442,-0.015700755640864372
0.01824379712343216,0.002545868046581745,-0.01220680307596922,0.006667181383818388,-0.0014089163159951568,-0.01596320979297161
0.018385492265224457,0.002587445080280304,-0.01132803875952959,0.0068475487641990185,-0.0014568570768460631,-0.01457570306956768
0.017770256847143173,0.002612893935292959,-0.011220667511224747,0.00642827432602644,-0.0015365250874310732,-0.0165981724858284
0.018148355185985565,0.002564292633906007,-0.011496088467538357,0.006411259062588215,-0.0016242959536612034,-0.01664886064827442
0.01788513734936714,0.0027552342507988214,-0.00988314300775528,0.006787419784814119,-0.0015448490157723427,-0.016338659450411797
0.017728030681610107,0.002462959149852395,-0.012457082979381084,0.00735191535204649,-0.0013751211808994412,-0.01664893887937069
0.017728248611092567,0.0023490136954933405,-0.010984615422785282,0.007048447150737047,-0.0013901408528909087,-0.016827339306473732
0.017728248611092567,0.0023490136954933405,-0.010984615422785282,0.007048447150737047,-0.0013901408528909087,-0.016827339306473732
0.01790514774620533,0.002382757142186165,-0.010965250432491302,0.0070553915575146675,-0.001558577991090715,-0.016598163172602654
0.017802054062485695,0.0022602833341807127,-0.011775653809309006,0.007332698442041874,-0.001511224778369069,-0.016818523406982422
0.01814134046435356,0.002233261475339532,-0.011638094671070576,0.007091970182955265,-0.0015927184140309691,-0.016015788540244102
0.018142547458410263,0.0024455576203763485,-0.01108765508979559,0.006696508731693029,-0.0015329538146033883,-0.01668793335556984
0.018142547458410263,0.0024455576203763485,-0.01108765508979559,0.006696508731693029,-0.0015329538146033883,-0.01668793335556984
0.018309006467461586,0.0022184541448950768,-0.01206689141690731,0.007358557544648647,-0.0015457278350368142,-0.01705937087535858
0.018164217472076416,0.0023371365386992693,-0.011706719174981117,0.007461762521415949,-0.0014156379038468003,-0.017755959182977676
0.0180637389421463,0.002277747029438615,-0.012219300493597984,0.007294465787708759,-0.001359599526040256,-0.01792288012802601
0.018554845824837685,0.002231190213933587,-0.011726262979209423,0.00725116953253746,-0.0013551089214161038,-0.017172982916235924
0.019098380580544472,0.0026302412152290344,-0.011519119143486023,0.00796108040958643,-0.0012719950173050165,-0.01756385527551174
0.01825171895325184,0.0024863912258297205,-0.012171714566648006,0.008255019783973694,-0.0012676198966801167,-0.018226847052574158
0.018457263708114624,0.0023884428665041924,-0.011569647118449211,0.00786777026951313,-0.001428516348823905,-0.017957385629415512
0.018006857484579086,0.002447789302095771,-0.012337719090282917,0.008192253299057484,-0.0014757004100829363,-0.017938153818249702
0.018028823658823967,0.0025682600680738688,-0.011658373288810253,0.008018085733056068,-0.0016697922255843878,-0.017688482999801636
0.018362829461693764,0.002425999380648136,-0.01153645571321249,0.007851243019104004,-0.001611780608072877,-0.017906110733747482
0.017936501652002335,0.002477796748280525,-0.012122093699872494,0.0075033679604530334,-0.0015087611973285675,-0.01718258112668991
0.018456069752573967,0.0022845289204269648,-0.011350376531481743,0.00781017541885376,-0.0014160418650135398,-0.01754930429160595
0.01831641048192978,0.002406565472483635,-0.012174115516245365,0.007679657079279423,-0.0013603103579953313,-0.018068548291921616
0.018048815429210663,0.0022826027125120163,-0.011956682428717613,0.007999317720532417,-0.0013009861577302217,-0.018647318705916405
0.018697375431656837,0.0018805183935910463,-0.011808580718934536,0.008082183077931404,-0.00137948093470186,-0.018627865239977837
0.018858863040804863,0.0016457240562886,-0.011853350326418877,0.007982024922966957,-0.0014139347476884723,-0.01880987361073494
0.01875961385667324,0.0013153132749721408,-0.011382964439690113,0.008150371722877026,-0.0014516828814521432,-0.018366193398833275
0.018497105687856674,0.0013210155302658677,-0.012426389381289482,0.008200149983167648,-0.0016435290453955531,-0.0186388548463583
0.018282031640410423,0.0013084497768431902,-0.012319669127464294,0.007528022862970829,-0.0015387390740215778,-0.018816694617271423
0.018192855641245842,0.0018767304718494415,-0.01163418497890234,0.008199344389140606,-0.0015856001991778612,-0.018963688984513283
0.018858473747968674,0.001727431546896696,-0.011564251966774464,0.008442893624305725,-0.0014664959162473679,-0.01910611428320408
0.018728943541646004,0.0018134142737835646,-0.011552822776138783,0.007989507168531418,-0.0013863644562661648,-0.01920856535434723
0.01971818506717682,0.001402347581461072,-0.011671513319015503,0.007757173385471106,-0.0012880227295681834,-0.01957804337143898
0.019224384799599648,0.0012185301166027784,-0.012470125220716,0.008020064793527126,-0.001360212336294353,-0.01990792341530323
0.019224384799599648,0.0012185301166027784,-0.012470125220716,0.008020064793527126,-0.001360212336294353,-0.01990792341530323
0.018870361149311066,0.0009291056776419282,-0.01198662631213665,0.007356789894402027,-0.0015427679754793644,-0.01954527199268341
0.01915789395570755,0.0010171361500397325,-0.011842549778521061,0.007577251642942429,-0.0015012146905064583,-0.019340500235557556
0.02043275162577629,0.0010420212056487799,-0.012329395860433578,0.008122329600155354,-0.0018453709781169891,-0.01963326893746853
0.018984636291861534,0.0013811985263600945,-0.011684740893542767,0.007641524542123079,-0.0017489140154793859,-0.019772956147789955
0.01910833641886711,0.001436247257515788,-0.012273035012185574,0.007898465730249882,-0.0016303741140291095,-0.01985187828540802
0.01962319202721119,0.001450092764571309,-0.011448762379586697,0.008510226383805275,-0.001463287859223783,-0.019799094647169113
0.020085422322154045,0.0013820298481732607,-0.011446001939475536,0.00841123890131712,-0.0013500262284651399,-0.01938273012638092
0.02013430930674076,0.0012399483239278197,-0.012103567831218243,0.008280600421130657,-0.0012037982232868671,-0.020275648683309555
0.020013490691781044,0.00118106824811548,-0.011502795852720737,0.007906864397227764,-0.0011355993337929249,-0.020906250923871994
0.01995839551091194,0.001056904555298388,-0.012029620818793774,0.008902334608137608,-0.0012194110313430429,-0.021029941737651825
0.020213309675455093,0.00102935079485178,-0.012107434682548046,0.008908465504646301,-0.0016019900795072317,-0.020805656909942627
0.020182805135846138,0.0011061630211770535,-0.012091320008039474,0.008871122263371944,-0.0016213817289099097,-0.02074882574379444
0.020155005156993866,0.0015369431348517537,-0.011774408631026745,0.008811905980110168,-0.0017665507039055228,-0.020139528438448906
0.02046874538064003,0.0014859806979075074,-0.0113619240000844,0.008914824575185776,-0.0016763054300099611,-0.01945257931947708
0.02032334730029106,0.001410377793945372,-0.012135175988078117,0.009059315547347069,-0.0016964805545285344,-0.02033013477921486
0.0202221367508173,0.0015339995734393597,-0.01201779767870903,0.008497600443661213,-0.0017364260274916887,-0.021502936258912086
0.02039986290037632,0.0014114269288256764,-0.011978251859545708,0.008657627739012241,-0.001640436123125255,-0.02157416194677353
0.020972704514861107,0.0013374245027080178,-0.012143071740865707,0.008846498094499111,-0.0016545740654692054,-0.021241243928670883
0.020699458196759224,0.0013325217878445983,-0.011303951032459736,0.008312697522342205,-0.0016165493289008737,-0.021483799442648888
0.020540423691272736,0.0012616217136383057,-0.01232161745429039,0.008678704500198364,-0.0015026165638118982,-0.022327447310090065
0.020779505372047424,0.0012239497154951096,-0.011510925367474556,0.008776729926466942,-0.0015962942270562053,-0.022542009130120277
0.020827626809477806,0.0013315462274476886,-0.011897487565875053,0.008221801370382309,-0.001538294367492199,-0.02166508510708809
0.02074486017227173,0.0014255690621212125,-0.012038879096508026,0.007970995269715786,-0.001759336912073195,-0.02127249725162983
0.02078292705118656,0.0014490110334008932,-0.011904999613761902,0.008258476853370667,-0.0016841531032696366,-0.02152971923351288
0.021339407190680504,0.0014892946928739548,-0.012120976112782955,0.008704908192157745,-0.0017157644033432007,-0.022026918828487396
0.021176135167479515,0.0012582468334585428,-0.012656750157475471,0.009296775795519352,-0.001731503871269524,-0.022693095728754997
0.02127024531364441,0.0011990899220108986,-0.011937970295548439,0.009073751047253609,-0.001747561851516366,-0.022775564342737198
0.02197548747062683,0.0012550950050354004,-0.012215553782880306,0.008909671567380428,-0.0018418127438053489,-0.023127712309360504
0.02203078754246235,0.0012588610406965017,-0.012286017648875713,0.009091938845813274,-0.00187538075260818,-0.022851934656500816
0.02203078754246235,0.0012588610406965017,-0.012286017648875713,0.009091938845813274,-0.00187538075260818,-0.022851934656500816
0.021064437925815582,0.0013737597037106752,-0.011682713404297829,0.009029940702021122,-0.001741853659041226,-0.02256074734032154
0.02060529589653015,0.0013315335381776094,-0.012558260932564735,0.009075223468244076,-0.0018126154318451881,-0.022702325135469437
0.021329279989004135,0.0013316631084308028,-0.011986799538135529,0.007923637516796589,-0.0017901839455589652,-0.021872293204069138
0.021597927436232567,0.0012584802461788058,-0.012591715902090073,0.009464873000979424,-0.001854805974289775,-0.023728512227535248
0.021693112328648567,0.001190494280308485,-0.01250041276216507,0.009145856834948063,-0.0017355391755700111,-0.024063926190137863
0.02085425890982151,0.001144025125540793,-0.012394331395626068,0.008462000638246536,-0.0018179186154156923,-0.02361227758228779
0.02149113267660141,0.0010084350360557437,-0.012945891357958317,0.008978133089840412,-0.0017186084296554327,-0.023216674104332924
0.021664241328835487,0.0010949737625196576,-0.012276304885745049,0.009130177088081837,-0.0018562918994575739,-0.023493478074669838
0.02199920266866684,0.0011095639783889055,-0.011602225713431835,0.008273684419691563,-0.0017458917573094368,-0.023828750476241112
0.021417202427983284,0.0014065767172724009,-0.01242092065513134,0.008864745497703552,-0.0017400584183633327,-0.024158263579010963
0.021706515923142433,0.0014495867071673274,-0.013801341876387596,0.008879361674189568,-0.0017533270874992013,-0.024291949346661568
0.0214465893805027,0.0012880522990599275,-0.013062605634331703,0.008648290298879147,-0.001651519793085754,-0.024391524493694305
0.02082858607172966,0.0013322560116648674,-0.012491337954998016,0.00946063082665205,-0.0016810826491564512,-0.02429574355483055
0.021651631221175194,0.0012875685933977365,-0.012562008574604988,0.009817349724471569,-0.0017178356647491455,-0.024550829082727432
0.022469474002718925,0.0012213306035846472,-0.01230267807841301,0.00922303181141615,-0.001819975790567696,-0.02434667758643627
0.022146284580230713,0.001088694203644991,-0.012836605310440063,0.009370044805109501,-0.0018264127429574728,-0.024984722957015038
0.021374540403485298,0.0010583261027932167,-0.012324492447078228,0.008991489186882973,-0.0018920738948509097,-0.024810869246721268
0.021960727870464325,0.0011321746278554201,-0.012851809151470661,0.008808252401649952,-0.0018232674337923527,-0.024368535727262497
0.022129766643047333,0.0012121193576604128,-0.012313309125602245,0.008814225904643536,-0.0017813238082453609,-0.024474941194057465
0.021984539926052094,0.0012158278841525316,-0.01273276749998331,0.010331754572689533,-0.0016584787517786026,-0.02458844520151615
0.022311335429549217,0.001157701131887734,-0.012810456566512585,0.009583796374499798,-0.0018670022254809737,-0.02471744269132614
0.02235560677945614,0.0009797810344025493,-0.012748459354043007,0.0097915418446064,-0.0018409693147987127,-0.02528802491724491
0.02235560677945614,0.0009797810344025493,-0.012748459354043007,0.0097915418446064,-0.0018409693147987127,-0.02528802491724491
0.022520260885357857,0.0008746491512283683,-0.012574887834489346,0.009556367062032223,-0.0018337031360715628,-0.025654353201389313
0.022467223927378654,0.0008786512771621346,-0.013101039454340935,0.009817215614020824,-0.0017262091860175133,-0.025317244231700897
0.02211967296898365,0.0009632010478526354,-0.012362639419734478,0.009459315799176693,-0.0017330911941826344,-0.025600804015994072
0.022818848490715027,0.0010916829342022538,-0.013414189219474792,0.009441838599741459,-0.0018226858228445053,-0.025584880262613297
0.023158526048064232,0.0011302815983071923,-0.012805354781448841,0.008869404904544353,-0.001859823940321803,-0.02556607313454151
0.02298557199537754,0.0010907892137765884,-0.01322951540350914,0.009602611884474754,-0.0019975490868091583,-0.025930995121598244
0.022610362619161606,0.0010622077388688922,-0.012750052846968174,0.009795165620744228,-0.0020006659906357527,-0.02595409005880356
0.02264454960823059,0.0009437098633497953,-0.013003704138100147,0.009286363609135151,-0.0017619740683585405,-0.026000183075666428
0.023406045511364937,0.000865457986947149,-0.013192193582654,0.010006865486502647,-0.001772934221662581,-0.02619132585823536
0.023321649059653282,0.0009636745671741664,-0.01306062564253807,0.009837922640144825,-0.0017733933636918664,-0.02615015022456646
0.02300402708351612,0.0009562086197547615,-0.013552246615290642,0.00933754350990057,-0.0018619537586346269,-0.026838725432753563
0.022463973611593246,0.0008844846161082387,-0.012982994318008423,0.009570350870490074,-0.001864104880951345,-0.0274618212133646
0.023073885589838028,0.00102687266189605,-0.013285878114402294,0.009694981388747692,-0.001946559059433639,-0.027156196534633636
0.02342558652162552,0.0009098033769987524,-0.012808889150619507,0.009662054479122162,-0.0019208702724426985,-0.02658385969698429
0.02333410270512104,0.00090695486869663,-0.013444701209664345,0.010459567420184612,-0.0021377638913691044,-0.025853369385004044
0.02317005954682827,0.0009059876319952309,-0.01335057057440281,0.010000543668866158,-0.002243530238047242,-0.026239626109600067
0.02304702252149582,0.0008926756563596427,-0.014279472641646862,0.009329374879598618,-0.002268210519105196,-0.027136845514178276
0.023097259923815727,0.0009046825580298901,-0.013862942345440388,0.01010942179709673,-0.002380474703386426,-0.02691042609512806
0.023474939167499542,0.0009003612212836742,-0.01382082886993885,0.009294995106756687,-0.0020963624119758606,-0.028187057003378868
0.02401011623442173,0.0009002265869639814,-0.013669557869434357,0.008968116715550423,-0.001814971212297678,-0.028621021658182144
0.023774387314915657,0.0009519255836494267,-0.014180135913193226,0.008822336792945862,-0.001765384920872748,-0.027693431824445724
0.023222437128424644,0.0009451298974454403,-0.01379074901342392,0.008856170810759068,-0.001732692588120699,-0.026199031621217728
0.023398537188768387,0.0009383565047755837,-0.014036421664059162,0.008952866308391094,-0.0017558401450514793,-0.026579272001981735
0.023835621774196625,0.0009333297493867576,-0.01374099776148796,0.009588737040758133,-0.0021451597567647696,-0.027516359463334084
0.02485126629471779,0.0008376345504075289,-0.013966070488095284,0.010475683026015759,-0.00202100514434278,-0.028202872723340988
0.023911111056804657,0.0008419165387749672,-0.014625960029661655,0.010073727928102016,-0.002065937500447035,-0.028303897008299828
0.023523472249507904,0.0008399268263019621,-0.01459985226392746,0.010630713775753975,-0.00206213491037488,-0.028305072337388992
0.024027658626437187,0.0008470012107864022,-0.014385417103767395,0.010263958014547825,-0.0019766436889767647,-0.02828815206885338
0.024027658626437187,0.0008470012107864022,-0.014385417103767395,0.010263958014547825,-0.0019766436889767647,-0.02828815206885338
0.024516433477401733,0.000867227790877223,-0.014201788231730461,0.010645389556884766,-0.002121793106198311,-0.028281796723604202
0.02428531087934971,0.0009053693502210081,-0.014065071009099483,0.010865454562008381,-0.0021475066896528006,-0.02874467894434929
0.024524863809347153,0.0009050805820152164,-0.014353470876812935,0.0100798225030303,-0.002090118359774351,-0.0289334524422884
0.02556825429201126,0.0008038262603804469,-0.014499085023999214,0.010296826250851154,-0.0020422551315277815,-0.029108570888638496
0.025491897016763687,0.0008132927468977869,-0.014740598388016224,0.010228224098682404,-0.0020859066862612963,-0.029205814003944397
0.026255888864398003,0.0008158062119036913,-0.014788463711738586,0.009689454920589924,-0.0022421316243708134,-0.029022496193647385
0.023969421163201332,0.000818791741039604,-0.01428175438195467,0.009831645525991917,-0.0020953938364982605,-0.029249731451272964
0.023792661726474762,0.0007491698488593102,-0.014702956192195415,0.009901518002152443,-0.002247320720925927,-0.02945500798523426
0.02470487728714943,0.0007633211207576096,-0.014761131256818771,0.010404786095023155,-0.002135618356987834,-0.0297095887362957
0.025580430403351784,0.0007703209412284195,-0.014650145545601845,0.011010495945811272,-0.002282647881656885,-0.029251761734485626
0.025854209437966347,0.0007110245642252266,-0.014145642518997192,0.011280241422355175,-0.0021761800162494183,-0.030410360544919968
0.025192728266119957,0.0007066963007673621,-0.014358239248394966,0.010750005021691322,-0.0019202465191483498,-0.031177662312984467
0.02526272088289261,0.000732442073058337,-0.014507196843624115,0.010787012986838818,-0.001779884216375649,-0.03012002818286419
0.025284690782427788,0.0007494201418012381,-0.014952966943383217,0.010523569770157337,-0.0017913772026076913,-0.0293379295617342
0.0258182343095541,0.0006733884220011532,-0.014665130525827408,0.01093403808772564,-0.0021460659336298704,-0.029224513098597527
0.02523702196776867,0.0006940030725672841,-0.014658489264547825,0.011066609062254429,-0.002209726255387068,-0.029925445094704628
0.02557971701025963,0.0006403506849892437,-0.014435547403991222,0.010878711938858032,-0.0024637000169605017,-0.030937086790800095
0.026080584153532982,0.0006427356856875122,-0.014806580729782581,0.011095412075519562,-0.002367616631090641,-0.03122447244822979
0.02593717910349369,0.0006365429144352674,-0.013874491676688194,0.01067287102341652,-0.0024868303444236517,-0.03198451176285744
0.025917356833815575,0.0006003504386171699,-0.015576097182929516,0.010400603525340557,-0.0023831170983612537,-0.0310740377753973
0.026379955932497978,0.0005732143181376159,-0.014517045579850674,0.010358921252191067,-0.002019883133471012,-0.03028241917490959
0.026047546416521072,0.0005915133515372872,-0.014440219849348068,0.0107485456392169,-0.0019417410949245095,-0.03214078024029732
0.0258150864392519,0.0005542152794077992,-0.014982233755290508,0.01084222923964262,-0.001967652700841427,-0.03217019513249397
0.0258150864392519,0.0005542152794077992,-0.014982233755290508,0.01084222923964262,-0.001967652700841427,-0.03217019513249397
0.026082761585712433,0.0005161917069926858,-0.015009839087724686,0.010870329104363918,-0.00194178509991616,-0.032058607786893845
0.02564585953950882,0.0004973703762516379,-0.01534619927406311,0.010909182019531727,-0.0019727260805666447,-0.03152582049369812
0.02590950019657612,0.0005066641024313867,-0.014602544717490673,0.010830648243427277,-0.0019464044598862529,-0.03096693754196167
0.026559535413980484,0.0004888033145107329,-0.014952664263546467,0.010945171117782593,-0.0019660647958517075,-0.0313262902200222
0.026456551626324654,0.000497330620419234,-0.014669603668153286,0.011116948910057545,-0.0020095636136829853,-0.032186444848775864
0.02636764943599701,0.00048283307114616036,-0.015303387306630611,0.010563330724835396,-0.002222551964223385,-0.03206760063767433
0.026496214792132378,0.0005051595508120954,-0.01466124877333641,0.010925686918199062,-0.0024092860985547304,-0.03238513693213463
0.026386728510260582,0.0004786500066984445,-0.015293236821889877,0.011137682944536209,-0.0024967542849481106,-0.03219200670719147
0.026140213012695312,0.0005514182266779244,-0.01452389545738697,0.011129600927233696,-0.002755068941041827,-0.032291725277900696
0.02640916407108307,0.0005039258394390345,-0.015177714638411999,0.011472692713141441,-0.0028032693080604076,-0.032504111528396606
0.027156680822372437,0.0005401225644163787,-0.014772864058613777,0.011567611247301102,-0.0024812144692987204,-0.03228795528411865
0.026927374303340912,0.0004941335646435618,-0.015208209864795208,0.011801524087786674,-0.0023203592281788588,-0.032026249915361404
0.026344360783696175,0.00045273808063939214,-0.014700413681566715,0.011699795722961426,-0.0021181029733270407,-0.03157441318035126
0.025456136092543602,0.00041770681855268776,-0.015261915512382984,0.010952235199511051,-0.0021985014900565147,-0.032608214765787125
0.02604423090815544,0.0004299248394090682,-0.014834859408438206,0.011089865118265152,-0.0023360622581094503,-0.033383723348379135
0.026734592393040657,0.0004217199166305363,-0.015290876850485802,0.0110015869140625,-0.002344246720895171,-0.033264968544244766
0.026170406490564346,0.000395516719436273,-0.015018546022474766,0.010892477817833424,-0.002446055645123124,-0.0329570546746254
0.026507599279284477,0.00037215452175587416,-0.015058454126119614,0.011736883781850338,-0.0021769562736153603,-0.033617958426475525
0.027759462594985962,0.00038426154060289264,-0.015362735837697983,0.011571464128792286,-0.002242485759779811,-0.03367632254958153
0.02682468667626381,0.0003801411367021501,-0.015440303832292557,0.011647958308458328,-0.0022612425964325666,-0.03367706015706062
0.027005625888705254,0.0003612837172113359,-0.015972351655364037,0.01188106369227171,-0.0022914104629307985,-0.033323001116514206
0.02636025846004486,0.0003440217406023294,-0.01546051912009716,0.01151502039283514,-0.002619680715724826,-0.03338046744465828
0.0268926452845335,0.000276636186754331,-0.014938117004930973,0.011418908834457397,-0.002775076776742935,-0.033854808658361435
0.026526983827352524,7.585759158246219e-05,-0.015288885682821274,0.011858321726322174,-0.002564679831266403,-0.033504609018564224
0.027445370331406593,5.191797754378058e-05,-0.015103773213922977,0.011575146578252316,-0.0022478364408016205,-0.035204071551561356
0.027445370331406593,5.191797754378058e-05,-0.015103773213922977,0.011575146578252316,-0.0022478364408016205,-0.035204071551561356
0.026400962844491005,9.256097837351263e-05,-0.014620916917920113,0.0115734301507473,-0.0022869063541293144,-0.03380116820335388
0.026400962844491005,9.256097837351263e-05,-0.014620916917920113,0.0115734301507473,-0.0022869063541293144,-0.03380116820335388
0.0269854124635458,8.810295548755676e-05,-0.015124719589948654,0.011539286933839321,-0.0028529674746096134,-0.03301651030778885
0.02709115669131279,0.0001253980735782534,-0.01515463087707758,0.011767914518713951,-0.0030202388297766447,-0.03446388244628906
0.027182357385754585,-0.00011667112994473428,-0.015812084078788757,0.011371877044439316,-0.0028973135631531477,-0.034846387803554535
0.02716464176774025,-0.00011129026097478345,-0.015315152704715729,0.011538970284163952,-0.0026443968527019024,-0.034820400178432465
0.02700267918407917,-9.914465772453696e-05,-0.015305571258068085,0.01203238870948553,-0.002344019478186965,-0.03649352490901947
0.02726893313229084,-8.930339390644804e-05,-0.01579584740102291,0.011968492530286312,-0.002358113881200552,-0.035003289580345154
0.027485230937600136,-8.123872976284474e-05,-0.015979643911123276,0.011950780637562275,-0.0025322427973151207,-0.033750019967556
0.027502328157424927,-7.451060810126364e-05,-0.01624397747218609,0.011880085803568363,-0.0027893988881260157,-0.03516495227813721
0.027376998215913773,-6.881207082187757e-05,-0.015795832499861717,0.011856806464493275,-0.0028594089671969414,-0.03544892370700836
0.027658618986606598,-5.968355981167406e-05,-0.015664465725421906,0.011331289075314999,-0.0028459695167839527,-0.03554927557706833
0.027658618986606598,-5.968355981167406e-05,-0.015664465725421906,0.011331289075314999,-0.0028459695167839527,-0.03554927557706833
0.027613161131739616,-0.00010962756641674787,-0.016541864722967148,0.011651105247437954,-0.002441385528072715,-0.03589264303445816
0.027584511786699295,-0.00010535601177252829,-0.016534604132175446,0.011503417044878006,-0.0020086951553821564,-0.03620486706495285
0.027674594894051552,-9.955700079444796e-05,-0.016476478427648544,0.011482028290629387,-0.001993111800402403,-0.03632922098040581
0.027389656752347946,-9.433915693080053e-05,-0.01748667284846306,0.012417647056281567,-0.002116402145475149,-0.03626900538802147
0.02759695053100586,-8.964032167568803e-05,-0.016875168308615685,0.012875485233962536,-0.0024225017987191677,-0.037134669721126556
0.02771763689815998,-8.538803376723081e-05,-0.017123326659202576,0.013306112959980965,-0.0025298737455159426,-0.03726189211010933
0.028172951191663742,-8.152056398103014e-05,-0.016707802191376686,0.012810776941478252,-0.0027003230061382055,-0.03772852569818497
0.027594268321990967,-7.798830483807251e-05,-0.016827881336212158,0.011577663011848927,-0.002573286648839712,-0.03769020363688469
0.02759378030896187,-7.474937592633069e-05,-0.016748160123825073,0.01253446750342846,-0.0025952658616006374,-0.03713497519493103
0.02822180464863777,-7.176910003181547e-05,-0.016394462436437607,0.012639165855944157,-0.002782328287139535,-0.03763718530535698
0.029238106682896614,-6.64684921503067e-05,-0.016645068302750587,0.012545385397970676,-0.0030316568445414305,-0.03921740502119064
0.02894197776913643,-9.57059528445825e-05,-0.017319146543741226,0.012838833034038544,-0.002915675286203623,-0.037701770663261414
0.02894197776913643,-9.57059528445825e-05,-0.017319146543741226,0.012838833034038544,-0.002915675286203623,-0.037701770663261414
0.02756229043006897,-9.283943654736504e-05,-0.016613563522696495,0.012484406121075153,-0.002715775975957513,-0.036877840757369995
0.02836161106824875,-8.975889795692638e-05,-0.016452154144644737,0.012674268335103989,-0.0026534476783126593,-0.03823605924844742
0.02918184921145439,-8.687101217219606e-05,-0.017428256571292877,0.012456254102289677,-0.0026431812439113855,-0.038621269166469574
0.028766898438334465,-8.41629589558579e-05,-0.01704806461930275,0.0129391485825181,-0.00256573804654181,-0.03997407481074333
0.02941756136715412,-8.161880396073684e-05,-0.016735127195715904,0.013028834946453571,-0.00266192271374166,-0.03945745900273323
0.02982730232179165,-7.922406803118065e-05,-0.01685229316353798,0.012991722673177719,-0.002579969819635153,-0.03764716535806656
0.029446829110383987,-0.00010158742952626199,-0.016917094588279724,0.012834828346967697,-0.0024394060019403696,-0.03866294398903847
0.028710857033729553,-9.976269211620092e-05,-0.016925044357776642,0.012695281766355038,-0.0025645471177995205,-0.039588313549757004
0.02843792922794819,-9.708551078801975e-05,-0.016662394627928734,0.013116409070789814,-0.003045926336199045,-0.03951634094119072
0.029798341915011406,-9.453626989852637e-05,-0.017197059467434883,0.01232099812477827,-0.0031074658036231995,-0.039126329123973846
0.02971191145479679,-9.211737051373348e-05,-0.017181582748889923,0.013040497899055481,-0.0029790597036480904,-0.040317222476005554
0.029735153540968895,-0.00012839201372116804,-0.01735752634704113,0.013023612089455128,-0.002818081062287092,-0.04007675498723984
0.029951252043247223,-0.00012962175242137164,-0.017171425744891167,0.01380374375730753,-0.0025585084222257137,-0.03981585428118706
0.03019074723124504,-0.0001260566496057436,-0.01705952361226082,0.013865889981389046,-0.0023891055025160313,-0.04003321751952171
0.030088895931839943,-0.00012262281961739063,-0.017625024542212486,0.013745824806392193,-0.002502208109945059,-0.04050898924469948
0.030250268056988716,-0.00011936997179873288,-0.0169071014970541,0.013763758353888988,-0.0028430104721337557,-0.040928926318883896
0.030226051807403564,-0.0001162854750873521,-0.017007282003760338,0.013991015963256359,-0.002829327480867505,-0.04041541367769241
0.030636753886938095,-0.00011335615999996662,-0.017299285158514977,0.014292484149336815,-0.0028054136782884598,-0.04091861471533775
0.030919712036848068,-0.00013238073734100908,-0.016963832080364227,0.014297857880592346,-0.0027709209825843573,-0.04072245955467224
0.03060264326632023,-0.00012949913798365742,-0.017519492655992508,0.013955819420516491,-0.0028120821807533503,-0.041552599519491196
0.030644824728369713,-0.00012647021503653377,-0.016932575032114983,0.013700520619750023,-0.0027776467613875866,-0.04231490567326546
0.030984587967395782,-0.0001235758390976116,-0.017259441316127777,0.01361901219934225,-0.002879895968362689,-0.041040100157260895
0.03044998273253441,-0.00014013913460075855,-0.01718456670641899,0.012968981638550758,-0.0029572013299912214,-0.04182523488998413
0.030732637271285057,-0.0001378515298711136,-0.016874801367521286,0.012926101684570312,-0.002927107270807028,-0.04264180362224579
0.030858593061566353,-0.00013490991841536015,-0.017455412074923515,0.012925395742058754,-0.002725850325077772,-0.04279467463493347
0.03085542842745781,-0.00014782116340938956,-0.017424268648028374,0.013572905212640762,-0.002584984991699457,-0.04204807057976723
0.03130223602056503,-0.00014487531734630466,-0.017457548528909683,0.014260120689868927,-0.0026007110718637705,-0.04388090968132019
0.030980728566646576,-0.00025264150463044643,-0.017355063930153847,0.013969320803880692,-0.0026580803096294403,-0.043021392077207565
0.031176732853055,-0.00024355095229111612,-0.017288975417613983,0.014409615658223629,-0.002719878451898694,-0.04136435687541962
0.03241515904664993,-0.00023110373876988888,-0.016426626592874527,0.01383733469992876,-0.003260634373873472,-0.04270465672016144
0.03241515904664993,-0.00023110373876988888,-0.016426626592874527,0.01383733469992876,-0.003260634373873472,-0.04270465672016144
0.0323040708899498,-0.00025855706189759076,-0.017518064007163048,0.014526783488690853,-0.0034805801697075367,-0.04341099038720131
0.03101279027760029,-0.00025142115191556513,-0.01797088421881199,0.01395740918815136,-0.0033978011924773455,-0.04521432891488075
0.030875617638230324,-0.00024029849737416953,-0.01741880364716053,0.015147631987929344,-0.003056858666241169,-0.04213959723711014
0.03225963935256004,-0.00026786699891090393,-0.01753966696560383,0.014667591080069542,-0.0030600735917687416,-0.04289941489696503
0.03144947811961174,-0.0002574286481831223,-0.017062606289982796,0.01465633139014244,-0.0027021323330700397,-0.04457545652985573
0.03193410113453865,-0.00027051474899053574,-0.017540084198117256,0.013992290943861008,-0.0026947902515530586,-0.04469813033938408
0.03239661082625389,-0.0002718204923439771,-0.017371224239468575,0.014959326945245266,-0.0028461250476539135,-0.04457201808691025
0.032429009675979614,-0.0002620806044433266,-0.01720760203897953,0.01367487758398056,-0.003091535996645689,-0.04482315480709076
0.031122155487537384,-0.00025287739117629826,-0.017789650708436966,0.013811448588967323,-0.0032179546542465687,-0.04450630769133568
0.03141508996486664,-0.0003405192692298442,-0.0175151526927948,0.01353531051427126,-0.003374814987182617,-0.04460432007908821
0.03274892270565033,-0.0003283723199274391,-0.017260683700442314,0.014788986183702946,-0.0034412157256156206,-0.045138753950595856
0.03264722600579262,-0.00036008935421705246,-0.01781768724322319,0.014745047315955162,-0.003373973537236452,-0.045006949454545975
0.03194072097539902,-0.0003439251449890435,-0.017814602702856064,0.015224023722112179,-0.002969306893646717,-0.0448930524289608
0.031626228243112564,-0.0003708793083205819,-0.018700581043958664,0.014537974260747433,-0.002664180938154459,-0.04404707998037338
0.03237752988934517,-0.0003559069591574371,-0.01821378618478775,0.014746483415365219,-0.0028247986920177937,-0.04603343829512596
0.03222215920686722,-0.00033695073216222227,-0.01771487109363079,0.014276167377829552,-0.003158268053084612,-0.045822352170944214
0.03231501206755638,-0.00036488889600150287,-0.018422603607177734,0.014766714535653591,-0.003213645191863179,-0.045970454812049866
0.03285536542534828,-0.00034786300966516137,-0.017333777621388435,0.014293334446847439,-0.0031784360762685537,-0.046587057411670685
0.032846927642822266,-0.00042612364632077515,-0.0181204155087471,0.014671568758785725,-0.0031731468625366688,-0.04496609419584274
0.03262365609407425,-0.00047292537055909634,-0.01798434741795063,0.014830115251243114,-0.002921678591519594,-0.0462188757956028
0.032611213624477386,-0.0004825018986593932,-0.01683201640844345,0.014457574114203453,-0.002819832880049944,-0.04760894179344177
0.032565947622060776,-0.00046949589159339666,-0.0183795765042305,0.014855089597404003,-0.00320724886842072,-0.047664523124694824
0.03264922276139259,-0.00043721633846871555,-0.018109915778040886,0.014717266894876957,-0.003544915234670043,-0.0452275313436985
0.03357325494289398,-0.00046640716027468443,-0.01840261183679104,0.014762439765036106,-0.0033994021359831095,-0.04456377401947975
0.03321406990289688,-0.00044254158274270594,-0.01783258095383644,0.014090640470385551,-0.0031173464376479387,-0.04728216305375099
0.03322897478938103,-0.0006069562514312565,-0.017903262749314308,0.014714167453348637,-0.0026905902195721865,-0.04730682447552681
0.03334929794073105,-0.0005772766890004277,-0.018152303993701935,0.014229691587388515,-0.0027453976217657328,-0.04695602506399155
0.03334929794073105,-0.0005772766890004277,-0.018152303993701935,0.014229691587388515,-0.0027453976217657328,-0.04695602506399155
0.033108945935964584,-0.0006076246500015259,-0.018101971596479416,0.014766733162105083,-0.0030453824438154697,-0.04622971639037132
0.033224835991859436,-0.0006069191149435937,-0.018377183005213737,0.014233707450330257,-0.00346940103918314,-0.046488456428050995
0.03336407244205475,-0.0005827728309668601,-0.01791069097816944,0.014190156944096088,-0.003750876057893038,-0.04675813391804695
0.03285587951540947,-0.000665549305267632,-0.01811191439628601,0.013907265849411488,-0.003433903446421027,-0.04666366055607796
0.0336141400039196,-0.0006348239840008318,-0.01852274127304554,0.014624608680605888,-0.0035765005741268396,-0.04731375724077225
0.03437958285212517,-0.00066360057098791,-0.01821701042354107,0.014666108414530754,-0.003498490434139967,-0.04740825667977333
0.03402428701519966,-0.0006816870882175863,-0.018229175359010696,0.014866847544908524,-0.0034346804022789,-0.04644983261823654
0.033746086061000824,-0.0006829717312939465,-0.018727172166109085,0.014488114044070244,-0.0032710451632738113,-0.046297479420900345
0.03258754312992096,-0.0006493970868177712,-0.0179961696267128,0.015196540392935276,-0.00326333474367857,-0.048650871962308884
0.034048888832330704,-0.000718283059541136,-0.018415771424770355,0.015456371940672398,-0.0034100094344466925,-0.048452820628881454
0.033522650599479675,-0.0007477076724171638,-0.018326982855796814,0.015723567456007004,-0.0033714340534061193,-0.04805416613817215
0.03319814056158066,-0.0007662746356800199,-0.01816345937550068,0.015494780614972115,-0.0030424129217863083,-0.046859852969646454
0.03481878712773323,-0.0007807699730619788,-0.018650442361831665,0.015534710139036179,-0.0028402896132320166,-0.04845786467194557
0.03389781713485718,-0.0010656726080924273,-0.018191153183579445,0.015554765239357948,-0.0032183839939534664,-0.04955587163567543
0.03392649069428444,-0.0010838659945875406,-0.018210142850875854,0.015623210929334164,-0.0031638280488550663,-0.048211075365543365
0.03333628922700882,-0.0010679392144083977,-0.0190466046333313,0.01613030396401882,-0.0033346868585795164,-0.04826287925243378
0.03437185287475586,-0.0011474257335066795,-0.01831517554819584,0.015527565032243729,-0.0033691218122839928,-0.04925280436873436
0.034106794744729996,-0.0012221126817166805,-0.018806833773851395,0.015753543004393578,-0.0029379846528172493,-0.05010941997170448
0.034583479166030884,-0.001401783199980855,-0.01866311766207218,0.01623169332742691,-0.0027308969292789698,-0.04927009344100952
0.034583479166030884,-0.001401783199980855,-0.01866311766207218,0.01623169332742691,-0.0027308969292789698,-0.04927009344100952
0.03468494489789009,-0.0013648469466716051,-0.018889153376221657,0.015930676832795143,-0.0028874396812170744,-0.05042757838964462
0.03415413573384285,-0.0015308919828385115,-0.018616437911987305,0.016144417226314545,-0.003138491651043296,-0.0504794642329216
0.03387606143951416,-0.0016935369931161404,-0.017974644899368286,0.01664520800113678,-0.00354819861240685,-0.05053494870662689
0.03390834853053093,-0.0015798157546669245,-0.01895274594426155,0.016557520255446434,-0.0036352581810206175,-0.05039941146969795
0.034452442079782486,-0.0018359842943027616,-0.019129110500216484,0.016217490658164024,-0.003469396149739623,-0.050415802747011185
0.03468041867017746,-0.0017125651938840747,-0.01851957105100155,0.015666358172893524,-0.0036085271276533604,-0.05080881342291832
0.03416329622268677,-0.0017648813081905246,-0.01899249106645584,0.01614571548998356,-0.0033217291347682476,-0.05102836340665817
0.03362160548567772,-0.0017541894922032952,-0.019275587052106857,0.015681058168411255,-0.0030486152973026037,-0.04969022795557976
0.035007067024707794,-0.0017920496175065637,-0.018573157489299774,0.015938671305775642,-0.0030307373963296413,-0.0508287250995636
0.03491322696208954,-0.001798582379706204,-0.01927391067147255,0.015936298295855522,-0.002965749241411686,-0.05188332125544548
0.03479349985718727,-0.0020754432771354914,-0.019411949440836906,0.01627497933804989,-0.0029856048058718443,-0.051317762583494186
0.03416116535663605,-0.0019176381174474955,-0.018601132556796074,0.01635076478123665,-0.003125421004369855,-0.04998985305428505
0.03515660762786865,-0.0021085196640342474,-0.01928970217704773,0.01619785465300083,-0.0035371833946555853,-0.05243508145213127
0.03548818454146385,-0.002088276669383049,-0.019707826897501945,0.016633978113532066,-0.003715133061632514,-0.05183690786361694
0.03501610457897186,-0.0020782449282705784,-0.019123829901218414,0.015941016376018524,-0.0034381228033453226,-0.04982203245162964
0.03417221084237099,-0.0022941716015338898,-0.019310953095555305,0.016225693747401237,-0.003217620775103569,-0.05110226199030876
0.035153232514858246,-0.0022394764237105846,-0.0197124183177948,0.01588834449648857,-0.0031689919997006655,-0.05359542369842529
0.03508296236395836,-0.002455624518916011,-0.01930868811905384,0.015800373628735542,-0.0031162609811872244,-0.05262337252497673
0.035354193300008774,-0.0023779987823218107,-0.019655615091323853,0.01587284915149212,-0.0034546039532870054,-0.04929213598370552
0.036202993243932724,-0.002500305650755763,-0.020000027492642403,0.016238903626799583,-0.0036689406260848045,-0.05198115110397339
0.03595311939716339,-0.0026370533742010593,-0.020033974200487137,0.016833754256367683,-0.003674744628369808,-0.05284535139799118
0.03477058187127113,-0.0024925207253545523,-0.019826695322990417,0.015548016875982285,-0.0037406706251204014,-0.05251520127058029
0.03547264635562897,-0.002584876026958227,-0.019554538652300835,0.016316119581460953,-0.004758662078529596,-0.0525849349796772
0.036190349608659744,-0.00250745820812881,-0.02059343457221985,0.01597512885928154,-0.0034958624746650457,-0.052402742207050323
0.036044761538505554,-0.002588321454823017,-0.021047445014119148,0.015624217689037323,-0.003031426342204213,-0.05265187844634056
0.03610646724700928,-0.0027127976063638926,-0.020983360707759857,0.016545873135328293,-0.002797868335619569,-0.053014837205410004
0.03610646724700928,-0.0027127976063638926,-0.020983360707759857,0.016545873135328293,-0.002797868335619569,-0.053014837205410004
0.03636827692389488,-0.0025560990907251835,-0.01990371383726597,0.017138339579105377,-0.003280475502833724,-0.053004369139671326
0.03609488159418106,-0.002708285814151168,-0.019919943064451218,0.01668420620262623,-0.003622977761551738,-0.05276571586728096
0.0366818904876709,-0.0028328425250947475,-0.020481174811720848,0.016014477238059044,-0.0036481625866144896,-0.05321815237402916
0.036633364856243134,-0.0032009424176067114,-0.02037629671394825,0.014950711280107498,-0.0034573704469949007,-0.05240992456674576
0.03699402138590813,-0.0031060921028256416,-0.02103380486369133,0.015397350303828716,-0.0032827446702867746,-0.053210146725177765
0.036941446363925934,-0.002962918486446142,-0.020623929798603058,0.015570553950965405,-0.003289666259661317,-0.054947588592767715
0.0370754599571228,-0.0030019611585885286,-0.018305929377675056,0.016667023301124573,-0.0036718060728162527,-0.055554986000061035
0.03779502958059311,-0.002918729791417718,-0.020719071850180626,0.016451295465230942,-0.0034067819360643625,-0.05268237739801407
0.03713103011250496,-0.003200133563950658,-0.021972279995679855,0.01630137860774994,-0.0035255386028438807,-0.05287334695458412
0.03734154626727104,-0.003149456577375531,-0.021446403115987778,0.016661668196320534,-0.0033359297085553408,-0.05478760600090027
0.03714914992451668,-0.002945051994174719,-0.02087290957570076,0.016055868938565254,-0.0032226897310465574,-0.055414117872714996
0.03775302693247795,-0.0031372839584946632,-0.020652979612350464,0.015655873343348503,-0.003260760335251689,-0.05295344442129135
0.03757592290639877,-0.0033116857521235943,-0.020235635340213776,0.014949670992791653,-0.0034569210838526487,-0.054538026452064514
0.037807270884513855,-0.0031646350398659706,-0.0204963069409132,0.01587797701358795,-0.003944678232073784,-0.054313357919454575
0.038431696593761444,-0.0030424660071730614,-0.020976562052965164,0.01645589806139469,-0.003719581523910165,-0.054182760417461395
0.03843951225280762,-0.0033962216693907976,-0.021484969183802605,0.016507979482412338,-0.0031582813244313,-0.053398001939058304
0.037716589868068695,-0.003096641506999731,-0.02152789756655693,0.017674816772341728,-0.0028345449827611446,-0.05493444576859474
0.03877897560596466,-0.0030745286494493484,-0.021599451079964638,0.01797046884894371,-0.0028333403170108795,-0.054624009877443314
0.04002349078655243,-0.0033414592035114765,-0.021288862451910973,0.0184348002076149,-0.0030070124194025993,-0.055250346660614014
0.039358172565698624,-0.0032514214981347322,-0.02120088040828705,0.01810488849878311,-0.003420488443225622,-0.05471125617623329
0.037921078503131866,-0.0036194035783410072,-0.02168094925582409,0.017709050327539444,-0.0035962944384664297,-0.05469488725066185
0.03971529006958008,-0.003381692338734865,-0.021564906463027,0.017803482711315155,-0.0034926515072584152,-0.05483723804354668
0.039985254406929016,-0.003655764739960432,-0.02187146246433258,0.01731809601187706,-0.003248375141993165,-0.054814696311950684
0.039985254406929016,-0.003655764739960432,-0.02187146246433258,0.01731809601187706,-0.003248375141993165,-0.054814696311950684
0.03895633667707443,-0.0036201346665620804,-0.021615928038954735,0.017126716673374176,-0.003727339906617999,-0.05485498905181885
0.03895633667707443,-0.0036201346665620804,-0.021615928038954735,0.017126716673374176,-0.003727339906617999,-0.05485498905181885
0.039003241807222366,-0.0036876092199236155,-0.02065107598900795,0.017751896753907204,-0.003861471777781844,-0.0544387549161911
0.039916109293699265,-0.003741133026778698,-0.021304745227098465,0.017095929011702538,-0.003468089736998081,-0.05558589845895767
0.04025351256132126,-0.003772650845348835,-0.022050105035305023,0.01744195818901062,-0.003166179871186614,-0.057799555361270905
0.03994400054216385,-0.0037715814542025328,-0.02192886359989643,0.017353884875774384,-0.003143353620544076,-0.0554107166826725
0.03945298120379448,-0.0037808860652148724,-0.021452056244015694,0.017137298360466957,-0.0034242968540638685,-0.05519188195466995
0.039655398577451706,-0.0037540155462920666,-0.02189112827181816,0.017708681523799896,-0.0037122522480785847,-0.05625008046627045
0.03964821621775627,-0.0037469498347491026,-0.02192281000316143,0.017619846388697624,-0.0042884377762675285,-0.057345032691955566
0.04033241793513298,-0.00408428767696023,-0.021862270310521126,0.018095189705491066,-0.004201504401862621,-0.05723317712545395
0.03981371596455574,-0.004198417067527771,-0.02176058478653431,0.01807313598692417,-0.0037007727660238743,-0.05701792985200882
0.040034662932157516,-0.004016676917672157,-0.021755686029791832,0.017571505159139633,-0.003335342276841402,-0.0573166087269783
0.04022637754678726,-0.0038766406942158937,-0.02225295454263687,0.01770828105509281,-0.003306159982457757,-0.057481858879327774
0.039635829627513885,-0.004293007776141167,-0.02162383869290352,0.01718294993042946,-0.0034753577783703804,-0.05740255489945412
0.0394543893635273,-0.004137013107538223,-0.021472925320267677,0.01752663590013981,-0.003635718720033765,-0.057623863220214844
0.04113508015871048,-0.004157648421823978,-0.021782951429486275,0.017809927463531494,-0.0036673876456916332,-0.05771695449948311
0.0419718399643898,-0.004008562304079533,-0.022081682458519936,0.017650598660111427,-0.003686755895614624,-0.057830728590488434
0.03969049081206322,-0.004417367745190859,-0.021884780377149582,0.018463118001818657,-0.0037516572047024965,-0.05789190158247948
0.03954141587018967,-0.004257814027369022,-0.021563459187746048,0.018826257437467575,-0.003845428815111518,-0.057168833911418915
0.04118356108665466,-0.004494555294513702,-0.022290533408522606,0.018990322947502136,-0.003995504230260849,-0.05937265604734421
0.04102635011076927,-0.004152183420956135,-0.02316371351480484,0.01935611292719841,-0.0038906028494238853,-0.05849245935678482
0.04152611643075943,-0.00440946826711297,-0.022708188742399216,0.01960568130016327,-0.003534887917339802,-0.05728868022561073
0.04124625399708748,-0.004316522274166346,-0.022373320534825325,0.019119516015052795,-0.0032777453307062387,-0.05802375450730324
0.040656279772520065,-0.004477590788155794,-0.02180810272693634,0.018303651362657547,-0.003684041555970907,-0.05719723179936409
0.04132155701518059,-0.003684719791635871,-0.022567586973309517,0.01783214509487152,-0.003939943853765726,-0.05793623998761177
0.04132155701518059,-0.003684719791635871,-0.022567586973309517,0.01783214509487152,-0.003939943853765726,-0.05793623998761177
0.04195590689778328,-0.0027438276447355747,-0.023280741646885872,0.018271146342158318,-0.0038445363752543926,-0.058719635009765625
0.04131070151925087,-0.0022375737316906452,-0.022579483687877655,0.018008524551987648,-0.0039755371399223804,-0.058776628226041794
0.04115471988916397,-0.001983013702556491,-0.022651992738246918,0.0183794554322958,-0.004146688152104616,-0.058793045580387115
0.0415857695043087,-0.0024885947350412607,-0.022587161511182785,0.018492229282855988,-0.0036083052400499582,-0.05893317237496376
0.04171894118189812,-0.0033992708195000887,-0.022700291126966476,0.01771918684244156,-0.0035876419860869646,-0.05908191204071045
0.041107289493083954,-0.0032849370036274195,-0.02264707162976265,0.018135733902454376,-0.0036161020398139954,-0.05888442322611809
0.04183577373623848,-0.003105457406491041,-0.022807560861110687,0.017881955951452255,-0.0036626686342060566,-0.05867379158735275
0.04040191322565079,-0.0026868670247495174,-0.022854262962937355,0.018120653927326202,-0.0036948160268366337,-0.05875013396143913
0.042158689349889755,-0.0023847720585763454,-0.02316414564847946,0.018045097589492798,-0.00414848979562521,-0.05876928195357323
0.04241717979311943,-0.002541524823755026,-0.023219037801027298,0.01810428872704506,-0.004232325591146946,-0.05879293009638786
0.041753608733415604,-0.0031148018315434456,-0.022748779505491257,0.018510868772864342,-0.00402911426499486,-0.060868848115205765
0.042385734617710114,-0.003185624023899436,-0.02230822481215,0.018301498144865036,-0.0038707407657057047,-0.059094589203596115
0.04219717159867287,-0.0029402540531009436,-0.02274177595973015,0.018066618591547012,-0.003880895208567381,-0.05935478210449219
0.04264497756958008,-0.0026314917486160994,-0.023378141224384308,0.01877722330391407,-0.004025160800665617,-0.06166904419660568
0.042061712592840195,-0.0024634397123008966,-0.022899258881807327,0.01957281306385994,-0.004219080321490765,-0.06005597487092018
0.04263118654489517,-0.002638957928866148,-0.023135976865887642,0.01949462853372097,-0.004434928297996521,-0.059969108551740646
0.042811762541532516,-0.002620900049805641,-0.022983964532613754,0.019970649853348732,-0.0040873195976018906,-0.06062658876180649
0.04270748421549797,-0.003066890873014927,-0.02282121405005455,0.020380746573209763,-0.0038403691723942757,-0.060775887221097946
0.04239532724022865,-0.0033083863090723753,-0.02309614047408104,0.020305750891566277,-0.0037812762893736362,-0.06067842245101929
0.04398632422089577,-0.002833408070728183,-0.02323858253657818,0.01996496319770813,-0.003939249087125063,-0.060914646834135056
0.044077929109334946,-0.002621657680720091,-0.02287784218788147,0.02027992717921734,-0.004006621893495321,-0.0607805997133255
0.04154258593916893,-0.002681489335373044,-0.022377219051122665,0.019786594435572624,-0.0036628595553338528,-0.06144239380955696
0.04282074049115181,-0.0028285873122513294,-0.022726790979504585,0.01918381080031395,-0.0035408097319304943,-0.0603063590824604
0.04468595236539841,-0.003298404859378934,-0.023078320547938347,0.019378671422600746,-0.004098840989172459,-0.06059810891747475
0.04379202425479889,-0.002929285867139697,-0.022716520354151726,0.018864139914512634,-0.00440644659101963,-0.0613439567387104
0.042429883033037186,-0.003061409341171384,-0.022492026910185814,0.019247066229581833,-0.004140535369515419,-0.06181054934859276
0.043019261211156845,-0.0032237395644187927,-0.022527892142534256,0.019344568252563477,-0.004009312484413385,-0.060323137789964676
0.04417598992586136,-0.003428792115300894,-0.02311638556420803,0.019056309014558792,-0.004040411673486233,-0.06224393472075462
0.04417598992586136,-0.003428792115300894,-0.02311638556420803,0.019056309014558792,-0.004040411673486233,-0.06224393472075462
