davideferrari95/blind_handover_controller/data/Test 125 - [2024-02-07 -- 16-34-20]/joint_states_data.csv
shoulder_pan_joint,shoulder_lift_joint,elbow_joint,wrist_1_joint,wrist_2_joint,wrist_3_joint
0.004316858481615782,0.006044401787221432,-0.012074744328856468,0.004452244844287634,-0.0,0.005591015797108412
0.004316858481615782,0.006044401787221432,-0.012074744328856468,0.004452244844287634,-0.0,0.005591015797108412
0.004530579317361116,0.0060609979555010796,-0.012271272949874401,0.0047290995717048645,-0.0,0.00546616967767477
0.004530579317361116,0.0060609979555010796,-0.012271272949874401,0.0047290995717048645,-0.0,0.00546616967767477
0.004448108375072479,0.006318295374512672,-0.011672714725136757,0.004696735180914402,-0.0,0.005377833265811205
0.004293837584555149,0.006029431242495775,-0.012646070681512356,0.004623277112841606,-0.0,0.005153099074959755
0.004884095396846533,0.00590363098308444,-0.012535624206066132,0.004107046406716108,-0.0,0.005179355852305889
0.0044531021267175674,0.006060379557311535,-0.012329578399658203,0.0041341292671859264,-0.0,0.005331976804882288
0.004512484185397625,0.006245849188417196,-0.012238405644893646,0.004195998888462782,-0.0,0.0052744485437870026
0.004410690627992153,0.006246582139283419,-0.012109456583857536,0.004041190259158611,-0.0,0.005301155615597963
0.00420802179723978,0.005934302229434252,-0.012445258907973766,0.004459689371287823,-0.0,0.005080684553831816
0.004452550318092108,0.006461816374212503,-0.012020247988402843,0.004605003632605076,-0.0,0.0049311514012515545
0.004550596699118614,0.006255102809518576,-0.012312853708863258,0.00468172924593091,-0.0,0.005255670752376318
0.0048286872915923595,0.006414356641471386,-0.011939133517444134,0.0045915283262729645,-0.0,0.005294929724186659
0.00436816643923521,0.006776747293770313,-0.011904503218829632,0.0046563236974179745,-0.0,0.0055068316869437695
0.004436677787452936,0.006652568932622671,-0.01241226028650999,0.004387463442981243,-0.0,0.005158892832696438
0.004883280023932457,0.006347867660224438,-0.01231132261455059,0.0042450036853551865,-0.0,0.004902034532278776
0.004793727304786444,0.006685894913971424,-0.01212140079587698,0.004750232677906752,-0.0,0.0049865287728607655
0.004516309592872858,0.007246909197419882,-0.011635481379926205,0.004880797583609819,-0.0,0.005030327010899782
0.005043122451752424,0.006914511322975159,-0.0123074846342206,0.004792471416294575,-0.0,0.004870736505836248
0.0048510124906897545,0.006652079988270998,-0.012214845977723598,0.004645016044378281,-0.0,0.004784595221281052
0.004382038023322821,0.006433374714106321,-0.01185376476496458,0.0043165856041014194,-0.0,0.004722053650766611
0.004382038023322821,0.006433374714106321,-0.01185376476496458,0.0043165856041014194,-0.0,0.004722053650766611
0.004490625578910112,0.006754617672413588,-0.012049437500536442,0.004371673800051212,-0.0,0.004728737287223339
0.004512278363108635,0.0066297161392867565,-0.011593854986131191,0.004652470350265503,-0.0,0.004606276750564575
0.00463541503995657,0.006332238670438528,-0.012572014704346657,0.004875532351434231,-0.0,0.004711078014224768
0.004656387027353048,0.00639908853918314,-0.012404230423271656,0.00485279830172658,-0.0,0.004705262836068869
0.004480397794395685,0.006967806722968817,-0.012134485878050327,0.004382311832159758,-0.0,0.0046850345097482204
0.004560441710054874,0.006948276422917843,-0.01183144748210907,0.004440058954060078,-0.0,0.005021214950829744
0.0046522775664925575,0.00647140946239233,-0.012385479174554348,0.004545245785266161,-0.0,0.004954578820616007
0.004709053784608841,0.006333448458462954,-0.012062173336744308,0.0053842091001570225,-0.0,0.005215136334300041
0.004567048978060484,0.006927164271473885,-0.012520314194262028,0.005145017523318529,-0.0,0.004964278545230627
0.004813609644770622,0.007181877736002207,-0.012394354678690434,0.004589995369315147,-0.0,0.004856656305491924
0.004722499754279852,0.006650570780038834,-0.012978036887943745,0.004462662152945995,-0.0,0.004875740967690945
0.004385524895042181,0.006907593924552202,-0.012206687591969967,0.0045171561650931835,-0.0,0.005077635403722525
0.004510617349296808,0.006910350173711777,-0.011898026801645756,0.0044978465884923935,-0.0,0.004970761016011238
0.00439915107563138,0.0073422458954155445,-0.01286094170063734,0.00482186209410429,-0.0,0.005190527532249689
0.00432538241147995,0.007323323283344507,-0.012472083792090416,0.004968926310539246,-0.0,0.005030151456594467
0.004889833275228739,0.006633719429373741,-0.012448146939277649,0.005126256961375475,-0.0,0.004807828459888697
0.0049579814076423645,0.006667597685009241,-0.012161316350102425,0.004933467600494623,-0.0,0.00457416195422411
0.004451819229871035,0.007215795572847128,-0.012999622151255608,0.004700519610196352,-0.0,0.004617328755557537
0.0044517507776618,0.007037716917693615,-0.012869961559772491,0.004648509901016951,-0.0,0.004635535646229982
0.004654064774513245,0.00687003880739212,-0.012391999363899231,0.004713588859885931,-0.0,0.004900922998785973
0.0047112987376749516,0.00721712177619338,-0.01280793733894825,0.004862977657467127,-0.0,0.005033300258219242
0.0047278329730033875,0.007564720697700977,-0.012412060983479023,0.004809640813618898,-0.0,0.005144622176885605
0.004679458681493998,0.007371355313807726,-0.012613997794687748,0.004700480028986931,-0.0,0.005010347347706556
0.0050041587091982365,0.0073388125747442245,-0.012631583027541637,0.004641080740839243,-0.0,0.004682027269154787
0.004479477182030678,0.006937670987099409,-0.012505748309195042,0.004622484091669321,-0.0,0.004483610391616821
0.0044855158776044846,0.00796487182378769,-0.012567607685923576,0.004632594529539347,-0.0,0.004830421879887581
0.0046214149333536625,0.00788795668631792,-0.012262017466127872,0.005625145975500345,-0.0,0.005031300708651543
0.005103243514895439,0.006959783378988504,-0.011444436386227608,0.005547594279050827,-0.0,0.004569122567772865
0.005103243514895439,0.006959783378988504,-0.011444436386227608,0.005547594279050827,-0.0,0.004569122567772865
0.004707403481006622,0.007365059107542038,-0.01202420238405466,0.004986102227121592,-0.0,0.0045930552296340466
0.004707403481006622,0.007365059107542038,-0.01202420238405466,0.004986102227121592,-0.0,0.0045930552296340466
0.004778886679559946,0.006824181880801916,-0.012325458228588104,0.005276049487292767,-0.0,0.004548099357634783
0.004727163817733526,0.006842889357358217,-0.011974222958087921,0.0053996313363313675,-0.0,0.004638583865016699
0.004494222346693277,0.0076700178906321526,-0.012379278428852558,0.005377310328185558,-0.0,0.004882510751485825
0.004838418215513229,0.00782034732401371,-0.013315599411725998,0.004982535261660814,-0.0,0.004797072149813175
0.004877176135778427,0.007280235644429922,-0.011953146196901798,0.00468125194311142,-0.0,0.004865617025643587
0.004763148725032806,0.0069038113579154015,-0.01205866876989603,0.004557767882943153,-0.0,0.004805019125342369
0.004706381354480982,0.007414664141833782,-0.01202702522277832,0.004662069492042065,-0.0,0.004674604162573814
0.004901425447314978,0.007458542939275503,-0.012698176316916943,0.0048188925720751286,-0.0,0.004513479303568602
0.004777470603585243,0.007180159445852041,-0.012326985597610474,0.004795681685209274,-0.0,0.0047881207428872585
0.004558233544230461,0.007091773208230734,-0.01187666691839695,0.0050783525221049786,-0.0,0.004805051255971193
0.005628557875752449,0.007483842317014933,-0.012151467613875866,0.0049870628863573074,-0.0,0.0047021168284118176
0.005336458329111338,0.0074622477404773235,-0.011734051629900932,0.0046517676673829556,-0.0,0.004667225759476423
0.004894842393696308,0.007393192034214735,-0.012304244562983513,0.0054681370966136456,-0.0,0.004637302365154028
0.0046752276830375195,0.00640778848901391,-0.012356874532997608,0.005469899158924818,-0.0,0.004526926204562187
0.004568497184664011,0.008331984281539917,-0.012317011132836342,0.005361778195947409,-0.0,0.004768467973917723
0.0048268577083945274,0.006851186975836754,-0.012042191810905933,0.005066408775746822,-0.0,0.00476842001080513
0.0054503693245351315,0.008086313493549824,-0.011741016060113907,0.00516666891053319,-0.0,0.004662311170250177
0.0051093692891299725,0.007713220082223415,-0.01207504142075777,0.005510041490197182,-0.0,0.004658490885049105
0.004844518378376961,0.007616367656737566,-0.011635499075055122,0.005341636016964912,-0.0,0.004901903681457043
0.004566560965031385,0.007815423421561718,-0.012318919412791729,0.004973202012479305,-0.0,0.004784588702023029
0.0046409606002271175,0.007524857297539711,-0.012241415679454803,0.004772362299263477,-0.0,0.0045064352452754974
0.004874274600297213,0.007543657906353474,-0.011536010541021824,0.004633411765098572,-0.0,0.0044842734932899475
0.004874274600297213,0.007543657906353474,-0.011536010541021824,0.004633411765098572,-0.0,0.0044842734932899475
0.0052475533448159695,0.007752113044261932,-0.011873523704707623,0.004679136443883181,-0.0,0.004633994307368994
0.0051713124848902225,0.007397909183055162,-0.012326083146035671,0.004744114354252815,-0.0,0.004772155545651913
0.004883062560111284,0.007401682436466217,-0.011631138622760773,0.005454681813716888,-0.0,0.00458170473575592
0.0049296594224870205,0.007913902401924133,-0.011423680000007153,0.005634141620248556,-0.0,0.004515369422733784
0.004929791670292616,0.0081062326207757,-0.0114731565117836,0.005481683183461428,-0.0,0.0042869532480835915
0.005210681818425655,0.00792041327804327,-0.010840300470590591,0.004879899322986603,-0.0,0.004291623365134001
0.005446089431643486,0.007769615389406681,-0.011910523287951946,0.004961868282407522,-0.0,0.004240876063704491
0.005293570924550295,0.007872524671256542,-0.011758346110582352,0.005007308442145586,-0.0,0.004591205157339573
0.005686537362635136,0.007878961972892284,-0.011126596480607986,0.0051890150643885136,-0.0,0.0045860824175179005
0.0051378789357841015,0.0077539775520563126,-0.011278239078819752,0.00561633100733161,-0.0,0.004218818619847298
0.004882495384663343,0.008107717148959637,-0.010924865491688251,0.005225942470133305,-0.0,0.004192718304693699
0.005561592523008585,0.00815778598189354,-0.011285795830190182,0.004985262174159288,-0.0,0.004170285537838936
0.0052694897167384624,0.007532523013651371,-0.011446631513535976,0.005003720056265593,-0.0,0.004232532810419798
0.00572848180308938,0.0074051241390407085,-0.010879415087401867,0.005360338371247053,-0.0,0.003915321547538042
0.005321767181158066,0.007890400476753712,-0.011790514923632145,0.005612007342278957,-0.0,0.004642279352992773
0.004935355391353369,0.0075147696770727634,-0.01192476972937584,0.005176248494535685,-0.0,0.0045641642063856125
0.005316106602549553,0.0074027469381690025,-0.011552158743143082,0.005065842531621456,-0.0,0.004094733390957117
0.005251146852970123,0.00787076074630022,-0.011381909251213074,0.004870120901614428,-0.0,0.004139084368944168
0.005948075093328953,0.008375940844416618,-0.010717819444835186,0.0048715886659920216,-0.0,0.004155192524194717
0.0054702963680028915,0.007714724633842707,-0.011534996330738068,0.005266515538096428,-0.0,0.004393499810248613
0.004892767872661352,0.006799077615141869,-0.011313232593238354,0.005564497318118811,-0.0,0.004450793378055096
0.004892767872661352,0.006799077615141869,-0.011313232593238354,0.005564497318118811,-0.0,0.004450793378055096
0.005349732935428619,0.006752729881554842,-0.01147167757153511,0.0055659618228673935,-0.0,0.00446875998750329
0.005349732935428619,0.006752729881554842,-0.01147167757153511,0.0055659618228673935,-0.0,0.00446875998750329
0.00543969264253974,0.00659710681065917,-0.011690668761730194,0.005156560800969601,-0.0,0.004222350660711527
0.005505195818841457,0.007084338925778866,-0.011992363259196281,0.005237473640590906,-0.0,0.003997080493718386
0.005063591059297323,0.006513681728392839,-0.011365851387381554,0.005675151944160461,-0.0,0.004166219383478165
0.005287905689328909,0.0067354305647313595,-0.010962631553411484,0.006042409222573042,-0.0,0.004583293106406927
0.00602248590439558,0.006434058770537376,-0.010976840741932392,0.00535410363227129,-0.0,0.004485492594540119
0.00555853545665741,0.006207103841006756,-0.011702976189553738,0.005039360839873552,-0.0,0.0046723815612494946
0.00590074947103858,0.00647014332935214,-0.011670687235891819,0.0052071306854486465,-0.0,0.004509679973125458
0.005340905860066414,0.0067334286868572235,-0.01116881612688303,0.00539401127025485,-0.0,0.004322253167629242
0.00536826578900218,0.006523791700601578,-0.011659746989607811,0.005369280464947224,-0.0,0.004401220474392176
0.00582942645996809,0.006036708131432533,-0.011317664757370949,0.005861829966306686,-0.0,0.004232518374919891
0.005874384194612503,0.006420652847737074,-0.011347267776727676,0.00558858085423708,-0.0,0.004296454600989819
0.0056825727224349976,0.006414137315005064,-0.011588097549974918,0.0053732446394860744,-0.0,0.004311503376811743
0.005381431430578232,0.006372340954840183,-0.011204670183360577,0.005159690976142883,-0.0,0.004083058796823025
0.005102877505123615,0.006339014042168856,-0.01182347908616066,0.004930141381919384,-0.0,0.004306747578084469
0.005914072971791029,0.00638947170227766,-0.011477974243462086,0.005138189531862736,-0.0,0.004196552559733391
0.005910529755055904,0.005782637279480696,-0.011856896802783012,0.005186041817069054,-0.0,0.004010820761322975
0.005691512953490019,0.006233142223209143,-0.01160526368767023,0.005112535320222378,-0.0,0.0038594589568674564
0.005524774082005024,0.006487308070063591,-0.012006929144263268,0.005193641409277916,-0.0,0.003778320038691163
0.005551172886043787,0.006439173128455877,-0.012233292683959007,0.005471636541187763,-0.0,0.003823904087767005
0.0051789418794214725,0.006246385630220175,-0.011621784418821335,0.005652979947626591,-0.0,0.0038681579753756523
0.005887026432901621,0.006447646766901016,-0.011981114745140076,0.005247482098639011,-0.0,0.004138759337365627
0.005541995633393526,0.006384610664099455,-0.011617877520620823,0.005255749449133873,-0.0,0.004051090683788061
0.005726165138185024,0.006341085769236088,-0.011529194191098213,0.0054215663112699986,-0.0,0.003806998720392585
0.005205054767429829,0.005895696114748716,-0.012064319103956223,0.005215220153331757,-0.0,0.003699813038110733
0.005205054767429829,0.005895696114748716,-0.012064319103956223,0.005215220153331757,-0.0,0.003699813038110733
0.005261324346065521,0.006063468288630247,-0.011363057419657707,0.005618513096123934,-0.0,0.0034959714394062757
0.006081671919673681,0.005694533232599497,-0.011775764636695385,0.0055057634599506855,-0.0,0.0035666036419570446
0.00629985798150301,0.0065675340592861176,-0.01153493020683527,0.0058050681836903095,-0.0,0.003987239673733711
0.00531400740146637,0.006553055252879858,-0.011215535923838615,0.005407286807894707,-0.0,0.004125569481402636
0.0049745975993573666,0.0058813514187932014,-0.011823182925581932,0.005437424406409264,-0.0,0.00433246698230505
0.005649389233440161,0.006161029916256666,-0.011370817199349403,0.005602800752967596,-0.0,0.0040437765419483185
0.005810856819152832,0.0067916978150606155,-0.011897612363100052,0.0060847424902021885,-0.0,0.004282180219888687
0.005841400474309921,0.006667490117251873,-0.011533503420650959,0.00567119475454092,-0.0,0.004128790460526943
0.005616914946585894,0.006116835400462151,-0.012059499509632587,0.005399549845606089,-0.0,0.003942288924008608
0.005999158602207899,0.005967922508716583,-0.011214968748390675,0.005549386143684387,-0.0,0.0040116580203175545
0.005409397650510073,0.006614776328206062,-0.012274409644305706,0.00548830721527338,-0.0,0.004105204250663519
0.00604606419801712,0.006905562710016966,-0.011552811600267887,0.005563007667660713,-0.0,0.004079483449459076
0.005635151639580727,0.00666514178737998,-0.011323059909045696,0.005296790506690741,-0.0,0.003579368581995368
0.005840884521603584,0.005911985412240028,-0.011463217437267303,0.005308833904564381,-0.0,0.00352907064370811
0.00561420526355505,0.006397461052983999,-0.01087129581719637,0.005422859452664852,-0.0,0.003996189218014479
0.005589666310697794,0.00677627045661211,-0.011605110950767994,0.005510115530341864,-0.0,0.004305948503315449
0.005642233416438103,0.0072381519712507725,-0.012271864339709282,0.005730513483285904,-0.0,0.004149189684540033
0.00616100151091814,0.006389315705746412,-0.0114267123863101,0.005378103349357843,-0.0,0.003959692548960447
0.005781814455986023,0.006351214833557606,-0.011487397365272045,0.005186688154935837,-0.0,0.0034638543147593737
0.005899734795093536,0.006598514970391989,-0.011220606043934822,0.0054748812690377235,-0.0,0.003530580550432205
0.0055557419545948505,0.007298361975699663,-0.011798015795648098,0.005993841681629419,-0.0,0.00375919952057302
0.005740081891417503,0.00744128180667758,-0.011554368771612644,0.005798703525215387,-0.0,0.003887846367433667
0.006081589497625828,0.00647719344124198,-0.010994644835591316,0.005700972862541676,-0.0,0.003904561512172222
0.005918712820857763,0.006500610616058111,-0.01173899881541729,0.005491175223141909,-0.0,0.0038967824075371027
0.005617530085146427,0.007089358754456043,-0.011285592801868916,0.005695056170225143,-0.0,0.003413019236177206
0.005496526602655649,0.006930614355951548,-0.011789618991315365,0.00612860219553113,-0.0,0.0033955820836126804
0.005496526602655649,0.006930614355951548,-0.011789618991315365,0.00612860219553113,-0.0,0.0033955820836126804
0.00609668530523777,0.0072214058600366116,-0.011873992159962654,0.006016505882143974,-0.0,0.0036048328038305044
0.005944639910012484,0.006554762367159128,-0.011059390380978584,0.00598769960924983,-0.0,0.0037257052026689053
0.005855733994394541,0.00669960118830204,-0.012148835696280003,0.0055790492333471775,-0.0,0.0035238538403064013
0.0055931322276592255,0.007120991591364145,-0.011366885155439377,0.0054220352321863174,-0.0,0.0037239224184304476
0.0055931322276592255,0.007120991591364145,-0.011366885155439377,0.0054220352321863174,-0.0,0.0037239224184304476
0.006045092362910509,0.0068937623873353004,-0.011334178037941456,0.005425071809440851,-0.0,0.003831799142062664
0.005998492706567049,0.0072289565578103065,-0.01096448302268982,0.005493758246302605,-0.0,0.0036305685061961412
0.006049158051609993,0.006961758714169264,-0.011524200439453125,0.005288869608193636,-0.0,0.003638254012912512
0.005948961246758699,0.007147892378270626,-0.011469952762126923,0.005843211896717548,-6.578318902938918e-07,0.0038274722173810005
0.006006008479744196,0.007576636038720608,-0.01125477347522974,0.005654631182551384,-4.2951718626227375e-08,0.003957708366215229
0.006291234400123358,0.007778271101415157,-0.011653587222099304,0.0058063906617462635,-2.8044406796823296e-09,0.0035088500007987022
0.006085004657506943,0.006718070711940527,-0.011568130925297737,0.005674260202795267,-1.8310992999648334e-10,0.0034798572305589914
0.005982221569865942,0.00669511454179883,-0.01193045824766159,0.005540354643017054,-1.1955769707583386e-11,0.003191928379237652
0.005935006774961948,0.006886665243655443,-0.010889418423175812,0.005191786680370569,-7.806263231310839e-13,0.0034117114264518023
0.006132715381681919,0.00704828929156065,-0.011513627134263515,0.005408510100096464,-5.09693199104988e-14,0.0036249915137887
0.0061307623982429504,0.0066775367595255375,-0.010991467162966728,0.005737472325563431,-3.327932310422891e-15,0.003727744100615382
0.00587853929027915,0.007100112270563841,-0.011652251705527306,0.0055619231425225735,-2.1729018252231332e-16,0.004197206813842058
0.006079505197703838,0.006879668217152357,-0.011646157130599022,0.005733083933591843,-1.418749746404411e-17,0.0037134159356355667
0.0064672669395804405,0.006956948898732662,-0.01101873442530632,0.0052947429940104485,-9.26342197205272e-19,0.0033794764894992113
0.0063176401890814304,0.007098562549799681,-0.01179096382111311,0.005573811940848827,-6.048351747571127e-20,0.0031560342758893967
0.006268078926950693,0.0068327682092785835,-0.011636236682534218,0.005740768741816282,-3.9491415939839336e-21,0.003438846208155155
0.006257330998778343,0.006946420297026634,-0.012077291496098042,0.006051092408597469,-2.5785073579514014e-22,0.0034582549706101418
0.0061843739822506905,0.0071762725710868835,-0.011721373535692692,0.0062222727574408054,-1.6835809485798037e-23,0.003506650682538748
0.006156278308480978,0.007056924980133772,-0.011731822043657303,0.005582757294178009,-1.0992580485104626e-24,0.0033916092943400145
0.006725900340825319,0.007353032939136028,-0.011919760145246983,0.005864155013114214,-7.177368978574943e-26,0.0033503209706395864
0.0060098785907030106,0.007000297773629427,-0.011577783152461052,0.005834146868437529,-4.686308711337096e-27,0.003562626661732793
0.0060098785907030106,0.007000297773629427,-0.011577783152461052,0.005834146868437529,-4.686308711337096e-27,0.003562626661732793
0.00595954991877079,0.007344139739871025,-0.012029089964926243,0.0058234864845871925,-3.0598243287813806e-28,0.0033098591957241297
0.006497491151094437,0.006667764857411385,-0.011802779510617256,0.005394604057073593,-1.9978465759230857e-29,0.0032637822441756725
0.006151102017611265,0.006307248026132584,-0.011517470702528954,0.005738359875977039,-1.30445106520354e-30,0.003245361614972353
0.006450416054576635,0.006765231490135193,-0.012018759734928608,0.005697576329112053,-8.517133656453547e-32,0.0032218045089393854
0.006612782366573811,0.006895013153553009,-0.01165088452398777,0.005955122411251068,-5.561079368063957e-33,0.0034115491434931755
0.006401130463927984,0.006594657897949219,-0.012087362818419933,0.005838938057422638,-3.630987484908589e-34,0.0032341002952307463
0.006103681866079569,0.006880117114633322,-0.011700606904923916,0.005811932031065226,-2.370775376756628e-35,0.003417843719944358
0.006425878964364529,0.006397810764610767,-0.011421866714954376,0.005297912284731865,-1.5479470166886853e-36,0.003120649605989456
0.006719822995364666,0.006322531029582024,-0.01181500218808651,0.005585178267210722,-6.599140463238718e-39,0.003060484305024147
0.0063313706777989864,0.007058175280690193,-0.012449542060494423,0.006083017680794001,-4.3087685700445205e-40,0.002919258549809456
0.00624796561896801,0.00668004946783185,-0.012238670140504837,0.005741306580603123,-2.813386926824935e-41,0.0028978732880204916
0.006779787130653858,0.006667329464107752,-0.011910215020179749,0.005726762115955353,-1.8371022867298352e-42,0.002994322218000889
0.006679636891931295,0.006659219041466713,-0.011420819908380508,0.005740487948060036,-1.2051166793193427e-43,0.0033358405344188213
0.007152917329221964,0.007352835964411497,-0.011319417506456375,0.00620110472664237,-8.407790785948902e-45,0.003411902580410242
0.006435193121433258,0.00679599866271019,-0.012695064768195152,0.006398734636604786,-0.0,0.0031345905736088753
0.006755176931619644,0.006136981770396233,-0.0118351299315691,0.00575789762660861,-0.0,0.0030239697080105543
0.00706807104870677,0.006206861697137356,-0.012288900092244148,0.005756329745054245,-0.0,0.0031716879457235336
0.006950446404516697,0.006054853554815054,-0.012076251208782196,0.005863525439053774,-0.0,0.003033517627045512
0.006750497501343489,0.006615497637540102,-0.011684747412800789,0.00611409917473793,-0.0,0.003263801569119096
0.006531625520437956,0.006753347814083099,-0.011947679333388805,0.006431281100958586,-0.0,0.003084165044128895
0.00713959289714694,0.006666917819529772,-0.011904984712600708,0.00587949063628912,-0.0,0.0027342073153704405
0.007144829258322716,0.006235434208065271,-0.012627832591533661,0.005745003931224346,-0.0,0.0025763423182070255
0.00660676509141922,0.006653384305536747,-0.012324915267527103,0.0060135433450341225,-0.0,0.0027360664680600166
0.006930381990969181,0.007034866139292717,-0.012153859250247478,0.005922842305153608,-0.0,0.002957693999633193
0.0076540554873645306,0.006306403316557407,-0.012171914801001549,0.006199092138558626,-0.0,0.002877618419006467
0.007102149073034525,0.006161042954772711,-0.011511621065437794,0.005730101373046637,-0.0,0.002654081443324685
0.006606139242649078,0.00715274503454566,-0.011658826842904091,0.005742371082305908,-0.0,0.0022627911530435085
0.006606139242649078,0.00715274503454566,-0.011658826842904091,0.005742371082305908,-0.0,0.0022627911530435085
0.006762489210814238,0.006885773502290249,-0.0122476601973176,0.005867558065801859,-0.0,0.0024212338030338287
0.006762489210814238,0.006885773502290249,-0.0122476601973176,0.005867558065801859,-0.0,0.0024212338030338287
0.007099842187017202,0.006236149463802576,-0.012230358086526394,0.005575230810791254,-0.0,0.002730937208980322
0.007110135164111853,0.006238219328224659,-0.011769370175898075,0.005651670042425394,-0.0,0.0028664583805948496
0.006901284214109182,0.006600440014153719,-0.012244095094501972,0.005337247624993324,-0.0,0.0027158947195857763
0.0068977694027125835,0.006385553628206253,-0.012061480432748795,0.005539673380553722,-0.0,0.00233290484175086
0.0074664633721113205,0.006241561379283667,-0.012438594363629818,0.005741397850215435,-0.0,0.002166647929698229
0.007574419490993023,0.006478085182607174,-0.012281029485166073,0.006000271998345852,-0.0,0.00216339947655797
0.0067104771733284,0.006153433118015528,-0.01280919834971428,0.006356712430715561,-0.0,0.002002765890210867
0.00761103630065918,0.006966308690607548,-0.012779920361936092,0.005727661773562431,-0.0,0.002365768188610673
0.007432359270751476,0.006827996578067541,-0.01329247560352087,0.0055061024613678455,-4.160868775215931e-05,0.0023639751598238945
0.006666883360594511,0.0064269788563251495,-0.011988388374447823,0.006014082580804825,-7.425894727930427e-05,0.0025100091006606817
0.006906121037900448,0.006450276356190443,-0.012342873960733414,0.006158793345093727,-7.5194300734438e-05,0.0025617654900997877
0.006996442563831806,0.006889111828058958,-0.012502391822636127,0.006090207956731319,-7.409822865156457e-05,0.0024777573999017477
0.007238173857331276,0.006430795881897211,-0.012420105747878551,0.00589339341968298,-7.290696521522477e-05,0.002450506668537855
0.0074022808112204075,0.006102117709815502,-0.012619187124073505,0.005431558005511761,-7.17452639946714e-05,0.0022783444728702307
0.0067899152636528015,0.0063339718617498875,-0.012145280838012695,0.005937342997640371,-7.061926589813083e-05,0.0021740973461419344
0.006958179175853729,0.0066969613544642925,-0.012993394397199154,0.005763383116573095,-6.952819967409596e-05,0.0022413635160773993
0.007239061873406172,0.0068145194090902805,-0.012390554882586002,0.005964020267128944,-6.847028998890892e-05,0.0022261084523051977
0.007299533113837242,0.006353890523314476,-0.013045324012637138,0.006163685582578182,-6.744408165104687e-05,0.002564770635217428
0.007119385991245508,0.006106747779995203,-0.011805767193436623,0.005716709420084953,-6.644823588430882e-05,0.002775084925815463
0.0072004832327365875,0.006685988511890173,-0.010692962445318699,0.00587548827752471,-6.54812902212143e-05,0.0026725928764790297
0.007119827438145876,0.006986516062170267,-0.012351217679679394,0.0052305422723293304,-6.454212416429073e-05,0.0025336705148220062
0.007176498416811228,0.006549934856593609,-0.011966000311076641,0.005995140876621008,-6.362948624882847e-05,0.0021639226470142603
0.007124393712729216,0.00610421784222126,-0.012507806532084942,0.0061792489141225815,-6.274237966863438e-05,0.001933436724357307
0.007341563235968351,0.0063397930935025215,-0.01229789573699236,0.00576059939339757,-6.187956751091406e-05,0.0018135823775082827
0.007341563235968351,0.0063397930935025215,-0.01229789573699236,0.00576059939339757,-6.187956751091406e-05,0.0018135823775082827
0.007169848773628473,0.006636337842792273,-0.01219483558088541,0.006547269411385059,-6.022335583111271e-05,0.0022111122962087393
0.007088164333254099,0.006748512852936983,-0.012123171240091324,0.006420980207622051,-5.942796997260302e-05,0.002447767648845911
0.007088164333254099,0.006748512852936983,-0.012123171240091324,0.006420980207622051,-5.942796997260302e-05,0.002447767648845911
0.007474180310964584,0.006546834949404001,-0.012329124845564365,0.006124657113105059,-6.443486927310005e-05,0.002922596875578165
0.007642686832696199,0.006367420312017202,-0.011227547191083431,0.0063606081530451775,-6.909012154210359e-05,0.0024937449488788843
0.007650346495211124,0.006711405701935291,-0.012392423115670681,0.006703746039420366,-6.857061816845089e-05,0.0022532122675329447
0.007271852809935808,0.00661933608353138,-0.011854400858283043,0.006364067085087299,-6.773383938707411e-05,0.0017978864489123225
0.008345700800418854,0.00608242629095912,-0.012102095410227776,0.00593708548694849,-6.60778459860012e-05,0.0017362296348437667
0.00839727371931076,0.006092725321650505,-0.011931348592042923,0.006336062215268612,-6.527903315145522e-05,0.001990973949432373
0.007239983417093754,0.00673307990655303,-0.012489549815654755,0.0066326637752354145,-7.248586189234629e-05,0.0022640349343419075
0.008015457540750504,0.006219647359102964,-0.011176321655511856,0.006403411738574505,-7.418065797537565e-05,0.0022943008225411177
0.00772165646776557,0.0059431931003928185,-0.01206828374415636,0.006286181043833494,-7.348183135036379e-05,0.002306459005922079
0.00754768680781126,0.005982054863125086,-0.012101086787879467,0.006087406072765589,-7.264538726303726e-05,0.0020162262953817844
0.007653417997062206,0.00645054504275322,-0.012249806895852089,0.006090201903134584,-7.181803084677085e-05,0.0017226791242137551
0.007746928837150335,0.006603064015507698,-0.012309600599110126,0.006129525601863861,-7.100853690644726e-05,0.0015729146543890238
0.008080764673650265,0.006294960621744394,-0.011976524256169796,0.0063067832961678505,-7.894159352872521e-05,0.0015054941177368164
0.007426183205097914,0.006452637724578381,-0.012359336949884892,0.006601094733923674,-4.0143277146853507e-05,0.001602910808287561
0.007609215099364519,0.006190529093146324,-0.01171821914613247,0.006561458110809326,-2.621069143060595e-06,0.001574489171616733
0.007869088090956211,0.006510790437459946,-0.011991076171398163,0.006294141989201307,-1.7113707428961789e-07,0.001970435958355665
0.008129851892590523,0.006830902304500341,-0.012290711514651775,0.006255920510739088,-1.1174027036986445e-08,0.0020230128429830074
0.007609084248542786,0.0059646000154316425,-0.012060488574206829,0.006366236601024866,-3.75094787159469e-05,0.002085927175357938
0.008067757822573185,0.005929629784077406,-0.012940457090735435,0.006171398796141148,-0.0001124140399042517,0.0018366232980042696
0.008028348907828331,0.006247030105441809,-0.012029260396957397,0.006557566113770008,-0.00011449875455582514,0.0015836713137105107
0.007660214323550463,0.006445085164159536,-0.012591425329446793,0.006861112080514431,-0.00011197267303941771,0.0014197088312357664
0.008174286223948002,0.00645055016502738,-0.012085070833563805,0.0068691931664943695,-0.00010927471157629043,0.0013610621681436896
0.008174286223948002,0.00645055016502738,-0.012085070833563805,0.0068691931664943695,-0.00010927471157629043,0.0013610621681436896
0.0079220961779356,0.005872561130672693,-0.012315929867327213,0.0064527727663517,-0.00012366414011921734,0.0014386738184839487
0.0079220961779356,0.005872561130672693,-0.012315929867327213,0.0064527727663517,-0.00012366414011921734,0.0014386738184839487
0.007882311008870602,0.00597321055829525,-0.011885386891663074,0.006295447703450918,-0.00012213585432618856,0.0017535081133246422
0.0076825665310025215,0.006345108617097139,-0.012475842610001564,0.006427474319934845,-0.00011951535270782188,0.0018498521531000733
0.008577906526625156,0.00601780554279685,-0.01274176500737667,0.006403963081538677,-0.0001322619355050847,0.0017946477746590972
0.007919546216726303,0.006207314319908619,-0.012073454447090626,0.0066466182470321655,-0.0001306798803852871,0.0016351976664736867
0.008205926977097988,0.0059075504541397095,-0.012082237750291824,0.0063329734839499,-0.00012809480540454388,0.001371239428408444
0.00883600302040577,0.00632995180785656,-0.012251344509422779,0.006134487688541412,-0.00012554683780763298,0.0014160532737150788
0.008595462888479233,0.005914189387112856,-0.01185244508087635,0.0064500607550144196,-0.00013614114141091704,0.0013898853212594986
0.00786813348531723,0.005830930080264807,-0.012128394097089767,0.0067072645761072636,-0.0001376903965137899,0.001630084472708404
0.008588367141783237,0.0059135183691978455,-0.012091301381587982,0.006472300738096237,-0.00013537370250560343,0.001599651062861085
0.008493517525494099,0.005902434699237347,-0.012625348754227161,0.006548869889229536,-0.00024919002316892147,0.0017528391908854246
0.008430812507867813,0.006108464207500219,-0.012117059901356697,0.006849534343928099,-0.00025169659056700766,0.0017395205795764923
0.008634282276034355,0.005578537471592426,-0.011989517137408257,0.007179535459727049,-0.00023938060621730983,0.0016922577051445842
0.009154563769698143,0.005690799094736576,-0.012498411349952221,0.006941038649529219,-0.00024954750551842153,0.0015723791439086199
0.008702704682946205,0.0052741761319339275,-0.01154057215899229,0.007372114807367325,-0.00025818857830017805,0.0014378153719007969
0.007957317866384983,0.005806881468743086,-0.01209373027086258,0.007614814210683107,-0.0002477011876180768,0.0012451629154384136
0.008842319250106812,0.006037232931703329,-0.012066827155649662,0.006921134423464537,-0.00023690554371569306,0.0010018497705459595
0.008945203386247158,0.005845962092280388,-0.012946284376084805,0.006565270014107227,-0.0002622145402710885,0.0009713364997878671
0.008510062471032143,0.005293017718940973,-0.012987405061721802,0.00706905173137784,-0.0002539431443437934,0.0010250372579321265
0.008947942405939102,0.005839367862790823,-0.012161528691649437,0.0072756921872496605,-0.00024424647563137114,0.0010436760494485497
0.008975581265985966,0.00565866706892848,-0.012795465998351574,0.007053117733448744,-0.00023512582993134856,0.0011814410099759698
0.009219648316502571,0.00590995280072093,-0.011860917322337627,0.006678014528006315,-0.0002568665368016809,0.0011829744325950742
0.008784891106188297,0.006006852723658085,-0.01178900059312582,0.006276942323893309,-0.00024990877136588097,0.0012020411668345332
0.00893801636993885,0.005537750199437141,-0.011641130782663822,0.006380782928317785,-0.00024166028015315533,0.0012274231994524598
0.00893801636993885,0.005537750199437141,-0.011641130782663822,0.006380782928317785,-0.00024166028015315533,0.0012274231994524598
0.008723894134163857,0.005186626221984625,-0.012455331161618233,0.006325507536530495,-0.00028633279725909233,0.0010129146976396441
0.008723894134163857,0.005186626221984625,-0.012455331161618233,0.006325507536530495,-0.00028633279725909233,0.0010129146976396441
0.00967253465205431,0.005421214271336794,-0.012071524746716022,0.006532574538141489,-0.000270293588982895,0.0008800830109976232
0.009168935939669609,0.005789610557258129,-0.012658954598009586,0.007020789664238691,-0.0002550383214838803,0.0008746288367547095
0.009487776085734367,0.005246822256594896,-0.012358872219920158,0.007227937690913677,-0.00027693380252458155,0.0007604924030601978
0.009465950541198254,0.00538709806278348,-0.01195093709975481,0.007005763705819845,-0.00026151438942179084,0.0007180137909017503
0.009465950541198254,0.00538709806278348,-0.01195093709975481,0.007005763705819845,-0.00026151438942179084,0.0007180137909017503
0.00949250627309084,0.005242534913122654,-0.012942103669047356,0.007296890486031771,-0.00027548399521037936,0.0007109402795322239
0.009541855193674564,0.0059354244731366634,-0.012183163315057755,0.007326076738536358,-0.0002662588085513562,0.0008473152993246913
0.00912806298583746,0.00544170243665576,-0.012989391572773457,0.006903872825205326,-0.00025561172515153885,0.0008484641439281404
0.009249299764633179,0.00508530018851161,-0.012450690381228924,0.0071758609265089035,-0.0002760763745754957,0.0007628640742041171
0.009466813877224922,0.005751599557697773,-0.012633047066628933,0.007952269166707993,-0.00026990449987351894,0.0006702301907353103
0.009969517588615417,0.0053449347615242004,-0.012677445076406002,0.007293436210602522,-0.00026041409000754356,0.0005962230497971177
0.009407084435224533,0.006064005196094513,-0.013058937154710293,0.006677803583443165,-0.0002513397776056081,0.0005368583370000124
0.00980850588530302,0.005410495214164257,-0.013078640215098858,0.0065919761545956135,-0.0002428624138701707,0.00048825517296791077
0.010332951322197914,0.004835957195609808,-0.012570076622068882,0.006634972058236599,-0.0002651251561474055,0.0004477273323573172
0.009913690388202667,0.00534252030774951,-0.012676586396992207,0.006866507697850466,-0.0002601598098408431,0.0004134198825340718
0.009672431275248528,0.005198758561164141,-0.011929063126444817,0.0068452064879238605,-0.00024657833273522556,0.0004435010487213731
0.010116560384631157,0.005769559647887945,-0.012571873143315315,0.00735326437279582,-0.00023380616039503366,0.00041794541175477207
0.00990286748856306,0.005603617522865534,-0.012236779555678368,0.007577265612781048,-0.00024395495711360127,0.00039217001176439226
0.009952266700565815,0.005642232485115528,-0.012937907129526138,0.007637587375938892,-0.0002526674943510443,0.0003691925958264619
0.010079754516482353,0.005263006780296564,-0.01279450859874487,0.006901083514094353,-0.00024262882652692497,0.0003730294993147254
0.009863721206784248,0.00537790497764945,-0.01240133959800005,0.006522458977997303,-0.00023227586643770337,0.00037598819471895695
0.009943312034010887,0.005089576356112957,-0.012870904058218002,0.007013682276010513,-0.00024085755285341293,0.0003587198443710804
0.00991372112184763,0.005338362418115139,-0.01229829341173172,0.007462938316166401,-0.00024828690220601857,0.00034178243367932737
0.009833929128944874,0.005536013748496771,-0.012493547052145004,0.007315392605960369,-0.00023993599461391568,0.0003262953832745552
0.010277500376105309,0.005010257940739393,-0.012536434456706047,0.006943988148123026,-0.0002312019933015108,0.0003121469053439796
0.00986337661743164,0.004783192649483681,-0.012921047396957874,0.006949081085622311,-0.00022302044089883566,0.0002991737856063992
0.00986337661743164,0.004783192649483681,-0.012921047396957874,0.006949081085622311,-0.00022302044089883566,0.0002991737856063992
0.0105518139898777,0.00529178511351347,-0.013276461511850357,0.006820934358984232,-0.00021539488807320595,0.00028723632567562163
0.010114452801644802,0.005116980988532305,-0.013006745837628841,0.006683781743049622,-0.00020827347179874778,0.00027621464687399566
0.009484872221946716,0.005393138155341148,-0.012728177942335606,0.0065445913933217525,-0.00022846592764835805,0.00026618209085427225
0.010450979694724083,0.00530486274510622,-0.012625128030776978,0.0070168618112802505,-0.000223136245040223,0.00019487350073177367
0.010094436816871166,0.005519556347280741,-0.01255679689347744,0.00799851305782795,-0.00021653962903656065,0.00018304433615412563
0.009660005569458008,0.005213960539549589,-0.012075786478817463,0.007599628996104002,-0.00021022403961978853,0.00017563054279889911
0.011155248619616032,0.005762896500527859,-0.012417275458574295,0.006851269397884607,-0.00022050738334655762,0.0001629065372981131
0.009990867227315903,0.005591894034296274,-0.013042738661170006,0.00738154724240303,-0.00021064096654299647,0.00015721478848718107
0.01002891082316637,0.005165535025298595,-0.012443688698112965,0.007119008805602789,-0.0002012481854762882,0.00015189734403975308
0.010295683518052101,0.004965144209563732,-0.012401815503835678,0.006829449441283941,-0.00019263326248619705,0.00011953836656175554
0.01052011363208294,0.005837900098413229,-0.012524181976914406,0.007185616064816713,-0.0002167455095332116,0.00011396836634958163
0.010142732411623001,0.005399608984589577,-0.01185560505837202,0.007627306971698999,-0.00021260500943753868,0.00011035769421141595
0.01025286503136158,0.005059731658548117,-0.012595870532095432,0.008001995272934437,-0.0002048273163381964,0.00010706770262913778
0.010018502362072468,0.005141876172274351,-0.012397121638059616,0.007760387845337391,-0.00019735882233362645,0.00010397457663202658
0.010104266926646233,0.005083119496703148,-0.012727809138596058,0.007706388831138611,-0.00021998610463924706,0.00010105585533892736
0.010742729529738426,0.005181801039725542,-0.012318961322307587,0.007635845802724361,-0.00021442704019136727,9.82962446869351e-05
0.010095058009028435,0.005286536645144224,-0.012935496866703033,0.007761088199913502,-0.00020749022951349616,9.56833828240633e-05
0.010475347749888897,0.005084996111690998,-0.012420983985066414,0.007480305153876543,-0.0002008818555623293,9.320613753516227e-05
0.010318168438971043,0.005372883751988411,-0.012392415665090084,0.007077075075358152,-0.00019467429956421256,9.085382771445438e-05
0.010240023955702782,0.005224567838013172,-0.012683023698627949,0.007814237847924232,-0.00021399959223344922,8.861718379193917e-05
0.010742553509771824,0.005685649812221527,-0.01226042490452528,0.008285070769488811,-0.0002094155497616157,8.64880348672159e-05
0.010559462010860443,0.0053778402507305145,-0.012648235075175762,0.00780953885987401,-0.00020360061898827553,6.880355067551136e-05
0.010600550100207329,0.005171494092792273,-0.012704018503427505,0.008054107427597046,-0.0001980077795451507,6.224858952919021e-05
0.010709740221500397,0.005609458778053522,-0.012737976387143135,0.008407236076891422,-0.00019270816119387746,6.052841854398139e-05
0.011165027506649494,0.005522973369807005,-0.012619146145880222,0.00811057910323143,-0.00020910109742544591,5.9180478274356574e-05
0.011327925138175488,0.005621390882879496,-0.012264618650078773,0.007510242983698845,-0.00021958454453852028,-7.5762100095744245e-06
0.010513699613511562,0.005060521885752678,-0.012682247906923294,0.007861302234232426,-0.00021065681357868016,-6.821146234869957e-05
0.010513699613511562,0.005060521885752678,-0.012682247906923294,0.007861302234232426,-0.00021065681357868016,-6.821146234869957e-05
0.010457471013069153,0.00553665729239583,-0.012750563211739063,0.007942605763673782,-0.0002013184130191803,-6.955027492949739e-05
0.011025657877326012,0.005352044943720102,-0.012662908993661404,0.008136351592838764,-0.00022609761799685657,-9.636126924306154e-05
0.010354430414736271,0.005531721748411655,-0.012393263168632984,0.00819099135696888,-0.00022140868532005697,-9.692294406704605e-05
0.010787388309836388,0.004842078313231468,-0.012669474817812443,0.0084236403927207,-0.0002049104805337265,-0.0001198702520923689
0.01028788834810257,0.005074971821159124,-0.0120641915127635,0.007723130751401186,-0.00022809261281508952,-0.00013125533587299287
0.010865285061299801,0.005436828825622797,-0.012472518719732761,0.00814737193286419,-0.00022205308778211474,-0.00014064904826227576
0.010876667685806751,0.005258833523839712,-0.012450138106942177,0.008416603319346905,-0.00021461785945575684,-0.00044468959094956517
0.010291806422173977,0.0052789002656936646,-0.012444883584976196,0.008013751357793808,-0.00020755532023031265,-0.0005206646164879203
0.011047146283090115,0.005086483899503946,-0.012690337374806404,0.007716404739767313,-0.00020093514467589557,-0.0005465089343488216
0.010849092155694962,0.005104075651615858,-0.012413719668984413,0.00783263985067606,-0.00021886300237383693,-0.0005205979105085135
0.010551903396844864,0.005309592466801405,-0.012080132029950619,0.007673345971852541,-0.00021562848996836692,-0.0005459997337311506
0.010599062778055668,0.005187875125557184,-0.011576710268855095,0.007867341861128807,-0.00020956917433068156,-0.0007613755878992379
0.010572848841547966,0.00534070935100317,-0.012019472196698189,0.007537943311035633,-0.0002585036854725331,-0.0008117760880850255
0.011236380785703659,0.005163258872926235,-0.0116496616974473,0.008086842484772205,-0.0002615730627439916,-0.0008253425476141274
0.011154519394040108,0.0051290858536958694,-0.011969201266765594,0.008263231255114079,-0.00024831912014633417,-0.0008341454667970538
0.011141094379127026,0.005298203323036432,-0.012171890586614609,0.007857036776840687,-0.0002354019961785525,-0.0009287346620112658
0.011411667801439762,0.005186505615711212,-0.012020720168948174,0.007715207524597645,-0.00022370035003405064,-0.0010186429135501385
0.011306161992251873,0.005339611787348986,-0.012639720924198627,0.008273915387690067,-0.00023391933063976467,-0.0010410419199615717
0.011170540936291218,0.005507373716682196,-0.012109032832086086,0.008261652663350105,-0.00024273578310385346,-0.0011449330486357212
0.011419928632676601,0.005709902849048376,-0.012590291909873486,0.007907942868769169,-0.00023350262199528515,-0.0012978236190974712
0.0111801503226161,0.0051836660131812096,-0.012134168297052383,0.008156895637512207,-0.0002239011664642021,-0.0012646042741835117
0.011593084782361984,0.005121009889990091,-0.012908517383038998,0.008524814620614052,-0.0002414799964753911,-0.0015071695670485497
0.010853567160665989,0.005266220308840275,-0.012815858237445354,0.007848445326089859,-0.0002406075072940439,-0.0015813542995601892
0.010644931346178055,0.005193130578845739,-0.01249961368739605,0.007346462458372116,-0.000232281323405914,-0.0015230296412482858
0.011415730230510235,0.0058570788241922855,-0.012805023230612278,0.007551728282123804,-0.00024773451150394976,-0.0015888813650235534
0.011558872647583485,0.005446368362754583,-0.012464179657399654,0.00800876785069704,-0.0002467265585437417,-0.0014927404699847102
0.011770297773182392,0.005204355344176292,-0.013473511673510075,0.007991889491677284,-0.00023902338580228388,-0.0014921099646016955
0.011387159116566181,0.005006121471524239,-0.012824812904000282,0.007503017317503691,-0.00023137331299949437,-0.0015561559703201056
0.011387159116566181,0.005006121471524239,-0.012824812904000282,0.007503017317503691,-0.00023137331299949437,-0.0015561559703201056
0.011211927980184555,0.0052195144817233086,-0.013209494762122631,0.008130654692649841,-0.00022417136642616242,-0.0019188079750165343
0.012872639112174511,0.005676129832863808,-0.012619048357009888,0.008413953706622124,-0.0002371226582909003,-0.0018916018307209015
0.012964027933776379,0.006031866185367107,-0.013423469848930836,0.008103320375084877,-0.00024337059585377574,-0.002184626879170537
0.013285130262374878,0.005265951156616211,-0.013274035416543484,0.008093158714473248,-0.00023206467449199408,-0.002090084133669734
0.012889831326901913,0.004789205268025398,-0.013492164202034473,0.008482394739985466,-0.0002496422966942191,-0.0019071763381361961
0.013426837511360645,0.005175881087779999,-0.012998847290873528,0.00804709829390049,-0.0002410529850749299,-0.001883724587969482
0.012953267432749271,0.005333613138645887,-0.012974808923900127,0.008619050495326519,-0.00023090990725904703,-0.002033247146755457
0.013488351367413998,0.005703594535589218,-0.013153739273548126,0.00906689278781414,-0.00025343865854665637,-0.0020691456738859415
0.013121772557497025,0.005219781771302223,-0.013702413067221642,0.008290058001875877,-0.0002478575042914599,-0.002409312641248107
0.013737036846578121,0.005347893573343754,-0.012895182706415653,0.00827109906822443,-0.00023875011538621038,-0.0027053742669522762
0.01316694263368845,0.005240606609731913,-0.01370114367455244,0.008734459988772869,-0.00023004936520010233,-0.002835876541212201
0.013719046488404274,0.004998083226382732,-0.01338904444128275,0.008546153083443642,-0.00022194550547283143,-0.0029537812806665897
0.013331127353012562,0.005462575703859329,-0.01364798005670309,0.008107759058475494,-0.00021439153351821005,-0.0028904930222779512
0.013582918792963028,0.005398805718868971,-0.013395566493272781,0.008552869781851768,-0.00020733468409162015,-0.002543357666581869
0.013550825417041779,0.005433965940028429,-0.013840177096426487,0.009008307009935379,-0.00020072779443580657,-0.002507404424250126
0.01394648291170597,0.005154892336577177,-0.013734986074268818,0.008592597208917141,-0.0001945293479366228,-0.002360343001782894
0.013560953550040722,0.004836149048060179,-0.013713332824409008,0.008507436141371727,-0.0002120973076671362,-0.002517357934266329
0.013678992167115211,0.004807749763131142,-0.013329513370990753,0.00827830657362938,-0.00020915476488880813,-0.0027767212595790625
0.013472255319356918,0.005405737552791834,-0.013300278224050999,0.008401613682508469,-0.00020345463417470455,-0.0031017023138701916
0.013547095470130444,0.0052327970042824745,-0.01322806254029274,0.007907426916062832,-0.00019787636119872332,-0.00305870920419693
0.013696852140128613,0.005172358825802803,-0.013410880230367184,0.008603307418525219,-0.00019258390238974243,-0.0029276113491505384
0.01384536363184452,0.004948891699314117,-0.013791928999125957,0.009095405228435993,-0.000208863930311054,-0.002701111137866974
0.014205859042704105,0.005123252514749765,-0.012933003716170788,0.008464980870485306,-0.00020276223949622363,-0.0025734426453709602
0.014205859042704105,0.005123252514749765,-0.012933003716170788,0.008464980870485306,-0.00020276223949622363,-0.0025734426453709602
0.014002546668052673,0.005167806055396795,-0.013302597217261791,0.008914129808545113,-0.00018620147602632642,-0.0037766890600323677
0.014002546668052673,0.005167806055396795,-0.013302597217261791,0.008914129808545113,-0.00018620147602632642,-0.0037766890600323677
0.013583761639893055,0.005284089129418135,-0.013400992378592491,0.008508081547915936,-0.0001788022491382435,-0.004409228917211294
0.014208784326910973,0.004953627474606037,-0.013502184301614761,0.008567777462303638,-0.0001719682477414608,-0.004245265386998653
0.01397256925702095,0.004773642402142286,-0.013700696639716625,0.008730797097086906,-0.00019014073768630624,-0.004193376284092665
0.014105009846389294,0.0049924845807254314,-0.012916449457406998,0.008519875817000866,-0.00019114400492981076,-0.0036294725723564625
0.013617767952382565,0.005447199568152428,-0.013778368011116982,0.008888396434485912,-0.0001850973058026284,-0.003541139652952552
0.014266757294535637,0.005498635116964579,-0.013440714217722416,0.009242072701454163,-0.00017899401427712291,-0.003821962745860219
0.014354079030454159,0.00501155573874712,-0.013578709214925766,0.008916367776691914,-0.0001678667322266847,-0.004037442151457071
0.01367009524255991,0.0054413494653999805,-0.013812496326863766,0.00981595367193222,-0.00018811227346304804,-0.003912650048732758
0.01406216248869896,0.0052229189313948154,-0.013700822368264198,0.009646384976804256,-0.00018426065798848867,-0.0039644441567361355
0.01372832152992487,0.0051477085798978806,-0.01329964492470026,0.009243546053767204,-0.0001791289250832051,-0.00415883818641305
0.014187909662723541,0.0058037214912474155,-0.013464119285345078,0.009066881611943245,-0.0001863993820734322,-0.004008447751402855
0.013925447128713131,0.005305682774633169,-0.013044777326285839,0.00919179804623127,-0.00019288374460302293,-0.004306732211261988
0.014473001472651958,0.005452401470392942,-0.01356335636228323,0.008731991983950138,-0.0001885815290734172,-0.004107645247131586
0.0139189837500453,0.005143457092344761,-0.0131156537681818,0.008506000973284245,-0.00018418200488667935,-0.00436979066580534
0.014360077679157257,0.004950622096657753,-0.013755748979747295,0.008928791619837284,-0.00022615665511693805,-0.004442949313670397
0.01412054244428873,0.005673119332641363,-0.013392378576099873,0.0089724725112319,-0.00021852334612049162,-0.004391200840473175
0.014125410467386246,0.005279031582176685,-0.01371223758906126,0.009095082059502602,-0.00020860972290392965,-0.004456995986402035
0.014068528078496456,0.0054033733904361725,-0.013284329324960709,0.009131024591624737,-0.00023653052630834281,-0.004184247460216284
0.01410512626171112,0.005082278046756983,-0.013804737478494644,0.009500497952103615,-0.00022892554989084601,-0.003915080334991217
0.01405857689678669,0.005293365102261305,-0.013658828102052212,0.008801018819212914,-0.0002515138185117394,-0.004213159438222647
0.014550760388374329,0.005526070948690176,-0.013887020759284496,0.00874493457376957,-0.00024605734506621957,-0.004499847535043955
0.014491191133856773,0.005785506684333086,-0.013731441460549831,0.009112430736422539,-0.00026213197270408273,-0.004708533640950918
0.014964801259338856,0.005773751065135002,-0.01389988325536251,0.009011439047753811,-0.00026056726346723735,-0.00474528968334198
0.014523660764098167,0.0051758261397480965,-0.013724379241466522,0.009303545579314232,-0.0004249138874001801,-0.004808077588677406
0.01502953190356493,0.005254463758319616,-0.014068725518882275,0.009992793202400208,-0.0004717997508123517,-0.004701589699834585
0.014353952370584011,0.0051138270646333694,-0.01390035916119814,0.009235107339918613,-0.0004525858967099339,-0.004719350952655077
0.01433479879051447,0.005882918369024992,-0.013944622129201889,0.009413843974471092,-0.0004790297825820744,-0.004663362167775631
0.014076740480959415,0.005403057672083378,-0.013863591477274895,0.009743435308337212,-0.00048429847811348736,-0.004870186094194651
0.014950409531593323,0.004944880027323961,-0.013696281239390373,0.009273268282413483,-0.0004812443512491882,-0.005020569544285536
0.014950409531593323,0.004944880027323961,-0.013696281239390373,0.009273268282413483,-0.0004812443512491882,-0.005020569544285536
0.014382063411176205,0.005254463758319616,-0.014172214083373547,0.008664701133966446,-0.0005593231180682778,-0.005007036961615086
0.014893353916704655,0.005121337715536356,-0.01386777963489294,0.009406853467226028,-0.0005885951104573905,-0.005187242291867733
0.014690276235342026,0.004964638967067003,-0.01399864163249731,0.009145735763013363,-0.0006239982321858406,-0.005192752927541733
0.014890330843627453,0.005129792261868715,-0.013703681528568268,0.009365800768136978,-0.000610747782047838,-0.004925668239593506
0.01489165984094143,0.005032960791140795,-0.013586170971393585,0.009479575790464878,-0.0006179058691486716,-0.005121857393532991
0.014585381373763084,0.005000599659979343,-0.014564228244125843,0.008911972865462303,-0.000718609313480556,-0.0051650963723659515
0.015458432957530022,0.00493604363873601,-0.013778972439467907,0.009592917747795582,-0.0007593313348479569,-0.005391344428062439
0.015017159283161163,0.005120591726154089,-0.014306651428341866,0.009625120088458061,-0.0007555774063803256,-0.0052930330857634544
0.015252310782670975,0.005234448239207268,-0.013526460155844688,0.009112107567489147,-0.0007702678558416665,-0.005677254870533943
0.015080956742167473,0.004615018609911203,-0.014166398905217648,0.009455314837396145,-0.000875910627655685,-0.005443862173706293
0.015547349117696285,0.004948635585606098,-0.013858377002179623,0.009915364906191826,-0.0009182046633213758,-0.005530778784304857
0.014896494336426258,0.005429603159427643,-0.014657611027359962,0.00987579207867384,-0.0009180177003145218,-0.0057696090079844
0.014914297498762608,0.005113191902637482,-0.014306806959211826,0.009179595857858658,-0.0009006201871670783,-0.005950729828327894
0.015208818018436432,0.0054554115049541,-0.014902767725288868,0.009095590561628342,-0.0008242941694334149,-0.0055937450379133224
0.015132864937186241,0.005348313599824905,-0.013963470235466957,0.008849771693348885,-0.0008342916844412684,-0.005404377821832895
0.015659572556614876,0.004962792620062828,-0.01470460556447506,0.00882397685199976,-0.000842798559460789,-0.005640661809593439
0.014737457036972046,0.005206488072872162,-0.014156179502606392,0.009410567581653595,-0.0008590640500187874,-0.006143232341855764
0.015997380018234253,0.005177378188818693,-0.014893385581672192,0.009757938794791698,-0.0008644996560178697,-0.005855621304363012
0.015550892800092697,0.004993487615138292,-0.014314742758870125,0.00903377402573824,-0.0009450973593629897,-0.005841471720486879
0.015839844942092896,0.005191785749047995,-0.01481783390045166,0.009748422540724277,-0.0009447051561437547,-0.005701813381165266
0.015618925914168358,0.005022130906581879,-0.014323004521429539,0.010424184612929821,-0.0008862356189638376,-0.005919153336435556
0.015860922634601593,0.004847411997616291,-0.0150509187951684,0.009875605814158916,-0.000827963522169739,-0.005887752864509821
0.016298556700348854,0.005034288391470909,-0.014661276713013649,0.009833857417106628,-0.0008323052315972745,-0.006236042827367783
0.016736233606934547,0.004986657295376062,-0.014723248779773712,0.010044672526419163,-0.0007776105194352567,-0.006372378673404455
0.016816649585962296,0.004629358649253845,-0.014747357927262783,0.009429694153368473,-0.0006868943455629051,-0.006484085228294134
0.016816649585962296,0.004629358649253845,-0.014747357927262783,0.009429694153368473,-0.0006868943455629051,-0.006484085228294134
0.017002828419208527,0.005525301210582256,-0.01521255262196064,0.010168684646487236,-0.0005272828275337815,-0.00627692136913538
0.017002828419208527,0.005525301210582256,-0.01521255262196064,0.010168684646487236,-0.0005272828275337815,-0.00627692136913538
0.016569258645176888,0.005073097534477711,-0.015563606284558773,0.009152171202003956,-0.0005408097058534622,-0.0067102969624102116
0.01704762876033783,0.004692666232585907,-0.015391767956316471,0.009750333614647388,-0.0005107872420921922,-0.006365298759192228
0.017017517238855362,0.0050758616998791695,-0.015462297946214676,0.010576398111879826,-0.0004678759432863444,-0.006006918381899595
0.01699989289045334,0.005115479696542025,-0.015619445592164993,0.009150088764727116,-0.00043062062468379736,-0.006471023894846439
0.017115283757448196,0.005303071811795235,-0.014863002113997936,0.009462777525186539,-0.0003987982345279306,-0.006687391083687544
0.016445616260170937,0.005126762669533491,-0.015763504430651665,0.009600767865777016,-0.0004168656305409968,-0.006488813553005457
0.01705632545053959,0.004610649310052395,-0.015819456428289413,0.010232003405690193,-0.0003807669272646308,-0.00610433891415596
0.01717839576303959,0.0050337910652160645,-0.014847859740257263,0.01034934725612402,-0.00035911297891288996,-0.00629937369376421
0.01734846830368042,0.00475075701251626,-0.015615603886544704,0.009579000994563103,-0.00033974353573285043,-0.006767988204956055
0.016939295455813408,0.005069055128842592,-0.015161438845098019,0.010121887549757957,-0.00032235460821539164,-0.007212556432932615
0.017441239207983017,0.005415806546807289,-0.01588861271739006,0.00984073244035244,-0.00032804496004246175,-0.006732569076120853
0.017531055957078934,0.004882549401372671,-0.015274206176400185,0.009741143323481083,-0.00033273082226514816,-0.006829752121120691
0.017675457522273064,0.004762228578329086,-0.015458241105079651,0.010549112223088741,-0.0003192714648321271,-0.0072028497233986855
0.017782459035515785,0.0048095835372805595,-0.014773102477192879,0.010728685185313225,-0.00030579385929740965,-0.007145221345126629
0.017169712111353874,0.004860616754740477,-0.015114939771592617,0.010418630205094814,-0.00029333794373087585,-0.007151361554861069
0.01798730157315731,0.005293365102261305,-0.015384793281555176,0.00945926271378994,-0.00028185357223264873,-0.006588503252714872
0.017900805920362473,0.005529365967959166,-0.015239393338561058,0.010197905823588371,-0.00027123381732963026,-0.0066701010800898075
0.017631730064749718,0.004923504311591387,-0.0157318115234375,0.01055560726672411,-0.00026138522662222385,-0.007027007173746824
0.017986813560128212,0.004860141780227423,-0.015294287353754044,0.010698037222027779,-0.0002522271533962339,-0.007307617925107479
0.01790573261678219,0.0043513718992471695,-0.015395591966807842,0.010208552703261375,-0.00019348804198671132,-0.007165317423641682
0.01799548976123333,0.004493184387683868,-0.014773007482290268,0.010703003965318203,-0.00017899204976856709,-0.0071497103199362755
0.01798827573657036,0.004643972031772137,-0.015419870615005493,0.010821014642715454,-0.00017171607760246843,-0.007387674879282713
0.017733225598931313,0.005230170674622059,-0.014730297960340977,0.009836443699896336,-0.00016537535702809691,-0.007379406131803989
0.018323659896850586,0.004976559430360794,-0.015569518320262432,0.009944903664290905,-0.00015951077511999756,-0.007299509365111589
0.01822398416697979,0.004701404832303524,-0.015196285210549831,0.01049270760267973,-0.00015404928126372397,-0.0073813097551465034
0.018122980371117592,0.004464672412723303,-0.015440871939063072,0.010081869550049305,-0.0001489494025008753,-0.007342306897044182
0.018496980890631676,0.004667230881750584,-0.014848586171865463,0.010724267922341824,-0.00016552390297874808,-0.00863425713032484
0.018496980890631676,0.004667230881750584,-0.014848586171865463,0.010724267922341824,-0.00016552390297874808,-0.00863425713032484
0.018730781972408295,0.004697004333138466,-0.015531507320702076,0.010743384249508381,-0.00016715192759875208,-0.007511522620916367
0.018663417547941208,0.004992388188838959,-0.01505772303789854,0.010355617851018906,-0.00016256049275398254,-0.007468641269952059
0.018758755177259445,0.004962509032338858,-0.015327484346926212,0.010721711441874504,-0.0001578375813551247,-0.007648644968867302
0.018773609772324562,0.004605461843311787,-0.01530599594116211,0.010228317230939865,-0.0001533564063720405,-0.008043063804507256
0.01920803263783455,0.004507372155785561,-0.015297384932637215,0.010600876063108444,-0.00017069641035050154,-0.008366294205188751
0.018559282645583153,0.004933433141559362,-0.01558132003992796,0.010687329806387424,-0.00016908546967897564,-0.008693113923072815
0.018048319965600967,0.0048921373672783375,-0.015650268644094467,0.010844468139111996,-0.00016485467494931072,-0.009169921278953552
0.019371509552001953,0.004744471050798893,-0.015281238593161106,0.010689081624150276,-0.00015666845138184726,-0.007944884710013866
0.019160378724336624,0.004665807820856571,-0.015555226244032383,0.010316364467144012,-0.00015286658890545368,-0.008087864145636559
0.019018400460481644,0.004611241165548563,-0.014859708957374096,0.010627014562487602,-0.00016913986473809928,-0.00832351204007864
0.019517088308930397,0.004994004499167204,-0.015625638887286186,0.010656091384589672,-0.00016652571503072977,-0.008255546912550926
0.019643418490886688,0.00491976086050272,-0.015100033022463322,0.010512144304811954,-0.0001628437457839027,-0.008698287419974804
0.019809404388070107,0.004579890985041857,-0.01539565995335579,0.0109430942684412,-0.00015924734179861844,-0.009297322481870651
0.019868407398462296,0.005045363679528236,-0.01492855791002512,0.010380075313150883,-0.00015580173931084573,-0.00880580022931099
0.019351083785295486,0.004902267828583717,-0.015689043328166008,0.010725587606430054,-0.00017992853827308863,-0.008751308545470238
0.019666265696287155,0.004752253647893667,-0.015167119912803173,0.01111744623631239,-0.00018173670105170459,-0.008952579461038113
0.0194402989000082,0.004659573081880808,-0.0154471006244421,0.010684235021471977,-0.00017525146540720016,-0.009154947474598885
0.01934191770851612,0.004650144372135401,-0.015147733502089977,0.011096569709479809,-0.00016871867410372943,-0.009151424281299114
0.019766036421060562,0.004689059220254421,-0.015380198135972023,0.011363621801137924,-0.00018668328993953764,-0.009390814229846
0.020582113415002823,0.004766793455928564,-0.015475747175514698,0.011200299486517906,-0.00018778795492835343,-0.009326032362878323
0.020075123757123947,0.005205217748880386,-0.015252620913088322,0.011609634384512901,-0.00018195594020653516,-0.009461460635066032
0.019830971956253052,0.004885915666818619,-0.015425842255353928,0.01091284304857254,-0.00017605561879463494,-0.009121528826653957
0.020404398441314697,0.004729165229946375,-0.015521341934800148,0.01129123941063881,-0.0001951547310454771,-0.009287712164223194
0.020365837961435318,0.004573785234242678,-0.016080327332019806,0.011766046285629272,-0.00019258083193562925,-0.009025804698467255
0.02007691189646721,0.005037105176597834,-0.015233621001243591,0.011374295689165592,-0.00018708297284319997,-0.00936872884631157
0.020092718303203583,0.005429076496511698,-0.015581612475216389,0.011902084574103355,-0.00018170138355344534,-0.009327721782028675
0.020503882318735123,0.005118617322295904,-0.01479963306337595,0.011332422494888306,-0.0001952990860445425,-0.009717476554214954
0.020503882318735123,0.005118617322295904,-0.01479963306337595,0.011332422494888306,-0.0001952990860445425,-0.009717476554214954
0.02052375115454197,0.005200687795877457,-0.015544713474810123,0.01167692057788372,-0.00019590675947256386,-0.00967966578900814
0.020044557750225067,0.004976011347025633,-0.014831938780844212,0.011276205070316792,-0.00019126759434584528,-0.00939400214701891
0.020685549825429916,0.004871847573667765,-0.01564054563641548,0.010903778485953808,-0.0002846517018042505,-0.008876179344952106
0.020756442099809647,0.004876982886344194,-0.01519055850803852,0.011702917516231537,-0.00030094111571088433,-0.008910884149372578
0.020745621994137764,0.005102263297885656,-0.015711482614278793,0.011299981735646725,-0.00030881701968610287,-0.009470988065004349
0.020504865795373917,0.004827903583645821,-0.015719201415777206,0.011369379237294197,-0.0002936591918114573,-0.009238822385668755
0.020815646275877953,0.0048944163136184216,-0.015880733728408813,0.011784566566348076,-0.00031880647293291986,-0.009449217468500137
0.020657841116189957,0.004798303358256817,-0.016275689005851746,0.0117774223908782,-0.00030869385227560997,-0.009500393643975258
0.021362746134400368,0.0044143530540168285,-0.01626727171242237,0.011655631475150585,-0.00031117250910028815,-0.009240864776074886
0.021096885204315186,0.004141520243138075,-0.015560786239802837,0.01185239665210247,-0.0003072381659876555,-0.009473217651247978
0.020690802484750748,0.003750124480575323,-0.01605732925236225,0.01182275265455246,-0.0002952474751509726,-0.008925376459956169
0.021016331389546394,0.0034939514007419348,-0.015269845724105835,0.011745169758796692,-0.0003966641961596906,-0.008878244087100029
0.02137969806790352,0.0038217424880713224,-0.015769636258482933,0.01165392342954874,-0.0004359370213933289,-0.00937643088400364
0.020885752514004707,0.004076533950865269,-0.015245072543621063,0.011059219017624855,-0.0004204004944767803,-0.009576937183737755
0.020677298307418823,0.004432361572980881,-0.016050975769758224,0.011088918894529343,-0.00044743629405274987,-0.009713847190141678
0.02150113694369793,0.0041000754572451115,-0.016372740268707275,0.011314759962260723,-0.0004249931371305138,-0.009807243011891842
0.021678440272808075,0.003910641651600599,-0.016482995823025703,0.01081144530326128,-0.00045157718705013394,-0.009875545278191566
0.021363796666264534,0.003910311032086611,-0.01624591089785099,0.011255082674324512,-0.00042819854570552707,-0.010712760500609875
0.02078043855726719,0.004467260558158159,-0.015660671517252922,0.011028924025595188,-0.0005373984458856285,-0.010341566056013107
0.02133183740079403,0.004086907487362623,-0.01673370972275734,0.011057690717279911,-0.0005200969753786922,-0.009713946841657162
0.021793656051158905,0.003804693231359124,-0.016110321506857872,0.011633518151938915,-0.0005557647091336548,-0.010083630681037903
0.02232322283089161,0.003730340162292123,-0.01671331375837326,0.011146903038024902,-0.000571337528526783,-0.010025518015027046
0.02158760465681553,0.0038140155375003815,-0.016284190118312836,0.011957201175391674,-0.0005417297361418605,-0.009575451724231243
0.021980106830596924,0.004309972748160362,-0.016357287764549255,0.011727290228009224,-0.0005663579213432968,-0.010113057680428028
0.021593037992715836,0.004123718477785587,-0.016986722126603127,0.011728928424417973,-0.0005335008027032018,-0.009570324793457985
0.020799381658434868,0.003938114736229181,-0.01615249551832676,0.011767304502427578,-0.0005997347179800272,-0.00872010923922062
0.02252311073243618,0.004059723578393459,-0.01640896499156952,0.011500721797347069,-0.0006294269114732742,-0.008432969450950623
0.022471092641353607,0.003806346096098423,-0.01593177765607834,0.012008319608867168,-0.0005753611912950873,-0.008819936774671078
0.022471092641353607,0.003806346096098423,-0.01593177765607834,0.012008319608867168,-0.0005753611912950873,-0.008819936774671078
0.022110650315880775,0.0034707956947386265,-0.0169544517993927,0.012688438408076763,-0.0005624846671707928,-0.009264126420021057
0.022118860855698586,0.0035337444860488176,-0.01701614074409008,0.012241115793585777,-0.0005510897026397288,-0.008832365274429321
0.022051386535167694,0.0039711929857730865,-0.016746992245316505,0.012120368890464306,-0.000562380941119045,-0.00881888996809721
0.022058717906475067,0.004014972597360611,-0.01665516011416912,0.011791625991463661,-0.0005386487464420497,-0.00898777972906828
0.022615645080804825,0.003886415157467127,-0.01603490486741066,0.012649580836296082,-0.000558466708753258,-0.009061767719686031
0.02278890088200569,0.004227545112371445,-0.01652844436466694,0.012107450515031815,-0.0005750870914198458,-0.009058025665581226
0.021415065973997116,0.004444126971065998,-0.016178587451577187,0.01202739030122757,-0.0005403194227255881,-0.00972824264317751
0.021310031414031982,0.0043265325948596,-0.016918644309043884,0.0119359465315938,-0.0005525999586097896,-0.009212047792971134
0.02288186177611351,0.003996947780251503,-0.016446173191070557,0.012849700637161732,-0.0005503693828359246,-0.00936830509454012
0.022512586787343025,0.0040134890004992485,-0.016739362850785255,0.012790794484317303,-0.0005152490921318531,-0.009405666962265968
0.0221883375197649,0.004525074735283852,-0.01642296090722084,0.013324016705155373,-0.00056002865312621,-0.009431369602680206
0.02198837138712406,0.004616818856447935,-0.016936752945184708,0.012823961675167084,-0.0005844414699822664,-0.009339430369436741
0.022430723533034325,0.0048307571560144424,-0.016683058813214302,0.013158205896615982,-0.0006157574243843555,-0.009516341611742973
0.0227363184094429,0.004288744181394577,-0.01685766689479351,0.01295672357082367,-0.0005811018636450171,-0.009363483637571335
0.02253129705786705,0.003947015386074781,-0.016981877386569977,0.01320948451757431,-0.0006040857988409698,-0.009886294603347778
0.022362465038895607,0.004397970158606768,-0.01652524806559086,0.012832366861402988,-0.0005616419366560876,-0.009717075154185295
0.022602295503020287,0.0045064836740493774,-0.01731751300394535,0.01256597600877285,-0.0005212582182139158,-0.00945769902318716
0.02290448546409607,0.004312449134886265,-0.016240788623690605,0.012539014220237732,-0.0004860654007643461,-0.009111068211495876
0.02318434603512287,0.00448360713198781,-0.01680639386177063,0.012384728528559208,-0.000455311470432207,-0.00963317509740591
0.022973641753196716,0.004565860144793987,-0.017051761969923973,0.012460801750421524,-0.00045354902977123857,-0.0097739202901721
0.02301575429737568,0.004639733582735062,-0.0170101560652256,0.012146799825131893,-0.0004209821345284581,-0.009542187675833702
0.02310856431722641,0.004230514634400606,-0.016668446362018585,0.012885690666735172,-0.0003855234826914966,-0.00951816514134407
0.023317107930779457,0.0044263191521167755,-0.015849923714995384,0.012578085996210575,-0.0003895078843925148,-0.009318513795733452
0.023243878036737442,0.004093713592737913,-0.017130237072706223,0.012524215504527092,-0.00039255700539797544,-0.00963633507490158
0.02309931069612503,0.004176646936684847,-0.016715507954359055,0.012545731849968433,-0.00036785847623832524,-0.010166834108531475
0.02309931069612503,0.004176646936684847,-0.016715507954359055,0.012545731849968433,-0.00036785847623832524,-0.010166834108531475
0.023279603570699692,0.004768197424709797,-0.016998615115880966,0.013131215237081051,-0.00037407432682812214,-0.009959089569747448
0.023375341668725014,0.004228213801980019,-0.016407640650868416,0.012827982194721699,-0.000356192555045709,-0.010257423855364323
0.023816967383027077,0.004368745256215334,-0.017192354425787926,0.013177739456295967,-0.00033732844167388976,-0.009928991086781025
0.023816967383027077,0.004368745256215334,-0.017192354425787926,0.013177739456295967,-0.00033732844167388976,-0.009928991086781025
0.023305071517825127,0.004241489339619875,-0.01647369936108589,0.012559612281620502,-0.00032019169884733856,-0.010230273008346558
0.02342136949300766,0.004479294177144766,-0.016947168856859207,0.012568901292979717,-0.00034524337388575077,-0.010023747570812702
0.023756979033350945,0.005007288418710232,-0.017021361738443375,0.012697623111307621,-0.00033196609001606703,-0.009921364486217499
0.024194082245230675,0.0049515822902321815,-0.01683593913912773,0.01240208838135004,-0.0003310298779979348,-0.010052035562694073
0.024235248565673828,0.0042919074185192585,-0.016738934442400932,0.012399845756590366,-0.0003338802489452064,-0.010151905938982964
0.024013711139559746,0.004288151860237122,-0.017441805452108383,0.0128619484603405,-0.0003270357847213745,-0.01054345816373825
0.02396225742995739,0.004873085767030716,-0.016924148425459862,0.012535899877548218,-0.0003571489651221782,-0.01077461987733841
0.024076122790575027,0.0048858486115932465,-0.016778526827692986,0.012812734581530094,-0.000364762672688812,-0.01090367790311575
0.022375021129846573,0.004524441435933113,-0.01737484149634838,0.01264735497534275,-0.00036829154123552144,-0.010469648987054825
0.024660959839820862,0.004490701016038656,-0.017291538417339325,0.012759976089000702,-0.0005271386471576989,-0.010343452915549278
0.025038795545697212,0.004587945993989706,-0.017913613468408585,0.012933982536196709,-0.0005238718586042523,-0.010543777607381344
0.02506112866103649,0.004596770741045475,-0.017609674483537674,0.013102009892463684,-0.0005416800267994404,-0.010973242111504078
0.024846794083714485,0.004891626536846161,-0.017337197437882423,0.013804497197270393,-0.0005117726977914572,-0.010975774377584457
0.024735426530241966,0.0044066705740988255,-0.01756167970597744,0.013502811081707478,-0.0005360524519346654,-0.010931364260613918
0.02380635030567646,0.0043963599018752575,-0.017301777377724648,0.013643906451761723,-0.0005025157588534057,-0.010892177931964397
0.024321870878338814,0.005071847699582577,-0.01855025812983513,0.013058874756097794,-0.000527805183082819,-0.010601203888654709
0.02511461265385151,0.004568233620375395,-0.017964934930205345,0.013591660186648369,-0.0004955347394570708,-0.010777500458061695
0.02491416595876217,0.004538587294518948,-0.017398327589035034,0.013353086076676846,-0.0005206865025684237,-0.010908824391663074
0.02440785802900791,0.0044571575708687305,-0.018505116924643517,0.013749375939369202,-0.0004856464802287519,-0.011010016314685345
0.025190627202391624,0.004833556246012449,-0.017689473927021027,0.013280162587761879,-0.0005152128869667649,-0.01107831485569477
0.025744803249835968,0.00475839851424098,-0.01719554141163826,0.013681362383067608,-0.0005184340407140553,-0.010870473459362984
0.024806175380945206,0.004817314445972443,-0.017628835514187813,0.013398931361734867,-0.0005120469140820205,-0.01082685124129057
0.02528473176062107,0.004542033188045025,-0.01773756369948387,0.013263527303934097,-0.0005343714146874845,-0.01106781791895628
0.02528473176062107,0.004542033188045025,-0.01773756369948387,0.013263527303934097,-0.0005343714146874845,-0.01106781791895628
0.024803083389997482,0.004514926578849554,-0.017471835017204285,0.01361367478966713,-0.0006028481293469667,-0.010594436898827553
0.024803083389997482,0.004514926578849554,-0.017471835017204285,0.01361367478966713,-0.0006028481293469667,-0.010594436898827553
0.025391096249222755,0.0046834638342261314,-0.01774044893682003,0.0138334846124053,-0.000634096038993448,-0.010415280237793922
0.025259483605623245,0.004798314534127712,-0.018064776435494423,0.013294794596731663,-0.0006498754373751581,-0.010673013515770435
0.02535022608935833,0.004702015779912472,-0.017374062910676003,0.013564144261181355,-0.0006515654968097806,-0.010901292786002159
0.025288855656981468,0.0045852698385715485,-0.01769639551639557,0.013582834042608738,-0.0007397185545414686,-0.01114058867096901
0.025598682463169098,0.004534032661467791,-0.01741650141775608,0.01308036595582962,-0.0007706600008532405,-0.010967394337058067
0.025711052119731903,0.004667798522859812,-0.018022162839770317,0.013662274926900864,-0.0007727394695393741,-0.010822147130966187
0.025548961013555527,0.00503507349640131,-0.01757149212062359,0.013384911231696606,-0.0007608239538967609,-0.010912852361798286
0.025747183710336685,0.004872688092291355,-0.01777264103293419,0.014068307355046272,-0.0007292396621778607,-0.010687293484807014
0.025548173114657402,0.004837385378777981,-0.017862409353256226,0.013819782994687557,-0.0007616527727805078,-0.010846219025552273
0.025245357304811478,0.005035744048655033,-0.017573535442352295,0.014298426918685436,-0.000683142279740423,-0.01117557194083929
0.025621822103857994,0.004916499834507704,-0.018006786704063416,0.01380095724016428,-0.000697003270033747,-0.010977966710925102
0.02495936118066311,0.004730609245598316,-0.017565706744790077,0.013760846108198166,-0.0006295332568697631,-0.011153198778629303
0.0253919567912817,0.005306804087013006,-0.017740724608302116,0.013696541078388691,-0.0006517615402117372,-0.011224623769521713
0.025412971153855324,0.005234427750110626,-0.018075648695230484,0.014157476834952831,-0.0006581406341865659,-0.011086263693869114
0.025489499792456627,0.004746368154883385,-0.017262052744627,0.014223181642591953,-0.0006209368584677577,-0.010966279543936253
0.026615813374519348,0.004871752113103867,-0.01767275109887123,0.014956412836909294,-0.0005987582262605429,-0.01088507566601038
0.026535579934716225,0.004893806762993336,-0.017624398693442345,0.014396360144019127,-0.0005905722500756383,-0.011109833605587482
0.02623661980032921,0.0047763348557055,-0.017964068800210953,0.014711023308336735,-0.0005745792877860367,-0.011423005722463131
0.02570425160229206,0.00467818696051836,-0.018514128401875496,0.014200139790773392,-0.0006028023781254888,-0.011901850812137127
0.02593805268406868,0.005072970408946276,-0.017600582912564278,0.014304961077868938,-0.0006234980537556112,-0.011467834934592247
0.026031244546175003,0.005025288090109825,-0.01771479845046997,0.013705501332879066,-0.0005826628184877336,-0.011376145295798779
0.02684461511671543,0.004853401333093643,-0.018129313364624977,0.013997158966958523,-0.0006525043863803148,-0.011777606792747974
0.026519035920500755,0.004591880366206169,-0.01748107373714447,0.014074724167585373,-0.0006051426753401756,-0.011815954931080341
0.026915637776255608,0.005011932458728552,-0.0180506594479084,0.014436543919146061,-0.0005356332403607666,-0.011914575472474098
0.025647420436143875,0.004930251743644476,-0.01771712303161621,0.014903736300766468,-0.0005247344961389899,-0.011608808301389217
0.026387132704257965,0.005010351072996855,-0.017726201564073563,0.015150409191846848,-0.0005159151623956859,-0.011568279936909676
0.02724987454712391,0.005268290638923645,-0.01830214634537697,0.014509292319417,-0.00047336495481431484,-0.011604651808738708
0.02690284326672554,0.004832773935049772,-0.017862726002931595,0.014685109257698059,-0.0004885818343609571,-0.011587528511881828
0.02680056355893612,0.004881090950220823,-0.017955930903553963,0.014199336990714073,-0.0004687322652898729,-0.011487899348139763
0.02680056355893612,0.004881090950220823,-0.017955930903553963,0.014199336990714073,-0.0004687322652898729,-0.011487899348139763
0.027500879019498825,0.004857487045228481,-0.017994215711951256,0.014963775873184204,-0.00043726040166802704,-0.011936135590076447
0.028073837980628014,0.004911201540380716,-0.017558718100190163,0.01493285782635212,-0.0004632731433957815,-0.011932996101677418
0.027622604742646217,0.004846129100769758,-0.018224330618977547,0.014975515194237232,-0.0004344153858255595,-0.012113019824028015
0.027051623910665512,0.0051025147549808025,-0.01824815198779106,0.014382648281753063,-0.0003973937127739191,-0.012328722514212132
0.02714681625366211,0.0049880449660122395,-0.017984146252274513,0.014753689058125019,-0.00042819385998882353,-0.012417618185281754
0.028128640726208687,0.0049901423044502735,-0.0177596602588892,0.014704559929668903,-0.0004934625467285514,-0.01194666139781475
0.028074024245142937,0.005102936178445816,-0.018092980608344078,0.0143587002530694,-0.0009178384207189083,-0.012288552708923817
0.02824200503528118,0.004906111862510443,-0.01834305003285408,0.014815885573625565,-0.0009818357648327947,-0.01212176214903593
0.02802870236337185,0.005353155080229044,-0.017789509147405624,0.014549130573868752,-0.0009749419405125082,-0.012304008938372135
0.028262723237276077,0.005059619899839163,-0.018179327249526978,0.015347846783697605,-0.0011437034700065851,-0.012791893444955349
0.028077850118279457,0.004433225374668837,-0.01821903884410858,0.01500325184315443,-0.0011267144000157714,-0.012545136734843254
0.026649419218301773,0.0036033550277352333,-0.018621498718857765,0.015171430073678493,-0.0009438292472623289,-0.012672384269535542
0.029099594801664352,0.0034078864846378565,-0.019408471882343292,0.014712770469486713,-0.00091821193927899,-0.01207365095615387
0.028903305530548096,0.0036642008926719427,-0.018524516373872757,0.014987645670771599,-0.0008146690670400858,-0.012145391665399075
0.028886673972010612,0.004282976035028696,-0.017898108810186386,0.014893068931996822,-0.0007221068954095244,-0.01225551962852478
0.02882830984890461,0.0041486648842692375,-0.018207727000117302,0.015287810005247593,-0.0007335974369198084,-0.012462169863283634
0.028780920431017876,0.004127969034016132,-0.01801890879869461,0.014733538962900639,-0.0006006022449582815,-0.012954034842550755
0.029201781377196312,0.0039024141151458025,-0.01862824708223343,0.014771235175430775,-0.0006208133418112993,-0.013126550242304802
0.029203590005636215,0.003650445258244872,-0.018927622586488724,0.014484675601124763,-0.0006489230436272919,-0.013106424361467361
0.029558509588241577,0.0035078583750873804,-0.018610132858157158,0.015140972100198269,-0.000655877054668963,-0.013372102752327919
0.029002906754612923,0.0036034132353961468,-0.018441827967762947,0.015439094975590706,-0.0006193816661834717,-0.012345566414296627
0.02954086847603321,0.003980172798037529,-0.018757447600364685,0.015427698381245136,-0.0007871101843193173,-0.01226562075316906
0.030119560658931732,0.003961191512644291,-0.01832573674619198,0.01523753721266985,-0.0008772796136327088,-0.012898869812488556
0.030019961297512054,0.0037984822411090136,-0.019026661291718483,0.015217158012092113,-0.0008852712926454842,-0.013196739368140697
0.02996557392179966,0.003803978441283107,-0.01911229081451893,0.01537487842142582,-0.0008432166068814695,-0.013151812367141247
0.030227959156036377,0.003828619373962283,-0.018611088395118713,0.01490031834691763,-0.0010172646725550294,-0.013359331525862217
0.030360573902726173,0.0036903114523738623,-0.019000839442014694,0.015006794594228268,-0.0010080102365463972,-0.013079054653644562
0.030458545312285423,0.0036331433802843094,-0.01873796246945858,0.014729423448443413,-0.0009293776238337159,-0.01304019894450903
0.030458545312285423,0.0036331433802843094,-0.01873796246945858,0.014729423448443413,-0.0009293776238337159,-0.01304019894450903
0.031055431813001633,0.004191234707832336,-0.019416192546486855,0.015045019797980785,-0.0008982120198197663,-0.012966198846697807
0.03104292042553425,0.0040858895517885685,-0.01851685717701912,0.014741824008524418,-0.0008215940906666219,-0.013446647673845291
0.03069806843996048,0.003955149557441473,-0.018969779834151268,0.015277238562703133,-0.0007508638082072139,-0.013174870982766151
0.03056304343044758,0.004003315698355436,-0.01893853396177292,0.014983783476054668,-0.0006552636623382568,-0.013333531096577644
0.032043036073446274,0.004327440168708563,-0.018629442900419235,0.015040058642625809,-0.0006088947993703187,-0.013308846391737461
0.03167697787284851,0.004235296510159969,-0.01885107532143593,0.01544228196144104,-0.0006321395630948246,-0.013366064056754112
0.029407387599349022,0.004053997341543436,-0.019262082874774933,0.015313632786273956,-0.0006585068185813725,-0.013678254559636116
0.03141169622540474,0.004013868048787117,-0.01840292289853096,0.015604447573423386,-0.0007789044757373631,-0.013499576598405838
0.03232301399111748,0.0039609926752746105,-0.01858152449131012,0.01551121287047863,-0.0007419800385832787,-0.013507196679711342
0.031457748264074326,0.004346536938101053,-0.01909903809428215,0.015867186710238457,-0.0007359206792898476,-0.013800090178847313
0.03216347470879555,0.004497826565057039,-0.01888730563223362,0.015475277788937092,-0.0006809055921621621,-0.013758350163698196
0.032687876373529434,0.004378647543489933,-0.019127434119582176,0.015403530560433865,-0.0006582543719559908,-0.013459734618663788
0.03243270888924599,0.004304808564484119,-0.019536416977643967,0.015558061189949512,-0.000638234952930361,-0.013607240281999111
0.031092410907149315,0.003997095860540867,-0.01903914473950863,0.01577848196029663,-0.0005885364371351898,-0.01410976517945528
0.03176850453019142,0.00422988785430789,-0.019149204716086388,0.015960853546857834,-0.0005642290925607085,-0.014048215001821518
0.032441187649965286,0.0042246803641319275,-0.019337063655257225,0.015038485638797283,-0.0005105187883600593,-0.013889690861105919
0.0321086049079895,0.004503168631345034,-0.018735282123088837,0.015526131726801395,-0.0004590420867316425,-0.01355839055031538
0.03248409181833267,0.00435005035251379,-0.018925579264760017,0.015296111814677715,-0.0004938510246574879,-0.013662050478160381
0.03283163532614708,0.004446056205779314,-0.01913878135383129,0.015895938500761986,-0.0004570643068291247,-0.01374929491430521
0.032637301832437515,0.004412347916513681,-0.01896132342517376,0.01623956486582756,-0.00048230818356387317,-0.014265992678701878
0.03266601637005806,0.004405695479363203,-0.019481927156448364,0.01615988090634346,-0.00045568664791062474,-0.014129593968391418
0.032603442668914795,0.004244757350534201,-0.019675204530358315,0.015995433554053307,-0.000481963565107435,-0.01428157277405262
0.031992364674806595,0.004510433878749609,-0.01920395903289318,0.01610320620238781,-0.0004557092615868896,-0.014251024462282658
0.03194145858287811,0.004288159776479006,-0.019283389672636986,0.015806950628757477,-0.0004797034780494869,-0.014340043999254704
0.03234351426362991,0.00440530339255929,-0.019384518265724182,0.015069850720465183,-0.000479981885291636,-0.013952448964118958
0.03248947113752365,0.004629894625395536,-0.01916944608092308,0.016017695888876915,-0.0004760783922392875,-0.014232493937015533
0.03287402167916298,0.004170326516032219,-0.019598238170146942,0.016064267605543137,-0.0004935942706651986,-0.014174005948007107
0.03288712725043297,0.004355680197477341,-0.0195603184401989,0.016727793961763382,-0.0005231259856373072,-0.014480055309832096
0.03288712725043297,0.004355680197477341,-0.0195603184401989,0.016727793961763382,-0.0005231259856373072,-0.014480055309832096
0.032837875187397,0.0044632041826844215,-0.019582053646445274,0.016329506412148476,-0.0005074755172245204,-0.014351436868309975
0.03235374018549919,0.004362238105386496,-0.01973719149827957,0.01603851281106472,-0.0006479917210526764,-0.014321265742182732
0.03363727778196335,0.0044262302108109,-0.01948023959994316,0.016338447108864784,-0.0006859471905045211,-0.013916042633354664
0.03372269496321678,0.004617155063897371,-0.019026273861527443,0.01631808839738369,-0.0006155787268653512,-0.014084815979003906
0.032164160162210464,0.00464655552059412,-0.02026042528450489,0.016727246344089508,-0.000625040614977479,-0.013970941305160522
0.03351101651787758,0.004331969190388918,-0.019351180642843246,0.016893843188881874,-0.0006090046372264624,-0.014097558334469795
0.03349922224879265,0.004412465263158083,-0.019731398671865463,0.015597264282405376,-0.000629461370408535,-0.014389253221452236
0.033058229833841324,0.004491216037422419,-0.019722046330571175,0.016030937433242798,-0.0006674224277958274,-0.014320691116154194
0.0338631235063076,0.0050114914774894714,-0.019779223948717117,0.01611202582716942,-0.0006935707060620189,-0.014470204710960388
0.033966563642024994,0.0049331048503518105,-0.019888464361429214,0.016075391322374344,-0.0007142467657104135,-0.01446512620896101
0.03328430652618408,0.00478699617087841,-0.020296920090913773,0.016918176785111427,-0.000912121613509953,-0.014497536234557629
0.03324788063764572,0.0047276620753109455,-0.020391808822751045,0.01703370362520218,-0.0009299481171183288,-0.014183597639203072
0.03382806107401848,0.004344971850514412,-0.019676728174090385,0.01731295697391033,-0.000811008969321847,-0.014672120101749897
0.03383735939860344,0.004495605826377869,-0.020404675975441933,0.017136070877313614,-0.0008149053319357336,-0.01461345236748457
0.034049142152071,0.004457560367882252,-0.02120036445558071,0.01716962829232216,-0.0008171303779818118,-0.014647076837718487
0.03443550691008568,0.00473483931273222,-0.020931173115968704,0.016811208799481392,-0.0007872733403928578,-0.014400916174054146
0.03417419269680977,0.004679068922996521,-0.019779333844780922,0.016327060759067535,-0.0007887689280323684,-0.014901619404554367
0.034312620759010315,0.004828223958611488,-0.020881837233901024,0.01676630973815918,-0.0008026151917874813,-0.014889668673276901
0.03459661453962326,0.00434081582352519,-0.020589668303728104,0.016591154038906097,-0.0008140522986650467,-0.015109274536371231
0.03458067774772644,0.004175158217549324,-0.020047252997756004,0.016423562541604042,-0.000886829337105155,-0.01479058712720871
0.034556612372398376,0.004031779244542122,-0.0208875872194767,0.015927961096167564,-0.0009959654416888952,-0.014971931464970112
0.03477960452437401,0.004506730008870363,-0.021473662927746773,0.015805697068572044,-0.000987669569440186,-0.016477292403578758
0.034897737205028534,0.004750317428261042,-0.021128183230757713,0.01608566753566265,-0.000975955743342638,-0.01520540937781334
0.033859483897686005,0.00473665539175272,-0.020500198006629944,0.015887074172496796,-0.0008763977675698698,-0.014910286292433739
0.03512242063879967,0.004367257002741098,-0.020464330911636353,0.016404371708631516,-0.0008662669570185244,-0.015563799999654293
0.035221509635448456,0.004009705502539873,-0.020149271935224533,0.016006717458367348,-0.0008044480346143246,-0.01558087021112442
0.035221509635448456,0.004009705502539873,-0.020149271935224533,0.016006717458367348,-0.0008044480346143246,-0.01558087021112442
0.0347818061709404,0.0038972212933003902,-0.019926218315958977,0.016783852130174637,-0.0007533567259088159,-0.015676312148571014
0.034990470856428146,0.004120583180338144,-0.0202777199447155,0.016767963767051697,-0.0007174894562922418,-0.015324772335588932
0.03547830507159233,0.004057956859469414,-0.020754635334014893,0.01686425693333149,-0.0006866587791591883,-0.014951333403587341
0.034945033490657806,0.004382771905511618,-0.020572148263454437,0.016635451465845108,-0.0007043470395728946,-0.015204019844532013
0.03522306680679321,0.003842351958155632,-0.02108687534928322,0.017306413501501083,-0.0005764926318079233,-0.015971384942531586
0.0354599803686142,0.0037716999650001526,-0.021293841302394867,0.017088450491428375,-0.0005115742678754032,-0.01618797518312931
0.03552268445491791,0.004358396865427494,-0.020382054150104523,0.017168555408716202,-0.0005264350911602378,-0.015920888632535934
0.035632699728012085,0.004201542120426893,-0.02042238600552082,0.0173894464969635,-0.0004984489060007036,-0.015653517097234726
0.03552461415529251,0.003904139157384634,-0.021299557760357857,0.017350371927022934,-0.0005283642676658928,-0.016208762302994728
0.035362474620342255,0.004266677889972925,-0.020943818613886833,0.01736612431704998,-0.0004918000777252018,-0.016484905034303665
0.03580684959888458,0.004214166197925806,-0.02050069533288479,0.016816560178995132,-0.0005170671502128243,-0.016284793615341187
0.03692241758108139,0.0039728423580527306,-0.02113736979663372,0.01729288138449192,-0.00048611630336381495,-0.016311561688780785
0.035664793103933334,0.004066579509526491,-0.021390723064541817,0.017443735152482986,-0.00045839985250495374,-0.015540080145001411
0.034402474761009216,0.003966819494962692,-0.020059268921613693,0.017177769914269447,-0.0004561705864034593,-0.015555056743323803
0.03570277616381645,0.003795747645199299,-0.020438695326447487,0.01706567220389843,-0.00047784048365429044,-0.015546555630862713
0.035489168018102646,0.0037072657141834497,-0.020694492384791374,0.016539540141820908,-0.0004564586270134896,-0.015548521652817726
0.03705425187945366,0.0042538451962172985,-0.02068372443318367,0.016834761947393417,-0.0004873736761510372,-0.015851259231567383
0.03633657842874527,0.004164011683315039,-0.02039676532149315,0.017062529921531677,-0.0005043395794928074,-0.016753586009144783
0.03538721799850464,0.003927698824554682,-0.02084522880613804,0.01735624298453331,-0.00048712242278270423,-0.016935283318161964
0.034909408539533615,0.003786359680816531,-0.021094664931297302,0.01729063130915165,-0.0006322555127553642,-0.016618965193629265
0.03654149919748306,0.004144744016230106,-0.020359501242637634,0.01720258966088295,-0.0006640047649852931,-0.01665799506008625
0.036908429116010666,0.004230611491948366,-0.02023288607597351,0.017984043806791306,-0.0006037519779056311,-0.016267972066998482
0.03622480109333992,0.004034317564219236,-0.020419485867023468,0.01812879368662834,-0.000627844943664968,-0.016491984948515892
0.03714152052998543,0.004308249335736036,-0.020573657006025314,0.01768767274916172,-0.0006468517822213471,-0.016225874423980713
0.036673445254564285,0.004205153323709965,-0.020522022619843483,0.01824931614100933,-0.0007184631540440023,-0.016150282695889473
0.036468327045440674,0.004009305499494076,-0.020980386063456535,0.018047843128442764,-0.0007687166798859835,-0.016133416444063187
0.037210337817668915,0.003840591059997678,-0.021028107032179832,0.01819196715950966,-0.0007949244463816285,-0.016113685443997383
0.037210337817668915,0.003840591059997678,-0.021028107032179832,0.01819196715950966,-0.0007949244463816285,-0.016113685443997383
0.03694895654916763,0.0034732113126665354,-0.02020631916821003,0.018230145797133446,-0.0008005102281458676,-0.016252506524324417
0.037382934242486954,0.00353231281042099,-0.020498773083090782,0.01871965453028679,-0.0009267893619835377,-0.01617523282766342
0.03749074414372444,0.00416345102712512,-0.021240686997771263,0.019437411800026894,-0.0009698801441118121,-0.016314733773469925
0.037095412611961365,0.004111530724912882,-0.021579422056674957,0.019228274002671242,-0.0009086655918508768,-0.01608906127512455
0.03717108443379402,0.0038834603037685156,-0.020441459491848946,0.01809127815067768,-0.0008462788537144661,-0.0164492204785347
0.039053983986377716,0.003564083017408848,-0.02115851640701294,0.017912546172738075,-0.0008204957121051848,-0.016663139685988426
0.037520237267017365,0.004133149050176144,-0.020558470860123634,0.01763502135872841,-0.0008375507313758135,-0.01650557853281498
0.03679538890719414,0.004165331833064556,-0.020559459924697876,0.01798716001212597,-0.0008464243146590889,-0.016278574243187904
0.03826297074556351,0.0035438043996691704,-0.021462934091687202,0.018164530396461487,-0.0008529036422260106,-0.018009614199399948
0.03828229382634163,0.003551884787157178,-0.021439332515001297,0.018138239160180092,-0.0009474410326220095,-0.016210854053497314
0.038885895162820816,0.003755918238312006,-0.020262250676751137,0.018182924017310143,-0.00097797648049891,-0.016316300258040428
0.039280906319618225,0.003845185274258256,-0.02087336778640747,0.017774313688278198,-0.0009144953219220042,-0.0164854284375906
0.037669867277145386,0.004302694462239742,-0.02167625166475773,0.018603874370455742,-0.0009091967367567122,-0.016943451017141342
0.037612851709127426,0.004169571679085493,-0.02149032987654209,0.0184185691177845,-0.0008566423202864826,-0.016716627404093742
0.038976579904556274,0.0039689806289970875,-0.02076282911002636,0.017877934500575066,-0.0008955906378105283,-0.016942106187343597
0.03927987813949585,0.0034468250814825296,-0.02068798802793026,0.0180081594735384,-0.0008985336171463132,-0.01711132563650608
0.03871522098779678,0.0035881425719708204,-0.021044081076979637,0.017083799466490746,-0.0009291393798775971,-0.016693025827407837
0.03869098424911499,0.0038410089910030365,-0.020929057151079178,0.017368134111166,-0.0009981821058318019,-0.01689373329281807
0.03942015767097473,0.003948825411498547,-0.020642129704356194,0.018046468496322632,-0.0009405413293279707,-0.017186814919114113
0.03929766267538071,0.004184283781796694,-0.021435346454381943,0.017992567270994186,-0.0009305797284469008,-0.017178243026137352
0.03921834006905556,0.004240468610078096,-0.021342329680919647,0.019686775282025337,-0.0009164451039396226,-0.017387980595231056
0.03921905905008316,0.004068589303642511,-0.020571013912558556,0.01839962787926197,-0.0008984833839349449,-0.017499364912509918
0.03936592489480972,0.003905300982296467,-0.02081083133816719,0.01796768233180046,-0.0008225091150961816,-0.017613673582673073
0.04000962898135185,0.0038772679399698973,-0.021408118307590485,0.018477361649274826,-0.0007436203304678202,-0.017088210210204124
0.039831213653087616,0.003871835768222809,-0.021374043077230453,0.01831328310072422,-0.0007031203131191432,-0.016773544251918793
0.03982704132795334,0.004071354866027832,-0.02090311236679554,0.018570400774478912,-0.0006699382211081684,-0.017242996022105217
0.03974919393658638,0.00405031256377697,-0.021002255380153656,0.018801245838403702,-0.0006719211232848465,-0.017127351835370064
0.039607323706150055,0.003926078788936138,-0.021206963807344437,0.018454227596521378,-0.0006707697175443172,-0.017675746232271194
0.04081319645047188,0.004257909022271633,-0.021027805283665657,0.01893654838204384,-0.0006529956590384245,-0.017580388113856316
0.04036879912018776,0.004005900118499994,-0.020624419674277306,0.01873364858329296,-0.0006653641466982663,-0.017253000289201736
0.039891406893730164,0.004227469675242901,-0.021302279084920883,0.018091822043061256,-0.0006942541222088039,-0.017643865197896957
0.040324725210666656,0.004275549668818712,-0.0214742012321949,0.018670128658413887,-0.0007178266532719135,-0.017625965178012848
0.04070237651467323,0.0038864316884428263,-0.0210014209151268,0.01896458864212036,-0.0009764007991179824,-0.017769673839211464
0.04070237651467323,0.0038864316884428263,-0.0210014209151268,0.01896458864212036,-0.0009764007991179824,-0.017769673839211464
0.04063955694437027,0.003795171156525612,-0.021272070705890656,0.019146256148815155,-0.0010328732896596193,-0.01754719577729702
0.040344152599573135,0.004310576245188713,-0.021205786615610123,0.018804438412189484,-0.0009851126233115792,-0.017208972945809364
0.03985273838043213,0.004191791173070669,-0.020775962620973587,0.01859561912715435,-0.0009263294050469995,-0.017182596027851105
0.040766432881355286,0.003924491815268993,-0.020996859297156334,0.018902022391557693,-0.001076794695109129,-0.017463363707065582
0.04204052314162254,0.0037929650861769915,-0.02111627347767353,0.01887841708958149,-0.0010771936504170299,-0.01757565513253212
0.03985739126801491,0.0038224670570343733,-0.021152859553694725,0.018678806722164154,-0.0010527442209422588,-0.01809064857661724
0.039692915976047516,0.003920781891793013,-0.020922552794218063,0.01911202259361744,-0.0011114367516711354,-0.018559660762548447
0.040627237409353256,0.00402115099132061,-0.02127750590443611,0.019147543236613274,-0.0011758405016735196,-0.018219662830233574
0.040996816009283066,0.004029025323688984,-0.021668098866939545,0.01916300505399704,-0.0011362287914380431,-0.01901044324040413
0.04294521361589432,0.004088205751031637,-0.021576182916760445,0.01967848464846611,-0.0011191705707460642,-0.018228910863399506
0.041524529457092285,0.004098399542272091,-0.02081032283604145,0.019145483151078224,-0.001111073070205748,-0.017705505713820457
0.03981737419962883,0.004038137849420309,-0.021697353571653366,0.01863192766904831,-0.0010971714509651065,-0.018146004527807236
0.041567690670490265,0.004070733208209276,-0.021821781992912292,0.019185278564691544,-0.0012314517516642809,-0.018137652426958084
0.041747722774744034,0.004063792061060667,-0.02166423760354519,0.019048508256673813,-0.001286957529373467,-0.01829373650252819
0.04178883880376816,0.004026978276669979,-0.02216787450015545,0.018728142604231834,-0.0013151299208402634,-0.018555421382188797
0.041558604687452316,0.003930689301341772,-0.022438781335949898,0.0192429069429636,-0.001295491703785956,-0.01832687109708786
0.041692204773426056,0.004032423719763756,-0.023093504831194878,0.019415821880102158,-0.0012666952097788453,-0.018451742827892303
0.042123354971408844,0.004217539913952351,-0.02288997359573841,0.019122624769806862,-0.0011982014402747154,-0.018923327326774597
0.041804928332567215,0.0043978141620755196,-0.022432012483477592,0.01941828988492489,-0.0011489420430734754,-0.018642619252204895
0.041779257357120514,0.00447972072288394,-0.021692750975489616,0.019470542669296265,-0.001020758063532412,-0.018755821511149406
0.041288912296295166,0.004283218644559383,-0.022383539006114006,0.019539354369044304,-0.0008932959171943367,-0.01898632012307644
0.041706718504428864,0.004479145165532827,-0.023345893248915672,0.01999102532863617,-0.0007462752400897443,-0.01894225925207138
