davideferrari95/blind_handover_controller/data/Test 65 - [2024-02-07 -- 15-46-31]/joint_states_data.csv
shoulder_pan_joint,shoulder_lift_joint,elbow_joint,wrist_1_joint,wrist_2_joint,wrist_3_joint
0.005766310263425112,0.005513367243111134,-0.009879239834845066,0.00656958157196641,0.0,0.006019905675202608
0.006125499028712511,0.005366944242268801,-0.010112752206623554,0.007125264964997768,0.0,0.006106793414801359
0.006125499028712511,0.005366944242268801,-0.010112752206623554,0.007125264964997768,0.0,0.006106793414801359
0.006408390589058399,0.005908637307584286,-0.009665335528552532,0.006982642691582441,0.0,0.006281975656747818
0.006128041539341211,0.005854202900081873,-0.009633895941078663,0.0062952786684036255,0.0,0.006333977449685335
0.006529003847390413,0.005565505940467119,-0.01060347817838192,0.006486223079264164,0.0,0.006371611263602972
0.005971389357000589,0.0051021333783864975,-0.00973082147538662,0.006377221550792456,0.0,0.006201084703207016
0.006093560252338648,0.004821488633751869,-0.00919544417411089,0.006731204688549042,0.0,0.006213686428964138
0.006023578345775604,0.005240907892584801,-0.010024606250226498,0.007079574279487133,0.0,0.0060228933580219746
0.005974453873932362,0.00521716196089983,-0.009770751930773258,0.006201028358191252,0.0,0.006300684995949268
0.005963493138551712,0.0048880502581596375,-0.009661068208515644,0.00597003661096096,0.0,0.006369261536747217
0.00561253959313035,0.004626372363418341,-0.010561325587332249,0.006268803961575031,0.0,0.006142810918390751
0.005980944726616144,0.004701495636254549,-0.009097548201680183,0.0057043591514229774,0.0,0.006420389283448458
0.005980944726616144,0.004701495636254549,-0.009097548201680183,0.0057043591514229774,0.0,0.006420389283448458
0.0055897971615195274,0.004808380268514156,-0.00981169007718563,0.0053154476918280125,0.0,0.0061780172400176525
0.005561001133173704,0.004476110450923443,-0.010026684030890465,0.004867302719503641,0.0,0.006893387995660305
0.006040969863533974,0.004426863044500351,-0.009561371058225632,0.004749452229589224,0.0,0.006562273018062115
0.005524710286408663,0.004553775768727064,-0.009462249465286732,0.005343216937035322,0.0,0.006601782515645027
0.005989452358335257,0.004691665526479483,-0.010242977179586887,0.005693779326975346,0.0,0.006826069205999374
0.005963469855487347,0.0042322673834860325,-0.009609128348529339,0.005243388935923576,0.0,0.006275150924921036
0.0059020258486270905,0.004410587716847658,-0.009052649140357971,0.005257521755993366,0.0,0.0059562320820987225
0.005768968723714352,0.004456665832549334,-0.00958440825343132,0.005589155945926905,0.0,0.005616700276732445
0.005851160269230604,0.004198132548481226,-0.009700100868940353,0.006166528444737196,0.0,0.005883215460926294
0.0067007653415203094,0.004383021499961615,-0.009272269904613495,0.006214275024831295,0.0,0.006493158172816038
0.005980065558105707,0.004724957048892975,-0.008936955593526363,0.005646560341119766,0.0,0.006303367204964161
0.005635981447994709,0.0045493789948523045,-0.009031657129526138,0.0057221390306949615,0.0,0.006946601904928684
0.0057679652236402035,0.004729032516479492,-0.009495594538748264,0.006225292105227709,0.0,0.005991417448967695
0.0062697334215044975,0.004800134804099798,-0.00908222422003746,0.006515861954540014,0.0,0.005770630203187466
0.005919105373322964,0.004477588459849358,-0.008107710629701614,0.006223305594176054,0.0,0.006253086496144533
0.006207161583006382,0.004587969277054071,-0.008691753260791302,0.0061142281629145145,0.0,0.006613810081034899
0.0056871348060667515,0.0046993144787848,-0.009067114442586899,0.006379930768162012,0.0,0.006394445430487394
0.005891683045774698,0.004637281410396099,-0.00847449991852045,0.006338984705507755,0.0,0.006620339117944241
0.005660788621753454,0.00464712455868721,-0.008068106137216091,0.006258081644773483,0.0,0.00618591345846653
0.005965185817331076,0.0047841318883001804,-0.009145447984337807,0.00570569047704339,0.0,0.006093837320804596
0.005709102377295494,0.004573875572532415,-0.008487087674438953,0.005745360162109137,0.0,0.006479464005678892
0.005749471019953489,0.0048812804743647575,-0.008604463189840317,0.005531066097319126,0.0,0.007034079637378454
0.006078037433326244,0.005003933794796467,-0.008983384817838669,0.005932872649282217,0.0,0.006928976159542799
0.005807377863675356,0.004824452567845583,-0.00916500948369503,0.00620081415399909,0.0,0.006238060537725687
0.005820559803396463,0.004232677631080151,-0.00898715853691101,0.005726156756281853,0.0,0.00623225886374712
0.005615646485239267,0.004293881822377443,-0.008436625823378563,0.005800099112093449,0.0,0.00625167042016983
0.005485684610903263,0.004581409972161055,-0.00926962960511446,0.005603331606835127,0.0,0.0063262274488806725
0.0053820484317839146,0.004694433882832527,-0.008696948178112507,0.005547341890633106,0.0,0.006114189978688955
0.005612323991954327,0.004710386507213116,-0.008343031629920006,0.005258812569081783,0.0,0.006091122981160879
0.005612323991954327,0.004710386507213116,-0.008343031629920006,0.005258812569081783,0.0,0.006091122981160879
0.005860754754394293,0.004728765692561865,-0.00898194219917059,0.005332562141120434,0.0,0.005942395888268948
0.006248960271477699,0.0050539844669401646,-0.008989417925477028,0.005463647190481424,0.0,0.006232808344066143
0.005724247545003891,0.00488698948174715,-0.009050749242305756,0.005221843253821135,0.0,0.006641690153628588
0.005638781003654003,0.004528096877038479,-0.009060523472726345,0.005676433444023132,0.0,0.0064063784666359425
0.005292609333992004,0.0050240508280694485,-0.009222541935741901,0.005625191144645214,0.0,0.006352546159178019
0.00594001729041338,0.005050941836088896,-0.008508647792041302,0.005844803061336279,0.0,0.006322357803583145
0.006108615547418594,0.004992344416677952,-0.008453594520688057,0.00535621726885438,0.0,0.006211151368916035
0.005923896562308073,0.005007623229175806,-0.00972023420035839,0.005339618772268295,0.0,0.00629302067682147
0.005961649585515261,0.005086157470941544,-0.008450395427644253,0.004903343040496111,0.0,0.0059614419005811214
0.006036705337464809,0.005019465461373329,-0.009254147298634052,0.005378900095820427,0.0,0.006036926060914993
0.006509325932711363,0.005394286941736937,-0.0090080751106143,0.005261668004095554,0.0,0.006343679968267679
0.005877187941223383,0.0051316022872924805,-0.008471260778605938,0.005837425123900175,0.0,0.006325867027044296
0.005766474176198244,0.005090708844363689,-0.008861741051077843,0.005549489986151457,0.0,0.006141071207821369
0.0064180404879152775,0.004968471359461546,-0.00875601451843977,0.005363086704164743,0.0,0.005900317337363958
0.00624014250934124,0.004775505978614092,-0.008966689929366112,0.005581302102655172,0.0,0.005911524873226881
0.0063416254706680775,0.004747888073325157,-0.008372464217245579,0.006075276993215084,0.0,0.006115148775279522
0.005742797162383795,0.0053457049652934074,-0.008999942801892757,0.005893869791179895,0.0,0.00632232241332531
0.005889612715691328,0.0050536347553133965,-0.008707660250365734,0.005745170172303915,0.0,0.006254174280911684
0.006200337782502174,0.004723941907286644,-0.008514436893165112,0.005348768550902605,0.0,0.006342042703181505
0.0060457573272287846,0.004680292680859566,-0.009681942872703075,0.005669260863214731,0.0,0.006024506874382496
0.006279285531491041,0.004837074317038059,-0.00874763447791338,0.005905074533075094,0.0,0.006252231542021036
0.0058045657351613045,0.005669909063726664,-0.008293329738080502,0.005983937997370958,0.0,0.006512852385640144
0.005879531614482403,0.0054134042002260685,-0.00921365525573492,0.005455679725855589,0.0,0.006179286632686853
0.006234095897525549,0.0051055168733000755,-0.008940868079662323,0.004940834827721119,0.0,0.006243008188903332
0.006212446838617325,0.005000711884349585,-0.008770777843892574,0.005065088160336018,0.0,0.005898000672459602
0.006212446838617325,0.005000711884349585,-0.008770777843892574,0.005065088160336018,0.0,0.005898000672459602
0.006380842067301273,0.004912429954856634,-0.00873805582523346,0.004988121334463358,0.0,0.0061653670854866505
0.00639180326834321,0.005268181674182415,-0.009420293383300304,0.005475850310176611,0.0,0.006714314687997103
0.0056158858351409435,0.005425280891358852,-0.008643468841910362,0.005266265477985144,0.0,0.006709313485771418
0.006041764747351408,0.005237877834588289,-0.008295855484902859,0.005038989707827568,0.0,0.006277513224631548
0.0060348110273480415,0.005312290973961353,-0.009642105549573898,0.005024106707423925,0.0,0.0063279359601438046
0.006149746011942625,0.004923021420836449,-0.009017787873744965,0.004945996217429638,0.0,0.006129819434136152
0.0058153606951236725,0.004612320568412542,-0.008794169872999191,0.005472075659781694,0.0,0.0060096122324466705
0.006162684876471758,0.004983677063137293,-0.007653574924916029,0.005396844353526831,0.0,0.006013721693307161
0.0062448931857943535,0.005101778078824282,-0.009576326236128807,0.005512114614248276,0.0,0.006204494275152683
0.006146647501736879,0.004948439542204142,-0.009465258568525314,0.005053664091974497,0.0,0.0066808839328587055
0.006334907840937376,0.0047158971428871155,-0.009364744648337364,0.005009840242564678,0.0,0.0066778105683624744
0.00571039505302906,0.004762251395732164,-0.008563362993299961,0.005454550962895155,0.0,0.006292909849435091
0.0064095077104866505,0.0048040971159935,-0.0082582738250494,0.0054733953438699245,0.0,0.006491428706794977
0.006758981384336948,0.0048173777759075165,-0.008909533731639385,0.0056271604262292385,0.0,0.006858162581920624
0.006253008730709553,0.005093788728117943,-0.008415334858000278,0.005211545620113611,0.0,0.006826451048254967
0.006326695438474417,0.005189740564674139,-0.008164551109075546,0.005158002022653818,0.0,0.006354521028697491
0.0058171129785478115,0.004935647826641798,-0.009042595513164997,0.005159164313226938,0.0,0.0063496422953903675
0.006181427277624607,0.004782799631357193,-0.009055792354047298,0.005432267673313618,0.0,0.006680803839117289
0.006615941878408194,0.004891105927526951,-0.008920401334762573,0.00556217459961772,0.0,0.006358837243169546
0.0066108666360378265,0.0049288347363471985,-0.008596141822636127,0.005215693265199661,0.0,0.006010665092617273
0.006120393052697182,0.0050947642885148525,-0.008819345384836197,0.005323626566678286,0.0,0.0060004922561347485
0.006357206963002682,0.00535605987533927,-0.00850038044154644,0.00524812052026391,0.0,0.00681880209594965
0.006950551178306341,0.005535558331757784,-0.008507078513503075,0.005120959598571062,0.0,0.006500692572444677
0.006895299535244703,0.005071096587926149,-0.009277338162064552,0.005202216096222401,0.0,0.0065206559374928474
0.006895299535244703,0.005071096587926149,-0.009277338162064552,0.005202216096222401,0.0,0.0065206559374928474
0.006326623260974884,0.0045966836623847485,-0.008828406222164631,0.005059981252998114,0.0,0.006663736887276173
0.006262707058340311,0.005097597371786833,-0.00842730700969696,0.005113564897328615,0.0,0.006813678424805403
0.006588281597942114,0.0055450815707445145,-0.008961852639913559,0.005304902326315641,0.0,0.006537523586302996
0.006464497651904821,0.005260445177555084,-0.008959016762673855,0.005272275302559137,0.0,0.006806510500609875
0.006338606588542461,0.005466496106237173,-0.008623510599136353,0.005316867493093014,0.0,0.006696824915707111
0.006508285645395517,0.005031065549701452,-0.008640188723802567,0.005134119652211666,0.0,0.006401375401765108
0.006554532330483198,0.004591335076838732,-0.009131025522947311,0.00518227880820632,0.0,0.006088305730372667
0.007344475015997887,0.005035035777837038,-0.00904757808893919,0.005277092102915049,0.0,0.006267133168876171
0.0065070088021457195,0.005615441128611565,-0.008656895719468594,0.004708687774837017,0.0,0.006608009338378906
0.006322870962321758,0.005066556390374899,-0.008862635120749474,0.005296996328979731,0.0,0.0065406206995248795
0.006135145667940378,0.004917704034596682,-0.008967479690909386,0.00537766981869936,0.0,0.006588509771972895
0.006661812774837017,0.005273922346532345,-0.008996575139462948,0.005123482085764408,0.0,0.006861136760562658
0.006928549148142338,0.005469061434268951,-0.008993975818157196,0.00487984623759985,0.0,0.006955415476113558
0.006483500357717276,0.005344900768250227,-0.008870045654475689,0.00432578893378377,0.0,0.006485272198915482
0.006165699101984501,0.005276768933981657,-0.008749273605644703,0.004005912691354752,0.0,0.0064068869687616825
0.006840278394520283,0.004457289818674326,-0.009311203844845295,0.004292286466807127,0.0,0.006099747959524393
0.006695712450891733,0.004483831115067005,-0.009105488657951355,0.0044526769779622555,0.0,0.0063522374257445335
0.006841220427304506,0.004475812427699566,-0.00926853995770216,0.004250939469784498,0.0,0.006208954378962517
0.00673092482611537,0.0048219505697488785,-0.009462863206863403,0.00447619566693902,0.0,0.00636998750269413
0.006041519809514284,0.004723517224192619,-0.009296334348618984,0.004236026667058468,0.0,0.006689755246043205
0.006727541331201792,0.004718145355582237,-0.00884008314460516,0.004282597452402115,0.0,0.007288692984730005
0.0069649433717131615,0.004400221165269613,-0.009468145668506622,0.00432232953608036,0.0,0.006503647658973932
0.006862424314022064,0.00421134103089571,-0.009283455088734627,0.004567729774862528,0.0,0.005942509975284338
0.0064042918384075165,0.004091604612767696,-0.008955706842243671,0.004913462791591883,0.0,0.005825148895382881
0.0064934673719108105,0.003930956590920687,-0.009446469135582447,0.004520772956311703,0.0,0.006465235725045204
0.007035596761852503,0.0037925008218735456,-0.009482559747993946,0.004482503514736891,0.0,0.006944932509213686
0.0069836839102208614,0.0042662667110562325,-0.009057710878551006,0.004136406350880861,0.0,0.007370270323008299
0.0068920329213142395,0.004512642044574022,-0.00965379923582077,0.003909131046384573,0.0,0.006958468351513147
0.007010729052126408,0.004320824518799782,-0.009582338854670525,0.0041627115570008755,0.0,0.006628718692809343
0.006766169797629118,0.003985669929534197,-0.009111182764172554,0.004916968755424023,0.0,0.006613385397940874
0.006898034829646349,0.00430653803050518,-0.009638071060180664,0.005201604217290878,0.0,0.006735779345035553
0.006898034829646349,0.00430653803050518,-0.009638071060180664,0.005201604217290878,0.0,0.006735779345035553
0.0067100790329277515,0.004106390755623579,-0.010066716931760311,0.004847439005970955,0.0,0.00680272514000535
0.006880910135805607,0.004143260885030031,-0.009178992360830307,0.004753664135932922,0.0,0.00711036566644907
0.007304887752979994,0.004022133070975542,-0.00975943822413683,0.0047381543554365635,0.0,0.006982882507145405
0.007040201220661402,0.004407355561852455,-0.009602591395378113,0.004496087785810232,0.0,0.00733509985730052
0.006746246013790369,0.0045378184877336025,-0.008791759610176086,0.004657714162021875,0.0,0.007539723068475723
0.006888724863529205,0.004021552391350269,-0.009859205223619938,0.0048468527384102345,0.0,0.006623946595937014
0.007118441630154848,0.004347626585513353,-0.00918632186949253,0.0044441805221140385,0.0,0.006860156077891588
0.00723915034905076,0.004211590625345707,-0.009316626936197281,0.0045393225736916065,0.0,0.007035966031253338
0.006927593145519495,0.0043074521236121655,-0.009710600599646568,0.004621171858161688,0.0,0.0066632917150855064
0.0074132694862782955,0.004667425993829966,-0.009765204973518848,0.005215867888182402,0.0,0.006418339908123016
0.0071691181510686874,0.004709308501332998,-0.010131350718438625,0.005261369049549103,0.0,0.006744307465851307
0.0072271875105798244,0.0046171993017196655,-0.010131796821951866,0.005339798983186483,0.0,0.007112443912774324
0.007273069117218256,0.00432500708848238,-0.009155984036624432,0.004985716659575701,0.0,0.007199734915047884
0.007223272696137428,0.0042416867800056934,-0.009338115341961384,0.0048844232223927975,0.0,0.007295296993106604
0.00807094108313322,0.004410054534673691,-0.009755484759807587,0.004753413610160351,0.0,0.007126235868781805
0.007200790103524923,0.004105107393115759,-0.010129890404641628,0.004603959154337645,0.0,0.0072576068341732025
0.007189905270934105,0.004467160906642675,-0.009536394849419594,0.004989829380065203,0.0,0.0074022067710757256
0.006836521904915571,0.004603014327585697,-0.009830464608967304,0.005184045992791653,0.0,0.007520582526922226
0.008023401722311974,0.004517611116170883,-0.009521656669676304,0.005372139625251293,0.0,0.007047696504741907
0.0075608668848872185,0.004609943367540836,-0.00933693628758192,0.0052024791948497295,0.0,0.007336236536502838
0.007231403607875109,0.004876015707850456,-0.009968575090169907,0.004736906383186579,0.0,0.007470389362424612
0.007320991717278957,0.0046574752777814865,-0.009646237827837467,0.004814140032976866,0.0,0.007529724854975939
0.008051151409745216,0.004623089917004108,-0.009250386618077755,0.00529527897015214,0.0,0.007493387442082167
0.007602354045957327,0.0048781586810946465,-0.009775171987712383,0.005345847457647324,0.0,0.007517823949456215
0.007327346596866846,0.004782496485859156,-0.008695819415152073,0.005197701044380665,0.0,0.007865588180720806
0.007327346596866846,0.004782496485859156,-0.008695819415152073,0.005197701044380665,0.0,0.007865588180720806
0.007956484332680702,0.0043778689578175545,-0.00847181398421526,0.00506781367585063,0.0,0.007946339435875416
0.008163567632436752,0.004518575966358185,-0.009498619474470615,0.0044811787083745,0.0,0.0076318588107824326
0.007715655956417322,0.004536602180451155,-0.009922891855239868,0.004495093133300543,0.0,0.007544839754700661
0.0074010672979056835,0.005132845602929592,-0.008608990348875523,0.004938209895044565,0.0,0.007412421982735395
0.008095640689134598,0.005027745850384235,-0.009341712109744549,0.005117264110594988,0.0,0.007031780667603016
0.008150775916874409,0.0045351916924119,-0.009289629757404327,0.005181725602596998,0.0,0.0072036366909742355
0.007876417599618435,0.004503511358052492,-0.00897078588604927,0.005324964411556721,0.0,0.006810298655182123
0.0075851017609238625,0.005146850366145372,-0.009259983897209167,0.005054323934018612,0.0,0.007085282821208239
0.008047272451221943,0.004482309799641371,-0.009043706580996513,0.005242210812866688,0.0,0.007088364567607641
0.00827083457261324,0.004433302208781242,-0.0095991101115942,0.005308970343321562,0.0,0.007200572639703751
0.007884456776082516,0.004995000082999468,-0.009586438536643982,0.005368068814277649,0.0,0.007612038403749466
0.008567477576434612,0.005026121158152819,-0.008731675334274769,0.00498281279578805,0.0,0.007490301039069891
0.007142301648855209,0.004819755908101797,-0.009038522839546204,0.004756326321512461,0.0,0.007174436468631029
0.007898956537246704,0.004773336928337812,-0.009336868301033974,0.004694551229476929,0.0,0.0075457096099853516
0.007964148186147213,0.004690683912485838,-0.009009120054543018,0.0048462641425430775,0.0,0.007819553837180138
0.008258807472884655,0.004872057121247053,-0.008909312076866627,0.005248286761343479,0.0,0.007514148484915495
0.008389551192522049,0.005235214252024889,-0.009594166651368141,0.004957405850291252,0.0,0.007246647961437702
0.00869899895042181,0.004915539175271988,-0.0091140978038311,0.004761574324220419,0.0,0.007407188415527344
0.008288124576210976,0.004708390217274427,-0.01011982373893261,0.004810363054275513,0.0,0.00798711832612753
0.008671794086694717,0.004676965530961752,-0.01036023162305355,0.005007552448660135,0.0,0.007561246398836374
0.008336062543094158,0.004990376066416502,-0.008977415971457958,0.0050005498342216015,0.0,0.007371542509645224
0.008424338884651661,0.005080761853605509,-0.00960229430347681,0.004799050744622946,0.0,0.008000921458005905
0.008327889256179333,0.005226565059274435,-0.010016066022217274,0.004634868819266558,0.0,0.007876018062233925
0.008400867693126202,0.004943518433719873,-0.00916835106909275,0.004644996486604214,0.0,0.007529753260314465
0.008274250663816929,0.004774817265570164,-0.008882194757461548,0.004423742648214102,0.0,0.00780591182410717
0.008420279249548912,0.004848142620176077,-0.009649659506976604,0.004450712352991104,0.0,0.007824796251952648
0.00893966481089592,0.005196260754019022,-0.00945619773119688,0.004663287196308374,0.0,0.007723948918282986
0.009168919175863266,0.005249362904578447,-0.00895877555012703,0.005215303506702185,0.0,0.0074920654296875
0.009168919175863266,0.005249362904578447,-0.00895877555012703,0.005215303506702185,0.0,0.0074920654296875
0.00828008633106947,0.004963450133800507,-0.010051034390926361,0.005205431953072548,0.0,0.007079579867422581
0.008533614687621593,0.004774997942149639,-0.009715213440358639,0.0047957925125956535,0.0,0.0077186468988657
0.00853312574326992,0.004743051249533892,-0.00915144570171833,0.004434790927916765,0.0,0.007743372116237879
0.008425007574260235,0.0052887010388076305,-0.01037041936069727,0.004773355089128017,0.0,0.007343636825680733
0.008533620275557041,0.0054658278822898865,-0.009692897088825703,0.0050926171243190765,0.0,0.007019663695245981
0.008472795598208904,0.005213174968957901,-0.009580999612808228,0.0058301594108343124,0.0,0.007547012530267239
0.008716089650988579,0.005004407372325659,-0.009627054445445538,0.005601414944976568,0.0,0.007474823389202356
0.009125730022788048,0.0047876848839223385,-0.009385294280946255,0.005175644066184759,0.0,0.008156046271324158
0.008592155762016773,0.005291907116770744,-0.009783534333109856,0.004708947613835335,0.0,0.00833783857524395
0.008401044644415379,0.005028042010962963,-0.00984864216297865,0.005012572277337313,0.0,0.0072417790070176125
0.00893878098577261,0.005129546858370304,-0.009057401679456234,0.005452531855553389,0.0,0.007992242462933064
0.008454211056232452,0.005238087382167578,-0.009324546903371811,0.005196344573050737,0.0,0.008405654691159725
0.008327051997184753,0.004934677854180336,-0.010246665216982365,0.004984021652489901,0.0,0.008693262934684753
0.0089248763397336,0.004694640636444092,-0.009236645884811878,0.004444614518433809,0.0,0.008398056030273438
0.009032005444169044,0.004751519300043583,-0.00971179362386465,0.004557824227958918,0.0,0.00791531428694725
0.009039104916155338,0.005177829414606094,-0.010595605708658695,0.005127226933836937,0.0,0.008128898218274117
0.00898217223584652,0.005221710540354252,-0.009410332888364792,0.005256003700196743,0.0,0.007737327832728624
0.009654001332819462,0.005290753673762083,-0.009782391600310802,0.004784943535923958,0.0,0.0075128148309886456
0.009400526061654091,0.004949530120939016,-0.010441756807267666,0.005053915083408356,0.0,0.007893872447311878
0.009283171035349369,0.004560968838632107,-0.009114918299019337,0.005247966852039099,0.0,0.008416693657636642
0.008981304243206978,0.004838063381612301,-0.009652048349380493,0.004951147828251123,0.0,0.00833974964916706
0.00964018888771534,0.005329993553459644,-0.009755727834999561,0.0049849748611450195,0.0,0.008293883875012398
0.008729670196771622,0.005334204528480768,-0.009668470360338688,0.005349411629140377,0.0,0.008122952654957771
0.009172222577035427,0.005378150846809149,-0.010037235915660858,0.005156232509762049,0.0,0.0083364462479949
0.00911286287009716,0.0050120302475988865,-0.010383766144514084,0.005131167825311422,0.0,0.008993684314191341
0.00913223810493946,0.0046369037590920925,-0.009140104055404663,0.004542514681816101,0.0,0.008241375908255577
0.00913639273494482,0.005405513569712639,-0.00963417999446392,0.004575619474053383,0.0,0.008210028521716595
0.009401056915521622,0.005293259397149086,-0.010577906854450703,0.005155385006219149,0.0,0.00813749898225069
0.009401056915521622,0.005293259397149086,-0.010577906854450703,0.005155385006219149,0.0,0.00813749898225069
0.008949276059865952,0.005134053062647581,-0.009718070738017559,0.0054668341763317585,0.0,0.008380439132452011
0.01027608197182417,0.005631519481539726,-0.009715626016259193,0.005137608852237463,0.0,0.008693541400134563
0.009264547377824783,0.005116736050695181,-0.010433369316160679,0.005239313002675772,0.0,0.008907136507332325
0.008796953596174717,0.0049024042673408985,-0.009505033493041992,0.005346877966076136,0.0,0.008470134809613228
0.00924602709710598,0.005325900856405497,-0.010318386368453503,0.005566826090216637,0.0,0.008341282606124878
0.009879323653876781,0.0051995255053043365,-0.010025464929640293,0.0056625972501933575,0.0,0.00895144697278738
0.009370672516524792,0.005321978125721216,-0.009856825694441795,0.005920644383877516,0.0,0.009047850966453552
0.009774433448910713,0.004557260312139988,-0.009927303530275822,0.005831667687743902,0.0,0.009344713762402534
0.009401930496096611,0.004273697268217802,-0.009623819962143898,0.006000135093927383,0.0,0.008564261719584465
0.009325948543846607,0.004201708361506462,-0.01003442145884037,0.005984758958220482,0.0,0.008540621027350426
0.00984992180019617,0.004437711555510759,-0.00962727703154087,0.006259053014218807,0.0,0.008530373685061932
0.009454370476305485,0.004825980868190527,-0.009235703386366367,0.006278912536799908,0.0,0.008811108767986298
0.009793718345463276,0.004911826923489571,-0.010733325034379959,0.005766038782894611,0.0,0.008675058372318745
0.009659663774073124,0.0045031290501356125,-0.010014992207288742,0.005941328592598438,0.0,0.008740490302443504
0.009371249005198479,0.004403409548103809,-0.009725328534841537,0.005628212355077267,0.0,0.008413145318627357
0.009150488302111626,0.0042235227301716805,-0.010918330401182175,0.005768798291683197,0.0,0.008635416626930237
0.009844980202615261,0.004055866040289402,-0.0101843336597085,0.005759903229773045,0.0,0.008710142225027084
0.009664920158684254,0.003910083789378405,-0.00967838428914547,0.005629301071166992,2.630248218338238e-06,0.008369588293135166
0.009329521097242832,0.004404857754707336,-0.010278753936290741,0.005455086939036846,1.7173643129808625e-07,0.009124639444053173
0.00937504693865776,0.004264588933438063,-0.010280124843120575,0.005582421086728573,1.1213161066336852e-08,0.009079867973923683
0.009500359185039997,0.004201597534120083,-0.009715140797197819,0.005335669498890638,7.321392936354698e-10,0.009857352823019028
0.008979382924735546,0.0039603025652468204,-0.010436633601784706,0.00504742655903101,4.78034695161611e-11,0.009290407411754131
0.01009300909936428,0.00370666291564703,-0.010459530167281628,0.005195178557187319,3.121224632918196e-12,0.008896630257368088
0.01009300909936428,0.00370666291564703,-0.010459530167281628,0.005195178557187319,3.121224632918196e-12,0.008896630257368088
0.009396284818649292,0.003823159961029887,-0.010397976264357567,0.005190096329897642,1.330627011434651e-14,0.00935326237231493
0.009820645675063133,0.003970455378293991,-0.01073490735143423,0.005608020815998316,8.688043939162552e-16,0.009172084741294384
0.01042215432971716,0.004471492487937212,-0.011530074290931225,0.0055356393568217754,5.672671630246165e-17,0.009834401309490204
0.009298729710280895,0.004687872715294361,-0.010450853034853935,0.0055617718026041985,3.703848844445522e-18,0.009388436563313007
0.009298729710280895,0.004687872715294361,-0.010450853034853935,0.0055617718026041985,3.703848844445522e-18,0.009388436563313007
0.010649641044437885,0.004423744045197964,-0.01025374885648489,0.005420993082225323,2.41834859928127e-19,0.009448975324630737
0.010037454776465893,0.004056987352669239,-0.010597379878163338,0.005476710852235556,1.5790087871528825e-20,0.00937984511256218
0.009531257674098015,0.0041689383797347546,-0.01055554486811161,0.005202371161431074,1.0309799622740683e-21,0.00930782314389944
0.010218381881713867,0.004215468652546406,-0.010395068675279617,0.005355470813810825,6.731562781150941e-23,0.009125689044594765
0.009658643044531345,0.0042674001306295395,-0.010576190426945686,0.005393921863287687,2.8697709560860334e-25,0.008675646968185902
0.010611052624881268,0.004650798626244068,-0.01104840636253357,0.005770083516836166,1.8737552695986212e-26,0.00895662885159254
0.010484632104635239,0.0042131501249969006,-0.011320830322802067,0.006093629635870457,1.2234284119480282e-27,0.00875113531947136
0.010241394862532616,0.004320955369621515,-0.010630176402628422,0.005732633173465729,7.9881134264931e-29,0.00891431886702776
0.010011374019086361,0.004242819268256426,-0.010823173448443413,0.005846088286489248,5.215667682282105e-30,0.01000452321022749
0.010091000236570835,0.004476984031498432,-0.010836279951035976,0.005512719042599201,3.4054583858858628e-31,0.009388807229697704
0.009984942153096199,0.0042421468533575535,-0.01023684162646532,0.00581655278801918,2.2235207391036955e-32,0.008398797363042831
0.01048695296049118,0.00427595479413867,-0.011009613052010536,0.005954322405159473,1.4518000836193241e-33,0.008779911324381828
0.010447109118103981,0.0047698840498924255,-0.0108506353572011,0.006094250828027725,9.47921743951088e-35,0.009760518558323383
0.010066235437989235,0.004334225784987211,-0.0105200856924057,0.0060978545807302,6.18925182863819e-36,0.009688000194728374
0.010143120773136616,0.004511539824306965,-0.01062180008739233,0.005599306430667639,4.041139396809841e-37,0.009745515882968903
0.009944531135261059,0.004655820317566395,-0.010958517901599407,0.006368003319948912,2.6385749434004143e-38,0.009333879686892033
0.010553263127803802,0.004264993127435446,-0.010544149205088615,0.006757238879799843,1.7228011735917885e-39,0.00906575471162796
0.011118619702756405,0.0042867399752140045,-0.009574386291205883,0.006377833429723978,1.1248643162674604e-40,0.009840787388384342
0.010157995857298374,0.004667154513299465,-0.01070404052734375,0.00619176821783185,7.344205251526366e-42,0.009322000667452812
0.010368659161031246,0.00474582239985466,-0.01129991002380848,0.006187092047184706,4.792440747990874e-43,0.009432033635675907
0.010751994326710701,0.0046803937293589115,-0.010546881705522537,0.006178282201290131,3.0828566215145976e-44,0.009733179584145546
0.010267425328493118,0.004572329577058554,-0.009921547956764698,0.006548916921019554,1.401298464324817e-45,0.010040363296866417
0.010168113745748997,0.004617737140506506,-0.010615726932883263,0.006629131268709898,0.0,0.0102849705144763
0.009870940819382668,0.0045832241885364056,-0.010328499600291252,0.0060365814715623856,0.0,0.010328941978514194
0.010175413452088833,0.004305166658014059,-0.010778112336993217,0.005614333786070347,0.0,0.010489119216799736
0.010175413452088833,0.004305166658014059,-0.010778112336993217,0.005614333786070347,0.0,0.010489119216799736
0.010469798929989338,0.004526566248387098,-0.011152290739119053,0.005302300676703453,0.0,0.010629269294440746
0.010446541011333466,0.004348949063569307,-0.01072786096483469,0.006204454693943262,0.0,0.010222400538623333
0.0102323517203331,0.004241639282554388,-0.009805932641029358,0.006635746918618679,0.0,0.010496496222913265
0.01030591782182455,0.0044955541379749775,-0.010499591007828712,0.006389852613210678,0.0,0.010342853143811226
0.010451235808432102,0.004630306735634804,-0.010831275954842567,0.006100243888795376,0.0,0.009883465245366096
0.010451235808432102,0.004630306735634804,-0.010831275954842567,0.006100243888795376,0.0,0.009883465245366096
0.00988695491105318,0.004963069688528776,-0.009813565760850906,0.006561701186001301,0.0,0.010102902539074421
0.010249122977256775,0.004825190175324678,-0.010576552711427212,0.006615361198782921,0.0,0.00960035715252161
0.010560493916273117,0.00479631032794714,-0.010700460523366928,0.00649638008326292,0.0,0.01030109915882349
0.01016282569617033,0.0046379584819078445,-0.009914536029100418,0.006224588491022587,0.0,0.010399209335446358
0.010835095308721066,0.004873140715062618,-0.010250922292470932,0.006562485359609127,0.0,0.010123571380972862
0.01093985978513956,0.0047349329106509686,-0.010015296749770641,0.006409145426005125,0.0,0.01009203027933836
0.010504281148314476,0.004845859482884407,-0.010393504053354263,0.006341308820992708,0.0,0.010117850266397
0.010889529250562191,0.004723231308162212,-0.010374465025961399,0.006232001818716526,0.0,0.009787325747311115
0.010895339772105217,0.004712267778813839,-0.010427581146359444,0.006465755868703127,0.0,0.009918758645653725
0.010455681942403316,0.005187409929931164,-0.010201413184404373,0.006539430934935808,0.0,0.010122242383658886
0.010878268629312515,0.004987063817679882,-0.010660000145435333,0.006378986407071352,0.0,0.010522991418838501
0.010683208703994751,0.004948324523866177,-0.010160473175346851,0.00609495909884572,0.0,0.010252912528812885
0.011025560088455677,0.005349639803171158,-0.01045319251716137,0.0061319749802351,0.0,0.010287470184266567
0.01135405246168375,0.0050127883441746235,-0.010607078671455383,0.006304460112005472,0.0,0.009875808842480183
0.010665161535143852,0.004935953300446272,-0.010096968151628971,0.006507953628897667,0.0,0.010093686170876026
0.011494653299450874,0.00482202647253871,-0.010761639103293419,0.006490952335298061,0.0,0.009960481896996498
0.011062463745474815,0.004914047662168741,-0.010570909827947617,0.006521890871226788,0.0,0.010260532610118389
0.011848901398479939,0.004809202626347542,-0.009780602529644966,0.006231819745153189,0.0,0.011076711118221283
0.01129259541630745,0.005226770881563425,-0.010364130139350891,0.006482165772467852,0.0,0.010558301582932472
0.011181960813701153,0.004522133618593216,-0.010414622724056244,0.00665647815912962,0.0,0.010305924341082573
0.01122062187641859,0.004479100927710533,-0.009772696532309055,0.006209830287843943,0.0,0.010862156748771667
0.011034834198653698,0.004239814821630716,-0.010360713116824627,0.006068073213100433,-5.4549305787077174e-05,0.011365598067641258
0.011034834198653698,0.004239814821630716,-0.010360713116824627,0.006068073213100433,-5.4549305787077174e-05,0.011365598067641258
0.010995197109878063,0.005001948215067387,-0.009937344118952751,0.006502317264676094,-0.00026305863866582513,0.010824069380760193
0.011639122851192951,0.004890420939773321,-0.009936830960214138,0.007175705395638943,-0.0002615908451844007,0.01040610671043396
0.01289645116776228,0.004627330228686333,-0.009836297482252121,0.006454932037740946,-0.00027587113436311483,0.011315176263451576
0.01289645116776228,0.004627330228686333,-0.009836297482252121,0.006454932037740946,-0.00027587113436311483,0.011315176263451576
0.012464500963687897,0.004370768554508686,-0.01015438698232174,0.006992585025727749,-0.0002868976735044271,0.00976210180670023
0.012419074773788452,0.004499224480241537,-0.010729175992310047,0.0068543581292033195,-0.00028387136990204453,0.010034402832388878
0.012012677267193794,0.0046043600887060165,-0.010211411863565445,0.006495292764157057,-0.00030595524003729224,0.010636990889906883
0.012522164732217789,0.004612745251506567,-0.010099416598677635,0.0061819483526051044,-0.00029795797308906913,0.01087417732924223
0.012845885939896107,0.005064162891358137,-0.009529903531074524,0.00667355302721262,-0.00043336572707630694,0.010919051244854927
0.012648634612560272,0.004535557236522436,-0.010807481594383717,0.0073134880512952805,-0.000415101763792336,0.010676662437617779
0.012488353066146374,0.004534927196800709,-0.010181590914726257,0.007072417065501213,-0.0004181993135716766,0.010941337794065475
0.012750533409416676,0.0045852139592170715,-0.009540143422782421,0.006838178727775812,-0.00041934114415198565,0.011156625114381313
0.013009583577513695,0.004719175398349762,-0.010596239939332008,0.006707907188683748,-0.0003911513485945761,0.011156454682350159
0.01254104170948267,0.004653787240386009,-0.010517177172005177,0.00727194594219327,-0.00036485164309851825,0.011289884336292744
0.013070798479020596,0.004842726513743401,-0.009915050119161606,0.006680098362267017,-0.0003417576081119478,0.011014722287654877
0.012760017067193985,0.004845819901674986,-0.010705511085689068,0.006490305066108704,-0.0003677306231111288,0.010692913085222244
0.01287103071808815,0.004537713248282671,-0.010829182341694832,0.006381315644830465,-0.0003534271672833711,0.0110315578058362
0.012686816975474358,0.0044927773997187614,-0.010216716676950455,0.007068432867527008,-0.00033504105522297323,0.01085385400801897
0.012883680872619152,0.004408633802086115,-0.011249635368585587,0.00693434476852417,-0.0003181427309755236,0.011032500304281712
0.012887533754110336,0.0045956801623106,-0.010430683381855488,0.00666771549731493,-0.000302845670375973,0.011131789535284042
0.0128904078155756,0.004510875325649977,-0.010801224038004875,0.006644688080996275,-0.000327406101860106,0.010945497080683708
0.013088863343000412,0.004943245556205511,-0.011236417107284069,0.006914480123668909,-0.00031556232715956867,0.011718177236616611
0.013183443807065487,0.004893407225608826,-0.010690217837691307,0.006876610219478607,-0.0003024653997272253,0.011626454070210457
0.013372650370001793,0.00424661161378026,-0.01171942986547947,0.00639183446764946,-0.0002902798296418041,0.01134048867970705
0.013372650370001793,0.00424661161378026,-0.01171942986547947,0.00639183446764946,-0.0002902798296418041,0.01134048867970705
0.013102172873914242,0.004226144403219223,-0.011050742119550705,0.006310862954705954,-0.0002790299186017364,0.011428533121943474
0.013505307957530022,0.00426865741610527,-0.010857620276510715,0.006632177159190178,-0.00025816154084168375,0.011393874883651733
0.01316794753074646,0.004446257837116718,-0.01175768580287695,0.006857989821583033,-0.00024156816652975976,0.011615904048085213
0.013613851740956306,0.004651296883821487,-0.011162840761244297,0.007326988503336906,-0.0002290871925652027,0.011554501950740814
0.013551990501582623,0.004781244322657585,-0.01131877675652504,0.006536185275763273,-0.00021797505905851722,0.011700419709086418
0.014199079014360905,0.00420120544731617,-0.011159129440784454,0.006228948477655649,-0.00020790113194379956,0.011666852980852127
0.013453086838126183,0.004348267335444689,-0.010838406160473824,0.0065486254170536995,-0.00022807625646237284,0.011617414653301239
0.013779716566205025,0.004146110266447067,-0.011558202095329762,0.007093450985848904,-0.0002276966260978952,0.01212640106678009
0.013607889413833618,0.00453744363039732,-0.010925737209618092,0.006598764099180698,-0.00021055831166449934,0.011433927342295647
0.013380483724176884,0.004550793208181858,-0.011019362136721611,0.00645949924364686,-0.00020265756756998599,0.011410241946578026
0.01373761985450983,0.004852973390370607,-0.010959796607494354,0.0070424373261630535,-0.0002194078842876479,0.011288479901850224
0.013601239770650864,0.00437204260379076,-0.012165563181042671,0.007224636618047953,-0.0002193713007727638,0.011590267531573772
0.013504368253052235,0.004310344345867634,-0.012081113643944263,0.007237883284687996,-0.00021246894903015345,0.01195526123046875
0.013660118915140629,0.004642648156732321,-0.011555253528058529,0.006864477880299091,-0.00020556773233693093,0.01175742968916893
0.013922319747507572,0.004696017596870661,-0.011679226532578468,0.0072090718895196915,-0.0002237500884803012,0.011570512317121029
0.013979694806039333,0.004350957926362753,-0.011306718923151493,0.007450183853507042,-0.00022029725369066,0.011862124316394329
0.013719920068979263,0.004529207479208708,-0.011838583275675774,0.00733341695740819,-0.0002573293459136039,0.012060385197401047
0.014167988672852516,0.004373176954686642,-0.011529838666319847,0.006717249751091003,-0.00025723103317432106,0.011733027175068855
0.013943216763436794,0.0044265626929700375,-0.01112353801727295,0.007095853798091412,-0.00024422374553978443,0.012174687348306179
0.014773916453123093,0.0044525968842208385,-0.011953973211348057,0.008095117285847664,-0.00027182133635506034,0.01238134317100048
0.01432148925960064,0.004121097270399332,-0.011361281387507915,0.008241920731961727,-0.00026402625371702015,0.01329856924712658
0.01467218343168497,0.00440351665019989,-0.011633355170488358,0.0072361500933766365,-0.0002520577982068062,0.012157218530774117
0.015837445855140686,0.004301383160054684,-0.011862348765134811,0.00791996344923973,-0.0002408373256912455,0.01161079853773117
0.014235504902899265,0.004550435580313206,-0.01110698003321886,0.007825207896530628,-0.00026635860558599234,0.012167913839221
0.013629646971821785,0.004587453790009022,-0.011473470367491245,0.007918482646346092,-0.0002577929408289492,0.012542103417217731
0.014584487304091454,0.004476549569517374,-0.011351360939443111,0.007568609435111284,-0.00024780305102467537,0.012623132206499577
0.014372234232723713,0.004120422527194023,-0.011998943984508514,0.008201682940125465,-0.0002384335530223325,0.01273357030004263
0.014480577781796455,0.004025147296488285,-0.011604485101997852,0.00821883138269186,-0.0002297378669027239,0.012387001886963844
0.014619309455156326,0.004009931348264217,-0.011862929910421371,0.008124157786369324,-0.00022165381233207881,0.012370923534035683
0.014619309455156326,0.004009931348264217,-0.011862929910421371,0.008124157786369324,-0.00022165381233207881,0.012370923534035683
0.01507092546671629,0.004471499007195234,-0.011863736435770988,0.00782955065369606,-0.00024264024978037924,0.012445605359971523
0.014746790751814842,0.004656403325498104,-0.0113174794241786,0.007794939447194338,-0.00023652875097468495,0.012444893829524517
0.015011296607553959,0.004306621849536896,-0.011546784080564976,0.007905581966042519,-0.00027680411585606635,0.012706002220511436
0.014534646645188332,0.003942113369703293,-0.01241066213697195,0.008225302211940289,-0.0002758341724984348,0.012765667401254177
0.01463805790990591,0.003780624596402049,-0.01189280766993761,0.008013390935957432,-0.0002957419492304325,0.01263989508152008
0.015245134010910988,0.0037890297826379538,-0.01127941906452179,0.007911331951618195,-0.0003210620488971472,0.012692134827375412
0.014820743352174759,0.0040000141598284245,-0.011836293153464794,0.007591350469738245,-0.0003107775410171598,0.012621487490832806
0.014807048253715038,0.0039935242384672165,-0.01200268603861332,0.007932757027447224,-0.00033319933572784066,0.013067576102912426
0.014779591001570225,0.003922360483556986,-0.011426151730120182,0.007803850341588259,-0.00032328939414583147,0.012880779802799225
0.01510000228881836,0.0042687831446528435,-0.01178752537816763,0.008126195520162582,-0.00030970998341217637,0.01285270694643259
0.01520879939198494,0.004149321001023054,-0.011393483728170395,0.0078078280203044415,-0.00029695499688386917,0.01301626767963171
0.015253742225468159,0.004028310067951679,-0.011679884977638721,0.008321105502545834,-0.0003558221214916557,0.01295572891831398
0.015319584868848324,0.003953893668949604,-0.01155938021838665,0.008231094107031822,-0.00039199614548124373,0.012953439727425575
0.015046433545649052,0.0038915423210710287,-0.011666430160403252,0.008147190324962139,-0.00036462474963627756,0.012782110832631588
0.01510861050337553,0.0038322152104228735,-0.01184941828250885,0.008304175920784473,-0.00033754328615032136,0.013120094314217567
0.015127408318221569,0.00433993199840188,-0.011468594893813133,0.008614974096417427,-0.0003444753820076585,0.0130811408162117
0.015460783615708351,0.00466289184987545,-0.0120902294293046,0.008456364274024963,-0.00035009090788662434,0.013384800404310226
0.015043598599731922,0.004311643075197935,-0.011815464124083519,0.008497552014887333,-0.00033048653858713806,0.013039987534284592
0.015741141512989998,0.0035283826291561127,-0.011533538810908794,0.008718261495232582,-0.00031153197051025927,0.013312507420778275
0.01536400243639946,0.003558066440746188,-0.012240300886332989,0.007854332216084003,-0.00031846881029196084,0.013160980306565762
0.015320761129260063,0.004052160773426294,-0.011705845594406128,0.007588536944240332,-0.0003242078237235546,0.013189504854381084
0.015050223097205162,0.004250203724950552,-0.01209112536162138,0.007848071865737438,-0.0003097138833254576,0.01289160456508398
0.015686439350247383,0.004086514934897423,-0.011602358892560005,0.008285628631711006,-0.0003264344413764775,0.013032677583396435
0.015686439350247383,0.004086514934897423,-0.011602358892560005,0.008285628631711006,-0.0003264344413764775,0.013032677583396435
0.015268953517079353,0.003931310959160328,-0.011401374824345112,0.00838334858417511,-0.00032164526055566967,0.013424252159893513
0.015376527793705463,0.0038623514119535685,-0.011997073888778687,0.008231118321418762,-0.0003085007192566991,0.013467232696712017
0.015510535798966885,0.004067414905875921,-0.01152409054338932,0.00830517802387476,-0.0003123418428003788,0.013597776181995869
0.015558799728751183,0.004082396626472473,-0.01213373988866806,0.008402891457080841,-0.00029804595396853983,0.013420062139630318
0.015697961673140526,0.004346674773842096,-0.012132774107158184,0.008325021713972092,-0.0002799165667966008,0.014647864736616611
0.015370125882327557,0.0041512735188007355,-0.012188607826828957,0.008352193050086498,-0.0003023747412953526,0.013812628574669361
0.01554788090288639,0.003990122117102146,-0.012473761104047298,0.008266648277640343,-0.000297842372674495,0.012865264900028706
0.0157918818295002,0.003985634073615074,-0.011923480778932571,0.00863608717918396,-0.0002830229641404003,0.013356896117329597
0.01628366857767105,0.004495837725698948,-0.012596097774803638,0.008400448597967625,-0.00026897358475252986,0.013608160428702831
0.015841977670788765,0.004659705795347691,-0.01182378176599741,0.008728972636163235,-0.0002959851117338985,0.014112177304923534
0.01580231450498104,0.004020063206553459,-0.01204577274620533,0.00870384369045496,-0.0002729876432567835,0.014036315493285656
0.015632133930921555,0.0038745857309550047,-0.011965521611273289,0.008111309260129929,-0.0002616586280055344,0.014425639063119888
0.015822041779756546,0.003834898117929697,-0.01224406436085701,0.008787807077169418,-0.00028467163792811334,0.014296595007181168
0.01599900797009468,0.004045814275741577,-0.011929448693990707,0.00858287326991558,-0.0002759410999715328,0.014583458192646503
0.015969082713127136,0.004155420232564211,-0.012802447192370892,0.00850683730095625,-0.000265891314484179,0.01456529088318348
0.015903253108263016,0.004396710079163313,-0.012158730067312717,0.008998421020805836,-0.000256429921137169,0.01432825531810522
0.016550954431295395,0.004091478418558836,-0.012393743731081486,0.008615105412900448,-0.0002869252930395305,0.013973874971270561
0.01655006594955921,0.0039565362967550755,-0.012204020284116268,0.008597569540143013,-0.00027544033946469426,0.014382714405655861
0.016837840899825096,0.004439270123839378,-0.012316606007516384,0.009323591366410255,-0.0002599220897536725,0.014560737647116184
0.016851088032126427,0.004751482047140598,-0.012708237394690514,0.009310241788625717,-0.0002882766129914671,0.015103700570762157
0.016274593770503998,0.004347283858805895,-0.012198377400636673,0.009093301370739937,-0.0002791906881611794,0.015195240266621113
0.015718474984169006,0.004333379212766886,-0.013008372858166695,0.00872186291962862,-0.00026582495775073767,0.01475235540419817
0.016008269041776657,0.004658143501728773,-0.012149280868470669,0.009203447960317135,-0.00029270906816236675,0.014301582239568233
0.016898073256015778,0.004308460745960474,-0.012460806407034397,0.00901440903544426,-0.00028216358623467386,0.014585459604859352
0.01642688922584057,0.004464196041226387,-0.012389416806399822,0.00842590257525444,-0.00028910202672705054,0.014697018079459667
0.01675969921052456,0.004624057561159134,-0.012385978363454342,0.00899144820868969,-0.00029484916012734175,0.014911266043782234
0.016588423401117325,0.004324723966419697,-0.01280716247856617,0.008920618332922459,-0.00028435239801183343,0.01487038005143404
0.016205625608563423,0.004272285848855972,-0.012480308301746845,0.008667121641337872,-0.00032673554960638285,0.015153716318309307
0.01657314971089363,0.004241828806698322,-0.013160099275410175,0.009100903756916523,-0.00035186385503038764,0.014547722414135933
0.016435053199529648,0.004366725217550993,-0.012614121660590172,0.009264885447919369,-0.00032941444078460336,0.014466476626694202
0.016435053199529648,0.004366725217550993,-0.012614121660590172,0.009264885447919369,-0.00032941444078460336,0.014466476626694202
0.01720530167222023,0.0040187411941587925,-0.012938234023749828,0.00904698483645916,-0.0003071354585699737,0.0142677528783679
0.01689409650862217,0.004349211230874062,-0.012434182688593864,0.008749036118388176,-0.0002875155187211931,0.0140719935297966
0.016736827790737152,0.004501340910792351,-0.013173890300095081,0.009537539444863796,-0.00031004968332126737,0.014451860450208187
0.016875363886356354,0.004398498218506575,-0.013234867714345455,0.009494809433817863,-0.0003049792139790952,0.015142050571739674
0.01663522981107235,0.0042859893292188644,-0.012958300299942493,0.009307784959673882,-0.00028944204677827656,0.014880005270242691
0.01664898172020912,0.004841682966798544,-0.01285315491259098,0.009633367881178856,-0.0002747624821495265,0.015650078654289246
0.01707230508327484,0.0044457996264100075,-0.012977592647075653,0.009211413562297821,-0.0002894884964916855,0.015952186658978462
0.01707947440445423,0.004535744898021221,-0.013048499822616577,0.009375186637043953,-0.0002780031936708838,0.013954665511846542
0.015303700231015682,0.00428800517693162,-0.013829652220010757,0.009370720013976097,-0.00026633188826963305,0.014410516247153282
0.017756588757038116,0.004450198262929916,-0.01343721803277731,0.009065542370080948,-0.0002555327082518488,0.014630329795181751
0.017503678798675537,0.005007962230592966,-0.013798597268760204,0.010528961196541786,-0.0002782690862659365,0.015192081220448017
0.017622975632548332,0.0050300536677241325,-0.01332684513181448,0.010221405886113644,-0.00026996550150215626,0.015354245901107788
0.017171306535601616,0.004574249964207411,-0.013894199393689632,0.009142042137682438,-0.0002603422908578068,0.015513341873884201
0.017448725178837776,0.0043502142652869225,-0.01391094271093607,0.009439363144338131,-0.0002563956950325519,0.015320021659135818
0.017701268196105957,0.004865224007517099,-0.013777239248156548,0.009467474184930325,-0.00024781504180282354,0.01521451398730278
0.017213258892297745,0.004922098945826292,-0.013216505758464336,0.008867166005074978,-0.0002352197334403172,0.01522062998265028
0.01811807043850422,0.004550166428089142,-0.01342640072107315,0.009262246079742908,-0.0002235548890894279,0.015434428118169308
0.018004193902015686,0.005131152458488941,-0.013907941989600658,0.009495864622294903,-0.0002526470925658941,0.01525507029145956
0.017586303874850273,0.005017758812755346,-0.013633612543344498,0.008616444654762745,-0.00024382486299145967,0.014937636442482471
0.018325092270970345,0.004790471401065588,-0.01378236711025238,0.008805393241345882,-0.0002697065647225827,0.015443678013980389
0.018362892791628838,0.004295622929930687,-0.013890576548874378,0.009390913881361485,-0.0002609096991363913,0.01571868546307087
0.01820850372314453,0.004343085456639528,-0.01397106796503067,0.009729656390845776,-0.000268206640612334,0.015666374936699867
0.018340086564421654,0.004632961004972458,-0.013392829336225986,0.009342932142317295,-0.00027434510411694646,0.014775541611015797
0.01797501929104328,0.004761287942528725,-0.014499685727059841,0.009736040607094765,-0.00026530359173193574,0.015197369270026684
0.018097050487995148,0.004766578786075115,-0.0136491097509861,0.009449826553463936,-0.00036297112819738686,0.015173007734119892
0.018097050487995148,0.004766578786075115,-0.0136491097509861,0.009449826553463936,-0.00036297112819738686,0.015173007734119892
0.018206259235739708,0.0044128503650426865,-0.013903286308050156,0.009231068193912506,-0.00036827154690399766,0.015413956716656685
0.017894450575113297,0.003921173512935638,-0.013189743272960186,0.009463908150792122,-0.0003928505175281316,0.015376228839159012
0.01841060444712639,0.0037784192245453596,-0.013778450898826122,0.00901480671018362,-0.00038091448368504643,0.015629077330231667
0.018211405724287033,0.004364327993243933,-0.01325286366045475,0.008677152916789055,-0.00038566795410588384,0.015593938529491425
0.018307223916053772,0.004226292949169874,-0.014152169227600098,0.009398176334798336,-0.00038849879638291895,0.015581133775413036
0.018870677798986435,0.004400414880365133,-0.014258909970521927,0.009620747528970242,-0.0003931457467842847,0.01599583961069584
0.018574567511677742,0.004293864127248526,-0.014385403133928776,0.009590146131813526,-0.0003952758852392435,0.016065949574112892
0.018641866743564606,0.004205187316983938,-0.013177779503166676,0.010707635432481766,-0.00047435463056899607,0.016110403463244438
0.0187629833817482,0.004220711067318916,-0.014037410728633404,0.009791651740670204,-0.0005113999359309673,0.016292883083224297
0.018579287454485893,0.0040682717226445675,-0.01414810586720705,0.009341559372842312,-0.00047204902512021363,0.016081536188721657
0.018512234091758728,0.0043665519915521145,-0.014146420173346996,0.009966668672859669,-0.0004968419671058655,0.016068965196609497
0.01848246157169342,0.004566249903291464,-0.014304912649095058,0.009306582622230053,-0.00046840583672747016,0.016040176153182983
0.019024331122636795,0.0044209882616996765,-0.01408819667994976,0.009658660739660263,-0.00046676359488628805,0.016999097540974617
0.019117649644613266,0.00452963262796402,-0.014000588096678257,0.009697004221379757,-0.0004644481814466417,0.01646324060857296
0.01870121993124485,0.004191103391349316,-0.013950008898973465,0.008946225047111511,-0.000438004732131958,0.016427895054221153
0.01880105398595333,0.004223911091685295,-0.013653701171278954,0.009079311043024063,-0.0004715265822596848,0.016645783558487892
0.019015716388821602,0.004134522285312414,-0.013892676681280136,0.009578767232596874,-0.0004357533762231469,0.015908533707261086
0.018932290375232697,0.0043274215422570705,-0.014456170611083508,0.009766899980604649,-0.00047171558253467083,0.016607878729701042
0.01899680308997631,0.004546521231532097,-0.014201832003891468,0.010760391131043434,-0.0004382655897643417,0.01647266000509262
0.019324300810694695,0.004423615522682667,-0.01408018171787262,0.011114880442619324,-0.0004684749583248049,0.017132112756371498
0.01934726908802986,0.004584575537592173,-0.014321458525955677,0.011362966150045395,-0.0004398677556309849,0.01696615479886532
0.019769029691815376,0.004398235585540533,-0.013645350001752377,0.011366304941475391,-0.0004621876869350672,0.016297824680805206
0.01986120268702507,0.004307339899241924,-0.01395599078387022,0.011244452558457851,-0.0004408291424624622,0.01667468436062336
0.019225038588047028,0.004363228566944599,-0.014062049798667431,0.010659076273441315,-0.0004901000647805631,0.016318103298544884
0.019225038588047028,0.004363228566944599,-0.014062049798667431,0.010659076273441315,-0.0004901000647805631,0.016318103298544884
0.019078830257058144,0.004511637147516012,-0.01459747925400734,0.010663226246833801,-0.000465806748252362,0.016453418880701065
0.019284563139081,0.004414512775838375,-0.014538326300680637,0.010652787983417511,-0.0005210773670114577,0.01695043407380581
0.019284563139081,0.004414512775838375,-0.014538326300680637,0.010652787983417511,-0.0005210773670114577,0.01695043407380581
0.01987183466553688,0.004494701977819204,-0.014559861272573471,0.010730847716331482,-0.0005109473131597042,0.017779532819986343
0.01987183466553688,0.004494701977819204,-0.014559861272573471,0.010730847716331482,-0.0005109473131597042,0.017779532819986343
0.019610866904258728,0.004083854146301746,-0.014252736233174801,0.010802382603287697,-0.0004912441945634782,0.017704030498862267
0.020037217065691948,0.004351837560534477,-0.014894207939505577,0.010383648797869682,-0.0005937243113294244,0.017497019842267036
0.02055799774825573,0.004076888784766197,-0.014559956267476082,0.01034797728061676,-0.0006367492023855448,0.01703762821853161
0.020229050889611244,0.004416019655764103,-0.01470915600657463,0.010640375316143036,-0.0005820776568725705,0.017215920612215996
0.020232612267136574,0.004400006495416164,-0.014346115291118622,0.010541634634137154,-0.000607563357334584,0.017210951074957848
0.019960731267929077,0.003965776413679123,-0.01404435932636261,0.010427196510136127,-0.000576996011659503,0.01794155314564705
0.019575834274291992,0.0042864191345870495,-0.014354944229125977,0.010235822759568691,-0.0005421609384939075,0.017369545996189117
0.02035202831029892,0.004517995752394199,-0.014410438947379589,0.010527410544455051,-0.0005046962760388851,0.01760157197713852
0.02112036943435669,0.004051485098898411,-0.015004698187112808,0.010289184749126434,-0.0005037316004745662,0.01740819402039051
0.020546648651361465,0.0043129040859639645,-0.014857579953968525,0.010034679435193539,-0.00046457297867164016,0.01737632229924202
0.02050675079226494,0.004117812495678663,-0.014865152537822723,0.010169364511966705,-0.00042181852040812373,0.017496362328529358
0.02110923081636429,0.004032578319311142,-0.014558193273842335,0.010449860244989395,-0.0004422177153173834,0.017598900943994522
0.021160807460546494,0.00414353096857667,-0.014493477530777454,0.009809141978621483,-0.0004249074845574796,0.01787661388516426
0.02092016115784645,0.0044883000664412975,-0.014876147732138634,0.010333568789064884,-0.00045179654262028635,0.017007967457175255
0.02086685597896576,0.00413567153736949,-0.014858415350317955,0.010213578119874,-0.00042885253787972033,0.017257997766137123
0.02103414572775364,0.004274771548807621,-0.015188155695796013,0.009840166196227074,-0.000401985744247213,0.018121108412742615
0.021158190444111824,0.004217245616018772,-0.015050789341330528,0.010268856771290302,-0.00042813189793378115,0.01810341514647007
0.0207313634455204,0.004533522762358189,-0.015044787898659706,0.010360268875956535,-0.00045777703053317964,0.018421679735183716
0.021265586838126183,0.004271501209586859,-0.014854767359793186,0.01047752145677805,-0.00043251339229755104,0.018104029819369316
0.021291058510541916,0.004030501935631037,-0.015341510996222496,0.010861245915293694,-0.0004638809768948704,0.017664974555373192
0.02120848372578621,0.004249828867614269,-0.014642256312072277,0.010598459281027317,-0.0004891465068794787,0.01783282682299614
0.020902132615447044,0.004635962657630444,-0.015763001516461372,0.010042715817689896,-0.00046981952618807554,0.017798209562897682
0.020902132615447044,0.004635962657630444,-0.015763001516461372,0.010042715817689896,-0.00046981952618807554,0.017798209562897682
0.0215854924172163,0.00462731346487999,-0.014701283536851406,0.010799691081047058,-0.00043824463500641286,0.01809885911643505
0.021798329427838326,0.004349618684500456,-0.014942176640033722,0.010442604310810566,-0.0004097929340787232,0.018474917858839035
0.021560560911893845,0.0040708184242248535,-0.014574860222637653,0.010773591697216034,-0.0004115013871341944,0.018096065148711205
0.021587751805782318,0.004303325433284044,-0.015178075060248375,0.010844439268112183,-0.00041255931137129664,0.018464630469679832
0.021725863218307495,0.004215623252093792,-0.014556769281625748,0.010791976936161518,-0.0003917194262612611,0.018629036843776703
0.02197755128145218,0.004037211649119854,-0.015728788450360298,0.011690269224345684,-0.00037160160718485713,0.01812131144106388
0.021657148376107216,0.004311423283070326,-0.01506863534450531,0.01125598419457674,-0.00035336424480192363,0.018366510048508644
0.021683579310774803,0.004545887000858784,-0.015136022120714188,0.011280782520771027,-0.000337953184498474,0.01869341917335987
0.021924132481217384,0.004184886813163757,-0.014811539091169834,0.011700811795890331,-0.0003367277968209237,0.018571434542536736
0.021875102072954178,0.004080418962985277,-0.015134520828723907,0.011105154640972614,-0.00029425061075016856,0.01832430437207222
0.021722737699747086,0.00381712568923831,-0.016225505620241165,0.01099679060280323,-0.0003239452780690044,0.01846773363649845
0.021838972344994545,0.0042329635471105576,-0.015926634892821312,0.011430860497057438,-0.00031176384072750807,0.018501441925764084
0.021637074649333954,0.004236746579408646,-0.015699762850999832,0.011678877286612988,-0.0002951455826405436,0.018430449068546295
0.022101333364844322,0.004269624128937721,-0.015813574194908142,0.011033027432858944,-0.0002798707573674619,0.01907956786453724
0.022110071033239365,0.004083874635398388,-0.015027293935418129,0.012069140560925007,-0.0002988050982821733,0.018919404596090317
0.022572187706828117,0.004385998472571373,-0.01564198173582554,0.0114040682092309,-0.00029508426086977124,0.018472522497177124
0.022648755460977554,0.0041367667727172375,-0.015332778915762901,0.011045212857425213,-0.00030224863439798355,0.018876541405916214
0.021867919713258743,0.003971684258431196,-0.016217272728681564,0.011249256320297718,-0.0003077207366004586,0.018895575776696205
0.019788244739174843,0.003915612120181322,-0.016165882349014282,0.011096855625510216,-0.00029625953175127506,0.019594458863139153
0.02288588136434555,0.004349158611148596,-0.01654050312936306,0.011368926614522934,-0.00033092571538873017,0.019199850037693977
0.02314458042383194,0.004328521899878979,-0.015826761722564697,0.011807743459939957,-0.00032301602186635137,0.01865042746067047
0.0223577618598938,0.004482037853449583,-0.015997478738427162,0.0113378269597888,-0.00034682979458011687,0.018758634105324745
0.02215488627552986,0.004202438518404961,-0.015948597341775894,0.011418422684073448,-0.0003389884950593114,0.019225802272558212
0.02264176681637764,0.004216955043375492,-0.01567217707633972,0.01135154440999031,-0.0003457715502008796,0.019778793677687645
0.023063527420163155,0.003966338001191616,-0.016211066395044327,0.010773795656859875,-0.0003505277563817799,0.019790221005678177
0.02310960553586483,0.0037552143912762403,-0.015718447044491768,0.011395303532481194,-0.0003747880400624126,0.01963297836482525
0.022953476756811142,0.00381623231805861,-0.016292041167616844,0.011049400083720684,-0.0003617054899223149,0.019789008423686028
0.022953476756811142,0.00381623231805861,-0.016292041167616844,0.011049400083720684,-0.0003617054899223149,0.019789008423686028
0.02223973721265793,0.004629803821444511,-0.016290485858917236,0.011553791351616383,-0.0004781827738042921,0.0185830257833004
0.02314547263085842,0.0042967707850039005,-0.01610381342470646,0.011284214444458485,-0.0004754648543894291,0.018802819773554802
0.023635035380721092,0.004472011234611273,-0.01624107174575329,0.0113907465711236,-0.00047178167733363807,0.019143108278512955
0.023635035380721092,0.004472011234611273,-0.01624107174575329,0.0113907465711236,-0.00047178167733363807,0.019143108278512955
0.023152997717261314,0.00413090456277132,-0.01631397008895874,0.011051591485738754,-0.00043613393791019917,0.019673548638820648
0.023062080144882202,0.00392112834379077,-0.015653150156140327,0.01133208442479372,-0.0004362818435765803,0.019932297989726067
0.022918451577425003,0.003913104999810457,-0.01605956070125103,0.011344116181135178,-0.0004359158338047564,0.019298192113637924
0.023176297545433044,0.00395506015047431,-0.015356122516095638,0.011516597121953964,-0.0004095190088264644,0.019698042422533035
0.023564806208014488,0.004624529741704464,-0.015702228993177414,0.011885209009051323,-0.00038771957042627037,0.02008816786110401
0.023068616166710854,0.004745358135551214,-0.01608269289135933,0.01219811663031578,-0.0003900018928106874,0.020195521414279938
0.023588765412569046,0.004638886544853449,-0.016023721545934677,0.012044797651469707,-0.00037159159546718,0.01957586221396923
0.023560699075460434,0.00427942955866456,-0.016194825991988182,0.011963818222284317,-0.00035504900733940303,0.018989091739058495
0.023579556494951248,0.004041388630867004,-0.016388418152928352,0.012272494845092297,-0.0003618451301008463,0.019470039755105972
0.02402099035680294,0.00394745497033,-0.015711454674601555,0.012004919350147247,-0.0003666099510155618,0.019656196236610413
0.024276934564113617,0.004260819870978594,-0.01623937487602234,0.01232069544494152,-0.00038744317134842277,0.020008502528071404
0.023893412202596664,0.0046523683704435825,-0.01582113280892372,0.012247893027961254,-0.0003775609366130084,0.02024924010038376
0.02365873195230961,0.004650098271667957,-0.016527246683835983,0.012064401060342789,-0.00039462620043195784,0.020145472139120102
0.023993931710720062,0.004254279658198357,-0.015943612903356552,0.012137563899159431,-0.0005140079883858562,0.01988614723086357
0.02431674487888813,0.003926948644220829,-0.016188284382224083,0.011639918200671673,-0.000571039563510567,0.019820118322968483
0.024291567504405975,0.003795049851760268,-0.016038216650485992,0.01215748768299818,-0.0006021710578352213,0.019929394125938416
0.024151185527443886,0.004310411401093006,-0.016208307817578316,0.01144989300519228,-0.0005529316258616745,0.020766887813806534
0.02443915791809559,0.004149637185037136,-0.016058841720223427,0.011719009838998318,-0.0005426406278274953,0.019716793671250343
0.02437657117843628,0.004366450477391481,-0.015448848716914654,0.011894268915057182,-0.000533281359821558,0.01980319619178772
0.024095643311738968,0.004518701229244471,-0.016370683908462524,0.012119934894144535,-0.0004938495112583041,0.020118167623877525
0.024601267650723457,0.004526244476437569,-0.01578173227608204,0.012558135204017162,-0.00045807062997482717,0.020254069939255714
0.025328820571303368,0.004063010681420565,-0.016234390437602997,0.012699677608907223,-0.00048374090692959726,0.020586924627423286
0.024705780670046806,0.003801926737651229,-0.015797844156622887,0.013283788226544857,-0.0004567416908685118,0.02083449810743332
0.024980539456009865,0.004236470442265272,-0.015884295105934143,0.012858258560299873,-0.0004383872146718204,0.020794857293367386
0.024862339720129967,0.004156835842877626,-0.015955274924635887,0.013228987343609333,-0.0004087206907570362,0.020622599869966507
0.024862339720129967,0.004156835842877626,-0.015955274924635887,0.013228987343609333,-0.0004087206907570362,0.020622599869966507
0.024898793548345566,0.004241333808749914,-0.01577764004468918,0.012971071526408195,-0.00043031867244280875,0.02082792855799198
0.02470969967544079,0.0046706548891961575,-0.016245227307081223,0.013006264343857765,-0.00041437495383434,0.021090351045131683
0.023625720292329788,0.004286507610231638,-0.015924053266644478,0.01348190475255251,-0.0004414119466673583,0.021012334153056145
0.025431059300899506,0.003953870385885239,-0.016326265409588814,0.01300839427858591,-0.0004488108679652214,0.020787565037608147
0.025714222341775894,0.0038883693050593138,-0.015760494396090508,0.012963330373167992,-0.00044815661385655403,0.021048013120889664
0.025727231055498123,0.004294644575566053,-0.01622258499264717,0.012473600916564465,-0.0005696757580153644,0.021275704726576805
0.025993209332227707,0.00435036001726985,-0.016263483092188835,0.013087903149425983,-0.0005497394013218582,0.02121576853096485
0.025088611990213394,0.004583160858601332,-0.016422530636191368,0.012338775210082531,-0.0005774485180154443,0.021005909889936447
0.024557944387197495,0.004588254727423191,-0.01610180363059044,0.012665842659771442,-0.00053217209642753,0.021351056173443794
0.025889432057738304,0.004394215997308493,-0.016529638320207596,0.012716548517346382,-0.0005189090152271092,0.0217532217502594
0.025133533403277397,0.004452292807400227,-0.01646280847489834,0.012343763373792171,-0.0005128967459313571,0.021390192210674286
0.02599421516060829,0.004299414809793234,-0.01700572669506073,0.012427535839378834,-0.0005071171908639371,0.020540935918688774
0.02679549530148506,0.004053711425513029,-0.0165322944521904,0.012787542305886745,-0.00047744426410645247,0.020775282755494118
0.02639780566096306,0.004360060207545757,-0.016698533669114113,0.012696530669927597,-0.0004807399236597121,0.020904427394270897
0.02558775246143341,0.004324378911405802,-0.01667928695678711,0.0130868349224329,-0.0005015570204705,0.02166580967605114
0.025399457663297653,0.004364421591162682,-0.016950218006968498,0.013078626245260239,-0.0004771753738168627,0.021788356825709343
0.02557895891368389,0.003999494016170502,-0.01705709844827652,0.013459427282214165,-0.0004933667369186878,0.021222729235887527
0.025374481454491615,0.0037669981829822063,-0.01686558686196804,0.013409647159278393,-0.00047305389307439327,0.02121374011039734
0.0262552909553051,0.004184452351182699,-0.017536072060465813,0.01363089308142662,-0.000499603571370244,0.021891485899686813
0.02615465596318245,0.004127593245357275,-0.01743197813630104,0.013628315180540085,-0.00047393888235092163,0.02212582528591156
0.025815339758992195,0.003526142565533519,-0.01688663475215435,0.013265185058116913,-0.0005615110276266932,0.021952826529741287
0.02614014409482479,0.0034317367244511843,-0.017071964219212532,0.013208577409386635,-0.0005077557289041579,0.02126099169254303
0.026231873780488968,0.004346282221376896,-0.016399210318922997,0.012793059460818768,-0.0005235405988059938,0.022217433899641037
0.026047810912132263,0.00463658943772316,-0.017006782814860344,0.012912499718368053,-0.0004959928337484598,0.020621413365006447
0.02613617666065693,0.004360884893685579,-0.017298279330134392,0.01263590157032013,-0.0004554702900350094,0.021096769720315933
0.02614660933613777,0.00409623933956027,-0.01740349642932415,0.013034346513450146,-0.0004200913826934993,0.021755486726760864
0.02610580250620842,0.0035325621720403433,-0.0172122735530138,0.012729236856102943,-0.00045013974886387587,0.02220526710152626
0.025916000828146935,0.004205158445984125,-0.01664542965590954,0.013138964772224426,-0.00042378451325930655,0.022091800346970558
0.026243075728416443,0.0041032470762729645,-0.017665671184659004,0.013028387911617756,-0.0003973015118390322,0.02238764800131321
0.026243075728416443,0.0041032470762729645,-0.017665671184659004,0.013028387911617756,-0.0003973015118390322,0.02238764800131321
0.026095088571310043,0.004399686586111784,-0.017022257670760155,0.013077660463750362,-0.00039972944068722427,0.02228517271578312
0.02658848650753498,0.004470480140298605,-0.018025638535618782,0.013318038545548916,-0.0004014116420876235,0.022315988317131996
0.026592953130602837,0.004156471695750952,-0.0181796345859766,0.013170595280826092,-0.00038207220495678484,0.022163162007927895
0.02621447667479515,0.003848574822768569,-0.016996746882796288,0.013525822199881077,-0.0003480646410025656,0.022143999114632607
0.02747151628136635,0.004270011093467474,-0.01765201799571514,0.013028801418840885,-0.00037023070035502315,0.022128034383058548
0.026997771114110947,0.004069166723638773,-0.01725088804960251,0.013181003741919994,-0.0003602661017794162,0.02242490090429783
0.026856031268835068,0.004167245700955391,-0.017578616738319397,0.012894505634903908,-0.0003971742116846144,0.022777652367949486
0.026393800973892212,0.004329374060034752,-0.01725798286497593,0.012830788269639015,-0.0003994308353867382,0.022582538425922394
0.026053722947835922,0.004313250537961721,-0.017850516363978386,0.013129186816513538,-0.0005112809012643993,0.022065168246626854
0.027908608317375183,0.004148939158767462,-0.018006082624197006,0.013759123161435127,-0.0005696111475117505,0.022587262094020844
0.02742365561425686,0.0040024458430707455,-0.01705371029675007,0.013882589526474476,-0.0006009107455611229,0.022992929443717003
0.027199631556868553,0.0039029265753924847,-0.017505057156085968,0.013841723091900349,-0.0005962263676337898,0.022623952478170395
0.025480659678578377,0.0038264612667262554,-0.017218124121427536,0.013870064169168472,-0.0005818618810735643,0.022725829854607582
0.026717407628893852,0.004345434717833996,-0.017809327691793442,0.013966431841254234,-0.0006009893259033561,0.02311323583126068
0.02759191021323204,0.00419752299785614,-0.017994588240981102,0.013733217492699623,-0.0005631001549772918,0.02329351380467415
0.027317319065332413,0.004506025463342667,-0.01733217015862465,0.014315926469862461,-0.0006153536960482597,0.02330818772315979
0.02733621932566166,0.00419634161517024,-0.017905347049236298,0.014116203412413597,-0.0006506348727270961,0.02336299605667591
0.027863305062055588,0.003912124317139387,-0.017752261832356453,0.014252171851694584,-0.0006405666936188936,0.022956056520342827
0.028263524174690247,0.004275344777852297,-0.017992090433835983,0.013688118197023869,-0.0006209336570464075,0.02307187393307686
0.02843778021633625,0.004226114135235548,-0.01830124668776989,0.013838534243404865,-0.0006376731907948852,0.02315746434032917
0.027464484795928,0.003976896405220032,-0.01747680827975273,0.013395983725786209,-0.0005946560413576663,0.023492012172937393
0.027676697820425034,0.004051107447594404,-0.01786881871521473,0.013576486147940159,-0.000634163967333734,0.02358855865895748
0.028441596776247025,0.004153755493462086,-0.018018830567598343,0.013196054846048355,-0.000583669519983232,0.023732194676995277
0.028568893671035767,0.004419033881276846,-0.01742911897599697,0.013789279386401176,-0.0006144606741145253,0.0236531812697649
0.028694109991192818,0.004198428243398666,-0.018290869891643524,0.013697045855224133,-0.0006020853761583567,0.023619895800948143
0.028694109991192818,0.004198428243398666,-0.018290869891643524,0.013697045855224133,-0.0006020853761583567,0.023619895800948143
0.028779344633221626,0.00435988511890173,-0.01786024682223797,0.013947991654276848,-0.000586650101467967,0.023775393143296242
0.028610223904252052,0.0043157231993973255,-0.01792353019118309,0.013816660270094872,-0.0006054815603420138,0.024307401850819588
0.0284865889698267,0.004071436822414398,-0.018389981240034103,0.014700488187372684,-0.0006737005314789712,0.024003807455301285
0.028785452246665955,0.0039598639123141766,-0.01794891245663166,0.014312699437141418,-0.0006194415618665516,0.023942673578858376
0.02848125249147415,0.003950448241084814,-0.018453070893883705,0.014585553668439388,-0.0006403946899808943,0.024800678715109825
0.029184440150856972,0.004341945052146912,-0.01839482970535755,0.013973766937851906,-0.0005839021760039032,0.023276064544916153
0.02894570305943489,0.004422450438141823,-0.01787608303129673,0.014003264717757702,-0.0006032990058884025,0.02311677299439907
0.029376285150647163,0.004291054792702198,-0.018220074474811554,0.01360106747597456,-0.0005599545547738671,0.024328256025910378
0.02927533909678459,0.004207110498100519,-0.018429789692163467,0.01452417392283678,-0.0005924658617004752,0.024276403710246086
0.02922634966671467,0.004054327495396137,-0.019046830013394356,0.014930671080946922,-0.0006237354828044772,0.022819308564066887
0.029573695734143257,0.004507726524025202,-0.017958419397473335,0.014491760171949863,-0.000640340440440923,0.02316766232252121
0.029687078669667244,0.0041894810274243355,-0.01828465424478054,0.014944296330213547,-0.0006429145578294992,0.024328798055648804
0.029200926423072815,0.0043931077234447,-0.018596667796373367,0.014119977131485939,-0.0007780253072269261,0.024193666875362396
0.029742984101176262,0.004179924726486206,-0.018130552023649216,0.01430757250636816,-0.0009060639422386885,0.02381652407348156
0.02987135574221611,0.004226268734782934,-0.018897058442234993,0.01401464082300663,-0.0008784836390987039,0.024169709533452988
0.030107621103525162,0.004040908068418503,-0.019338715821504593,0.01450738962739706,-0.0009091226384043694,0.025463281199336052
0.030139634385704994,0.003898802911862731,-0.018961187452077866,0.015005663968622684,-0.0009547551744617522,0.025026600807905197
0.029694510623812675,0.004250235389918089,-0.018908666446805,0.015034166164696217,-0.0010196510702371597,0.023992342874407768
0.03002610243856907,0.00454775569960475,-0.019416598603129387,0.014222368597984314,-0.0008966592140495777,0.023744847625494003
0.030101589858531952,0.004166159778833389,-0.019150391221046448,0.0147705078125,-0.000771256338339299,0.024591507390141487
0.030422890558838844,0.004384580999612808,-0.019869374111294746,0.014112530276179314,-0.0007712433580309153,0.02515554241836071
0.030690079554915428,0.0042045810259878635,-0.01976492814719677,0.014705508947372437,-0.000698622374329716,0.025180047377943993
0.030356545001268387,0.004267625976353884,-0.019403766840696335,0.014238940551877022,-0.0006728622829541564,0.02521543949842453
0.030860750004649162,0.004180360119789839,-0.01944100484251976,0.015019574202597141,-0.0006510608945973217,0.025352898985147476
0.031788527965545654,0.004385008476674557,-0.01973295398056507,0.014567948877811432,-0.0005993805825710297,0.02533148229122162
0.032580431550741196,0.004591402597725391,-0.01928458735346794,0.01464084628969431,-0.0005534348310902715,0.02546735852956772
0.031335800886154175,0.004582956433296204,-0.019768571481108665,0.014204315841197968,-0.0005179194849915802,0.025413598865270615
0.031335800886154175,0.004582956433296204,-0.019768571481108665,0.014204315841197968,-0.0005179194849915802,0.025413598865270615
0.03096003644168377,0.00442785769701004,-0.020441675558686256,0.015088210813701153,-0.0004119591903872788,0.025598695501685143
0.03214510902762413,0.004486017394810915,-0.020069342106580734,0.01518589910119772,-0.00037383718881756067,0.025347553193569183
0.03150530532002449,0.004591057077050209,-0.019627466797828674,0.015361363068223,-0.0004044254310429096,0.02486169897019863
0.03189338371157646,0.0047746459022164345,-0.01998838037252426,0.01512569934129715,-0.00038376369047909975,0.025170782580971718
0.03288540616631508,0.004819255787879229,-0.019963597878813744,0.015093229711055756,-0.00041045344551093876,0.025571484118700027
0.03239375352859497,0.0045785196125507355,-0.019865654408931732,0.014915374107658863,-0.00039199445745907724,0.025626225396990776
0.03127487376332283,0.004241267219185829,-0.020256148651242256,0.01515239104628563,-0.0004185827565379441,0.025668110698461533
0.03126208111643791,0.004439260344952345,-0.02037443034350872,0.015307040885090828,-0.00040121760684996843,0.0256196241825819
0.03288186714053154,0.004656685050576925,-0.01986270770430565,0.015243908390402794,-0.0004918952472507954,0.02566065639257431
0.03252793848514557,0.004586412571370602,-0.02027284912765026,0.014973897486925125,-0.00056278589181602,0.02581513300538063
0.03270783647894859,0.0043431902304291725,-0.020053239539265633,0.014934551902115345,-0.0005261003389023244,0.025768021121621132
0.032096151262521744,0.004311191383749247,-0.020579738542437553,0.014554634690284729,-0.0005460811080411077,0.025553017854690552
0.03229536488652229,0.004026547074317932,-0.020382702350616455,0.014372896403074265,-0.0006224269163794816,0.025158923119306564
0.03241918981075287,0.004388868343085051,-0.01989164389669895,0.01454145647585392,-0.000699166557751596,0.025615565478801727
0.032483864575624466,0.004614984150975943,-0.019649436697363853,0.015160643495619297,-0.0006729899905622005,0.02616363950073719
0.03306170552968979,0.004268016200512648,-0.020001066848635674,0.015253465622663498,-0.0006750829634256661,0.026104973629117012
0.03302498161792755,0.004039334133267403,-0.020523065701127052,0.015514700673520565,-0.0006301825633272529,0.025487324222922325
0.03255239501595497,0.004158861469477415,-0.019868861883878708,0.015095450915396214,-0.000644833140540868,0.024873802438378334
0.0327012836933136,0.004002898000180721,-0.020354049280285835,0.015279698185622692,-0.0006050750962458551,0.025255562737584114
0.03330419212579727,0.004249011632055044,-0.020338913425803185,0.015333144925534725,-0.000627164205070585,0.026423407718539238
0.032602421939373016,0.00420669699087739,-0.019897885620594025,0.01607104390859604,-0.0006520497845485806,0.026450004428625107
0.03242005407810211,0.004527603276073933,-0.020061209797859192,0.015719924122095108,-0.0006788017926737666,0.026283863931894302
0.03393912687897682,0.004131877329200506,-0.020496869459748268,0.015982070937752724,-0.0006891850498504937,0.026319701224565506
0.0347437746822834,0.004413569811731577,-0.020645663142204285,0.01531703770160675,-0.0007643156568519771,0.026662182062864304
0.03362110257148743,0.004631261341273785,-0.020150640979409218,0.01521519385278225,-0.0008247034857049584,0.026443684473633766
0.03187449276447296,0.004521409515291452,-0.020580872893333435,0.015400123782455921,-0.0008707789238542318,0.02562776580452919
0.03187449276447296,0.004521409515291452,-0.020580872893333435,0.015400123782455921,-0.0008707789238542318,0.02562776580452919
0.032420650124549866,0.004460586700588465,-0.020535960793495178,0.01579425483942032,-0.0009035253897309303,0.02603527531027794
0.03376641497015953,0.004261907190084457,-0.01981969363987446,0.01615128107368946,-0.0011925902217626572,0.02710472233593464
0.03338385745882988,0.004484455566853285,-0.02040855959057808,0.015901172533631325,-0.0010700073326006532,0.02748960629105568
0.03411773592233658,0.004249091260135174,-0.020911624655127525,0.015803232789039612,-0.0010369016090407968,0.027189316228032112
0.03414689004421234,0.004446639679372311,-0.02067403681576252,0.01545151136815548,-0.0008981797145679593,0.02687080390751362
0.03335171565413475,0.004403203260153532,-0.02006184309720993,0.015785396099090576,-0.0008827116107568145,0.027149224653840065
0.03284560516476631,0.004455720540136099,-0.020750440657138824,0.015524300746619701,-0.0007822570623829961,0.027403106912970543
0.03319953754544258,0.004486946389079094,-0.020966265350580215,0.015741296112537384,-0.0006624135421589017,0.027231575921177864
0.033896252512931824,0.0043706512078642845,-0.02051727846264839,0.015314030461013317,-0.0006758219678886235,0.02691267430782318
0.033981043845415115,0.004490676335990429,-0.02064158394932747,0.01609264314174652,-0.0006390352500602603,0.027217386290431023
0.03346199542284012,0.0045493789948523045,-0.020761119201779366,0.016291767358779907,-0.0006545232026837766,0.027344580739736557
0.03350421041250229,0.00465623801574111,-0.020522216334939003,0.016406115144491196,-0.0006687568966299295,0.027296418324112892
0.033756427466869354,0.0044677541591227055,-0.020697003230452538,0.016039609909057617,-0.0007259187987074256,0.02724449150264263
0.03428732231259346,0.0047073690220713615,-0.021217867732048035,0.016802292317152023,-0.0007213979843072593,0.027646267786622047
0.03402233496308327,0.0048116338439285755,-0.021054619923233986,0.016624215990304947,-0.0007394810672849417,0.02701667509973049
0.034205492585897446,0.004810194484889507,-0.020668037235736847,0.016992880031466484,-0.0007158845546655357,0.02771560288965702
0.03489651158452034,0.004534922074526548,-0.021257638931274414,0.016694385558366776,-0.0008439559023827314,0.027666540816426277
0.033259373158216476,0.0045046997256577015,-0.021278850734233856,0.016340235248208046,-0.0008591022342443466,0.027673691511154175
0.03496644273400307,0.004559616092592478,-0.020691435784101486,0.01718929223716259,-0.0007495021563954651,0.027902215719223022
0.034793954342603683,0.004656518809497356,-0.02085641585290432,0.01687152311205864,-0.0006585220689885318,0.027845358476042747
0.03429294377565384,0.004884794820100069,-0.021382834762334824,0.017115063965320587,-0.0006582223577424884,0.027763163670897484
0.03466010466217995,0.004751922562718391,-0.021742673590779305,0.01667342148721218,-0.0006157262832857668,0.028036998584866524
0.03501950204372406,0.004684170242398977,-0.020998379215598106,0.016404973343014717,-0.0005621593445539474,0.028192827478051186
0.03530030697584152,0.004769820254296064,-0.021347207948565483,0.016245823353528976,-0.000579735788051039,0.027993300929665565
0.03517720848321915,0.004735942929983139,-0.02207440510392189,0.015913117676973343,-0.0005445239949040115,0.028169605880975723
0.03517720848321915,0.004735942929983139,-0.02207440510392189,0.015913117676973343,-0.0005445239949040115,0.028169605880975723
0.03512001037597656,0.004492198582738638,-0.02203184738755226,0.016159657388925552,-0.00046322427806444466,0.028366321697831154
0.03507132828235626,0.004319311585277319,-0.021039722487330437,0.01581430621445179,-0.0004557418287731707,0.0283751729875803
0.03542117774486542,0.00444096839055419,-0.02134312503039837,0.015929901972413063,-0.0004534297331701964,0.028441172093153
0.03569147363305092,0.0044894092716276646,-0.021362271159887314,0.015388491563498974,-0.0004855990409851074,0.02837202325463295
0.03551909327507019,0.004683176055550575,-0.021090736612677574,0.016073327511548996,-0.0005110710626468062,0.029004700481891632
0.03526823967695236,0.004483560100197792,-0.021602477878332138,0.01614484004676342,-0.0006221072981134057,0.02925478108227253
0.03595186024904251,0.004250338301062584,-0.02218436263501644,0.017235413193702698,-0.0007243233849294484,0.02835099585354328
0.03679123893380165,0.004180362913757563,-0.021909553557634354,0.017248138785362244,-0.0007513394812121987,0.027329694479703903
0.03687197342514992,0.004468629136681557,-0.021669642999768257,0.016653960570693016,-0.0007192462799139321,0.02794894203543663
0.035734064877033234,0.004738601855933666,-0.021521897986531258,0.016488460823893547,-0.000812001817394048,0.02867032028734684
0.03623843565583229,0.005105951800942421,-0.02165762335062027,0.016418837010860443,-0.0008385715773329139,0.02968098782002926
0.036614224314689636,0.004865012131631374,-0.02177545800805092,0.0166888777166605,-0.0007563767721876502,0.03051057644188404
0.037284836173057556,0.0048338924534618855,-0.021533116698265076,0.01690485142171383,-0.0007460160413756967,0.029385704547166824
0.03675561770796776,0.004436213057488203,-0.02177218720316887,0.017323100939393044,-0.0006890835938975215,0.027579290792346
0.036053240299224854,0.005001130513846874,-0.02163451351225376,0.017311254516243935,-0.000699063646607101,0.028729915618896484
0.035982146859169006,0.004928587470203638,-0.02140502817928791,0.01658347062766552,-0.0006769829196855426,0.029742944985628128
0.03746368736028671,0.004880640655755997,-0.02155231311917305,0.01645263284444809,-0.0006175724556669593,0.02994389645755291
0.035740628838539124,0.0049977791495621204,-0.022189367562532425,0.01668119616806507,-0.0006241994560696185,0.029206592589616776
0.037636373192071915,0.004798731300979853,-0.021789103746414185,0.01687108911573887,-0.0005813041352666914,0.029208069667220116
0.03779478371143341,0.004407315049320459,-0.021607520058751106,0.01664011739194393,-0.0005903407582081854,0.028974225744605064
0.03735470771789551,0.004556897096335888,-0.02185686305165291,0.017085105180740356,-0.0005964847514405847,0.02929801680147648
0.03807715326547623,0.004122299142181873,-0.021827081218361855,0.01700938120484352,-0.0005855896743014455,0.02933398261666298
0.037237610667943954,0.003483779262751341,-0.022070353850722313,0.01728510670363903,-0.0006218761554919183,0.029297392815351486
0.03737031668424606,0.004115878138691187,-0.02177388034760952,0.017398066818714142,-0.000648043816909194,0.029595861211419106
0.038177382200956345,0.004130921792238951,-0.021589625626802444,0.017069129273295403,-0.0006623672088608146,0.0299680158495903
0.037881478667259216,0.00414254330098629,-0.021840015426278114,0.017208745703101158,-0.0006850099307484925,0.030338231474161148
0.03797921910881996,0.003964269533753395,-0.022505294531583786,0.01718219369649887,-0.0007765350746922195,0.03023386001586914
0.037322357296943665,0.0038197010289877653,-0.022009974345564842,0.01741166226565838,-0.0008811996667645872,0.029877284541726112
0.03901365026831627,0.0038715042173862457,-0.02168121188879013,0.017679523676633835,-0.0008897008374333382,0.029739893972873688
0.03901365026831627,0.0038715042173862457,-0.02168121188879013,0.017679523676633835,-0.0008897008374333382,0.029739893972873688
0.03807715326547623,0.004269937053322792,-0.02196825109422207,0.01746870018541813,-0.0008073663339018822,0.029963809996843338
0.03724643588066101,0.004449417814612389,-0.02305484749376774,0.018041642382740974,-0.0008123023435473442,0.029777873307466507
0.038687169551849365,0.004298716317862272,-0.023133475333452225,0.01782357692718506,-0.0008208100916817784,0.030301330611109734
0.038316596299409866,0.003950717393308878,-0.022638622671365738,0.01776314526796341,-0.0008274174178950489,0.03034086525440216
0.03974844515323639,0.004259843844920397,-0.021700361743569374,0.018026331439614296,-0.0007466094102710485,0.030024968087673187
0.03931517153978348,0.004215100780129433,-0.02288384549319744,0.017371192574501038,-0.000759179936721921,0.029551761224865913
0.03798222169280052,0.004017782863229513,-0.023670637980103493,0.01747567020356655,-0.0007674404769204557,0.030472202226519585
0.03929206728935242,0.00407422985881567,-0.022563185542821884,0.017407570034265518,-0.0008278907625935972,0.03094225563108921
0.039134442806243896,0.004452755209058523,-0.02301744744181633,0.01809105835855007,-0.0008381400257349014,0.02978997491300106
0.03875025734305382,0.004236047156155109,-0.024054348468780518,0.017845770344138145,-0.000746610458008945,0.030092928558588028
0.0388234443962574,0.003952350467443466,-0.023208633065223694,0.01775646023452282,-0.000756279390770942,0.031151341274380684
0.03932874649763107,0.0038086276035755873,-0.02378660812973976,0.017605233937501907,-0.0006895744591020048,0.030670136213302612
0.039083871990442276,0.00433353940024972,-0.023520153015851974,0.01753111369907856,-0.0006705279229208827,0.031191807240247726
0.038922782987356186,0.004133589565753937,-0.022382093593478203,0.017790349200367928,-0.0007009019609540701,0.03193652629852295
0.03913465514779091,0.004368930123746395,-0.02295554243028164,0.017007578164339066,-0.0006842055008746684,0.030862223356962204
0.03915979340672493,0.004176778253167868,-0.02382344752550125,0.017716290429234505,-0.0006588314427062869,0.030704550445079803
0.039895374327898026,0.0042604380287230015,-0.023662971332669258,0.018230926245450974,-0.0006728530861437321,0.03030991740524769
0.03998493775725365,0.004017979837954044,-0.023210305720567703,0.01803828403353691,-0.0007116726483218372,0.03172534704208374
0.03990038484334946,0.0043176813051104546,-0.023145215585827827,0.01826952025294304,-0.0006887114723213017,0.031989384442567825
0.03971073403954506,0.004595980979502201,-0.02321299910545349,0.018521646037697792,-0.0007134659681469202,0.03131185099482536
0.038449835032224655,0.0043827625922858715,-0.02339971624314785,0.018538450822234154,-0.0007280216086655855,0.031463976949453354
0.04054713621735573,0.004484092816710472,-0.02359163388609886,0.01916525512933731,-0.0007333956891670823,0.031313564628362656
0.040862150490283966,0.004536218475550413,-0.02363499067723751,0.018787931650877,-0.0007672039209865034,0.031231341883540154
0.03996150940656662,0.004646617919206619,-0.023413069546222687,0.018751725554466248,-0.0008350309217348695,0.03164928779006004
0.040048032999038696,0.004151461645960808,-0.02333013527095318,0.018474319949746132,-0.0008473688503727317,0.03190242126584053
0.04024851322174072,0.004425739403814077,-0.02333189733326435,0.017893357202410698,-0.0008541420684196055,0.03192424401640892
0.04034824296832085,0.004664336331188679,-0.02343640848994255,0.018457898870110512,-0.0009327998268418014,0.0322953499853611
0.04034824296832085,0.004664336331188679,-0.02343640848994255,0.018457898870110512,-0.0009327998268418014,0.0322953499853611
0.040840648114681244,0.004305603913962841,-0.023674141615629196,0.01914805732667446,-0.0010421110782772303,0.03206920623779297
0.04026202857494354,0.00440114364027977,-0.023612381890416145,0.01895630732178688,-0.0010261349380016327,0.03213256597518921
0.03993131220340729,0.004550606943666935,-0.02327379211783409,0.018465038388967514,-0.0010085204849019647,0.03236234188079834
0.04188927635550499,0.004459070507436991,-0.02379644475877285,0.01827635057270527,-0.001029251259751618,0.032936062663793564
0.040709637105464935,0.004335768986493349,-0.023820994421839714,0.01918116956949234,-0.0009989443933591247,0.032856814563274384
0.03933635354042053,0.004326397553086281,-0.023746170103549957,0.018804185092449188,-0.0008770577842369676,0.03254071623086929
0.04053888097405434,0.004337717778980732,-0.023593496531248093,0.01756731979548931,-0.0008650932577438653,0.032697007060050964
0.041295524686574936,0.004873656202107668,-0.023527104407548904,0.01812591962516308,-0.0007836294826120138,0.03256373107433319
0.04237382113933563,0.004958818666636944,-0.02351345494389534,0.017458418384194374,-0.0006858899141661823,0.031861934810876846
0.0415966771543026,0.0047336420975625515,-0.02380877174437046,0.01769931986927986,-0.0006498073926195502,0.03247709199786186
0.03951367363333702,0.004670733120292425,-0.02403688244521618,0.01819370687007904,-0.0006245822296477854,0.033084601163864136
0.04119814559817314,0.004681228194385767,-0.02386458031833172,0.01836232654750347,-0.0006947949877940118,0.03307465463876724
0.04155324399471283,0.004749814979732037,-0.023200897499918938,0.019113710150122643,-0.0008263253839686513,0.034221380949020386
0.041240058839321136,0.004711943678557873,-0.02331632189452648,0.019284293055534363,-0.0009032993693836033,0.03368694335222244
0.04114670306444168,0.005000283010303974,-0.023785943165421486,0.01892200857400894,-0.0008403779938817024,0.03203615918755531
0.040934450924396515,0.004791518673300743,-0.024029070511460304,0.018947187811136246,-0.0008441629470326006,0.031752146780490875
0.04155407473444939,0.004729522857815027,-0.02398349530994892,0.018714196979999542,-0.0008431897149421275,0.033239610493183136
0.041040439158678055,0.0042650457471609116,-0.023926913738250732,0.018205005675554276,-0.0008741809288039804,0.032913390547037125
0.04166455939412117,0.0043419101275503635,-0.023758387193083763,0.018820693716406822,-0.000879146798979491,0.0340905487537384
0.04133734479546547,0.004632274154573679,-0.0232035331428051,0.019131269305944443,-0.0008821624796837568,0.03393220528960228
0.041461385786533356,0.004879384767264128,-0.023789700120687485,0.019038543105125427,-0.0008697230950929224,0.03343852981925011
0.0421399250626564,0.004912766627967358,-0.025160932913422585,0.019268492236733437,-0.0008034328930079937,0.032347843050956726
0.04184954613447189,0.005138333886861801,-0.024859828874468803,0.018926912918686867,-0.000806025811471045,0.0328235998749733
0.040126536041498184,0.004886628594249487,-0.023917248472571373,0.01870594173669815,-0.0008097882382571697,0.03403494134545326
0.04140578582882881,0.004749024752527475,-0.023414742201566696,0.019245345145463943,-0.0008054748177528381,0.034207332879304886
0.04140578582882881,0.004749024752527475,-0.023414742201566696,0.019245345145463943,-0.0008054748177528381,0.034207332879304886
0.04151146858930588,0.004547924268990755,-0.023666152730584145,0.019129708409309387,-0.0007384956697933376,0.033748626708984375
0.04271753877401352,0.005021704360842705,-0.02427856996655464,0.019134635105729103,-0.0007439089240506291,0.03385648876428604
0.04242967441678047,0.005537757650017738,-0.024014491587877274,0.01960897259414196,-0.0006856642430648208,0.033534131944179535
0.03991100937128067,0.005058635957539082,-0.02419940009713173,0.019549591466784477,-0.0007163830450735986,0.033983536064624786
0.041985686868429184,0.004697716794908047,-0.02416594699025154,0.019181417301297188,-0.0007686245953664184,0.034006085246801376
0.042229682207107544,0.004754025023430586,-0.024082105606794357,0.019602160900831223,-0.001154690282419324,0.03361131250858307
0.04168572276830673,0.00484409648925066,-0.024055322632193565,0.019463250413537025,-0.0012052181409671903,0.03395088016986847
0.04195064678788185,0.005735261831432581,-0.024803994223475456,0.019658705219626427,-0.0011592895025387406,0.03444080054759979
0.042634256184101105,0.005284913815557957,-0.023714769631624222,0.01946433261036873,-0.0011510178446769714,0.03372713178396225
0.042300790548324585,0.005288229323923588,-0.02376559190452099,0.018570352345705032,-0.0011427185963839293,0.034934092313051224
0.04216291010379791,0.0051889438182115555,-0.024228805676102638,0.01909763552248478,-0.0011015343479812145,0.03445593640208244
0.04202473536133766,0.004218341317027807,-0.024162378162145615,0.0193826574832201,-0.001035944209434092,0.034686747938394547
0.04287140071392059,0.005803657229989767,-0.024549521505832672,0.01951982080936432,-0.0009581168415024877,0.03465832397341728
0.042712654918432236,0.006477727554738522,-0.024443654343485832,0.02003362588584423,-0.0008706071530468762,0.03502563759684563
0.04263715818524361,0.004178620409220457,-0.02440701797604561,0.020156068727374077,-0.0009423369774594903,0.033954158425331116
0.043153710663318634,0.0045853047631680965,-0.02437579445540905,0.01968187466263771,-0.0009409690392203629,0.034321147948503494
0.042946457862854004,0.0055684903636574745,-0.024064352735877037,0.019682953134179115,-0.0010219659889116883,0.03547606244683266
0.04266408085823059,0.005366568919271231,-0.02393466793000698,0.01967579685151577,-0.001089307013899088,0.035293832421302795
0.04284176602959633,0.004991820547729731,-0.024458900094032288,0.019148651510477066,-0.001062314142473042,0.03347800672054291
0.04318288341164589,0.004914714489132166,-0.02473416179418564,0.019576605409383774,-0.0010384138440713286,0.03414318338036537
0.04318288341164589,0.004914714489132166,-0.02473416179418564,0.019576605409383774,-0.0010384138440713286,0.03414318338036537
0.04336991533637047,0.004399119410663843,-0.02480192668735981,0.01975158601999283,-0.0009749351302161813,0.035258322954177856
0.043420132249593735,0.004544734954833984,-0.02473026141524315,0.019702216610312462,-0.0010026299860328436,0.0362982340157032
0.043543826788663864,0.004555427934974432,-0.024358537048101425,0.020453764125704765,-0.000990697299130261,0.03556389734148979
0.044070422649383545,0.005108353681862354,-0.024023886770009995,0.020248809829354286,-0.0010671939235180616,0.03448616713285446
0.044070422649383545,0.005108353681862354,-0.024023886770009995,0.020248809829354286,-0.0010671939235180616,0.03448616713285446
0.043417226523160934,0.0050366101786494255,-0.024474861100316048,0.01937965117394924,-0.0010869231773540378,0.03458254039287567
0.04403737932443619,0.004631378687918186,-0.024592822417616844,0.01951051689684391,-0.00113057775888592,0.03597085177898407
0.04521811753511429,0.0050132558681070805,-0.0249814223498106,0.020734423771500587,-0.0011659121373668313,0.035167448222637177
0.04376808926463127,0.004929608199745417,-0.025255713611841202,0.01919783279299736,-0.0012086789356544614,0.036045096814632416
0.04250682145357132,0.0047339582815766335,-0.02447838895022869,0.020370295271277428,-0.0011573085794225335,0.036531202495098114
0.04443666338920593,0.004543669521808624,-0.02470211870968342,0.020438874140381813,-0.0011168161872774363,0.035845816135406494
0.04453374072909355,0.005133538972586393,-0.024328887462615967,0.019854439422488213,-0.0010269752237945795,0.0358055904507637
0.045394789427518845,0.005123964510858059,-0.024225931614637375,0.020183421671390533,-0.0010054644662886858,0.03551459684967995
0.0430724173784256,0.004896165803074837,-0.025858629494905472,0.020587222650647163,-0.0009420832502655685,0.035796601325273514
0.044751133769750595,0.004979806952178478,-0.025387903675436974,0.02004965767264366,-0.0008836947963573039,0.03572704643011093
0.04483215510845184,0.0048071700148284435,-0.02492174319922924,0.01996978372335434,-0.0008563039591535926,0.03601352125406265
0.04445260763168335,0.0046250466257333755,-0.024128351360559464,0.019327836111187935,-0.0008571279468014836,0.036109503358602524
0.04450729116797447,0.004855069797486067,-0.024411516264081,0.019347675144672394,-0.0008626988856121898,0.03607278689742088
0.04462937265634537,0.005205637775361538,-0.024816187098622322,0.02003166452050209,-0.0008529096958227456,0.036161597818136215
0.04446682706475258,0.0049726832658052444,-0.02481471374630928,0.020562686026096344,-0.0008645655470900238,0.036255478858947754
0.04430650174617767,0.004916597623378038,-0.025322752073407173,0.020690619945526123,-0.0009286028798669577,0.03645119071006775
0.04501517117023468,0.004721943289041519,-0.026602309197187424,0.020850837230682373,-0.0009375102235935628,0.03671829029917717
0.045846521854400635,0.004832244012504816,-0.02631409838795662,0.02109750360250473,-0.0009403891745023429,0.03677958622574806
0.043151162564754486,0.0053053246811032295,-0.02554665133357048,0.021245205774903297,-0.0011523386929184198,0.035475488752126694
0.04448668658733368,0.004988372791558504,-0.024790648370981216,0.020892798900604248,-0.0011187763884663582,0.03710121288895607
0.045122500509023666,0.004668311681598425,-0.024374477565288544,0.02115584909915924,-0.0010843392228707671,0.038566954433918
0.046049878001213074,0.004685928113758564,-0.02505016326904297,0.021129269152879715,-0.000999044394120574,0.03738474100828171
0.0456659197807312,0.004950007423758507,-0.025842219591140747,0.020803304389119148,-0.0009196089231409132,0.0352509580552578
0.043593812733888626,0.004896001424640417,-0.02613646723330021,0.020868221297860146,-0.0009012098889797926,0.03660817816853523
0.045521050691604614,0.004830487072467804,-0.02602914348244667,0.021455498412251472,-0.0008999768178910017,0.037123799324035645
0.04591284692287445,0.004950645379722118,-0.025760410353541374,0.021795835345983505,-0.0008998753037303686,0.03866230323910713
0.04591284692287445,0.004950645379722118,-0.025760410353541374,0.021795835345983505,-0.0008998753037303686,0.03866230323910713
0.04514547064900398,0.004981634672731161,-0.025779757648706436,0.021689122542738914,-0.0008688218658789992,0.03837751969695091
0.045656099915504456,0.004759549628943205,-0.025386150926351547,0.02102542854845524,-0.0008556029642932117,0.0373956672847271
