davideferrari95/blind_handover_controller/data/Test 33 - [2024-02-07 -- 14-46-45]/joint_states_data.csv
shoulder_pan_joint,shoulder_lift_joint,elbow_joint,wrist_1_joint,wrist_2_joint,wrist_3_joint
0.008686251938343048,-0.006753711495548487,-0.01301098894327879,0.017300009727478027,0.00018094539700541645,0.009890975430607796
0.00916826631873846,-0.007049964275211096,-0.013600079342722893,0.017264241352677345,0.00018738475046120584,0.009864860214293003
0.00916826631873846,-0.007049964275211096,-0.013600079342722893,0.017264241352677345,0.00018738475046120584,0.009864860214293003
0.00889724213629961,-0.006796682719141245,-0.013319015502929688,0.017989730462431908,0.00018334145715925843,0.009898032061755657
0.008631613105535507,-0.007156210485845804,-0.013547245413064957,0.018049610778689384,0.000178835034603253,0.010301743634045124
0.009109807200729847,-0.006689795292913914,-0.013801244087517262,0.018408233299851418,0.0001745034387568012,0.010843383148312569
0.009020606987178326,-0.006626176182180643,-0.014056277461349964,0.018788455054163933,0.00017118226969614625,0.00931574311107397
0.008365193381905556,-0.006922675762325525,-0.013928505592048168,0.018308717757463455,0.0001652291975915432,0.00885520689189434
0.008440596982836723,-0.0068174563348293304,-0.013960333541035652,0.018349338322877884,0.00015939729928504676,0.009569752961397171
0.00893003772944212,-0.0066576749086380005,-0.013737638480961323,0.018305480480194092,0.00017672991089057177,0.010442896746098995
0.008943427354097366,-0.00661270460113883,-0.013343088328838348,0.018002130091190338,0.00017810014833230525,0.009659599512815475
0.008943427354097366,-0.00661270460113883,-0.013343088328838348,0.018002130091190338,0.00017810014833230525,0.009659599512815475
0.008342013694345951,-0.006775383837521076,-0.013719688169658184,0.018295370042324066,0.00017286866204813123,0.00915260799229145
0.00882384181022644,-0.00666462630033493,-0.013326035812497139,0.017860911786556244,0.00018821070261765271,0.009659521281719208
0.008973347954452038,-0.006673549767583609,-0.01366457249969244,0.01818169839680195,0.000189104990568012,0.009761782363057137
0.008894928731024265,-0.007044634781777859,-0.013829203322529793,0.018039632588624954,0.00019135330512654036,0.009557253681123257
0.008763663470745087,-0.00686944043263793,-0.013525097630918026,0.018523668870329857,0.00019787074415944517,0.009262019768357277
0.008763663470745087,-0.00686944043263793,-0.013525097630918026,0.018523668870329857,0.00019787074415944517,0.009262019768357277
0.008686878718435764,-0.006654083263128996,-0.0141072366386652,0.018601834774017334,0.00019332655938342214,0.009426191449165344
0.00875215046107769,-0.005720030050724745,-0.01345576997846365,0.0180961936712265,0.00018832043861038983,0.009593659080564976
0.008835721760988235,-0.004759395029395819,-0.01365272980183363,0.019004089757800102,0.000253817270277068,0.009805530309677124
0.008782941848039627,-0.004330732394009829,-0.013564144261181355,0.018675222992897034,0.0003028818464372307,0.009037462994456291
0.008416336961090565,-0.0051657166332006454,-0.014155847951769829,0.018281059339642525,0.0002878342929761857,0.009482466615736485
0.008765068836510181,-0.005511539988219738,-0.013974759727716446,0.01787586696445942,0.00031068158568814397,0.009031945839524269
0.008762399666011333,-0.005062088370323181,-0.014328096061944962,0.017415117472410202,0.0003055854176636785,0.009459874592721462
0.008488088846206665,-0.004865470342338085,-0.01425920706242323,0.01803203858435154,0.00028998786001466215,0.009388123638927937
0.00913397129625082,-0.005097102839499712,-0.014363907277584076,0.018659478053450584,0.0002752543950919062,0.009404954500496387
0.008797835558652878,-0.004825614858418703,-0.014280417934060097,0.02014129050076008,0.0003025582991540432,0.009358527138829231
0.00846618041396141,-0.004934999626129866,-0.014399454928934574,0.017883220687508583,0.0002912212221417576,0.009101840667426586
0.008613649755716324,-0.00473589776083827,-0.014045841991901398,0.017907433211803436,0.00026673314278014004,0.009266801178455353
0.008707815781235695,-0.004565968178212643,-0.01409673597663641,0.018797537311911583,0.0002899663522839546,0.009079874493181705
0.008397107943892479,-0.0049891904927790165,-0.014688938856124878,0.018267842009663582,0.00028087454847991467,0.009414132684469223
0.008875791914761066,-0.004947911947965622,-0.014477458782494068,0.018086833879351616,0.0002706096274778247,0.009486325085163116
0.009370163083076477,-0.004811932798475027,-0.014845368452370167,0.018281763419508934,0.00031444619526155293,0.009017406962811947
0.008324450813233852,-0.0045126802287995815,-0.014222956262528896,0.017950303852558136,0.0002977457770612091,0.00922244880348444
0.008521069772541523,-0.004199842922389507,-0.014671114273369312,0.018215879797935486,0.0002795112377498299,0.009063543751835823
0.008672764524817467,-0.004857368301600218,-0.014280673116445541,0.01815422624349594,0.0002888068265747279,0.009786171838641167
0.008615176193416119,-0.005054138600826263,-0.014007750898599625,0.01803402788937092,0.00029659090796485543,0.009815430268645287
0.008505390956997871,-0.004687920678406954,-0.0137685127556324,0.018723642453551292,0.0002826123673003167,0.00936899520456791
0.008505390956997871,-0.004687920678406954,-0.0137685127556324,0.018723642453551292,0.0002826123673003167,0.00936899520456791
0.009549983777105808,-0.004906267859041691,-0.014124228619039059,0.018335413187742233,0.0002686494844965637,0.009413858875632286
0.009069212712347507,-0.004838910885155201,-0.014253583736717701,0.018033549189567566,0.0002767530095297843,0.009663211181759834
0.00880169402807951,-0.004773973021656275,-0.014196859672665596,0.01839841902256012,0.0002836361527442932,0.00978417880833149
0.008938719518482685,-0.004655677359551191,-0.01470971666276455,0.018492989242076874,0.0002726249804254621,0.009128596633672714
0.009313023649156094,-0.004914603196084499,-0.014494488015770912,0.018272079527378082,0.00026139363762922585,0.00959079060703516
0.008624514564871788,-0.00508049875497818,-0.01404140330851078,0.018045969307422638,0.0002774895110633224,0.00952303409576416
0.008498504757881165,-0.005187965463846922,-0.012432028539478779,0.017310038208961487,0.0002752369036898017,0.009272345341742039
0.009012266993522644,-0.005307013634592295,-0.014485160820186138,0.017618054524064064,0.00026562760467641056,0.00923357717692852
0.008732947520911694,-0.004657438490539789,-0.014899343252182007,0.017326517030596733,0.00025620945962145925,0.009201453067362309
0.008749793283641338,-0.005109853111207485,-0.014875735156238079,0.01740938052535057,0.0002796337939798832,0.009303838014602661
0.008960542269051075,-0.005523136351257563,-0.014238652773201466,0.017917873337864876,0.00026803507353179157,0.009227369911968708
0.009108975529670715,-0.005329282954335213,-0.014371177181601524,0.01724393106997013,0.00025327556068077683,0.009266084991395473
0.009241792373359203,-0.005365397781133652,-0.014119709841907024,0.0176042839884758,0.0002631836978252977,0.009322097525000572
0.008951491676270962,-0.005198102910071611,-0.01442806888371706,0.01711927354335785,0.0002715892915148288,0.009374398738145828
0.008651779033243656,-0.005104574374854565,-0.013327431865036488,0.016960348933935165,0.00025992869632318616,0.009298237971961498
0.008362200111150742,-0.005170784424990416,-0.013800499029457569,0.017302485182881355,0.00023718408192507923,0.009056799113750458
0.009296086616814137,-0.005254650022834539,-0.014298740774393082,0.018142079934477806,0.00022720254492014647,0.009678682312369347
0.008670624345541,-0.005019312258809805,-0.014082281850278378,0.018725086003541946,0.0002518931869417429,0.009488921612501144
0.00840307492762804,-0.005093482322990894,-0.014147087000310421,0.01871333085000515,0.0002443305274937302,0.00925926212221384
0.008893479593098164,-0.005227483808994293,-0.013396707363426685,0.019024981185793877,0.00023534646607004106,0.009415598586201668
0.008819196373224258,-0.005230127368122339,-0.014071010984480381,0.018563950434327126,0.00022687908494845033,0.009313738904893398
0.00848801527172327,-0.005809244699776173,-0.013575918972492218,0.018251702189445496,0.0002461273979861289,0.00899126473814249
0.009040444158017635,-0.0055121853947639465,-0.014233351685106754,0.01845432259142399,0.00024159764871001244,0.00933393370360136
0.009030262008309364,-0.0058470782823860645,-0.013528222218155861,0.018325461074709892,0.00023398877237923443,0.009377656504511833
0.008433009497821331,-0.0052179996855556965,-0.013965018093585968,0.018358737230300903,0.00022663851268589497,0.00904624443501234
0.008400489576160908,-0.004936977289617062,-0.013466281816363335,0.018116869032382965,0.00021972261311020702,0.010228665545582771
0.009048941545188427,-0.005779273342341185,-0.014246728271245956,0.017520951107144356,0.00021321528765838593,0.009089735336601734
0.009065571241080761,-0.005815029144287109,-0.013313191011548042,0.017639458179473877,0.00022263440769165754,0.00866815447807312
0.008847425691783428,-0.005049507133662701,-0.01396147720515728,0.017560571432113647,0.0002174546680180356,0.009018247947096825
0.009550435468554497,-0.004888798110187054,-0.013968250714242458,0.017421025782823563,0.00020777717872988433,0.009304133243858814
0.009550435468554497,-0.004888798110187054,-0.013968250714242458,0.017421025782823563,0.00020777717872988433,0.009304133243858814
0.009022575803101063,-0.00492887431755662,-0.014513825066387653,0.018185647204518318,0.00019862756016664207,0.009048293344676495
0.00893558282405138,-0.005472353659570217,-0.013657741248607635,0.017846446484327316,0.00019023024651687592,0.008927137590944767
0.008770107291638851,-0.005281113553792238,-0.014189459383487701,0.017639709636569023,0.00018251374422106892,0.009888035245239735
0.008959674276411533,-0.005830544512718916,-0.013821367174386978,0.0180223248898983,0.00017539788677822798,0.009229854680597782
0.009061219170689583,-0.005395541898906231,-0.013744932599365711,0.017445582896471024,0.00019809315563179553,0.00952244084328413
0.008548595942556858,-0.005455239675939083,-0.013457007706165314,0.017544226720929146,0.0001949615980265662,0.009685705415904522
0.00936303474009037,-0.00546291982755065,-0.013672864064574242,0.017432304099202156,0.00018842089048121125,0.00924814585596323
0.008672033436596394,-0.005352519918233156,-0.013826891779899597,0.018091633915901184,0.00018208430265076458,0.009204926900565624
0.0083929393440485,-0.005892879329621792,-0.013800042681396008,0.018397275358438492,0.00017614463286008686,0.009363895282149315
0.009458430111408234,-0.005727823823690414,-0.014320425689220428,0.017774125561118126,0.00017057964578270912,0.00940767116844654
0.008974270895123482,-0.005601625423878431,-0.013652407564222813,0.018428009003400803,0.00016535620670765638,0.009334455244243145
0.00871781911700964,-0.005242990795522928,-0.013729408383369446,0.019032511860132217,0.00016044254880398512,0.009912507608532906
0.00885035004466772,-0.005282019730657339,-0.013329769484698772,0.018711447715759277,0.00015581297338940203,0.00919298641383648
0.008687891997396946,-0.005980846472084522,-0.012788615189492702,0.01739797368645668,0.00017175210814457387,0.009456156753003597
0.008545341901481152,-0.005599023308604956,-0.013742496259510517,0.017203519120812416,0.00016729175695218146,0.009619872085750103
0.009635773487389088,-0.00564810074865818,-0.013645511120557785,0.01726626791059971,0.00016297042020596564,0.009486670605838299
0.009354186244308949,-0.00520582078024745,-0.014239268377423286,0.017146429046988487,0.00015886106120888144,0.009402924217283726
0.008548500947654247,-0.006058861501514912,-0.013722349889576435,0.017754830420017242,0.00015495363913942128,0.009738300926983356
0.00887442659586668,-0.005625397898256779,-0.014012893661856651,0.01830224320292473,0.0001512336020823568,0.009536098688840866
0.009194211103022099,-0.0059115029871463776,-0.013016334734857082,0.018303217366337776,0.00014768824621569365,0.00930851325392723
0.008692821487784386,-0.005407247226685286,-0.014062990434467793,0.01833190955221653,0.00014430524606723338,0.00924221333116293
0.009057040326297283,-0.005375721026211977,-0.01333933137357235,0.01745898462831974,0.00014107376046013087,0.00926401000469923
0.008987229317426682,-0.005267792381346226,-0.013940265402197838,0.017122948542237282,0.00013798379222862422,0.009479994885623455
0.008987229317426682,-0.005267792381346226,-0.013940265402197838,0.017122948542237282,0.00013798379222862422,0.009479994885623455
0.008175201714038849,-0.005080353934317827,-0.01410629041492939,0.016978133469820023,0.000135026391944848,0.009548426605761051
0.008959201164543629,-0.0052059367299079895,-0.014072715304791927,0.016807399690151215,0.00014981834101490676,0.009056289680302143
0.008964288048446178,-0.005037712398916483,-0.013794266618788242,0.01774856448173523,0.00014789045962970704,0.008999668061733246
0.009202435612678528,-0.005189681891351938,-0.01384409237653017,0.01765899360179901,0.000144987425301224,0.00928305834531784
0.008814230561256409,-0.004922514781355858,-0.013624543324112892,0.017856182530522346,0.0001421302295057103,0.009149670600891113
0.00907501857727766,-0.004800447262823582,-0.013169150799512863,0.01836368255317211,0.0001393791608279571,0.00891364086419344
0.008886247873306274,-0.005298432894051075,-0.013517751358449459,0.017795056104660034,0.0001367321819998324,0.009071492590010166
0.008539831265807152,-0.005559484474360943,-0.01388888992369175,0.01755230315029621,0.00013418382150121033,0.009337141178548336
0.009402123279869556,-0.0050888145342469215,-0.014448723755776882,0.017459023743867874,0.00013172881153877825,0.00949165504425764
0.009331034496426582,-0.0049603888764977455,-0.013721545226871967,0.017479419708251953,0.0001293622044613585,0.009931055828928947
0.008932050317525864,-0.00482275802642107,-0.014392309822142124,0.018194027245044708,0.00012707884889096022,0.00977812334895134
0.009414062835276127,-0.004769816063344479,-0.01345483586192131,0.017935851588845253,0.00012487484491430223,0.00948537141084671
0.009365148842334747,-0.0052592637948691845,-0.013950697146356106,0.018172914162278175,0.00011557486141100526,0.009716709144413471
0.008997075259685516,-0.005076426547020674,-0.01351455133408308,0.01782853715121746,0.00011180801084265113,0.00955098308622837
0.009324918501079082,-0.0048531596548855305,-0.014536596834659576,0.017471814528107643,0.0001090400037355721,0.009328746236860752
0.009113673120737076,-0.004682150669395924,-0.01352641824632883,0.017873024567961693,0.00010645661677699536,0.010163492523133755
0.009960952214896679,-0.005098576657474041,-0.013432992622256279,0.017574235796928406,0.00010164692503167316,0.009388060308992863
0.009126301854848862,-0.004971398506313562,-0.014253541827201843,0.01783272810280323,9.940156451193616e-05,0.00955826137214899
0.00858127698302269,-0.005166823510080576,-0.013630702160298824,0.017568865790963173,9.725316340336576e-05,0.009616382420063019
0.008624768815934658,-0.005050844978541136,-0.01405331026762724,0.018103236332535744,9.519579180050641e-05,0.009240425191819668
0.009178324602544308,-0.005361179355531931,-0.013882115483283997,0.017829209566116333,9.322358528152108e-05,0.008652438409626484
0.009139779955148697,-0.005438589956611395,-0.014614852145314217,0.017609160393476486,9.133146522799507e-05,0.008802401833236217
0.008791717700660229,-0.0050839320756495,-0.013992300257086754,0.017905404791235924,8.951468771556392e-05,0.009186196140944958
0.009283926337957382,-0.005537474527955055,-0.013909946195781231,0.01800212264060974,8.776877803029492e-05,0.008579068817198277
0.009323685429990292,-0.005315277259796858,-0.013471359387040138,0.016973065212368965,8.608952339272946e-05,0.00924132950603962
0.009348736144602299,-0.004904019180685282,-0.01388362143188715,0.01676466129720211,8.447348227491602e-05,0.009251917712390423
0.009283794090151787,-0.004780483432114124,-0.013856243342161179,0.017054984346032143,8.291708945762366e-05,0.010270807892084122
0.009283794090151787,-0.004780483432114124,-0.013856243342161179,0.017054984346032143,8.291708945762366e-05,0.010270807892084122
0.009987732395529747,-0.004733739886432886,-0.013811261393129826,0.01755908504128456,8.141680154949427e-05,0.010153676383197308
0.009149198420345783,-0.0047507998533546925,-0.01390149537473917,0.01704026758670807,7.996991189429536e-05,0.00908589642494917
0.009607795625925064,-0.005477266851812601,-0.013997628353536129,0.017694992944598198,9.253589087165892e-05,0.009449120610952377
0.009607795625925064,-0.005477266851812601,-0.013997628353536129,0.017694992944598198,9.253589087165892e-05,0.009449120610952377
0.009143008850514889,-0.005061544943600893,-0.013935287483036518,0.01753326691687107,9.10978633328341e-05,0.010000091977417469
0.009142723865807056,-0.0049017914570868015,-0.013784302398562431,0.017950281500816345,8.95944467629306e-05,0.009241357445716858
0.009474489837884903,-0.004762875381857157,-0.013349959626793861,0.017770960927009583,8.813277236185968e-05,0.009597164578735828
0.009815585799515247,-0.004835814703255892,-0.013437422923743725,0.017648914828896523,8.671742398291826e-05,0.00922615360468626
0.009660941548645496,-0.0050880564376711845,-0.013056238181889057,0.01762634888291359,8.534692460671067e-05,0.009444117546081543
0.009327428415417671,-0.005326914135366678,-0.01403077319264412,0.017517119646072388,8.401898230658844e-05,0.00966241117566824
0.009450557641685009,-0.004774830304086208,-0.013521865010261536,0.017804866656661034,8.273170533357188e-05,0.009503407403826714
0.009457521140575409,-0.005007102154195309,-0.013961464166641235,0.017075292766094208,8.14833547337912e-05,0.00940339919179678
0.009977341629564762,-0.004784062970429659,-0.013286971487104893,0.017366796731948853,8.027211151784286e-05,0.009209465235471725
0.009502596221864223,-0.004838458262383938,-0.013781004585325718,0.018094263970851898,7.909630221547559e-05,0.009706908836960793
0.009175233542919159,-0.004677198827266693,-0.012975555844604969,0.018462887033820152,7.795457349857315e-05,0.00984270591288805
0.009353152476251125,-0.004774721339344978,-0.013374656438827515,0.01869196444749832,7.684515730943531e-05,0.009451381862163544
0.009064489044249058,-0.00482011865824461,-0.013300791382789612,0.01790451817214489,7.576695497846231e-05,0.009670925326645374
0.009037656709551811,-0.004719910211861134,-0.014163512736558914,0.016959894448518753,7.47186059015803e-05,0.009112763218581676
0.009830058552324772,-0.004227427765727043,-0.013615096919238567,0.017159918323159218,7.270657079061493e-05,0.009367253631353378
0.009565120562911034,-0.00445778900757432,-0.013480596244335175,0.017544172704219818,7.174070196924731e-05,0.009408547542989254
0.009650114923715591,-0.004560576286166906,-0.013339642435312271,0.017869727686047554,7.080005161697045e-05,0.009377983398735523
0.009876510128378868,-0.0046172840520739555,-0.013436829671263695,0.01763410121202469,6.988381937844679e-05,0.00932008121162653
0.008999413810670376,-0.0045740497298538685,-0.01306378748267889,0.017572659999132156,6.899093568790704e-05,0.009333532303571701
0.009604704566299915,-0.004704520106315613,-0.013415267691016197,0.01687401905655861,6.812069477746263e-05,0.009112718515098095
0.00957378651946783,-0.004719988908618689,-0.01309946272522211,0.017180612310767174,6.727201252942905e-05,0.009414687752723694
0.009303547441959381,-0.004732069559395313,-0.01362053956836462,0.017656395211815834,6.644429959123954e-05,0.009269584901630878
0.010452425107359886,-0.00476541742682457,-0.012738815508782864,0.018029306083917618,6.563674105564132e-05,0.009370324201881886
0.010055194608867168,-0.005095795262604952,-0.013436432927846909,0.018515916541218758,6.484847835963592e-05,0.009147710166871548
0.010055194608867168,-0.005095795262604952,-0.013436432927846909,0.018515916541218758,6.484847835963592e-05,0.009147710166871548
0.009378958493471146,-0.0049026585184037685,-0.012776660732924938,0.018080338835716248,7.201348489616066e-05,0.010012385435402393
0.009667896665632725,-0.004413957707583904,-0.01346631906926632,0.017633313313126564,7.3702831286937e-05,0.009353922680020332
0.010092019103467464,-0.00429540453478694,-0.012883411720395088,0.017674775794148445,7.301402365555987e-05,0.009544196538627148
0.009307794272899628,-0.004193090368062258,-0.01298902090638876,0.017355332151055336,7.218820246635005e-05,0.00965880136936903
0.009723304770886898,-0.00484758336097002,-0.013221045956015587,0.01738715171813965,7.137106877053156e-05,0.009403076954185963
0.009860609658062458,-0.005009637679904699,-0.012949439696967602,0.017712732776999474,7.057165203150362e-05,0.009449378587305546
0.009490925818681717,-0.004360719583928585,-0.01321224682033062,0.01749887503683567,6.978990859352052e-05,0.00941502582281828
0.009917903691530228,-0.004286163952201605,-0.012657210230827332,0.017880067229270935,8.989570233097766e-06,0.009537726640701294
0.010181277990341187,-0.004529701080173254,-0.012972068972885609,0.017658889293670654,5.869546839676332e-07,0.009781928732991219
0.009275992400944233,-0.004247267730534077,-0.012556078843772411,0.01941077783703804,3.8323946682794485e-08,0.009698095731437206
0.009567772038280964,-0.004486735910177231,-0.013318609446287155,0.01833445392549038,2.502279938809693e-09,0.00967063196003437
0.010043427348136902,-0.004722286947071552,-0.0133783258497715,0.0176209956407547,1.6338098929313816e-10,0.009633464738726616
0.009659078903496265,-0.004677192773669958,-0.013232024386525154,0.01809021458029747,1.066761089185686e-11,0.009626559913158417
0.010522677563130856,-0.00449785403907299,-0.013087400235235691,0.018236935138702393,6.965187432893261e-13,0.009538903832435608
0.009874539449810982,-0.004378242883831263,-0.013039018027484417,0.01807769387960434,4.547769360532458e-14,0.0096203051507473
0.009299573488533497,-0.004447882995009422,-0.013090080581605434,0.018231235444545746,2.9693684407735687e-15,0.00988534651696682
0.009998694062232971,-0.004578263033181429,-0.013557301834225655,0.018087567761540413,1.2658880926935917e-17,0.009222063235938549
0.00926683098077774,-0.0043357498943805695,-0.012726244516670704,0.01816599629819393,8.265344810970472e-19,0.009680161252617836
0.01058703102171421,-0.004414678085595369,-0.013440274633467197,0.017664015293121338,5.3966794739562456e-20,0.009707745164632797
0.009981350973248482,-0.004490075167268515,-0.012987635098397732,0.01813810132443905,3.523646026117765e-21,0.009387673810124397
0.00923716090619564,-0.004581655375659466,-0.013416983187198639,0.018182754516601562,2.3006892273587967e-22,0.009120048955082893
0.009099612943828106,-0.0042190151289105415,-0.013217132538557053,0.018162190914154053,1.502185696640034e-23,0.009245541878044605
0.009510859847068787,-0.004384838044643402,-0.013517689891159534,0.01814735308289528,9.808199513147772e-25,0.009928698651492596
0.009484241716563702,-0.0042579942382872105,-0.012976378202438354,0.017333602532744408,6.404053563567443e-26,0.0109113659709692
0.009741676971316338,-0.004306817892938852,-0.013172263279557228,0.017448991537094116,4.181389583747039e-27,0.009635773487389088
0.009799565188586712,-0.0042192828841507435,-0.013224885798990726,0.017834672704339027,2.7301484557260345e-28,0.00876519363373518
0.009088650345802307,-0.0043687899596989155,-0.012551138177514076,0.017540479078888893,1.7825920064231082e-29,0.009109499864280224
0.009088650345802307,-0.0043687899596989155,-0.012551138177514076,0.017540479078888893,1.7825920064231082e-29,0.009109499864280224
0.009561040438711643,-0.004009045194834471,-0.013880169950425625,0.01765241101384163,1.1639051049977565e-30,0.00953205768018961
0.010030505247414112,-0.004373807925730944,-0.013181371614336967,0.01700746826827526,7.599469297804743e-32,0.009628595784306526
0.009524151682853699,-0.004149742424488068,-0.013135251589119434,0.017207862809300423,4.961910795666636e-33,0.010005928575992584
0.00964482594281435,-0.004381153266876936,-0.013060645200312138,0.017506873235106468,3.2397730926390948e-34,0.009615120477974415
0.010115684010088444,-0.004364697262644768,-0.013758368790149689,0.01721801795065403,2.115340253432797e-35,0.009119131602346897
0.009595301933586597,-0.004385247826576233,-0.013102126307785511,0.017544880509376526,1.3811659532359239e-36,0.00989413820207119
0.009767505340278149,-0.004179167095571756,-0.013730794191360474,0.017610402777791023,9.018025999115531e-38,0.009330036118626595
0.01023838110268116,-0.004329280462116003,-0.013759437017142773,0.017376111820340157,5.888127227634163e-39,0.009351895190775394
0.009699385613203049,-0.004472651984542608,-0.013889601454138756,0.01746935397386551,3.844532401798352e-40,0.009617345407605171
0.0100497892126441,-0.004289845936000347,-0.013803240843117237,0.016853025183081627,2.510145939145045e-41,0.009711727499961853
0.010478025302290916,-0.004048650618642569,-0.013787621632218361,0.0171904806047678,1.639519203260036e-42,0.009671976789832115
0.010207626968622208,-0.004325916059315205,-0.013633213005959988,0.01729489117860794,1.064986832886861e-43,0.009638423100113869
0.010147849097847939,-0.004156083334237337,-0.013892527669668198,0.017784560099244118,7.006492321624085e-45,0.009510410949587822
0.01028544269502163,-0.004125532228499651,-0.013455100357532501,0.018260236829519272,0.0,0.00984903797507286
0.009610025212168694,-0.00395929953083396,-0.013280282728374004,0.01785249076783657,0.0,0.009427012875676155
0.010054225102066994,-0.003851266112178564,-0.013460194692015648,0.017471205443143845,0.0,0.009545042179524899
0.010053017176687717,-0.004260736983269453,-0.013598745688796043,0.01727847009897232,0.0,0.009907255880534649
0.010182568803429604,-0.004441490396857262,-0.01238637138158083,0.018018944188952446,0.0,0.009914036840200424
0.00996011309325695,-0.0042799380607903,-0.01322465855628252,0.01790640689432621,0.0,0.010575315915048122
0.010576363652944565,-0.003960029687732458,-0.013243378140032291,0.01774265430867672,0.0,0.010371598415076733
0.010271809063851833,-0.004355717916041613,-0.013793171383440495,0.01735430210828781,0.0,0.009741936810314655
0.010292952880263329,-0.004144175909459591,-0.01342109963297844,0.016187472268939018,0.0,0.009753157384693623
0.009987203404307365,-0.00407993933185935,-0.013707420788705349,0.01682400144636631,0.0,0.010418996214866638
0.010166252963244915,-0.003899270435795188,-0.013071166351437569,0.015999959781765938,0.0,0.010083852335810661
0.010801022872328758,-0.003942945972084999,-0.013150393031537533,0.016369860619306564,0.0,0.009766471572220325
0.010422674007713795,-0.004371298011392355,-0.013436369597911835,0.016742290928959846,0.0,0.009769228287041187
0.010531717911362648,-0.004613153636455536,-0.012975377961993217,0.017334243282675743,0.0,0.01038361620157957
0.009831269271671772,-0.00422216160222888,-0.0132553456351161,0.017666425555944443,0.0,0.010086583904922009
0.009831269271671772,-0.00422216160222888,-0.0132553456351161,0.017666425555944443,0.0,0.010086583904922009
0.010359534062445164,-0.003988378215581179,-0.013156706467270851,0.017297685146331787,0.0,0.009931030683219433
0.01070698257535696,-0.003943443764001131,-0.013454118743538857,0.017713943496346474,0.0,0.009797767736017704
0.01048827264457941,-0.003928367048501968,-0.012778323143720627,0.017767705023288727,0.0,0.009822976775467396
0.011096203699707985,-0.003941032104194164,-0.013670921325683594,0.017283828929066658,0.0,0.010159889236092567
0.010291657410562038,-0.00393109442666173,-0.013293320313096046,0.01704161986708641,0.0,0.0102418577298522
0.009812220931053162,-0.003936404827982187,-0.01371061708778143,0.016350489109754562,0.0,0.00990799255669117
0.010456888005137444,-0.0039597367867827415,-0.013004429638385773,0.016819998621940613,0.0,0.009727652184665203
0.010492789559066296,-0.003507964313030243,-0.013429729267954826,0.01671862043440342,0.0,0.009795401245355606
0.01041502971202135,-0.0035485459957271814,-0.013381445780396461,0.016909955069422722,0.0,0.0100463991984725
0.010987440124154091,-0.0036268082913011312,-0.013563079759478569,0.016916407272219658,0.0,0.010319506749510765
0.010142194107174873,-0.0036285147070884705,-0.01327616535127163,0.01685468666255474,0.0,0.009833896532654762
0.010215924121439457,-0.003664639312773943,-0.013131462968885899,0.01710931956768036,0.0,0.009628087282180786
0.010883672162890434,-0.004244636278599501,-0.01333548128604889,0.016608484089374542,0.0,0.009971469640731812
0.010708073154091835,-0.004145440179854631,-0.013158665969967842,0.016876261681318283,0.0,0.010418650694191456
0.010985764674842358,-0.0039720116183161736,-0.013493821024894714,0.017159782350063324,0.0,0.010141991078853607
0.010866903699934483,-0.003459131345152855,-0.012971197254955769,0.017118442803621292,0.0,0.009841378778219223
0.010984810069203377,-0.0037751952186226845,-0.013131915591657162,0.016967004165053368,0.0,0.011105412617325783
0.010610571131110191,-0.0038781871553510427,-0.013603569008409977,0.01710992120206356,0.0,0.01009596697986126
0.010643847286701202,-0.0034997763577848673,-0.013114129193127155,0.01693866215646267,0.0,0.009088187478482723
0.010836891829967499,-0.00342315761372447,-0.013472835533320904,0.01666449010372162,0.0,0.009477993473410606
0.010554115287959576,-0.0035123038105666637,-0.013115068897604942,0.016911257058382034,0.0,0.009907552972435951
0.011208291165530682,-0.0036547966301441193,-0.013826374895870686,0.016626348719000816,0.0,0.010327119380235672
0.01129157841205597,-0.003669119207188487,-0.013394422829151154,0.017077479511499405,0.0,0.010366832837462425
0.010757073760032654,-0.003690591547638178,-0.013082942925393581,0.017019610852003098,0.0,0.01048662606626749
0.011142268776893616,-0.0037069267127662897,-0.013365635648369789,0.01721603237092495,0.0,0.010152382776141167
0.011142268776893616,-0.0037069267127662897,-0.013365635648369789,0.01721603237092495,0.0,0.010152382776141167
0.011197453364729881,-0.004152064677327871,-0.013285035267472267,0.017597554251551628,0.0,0.010750151239335537
0.011018696241080761,-0.004111522808670998,-0.013776388950645924,0.01691291667521,0.0,0.0100791547447443
0.011032482609152794,-0.0036135008558630943,-0.01296205073595047,0.017367620021104813,0.0,0.009919554926455021
0.010804983787238598,-0.0034400029107928276,-0.013620548881590366,0.017043737694621086,0.0,0.01072691474109888
0.010790753178298473,-0.003524926956743002,-0.012851087376475334,0.017168501392006874,0.0,0.010477556847035885
0.011440223082900047,-0.0037551436107605696,-0.013613643124699593,0.017103096470236778,0.0,0.010337455198168755
0.010951838456094265,-0.004263644572347403,-0.013136065565049648,0.016749046742916107,0.0,0.010266073048114777
0.011105223558843136,-0.004070681519806385,-0.013449338264763355,0.017542019486427307,0.0,0.009939516894519329
0.010893560945987701,-0.003552603768184781,-0.013199654407799244,0.017028480768203735,0.0,0.010387171991169453
0.010897998698055744,-0.0033578251022845507,-0.013492636382579803,0.017171593382954597,0.0,0.010910858400166035
0.01113069150596857,-0.0034932016860693693,-0.013523826375603676,0.01691068522632122,0.0,0.010338809341192245
0.010737049393355846,-0.00370544265024364,-0.014192487113177776,0.01736716739833355,0.0,0.010060985572636127
0.011036224663257599,-0.0043299379758536816,-0.013701950199902058,0.016721563413739204,0.0,0.009876459836959839
0.011088092811405659,-0.004133306443691254,-0.013064062222838402,0.015728136524558067,0.0,0.010171616449952126
0.010795444250106812,-0.0038752753753215075,-0.013687919825315475,0.016017436981201172,0.0,0.010160822421312332
0.010965943336486816,-0.0037051658146083355,-0.013958935625851154,0.016291582956910133,0.0,0.009904494509100914
0.01105290837585926,-0.0037620030343532562,-0.013161562383174896,0.016839493066072464,0.0,0.010721475817263126
0.011199086904525757,-0.0037590714637190104,-0.01352652721107006,0.017202485352754593,0.0,0.010683810338377953
0.010834655724465847,-0.003727906383574009,-0.013359188102185726,0.01778010092675686,2.168712398997741e-06,0.010265645571053028
0.01180971972644329,-0.004104411229491234,-0.014293232932686806,0.0170524250715971,1.4160141859065334e-07,0.010485113598406315
0.011386994272470474,-0.004218793008476496,-0.013709898106753826,0.016916098073124886,9.24556076142835e-09,0.01023884303867817
0.011046003550291061,-0.004010622855275869,-0.013946909457445145,0.016899874433875084,6.036691146960038e-10,0.010190794244408607
0.011274845339357853,-0.0034009283408522606,-0.01336719747632742,0.01680324599146843,3.9415273128673434e-11,0.01042964868247509
0.011207095347344875,-0.003087366931140423,-0.01433583628386259,0.017192866653203964,2.573535785518888e-12,0.01051932480186224
0.011207095347344875,-0.003087366931140423,-0.01433583628386259,0.017192866653203964,2.573535785518888e-12,0.01051932480186224
0.011301874183118343,-0.0031102760694921017,-0.01382223330438137,0.016493888571858406,1.6803348805698864e-13,0.009978320449590683
0.011623191647231579,-0.003479899140074849,-0.014582889154553413,0.016783790662884712,1.0971386525790352e-14,0.010690318420529366
0.01131139975041151,-0.0037219864316284657,-0.014193537645041943,0.01626182347536087,7.163531806079397e-16,0.01040232740342617
0.011943756602704525,-0.0036753611639142036,-0.014718350023031235,0.016154838725924492,4.677273913963129e-17,0.010331294499337673
0.011426912620663643,-0.00359702343121171,-0.014299675822257996,0.01625433750450611,3.053925385741942e-18,0.010369628667831421
0.011620597913861275,-0.0036564692854881287,-0.014738907106220722,0.016497937962412834,1.9939952515187637e-19,0.01046536024659872
0.011548347771167755,-0.003711465047672391,-0.013669919222593307,0.01706448569893837,1.301936401483863e-20,0.010723342187702656
0.01140665728598833,-0.0036360144149512053,-0.01443355344235897,0.016805028542876244,8.50071462756369e-22,0.010772615671157837
0.011350948363542557,-0.00357313035055995,-0.013952717185020447,0.01673441380262375,5.550359695907725e-23,0.010285857133567333
0.0117593202739954,-0.003672713181003928,-0.014483881182968616,0.01654152013361454,3.6239883444009724e-24,0.0107231754809618
0.01161098200827837,-0.0037148348055779934,-0.014539827592670918,0.016992725431919098,2.3662055415427266e-25,0.010209208354353905
0.01160002127289772,-0.0036745003890246153,-0.014783285558223724,0.017237728461623192,1.5449631287575567e-26,0.010128325782716274
0.011568457819521427,-0.0036236413288861513,-0.014258993789553642,0.016856130212545395,1.0087504899475246e-27,0.01078860368579626
0.012565204873681068,-0.003619922325015068,-0.014353993348777294,0.016936415806412697,6.586420409261854e-29,0.010779282078146935
0.011315757408738136,-0.003481857944279909,-0.014194383285939693,0.016325127333402634,4.3004612588109835e-30,0.011324773542582989
0.011452905833721161,-0.0038915963377803564,-0.013922731392085552,0.016141967847943306,1.8333540337250205e-32,0.010630927048623562
0.01123038213700056,-0.003940622787922621,-0.013849440030753613,0.01617720164358616,1.1970491519610258e-33,0.010592788457870483
0.011508054099977016,-0.003767957678064704,-0.013716140761971474,0.01677585393190384,7.815876287913664e-35,0.010437493212521076
0.011774309910833836,-0.0036400898825377226,-0.014357583597302437,0.016588827595114708,5.103208838397855e-36,0.010145232081413269
0.011838134378194809,-0.0036371578462421894,-0.014110947959125042,0.017296886071562767,3.3320308060779964e-37,0.010760842822492123
0.011980082839727402,-0.0035461040679365396,-0.013824430294334888,0.01696835644543171,2.1755778032564017e-38,0.010912862606346607
0.011130377650260925,-0.003548595355823636,-0.014041781425476074,0.016696548089385033,1.4204976545845314e-39,0.01074913702905178
0.012441719882190228,-0.003842802019789815,-0.013661010190844536,0.016803471371531487,9.274774145826667e-41,0.011095761321485043
0.011632286943495274,-0.00384324137121439,-0.01413293182849884,0.016987312585115433,6.05641196281186e-42,0.010815830901265144
0.011704642325639725,-0.0035964723210781813,-0.013950594700872898,0.017333513125777245,3.951661669395984e-43,0.010924468748271465
0.011997011490166187,-0.003546466352418065,-0.014002200216054916,0.0161893293261528,2.5223372357846707e-44,0.011146984063088894
0.011997011490166187,-0.003546466352418065,-0.014002200216054916,0.0161893293261528,2.5223372357846707e-44,0.011146984063088894
0.012132001109421253,-0.003733866848051548,-0.013741143979132175,0.0165824294090271,1.401298464324817e-45,0.010788080282509327
0.012082746252417564,-0.003916290123015642,-0.01415459718555212,0.01712212711572647,0.0,0.011340400204062462
0.011837741360068321,-0.004040371160954237,-0.013476407155394554,0.01731843128800392,0.0,0.011248690076172352
0.01250240858644247,-0.004473930690437555,-0.014234939590096474,0.017391901463270187,0.0,0.01062889862805605
0.012424041517078876,-0.0044418093748390675,-0.013794253580272198,0.016612276434898376,0.0,0.010781219229102135
0.012285800650715828,-0.0033558716531842947,-0.01420203410089016,0.01816651225090027,0.0,0.011414299719035625
0.012415498495101929,-0.003539299126714468,-0.013306143693625927,0.01704389788210392,0.0,0.01131468266248703
0.013144911266863346,-0.004042977001518011,-0.013919347897171974,0.016167687252163887,0.0,0.011190218850970268
0.012495717033743858,-0.004177354741841555,-0.013812551274895668,0.016329903155565262,0.0,0.010873260907828808
0.011725974269211292,-0.004049018025398254,-0.014149333350360394,0.016277115792036057,0.0,0.011040272191166878
0.012301119975745678,-0.003499053418636322,-0.013461875729262829,0.01664680615067482,0.0,0.011056669056415558
0.012259858660399914,-0.0035217164549976587,-0.013920333236455917,0.016362443566322327,0.0,0.010793282650411129
0.012285169214010239,-0.0028966646641492844,-0.013640332035720348,0.01670941151678562,0.0,0.011008099652826786
0.012882172130048275,-0.002281786175444722,-0.01424198318272829,0.016660621389746666,0.0,0.010923025198280811
0.012378898449242115,-0.0021117592696100473,-0.013958352617919445,0.016381116583943367,0.0,0.010958144441246986
0.01226518489420414,-0.002759935799986124,-0.013717002235352993,0.016096388921141624,0.0,0.01091224979609251
0.012638534419238567,-0.002877849154174328,-0.014097053557634354,0.016246559098362923,0.0,0.011155758984386921
0.012482360936701298,-0.0030679679475724697,-0.013639525510370731,0.015892725437879562,0.0,0.011674104258418083
0.012417408637702465,-0.0028537772595882416,-0.013896320946514606,0.01642952859401703,0.0,0.011443150229752064
0.013182226568460464,-0.0024245851673185825,-0.013902260921895504,0.016164755448698997,0.0,0.011495465412735939
0.012957091443240643,-0.0024667021352797747,-0.014109167270362377,0.01653684675693512,0.0,0.011514694429934025
0.01289890706539154,-0.0026618384290486574,-0.01358436793088913,0.016335435211658478,0.0,0.011551306582987309
0.012477573938667774,-0.002843518741428852,-0.013457070104777813,0.016101637855172157,0.0,0.0115707041695714
0.012920713983476162,-0.0026488921139389277,-0.013583841733634472,0.015995342284440994,0.0,0.011232498101890087
0.01273325551301241,-0.002586126560345292,-0.013449418358504772,0.015566878020763397,0.0,0.011311260983347893
0.01273325551301241,-0.002586126560345292,-0.013449418358504772,0.015566878020763397,0.0,0.011311260983347893
0.012732421047985554,-0.0023207340855151415,-0.01380921620875597,0.01621849276125431,0.0,0.01149199903011322
0.012701252475380898,-0.002422348130494356,-0.0132676400244236,0.016353225335478783,0.0,0.01169782504439354
0.012884330935776234,-0.0026763747446238995,-0.013932335190474987,0.01684660278260708,0.0,0.01178019866347313
0.013398036360740662,-0.002483775606378913,-0.013133774511516094,0.016765663400292397,0.0,0.01171923615038395
0.012904291972517967,-0.002549838274717331,-0.013651707209646702,0.016561293974518776,0.0,0.012614724226295948
0.013129467144608498,-0.0026440811343491077,-0.013220549561083317,0.016809260472655296,0.0,0.011509484611451626
0.012576987966895103,-0.0024032320361584425,-0.013853278942406178,0.016517534852027893,0.0,0.010783903300762177
0.013099292293190956,-0.0024762481916695833,-0.013449574820697308,0.0174521766602993,0.0,0.011330083943903446
0.012506792321801186,-0.0026159146800637245,-0.013823115266859531,0.01708759367465973,0.0,0.011732261627912521
0.012881380505859852,-0.0024478347040712833,-0.013293483294546604,0.016993727535009384,0.0,0.012031403370201588
0.012891668826341629,-0.0025356134865432978,-0.013657275587320328,0.01677863858640194,0.0,0.011931773275136948
0.012956465594470501,-0.002648471388965845,-0.013597006909549236,0.016109231859445572,0.0,0.012325550429522991
0.013081543147563934,-0.0024313596077263355,-0.013801132328808308,0.016284756362438202,0.0,0.012560483068227768
0.012856823392212391,-0.0025145409163087606,-0.013282131403684616,0.015708936378359795,-0.00018639021436683834,0.012399458326399326
0.013209793716669083,-0.0026744925417006016,-0.013231656514108181,0.01613808609545231,-0.00030068171327002347,0.01238357461988926
0.01333489641547203,-0.0025205896236002445,-0.01361164916306734,0.016652168706059456,-0.0003197621845174581,0.012065153568983078
0.012780038639903069,-0.0024441664572805166,-0.013908475637435913,0.01687854528427124,-0.00030799765954725444,0.01198414247483015
0.01295232679694891,-0.0023665137123316526,-0.013737566769123077,0.016217896714806557,-0.0002917751844506711,0.011740126647055149
0.012950419448316097,-0.00259683676995337,-0.013885640539228916,0.01631203666329384,-0.00029935204656794667,0.011493596248328686
0.013063001446425915,-0.002549997065216303,-0.013700810261070728,0.01584026776254177,-0.00030568326474167407,0.01148713193833828
0.01325699407607317,-0.002598326653242111,-0.014393739402294159,0.01621844433248043,-0.0002928354369942099,0.012032591737806797
0.013077913783490658,-0.002651748713105917,-0.01354877557605505,0.01599966175854206,-0.0002994570240844041,0.011825832538306713
0.013172539882361889,-0.002459630137309432,-0.014243029057979584,0.016031786799430847,-0.0003049587248824537,0.011850889772176743
0.013025473803281784,-0.0022636600770056248,-0.013493567705154419,0.015864809975028038,-0.0002937059907708317,0.01214724499732256
0.01331767812371254,-0.002240231493487954,-0.014075730927288532,0.015735235065221786,-0.0002822668175213039,0.01218616683036089
0.01331767812371254,-0.002240231493487954,-0.014075730927288532,0.015735235065221786,-0.0002822668175213039,0.01218616683036089
0.01296861469745636,-0.0020580808632075787,-0.013810262084007263,0.01566840149462223,-0.00032451393781229854,0.012153798714280128
0.013448304496705532,-0.002398883458226919,-0.014340022578835487,0.015353009104728699,-0.0003194018208887428,0.012093013152480125
0.012787871062755585,-0.002499070018529892,-0.013564473018050194,0.01578124612569809,-0.000299320206977427,0.012569512240588665
0.013158496469259262,-0.002437846502289176,-0.014064772054553032,0.01581861451268196,-0.000332949566654861,0.012615244835615158
0.013257513754069805,-0.00242336536757648,-0.013796121813356876,0.016565578058362007,-0.00031682022381573915,0.012067358009517193
0.013195319101214409,-0.0021150510292500257,-0.014399223029613495,0.01712321676313877,-0.00034592958400025964,0.01236350741237402
0.013204478658735752,-0.0022231710609048605,-0.013690671883523464,0.016257839277386665,-0.000330803741235286,0.012296101078391075
0.013261208310723305,-0.002146517625078559,-0.014148067682981491,0.015749260783195496,-0.0003144853108096868,0.01234512124210596
0.013530625961720943,-0.0021293156314641237,-0.013572216033935547,0.01583598367869854,-0.00033660107874311507,0.012253742665052414
0.013260412029922009,-0.0023221480660140514,-0.014207432046532631,0.01605883240699768,-0.0003264176775701344,0.012516341172158718
0.013502285815775394,-0.0022520702332258224,-0.014347163960337639,0.01580975577235222,-0.00036998456926085055,0.011915254406630993
0.013075056485831738,-0.0021714158356189728,-0.014465400949120522,0.01604384556412697,-0.0003923062758985907,0.011681652627885342
0.013614589348435402,-0.001955522457137704,-0.013952035456895828,0.01567865163087845,-0.0003993994614575058,0.012125246226787567
0.013301080092787743,-0.001918939407914877,-0.014024550095200539,0.016035480424761772,-0.0004020255000796169,0.012346004135906696
0.01359438057988882,-0.0021814957726746798,-0.013992805033922195,0.015804942697286606,-0.00037612885353155434,0.012898591347038746
0.01379566639661789,-0.0021962570026516914,-0.014093509875237942,0.015560584142804146,-0.0003302392433397472,0.013274719007313251
0.01328088715672493,-0.002102129627019167,-0.013881312683224678,0.015710938721895218,-0.00035947171272709966,0.012969126924872398
0.01326089445501566,-0.0022193598560988903,-0.01372584979981184,0.016165902838110924,-0.00034304088330827653,0.013758213259279728
0.013212750665843487,-0.001981708686798811,-0.013673749752342701,0.01643565110862255,-0.0003255154297221452,0.012608472257852554
0.013530660420656204,-0.0020488868467509747,-0.013814136385917664,0.016597211360931396,-0.0003311180626042187,0.0115980114787817
0.01365653332322836,-0.0019181945826858282,-0.013691111467778683,0.01603890396654606,-0.0003357022942509502,0.012200327590107918
0.013350817374885082,-0.002090627094730735,-0.01388476975262165,0.016127126291394234,-0.00032199593260884285,0.012334521859884262
0.013870679773390293,-0.0019994787871837616,-0.013495282270014286,0.015743732452392578,-0.00030829058960080147,0.012967735528945923
0.013547522015869617,-0.0021904802415519953,-0.013930211775004864,0.016016175970435143,-0.0003052025567740202,0.013051941990852356
0.01336203794926405,-0.0021533709950745106,-0.013515250757336617,0.01604931615293026,-0.00029584497679024935,0.013079961761832237
0.012982799671590328,-0.0020681247115135193,-0.014066750183701515,0.015812529250979424,-0.00027824443532153964,0.012606955133378506
0.012982799671590328,-0.0020681247115135193,-0.014066750183701515,0.015812529250979424,-0.00027824443532153964,0.012606955133378506
0.013424132019281387,-0.001988546922802925,-0.014839276671409607,0.016032427549362183,-0.00029672044911421835,0.012739923782646656
0.013424132019281387,-0.001988546922802925,-0.014839276671409607,0.016032427549362183,-0.00029672044911421835,0.012739923782646656
0.014140190556645393,-0.0019179659429937601,-0.014056507498025894,0.01636807806789875,-0.0002816460037138313,0.012599868699908257
0.01350985188037157,-0.0018921013688668609,-0.014130119234323502,0.016028286889195442,-0.0003063365293201059,0.012616107240319252
0.013605479151010513,-0.001705895527265966,-0.01347347628325224,0.016600962728261948,-0.00029717787401750684,0.01229788176715374
0.013600670732557774,-0.0017241619061678648,-0.014224061742424965,0.01631966605782509,-0.0002841183450073004,0.01268215011805296
0.013963203877210617,-0.0019627693109214306,-0.013780474662780762,0.016227640211582184,-0.00027187675004824996,0.01301318034529686
0.01339507196098566,-0.0019846854265779257,-0.01447163987904787,0.015945935621857643,-0.0002881460532080382,0.013317421078681946
0.01390104927122593,-0.0021073361858725548,-0.013937333598732948,0.016004180535674095,-0.0002853921614587307,0.01321551576256752
0.014100639149546623,-0.0020472309552133083,-0.014392114244401455,0.016270877793431282,-0.0002750543935690075,0.012995433993637562
0.014341671951115131,-0.0021157849114388227,-0.013489339500665665,0.016195865347981453,-0.00026496764621697366,0.01277929823845625
0.014226970262825489,-0.002046651439741254,-0.01423761248588562,0.016576698049902916,-0.00030305428663268685,0.012730579823255539
0.014543971978127956,-0.0020166365429759026,-0.013457893393933773,0.016028977930545807,-0.0002988697960972786,0.013245745562016964
0.012752965092658997,-0.0019628473091870546,-0.013742944225668907,0.01606813445687294,-0.0002812284219544381,0.013225649483501911
0.014699348248541355,-0.0019498439505696297,-0.013310764916241169,0.015895480290055275,-0.0003105382202193141,0.013337912037968636
0.014562672935426235,-0.0018513976829126477,-0.01408115029335022,0.01597323827445507,-0.0002995706454385072,0.013123703189194202
0.014219168573617935,-0.0019367487402632833,-0.014200001955032349,0.01626305840909481,-0.00031193046015687287,0.013334505259990692
0.014256808906793594,-0.002299868268892169,-0.013872331939637661,0.016299696639180183,-0.00029981613624840975,0.012903735041618347
0.014342258684337139,-0.002091229660436511,-0.01422655489295721,0.01619706302881241,-0.00028636344359256327,0.012996801175177097
0.014647431671619415,-0.0021009990014135838,-0.014171617105603218,0.016692593693733215,-0.0002739214978646487,0.012872705236077309
0.014723763801157475,-0.0019250356126576662,-0.014176782220602036,0.016555240377783775,-0.0002625061315484345,0.013041508384048939
0.01491611823439598,-0.0019289576448500156,-0.013944759033620358,0.016692129895091057,-0.0002520035777706653,0.013422626070678234
0.014686386100947857,-0.0017388083506375551,-0.014148346148431301,0.016753356903791428,-0.0002423092955723405,0.013735617510974407
0.014940254390239716,-0.001739745493978262,-0.014014708809554577,0.01598384417593479,-0.000262238405412063,0.013615055941045284
0.014776702038943768,-0.0017579066334292293,-0.013880031183362007,0.01587842032313347,-0.00025685279979370534,0.013887784443795681
0.014987480826675892,-0.0018923694733530283,-0.014383542351424694,0.015395045280456543,-0.00024825448053888977,0.013600335456430912
0.014906295575201511,-0.0018760762177407742,-0.013675782829523087,0.015936074778437614,-0.00023999557015486062,0.013589306734502316
0.015331348404288292,-0.0018647543620318174,-0.013977200724184513,0.016001958400011063,-0.0002322541840840131,0.013203294947743416
0.01474046241492033,-0.0018516744021326303,-0.014111589640378952,0.016761619597673416,-0.00023401313228532672,0.014148487709462643
0.01474046241492033,-0.0018516744021326303,-0.014111589640378952,0.016761619597673416,-0.00023401313228532672,0.014148487709462643
0.01431596651673317,-0.0017984991427510977,-0.014875886030495167,0.016239317134022713,-0.00022003652702551335,0.013423834927380085
0.01431596651673317,-0.0017984991427510977,-0.014875886030495167,0.016239317134022713,-0.00022003652702551335,0.013423834927380085
0.015209139324724674,-0.0015798549866303802,-0.014927634969353676,0.01597258821129799,-0.00020981181296519935,0.013845577836036682
0.014864476397633553,-0.0016443413915112615,-0.01416937168687582,0.016225038096308708,-0.00023781857453286648,0.014384220354259014
0.015080037526786327,-0.0017540407134220004,-0.014452398754656315,0.016634302213788033,-0.0002301181957591325,0.013816295191645622
0.014661767520010471,-0.0018598190508782864,-0.01429691631346941,0.01624426059424877,-0.0002208635414717719,0.01391197182238102
0.015021980740129948,-0.0016993776662275195,-0.014514537528157234,0.016595203429460526,-0.00024515538825653493,0.01417672261595726
0.014943595975637436,-0.0016918901819735765,-0.014057709835469723,0.015751659870147705,-0.00023804123338777572,0.014465225860476494
0.015344478189945221,-0.001698367646895349,-0.014667278155684471,0.01593577116727829,-0.00025376281701028347,0.01462923176586628
0.015236559323966503,-0.0017373301088809967,-0.0146823450922966,0.016556520015001297,-0.00025252773775719106,0.014054957777261734
0.015481543727219105,-0.0016991236479952931,-0.015253964811563492,0.01589115336537361,-0.00024445413146167994,0.01345195434987545
0.01508281845599413,-0.0018391815247014165,-0.015121006406843662,0.015498901717364788,-0.0002986202307511121,0.013589597307145596
0.015426702797412872,-0.0018521739402785897,-0.01422935165464878,0.015465219505131245,-0.00033552636159583926,0.013977345079183578
0.015412308275699615,-0.0019906836096197367,-0.014681308530271053,0.016178196296095848,-0.00034653896000236273,0.013591169379651546
0.015364943072199821,-0.0016616047360002995,-0.015344971790909767,0.015442097559571266,-0.0003324683930259198,0.01375449076294899
0.01495738048106432,-0.0015651802532374859,-0.015232107602059841,0.015061799436807632,-0.00036189003731124103,0.014163687825202942
0.015415037982165813,-0.0015987945953384042,-0.014880267903208733,0.01601746492087841,-0.0003692842728924006,0.014166789129376411
0.015279031358659267,-0.00142793043050915,-0.01488267071545124,0.01594039984047413,-0.0003726194554474205,0.0147877661511302
0.015659581869840622,-0.0015065631596371531,-0.015389511361718178,0.016098985448479652,-0.0003559087053872645,0.014627773314714432
0.015460746362805367,-0.0014158623525872827,-0.014809084124863148,0.016091538593173027,-0.0004858053580392152,0.014642724767327309
0.01576944813132286,-0.001520192832686007,-0.014665771275758743,0.01590917259454727,-0.0004916978068649769,0.014370321296155453
0.015632962808012962,-0.0015827217139303684,-0.014201129786670208,0.0158994197845459,-0.00048706127563491464,0.014350958168506622
0.015895970165729523,-0.001499948208220303,-0.015005543828010559,0.015379305928945541,-0.00044912731391377747,0.014171463437378407
0.01566634699702263,-0.0015724566765129566,-0.01457918994128704,0.015508996322751045,-0.0004655303491745144,0.014179288409650326
0.01587243564426899,-0.0014538704417645931,-0.015408315695822239,0.015936987474560738,-0.0004481735813897103,0.013927671127021313
0.015691203996539116,-0.001268504187464714,-0.014595437794923782,0.016500934958457947,-0.0004193574714008719,0.014418556354939938
0.01595521904528141,-0.0013625224819406867,-0.014767545275390148,0.016250647604465485,-0.00039323465898633003,0.014481404796242714
0.016349410638213158,-0.0012945444323122501,-0.014220419339835644,0.016285700723528862,-0.00041933328611776233,0.014474020339548588
0.016349410638213158,-0.0012945444323122501,-0.014220419339835644,0.016285700723528862,-0.00041933328611776233,0.014474020339548588
0.01601346954703331,-0.0014472901821136475,-0.014799264259636402,0.016567766666412354,-0.00039928016485646367,0.014060752466320992
0.01641242951154709,-0.001477783895097673,-0.014358092099428177,0.016389567404985428,-0.0003784922882914543,0.014307665638625622
0.01633032038807869,-0.0014536320231854916,-0.014633480459451675,0.016578001901507378,-0.00037838047137483954,0.014242998324334621
0.016757190227508545,-0.0013949678977951407,-0.0142505569383502,0.015495771542191505,-0.0003523572813719511,0.014193910174071789
0.016203561797738075,-0.001418080646544695,-0.014858687296509743,0.016037659719586372,-0.0003750283794943243,0.013863629661500454
0.01589827984571457,-0.0013398037990555167,-0.014386949129402637,0.01560661569237709,-0.00036465871380642056,0.014139529317617416
0.01641080342233181,-0.0012891138903796673,-0.014773059636354446,0.015614628791809082,-0.0003424979804549366,0.01431611180305481
0.016202343627810478,-0.001371385413222015,-0.013814167119562626,0.01612321473658085,-0.00032212070073001087,0.014728100039064884
0.016956724226474762,-0.0013872181298211217,-0.01485319435596466,0.016174575313925743,-0.0003413258818909526,0.013478890061378479
0.016773099079728127,-0.0014395505422726274,-0.014002685435116291,0.01652446575462818,-0.00033487126347608864,0.01371766533702612
0.01662464812397957,-0.0013772957026958466,-0.014744221232831478,0.016165096312761307,-0.0003186912217643112,0.014107721857726574
0.01706869713962078,-0.0012550592655315995,-0.014163763262331486,0.016105040907859802,-0.00030338982469402254,0.014535537920892239
0.01667702943086624,-0.0012062940513715148,-0.014918910339474678,0.015529966913163662,-0.00032796995947137475,0.014316478744149208
0.016882868483662605,-0.0013066937681287527,-0.014648675918579102,0.01487911306321621,-0.00030294363386929035,0.014595206826925278
0.017635352909564972,-0.001374092185869813,-0.013924423605203629,0.015877943485975266,-0.00032223426387645304,0.014432474970817566
0.017146360129117966,-0.0013263470027595758,-0.014842069707810879,0.01589393988251686,-0.0003056311106774956,0.014343632385134697
0.016831595450639725,-0.0014890747843310237,-0.014139289036393166,0.016104688867926598,-0.00028650829335674644,0.014677857048809528
0.0166925135999918,-0.0014134827069938183,-0.01470650639384985,0.01594182848930359,-0.0002693721035029739,0.014674637466669083
0.016727687790989876,-0.0013185885036364198,-0.014278101734817028,0.01558033749461174,-0.0002789197606034577,0.015013824217021465
0.017413152381777763,-0.0012211513239890337,-0.014924805611371994,0.015606126748025417,-0.00028697121888399124,0.014918221160769463
0.017742827534675598,-0.0011605017352849245,-0.014270742423832417,0.015557698905467987,-0.0002739089250098914,0.014760931022465229
0.017437690868973732,-0.0012217947514727712,-0.015034308657050133,0.016298096626996994,-0.0002607797214295715,0.014947163872420788
0.017462464049458504,-0.0012165982043370605,-0.014231291599571705,0.015813689678907394,-0.0002793810563161969,0.015280048362910748
0.017137257382273674,-0.0011927724117413163,-0.01467971969395876,0.01604521833360195,-0.0002767345285974443,0.015127245336771011
0.01796133629977703,-0.0011530396295711398,-0.014459826983511448,0.015465018339455128,-0.0002937419631052762,0.014874306507408619
0.017831765115261078,-0.0011137399123981595,-0.015013700351119041,0.016025235876441002,-0.0002907764574047178,0.014701166190207005
0.017741607502102852,-0.001083078794181347,-0.014748988673090935,0.015328805893659592,-0.0002813074388541281,0.015348079614341259
0.018106549978256226,-0.001164509798400104,-0.01465602871030569,0.015495510771870613,-0.0003284545673523098,0.015614278614521027
0.018106549978256226,-0.001164509798400104,-0.01465602871030569,0.015495510771870613,-0.0003284545673523098,0.015614278614521027
0.018001243472099304,-0.0011323441285640001,-0.014386179856956005,0.015623972751200199,-0.0003465152403805405,0.015467691235244274
0.018001243472099304,-0.0011323441285640001,-0.014386179856956005,0.015623972751200199,-0.0003465152403805405,0.015467691235244274
0.017803898081183434,-0.0011263261549174786,-0.014382635243237019,0.016007883474230766,-0.0003539168101269752,0.015256978571414948
0.017673971131443977,-0.0011000592494383454,-0.01484068762511015,0.015772804617881775,-0.00035835072048939764,0.01564083993434906
0.018268058076500893,-0.001070235506631434,-0.014353636652231216,0.015789320692420006,-0.000340588012477383,0.015557012520730495
0.018080847337841988,-0.0012154467403888702,-0.01444490160793066,0.01508361380547285,-0.00036320590879768133,0.015721023082733154
0.018026383593678474,-0.0011619973229244351,-0.014267129823565483,0.015503906644880772,-0.00035098468651995063,0.015534625388681889
0.01835060678422451,-0.0011195598635822535,-0.014479086734354496,0.015374979935586452,-0.0003349799371790141,0.015707366168498993
0.018078656867146492,-0.001013627857901156,-0.01425245963037014,0.01584489643573761,-0.0003203413507435471,0.015369493514299393
0.018141288310289383,-0.0010727522894740105,-0.014783612452447414,0.015497705899178982,-0.00040159493801184,0.015209639444947243
0.01821540668606758,-0.0010439325124025345,-0.014557388611137867,0.015713686123490334,-0.00037529386463575065,0.015329181216657162
0.01797252520918846,-0.0010226672748103738,-0.014502959325909615,0.01568770967423916,-0.0003468464710749686,0.015602164901793003
0.01841377653181553,-0.0010275868698954582,-0.014989178627729416,0.015706373378634453,-0.0003594731097109616,0.01569233275949955
0.017965417355298996,-0.0010423441417515278,-0.014774711802601814,0.015146019868552685,-0.0003379711997695267,0.01617172732949257
0.018388202413916588,-0.0010223176795989275,-0.014803940430283546,0.01559081394225359,-0.0003439216816332191,0.014860320836305618
0.018436281010508537,-0.0009100731695070863,-0.014536888338625431,0.015539998188614845,-0.00034870803938247263,0.015203407034277916
0.01872529648244381,-0.0008964132866822183,-0.01468147337436676,0.015987463295459747,-0.0003318923700135201,0.01559835858643055
0.018905986100435257,-0.0008923151763156056,-0.014768135733902454,0.015451670624315739,-0.0003485875204205513,0.01589314267039299
0.018716340884566307,-0.0008829597500152886,-0.014765134081244469,0.015747005119919777,-0.000342474872013554,0.015791555866599083
0.018364200368523598,-0.0008593491511419415,-0.0151909738779068,0.01567159779369831,-0.00036608928348869085,0.016360512003302574
0.018580859526991844,-0.0007986690616235137,-0.01511163730174303,0.015842074528336525,-0.00035144909634254873,0.01657317951321602
0.018544334918260574,-0.0007598435622639954,-0.015856875106692314,0.015442533418536186,-0.0003748230810742825,0.016105428338050842
0.018860213458538055,-0.0007665797602385283,-0.01490550022572279,0.015360758639872074,-0.00036455137887969613,0.016119807958602905
0.018339218571782112,-0.0006834821542724967,-0.015342365019023418,0.015552199445664883,-0.00037016402347944677,0.016048436984419823
0.018363045528531075,-0.0007064130622893572,-0.014514142647385597,0.01568536087870598,-0.0003738014493137598,0.015633493661880493
0.018721768632531166,-0.0007161928806453943,-0.015282643027603626,0.015743236988782883,-0.0003917399444617331,0.015392819419503212
0.018721768632531166,-0.0007161928806453943,-0.015282643027603626,0.015743236988782883,-0.0003917399444617331,0.015392819419503212
0.019853947684168816,-0.0006604036898352206,-0.014958561398088932,0.01535696443170309,-0.0003827397304121405,0.016071466729044914
0.018741047009825706,-0.0005385356489568949,-0.015455673448741436,0.015403509140014648,-0.0004926712135784328,0.016360748559236526
0.018989363685250282,-0.0004884689697064459,-0.014756717719137669,0.015110925771296024,-0.00048303738003596663,0.01683877967298031
0.018799709156155586,-0.0004532074963208288,-0.015455755405128002,0.015995964407920837,-0.00043873488903045654,0.016852669417858124
0.016902578994631767,-0.00042278473847545683,-0.014824973419308662,0.01588917337357998,-0.0003998837200924754,0.016175799071788788
0.01991816982626915,-0.000396192743210122,-0.015151570551097393,0.01607850193977356,-0.00036723093944601715,0.016541998833417892
0.019925635308027267,-0.0003727481234818697,-0.014604131691157818,0.01573186181485653,-0.00040259285015054047,0.016674285754561424
0.019005699083209038,-0.0003519220626913011,-0.015451543033123016,0.015826717019081116,-0.00037848687497898936,0.017110642045736313
0.01901804283261299,-0.00033330320729874074,-0.015185929834842682,0.015653882175683975,-0.000353936426108703,0.017225908115506172
0.019614581018686295,-0.0003165532252751291,-0.015742691233754158,0.01574224978685379,-0.00033216975862160325,0.01710665225982666
0.019301051273941994,-0.00030140785383991897,-0.015406581573188305,0.016232650727033615,-0.00035131059121340513,0.016463568434119225
0.019733991473913193,-0.0003270585439167917,-0.014953087083995342,0.016155628487467766,-0.00034416469861753285,0.016041075810790062
0.019563263282179832,-0.00031435975688509643,-0.015160325914621353,0.016653552651405334,-0.00032707961509004235,0.01634819805622101
0.01921021193265915,-0.0002680285833775997,-0.014866512268781662,0.015912005677819252,-0.0003494473930913955,0.016389723867177963
0.01904064044356346,-0.00024322343233507127,-0.015795672312378883,0.016558129340410233,-0.0003192545264028013,0.016796952113509178
0.018765388056635857,-0.00023418177443090826,-0.014808225445449352,0.016408845782279968,-0.0002949607151094824,0.01686696521937847
0.01973544806241989,-0.00022578862262889743,-0.01478568371385336,0.016029972583055496,-0.00027660070918500423,0.01692013628780842
0.020244475454092026,-0.00021797639783471823,-0.015842296183109283,0.015751831233501434,-0.00030563620384782553,0.016537245362997055
0.019664427265524864,-0.00021068667410872877,-0.014794626273214817,0.01596098393201828,-0.0002950941270682961,0.016624322161078453
0.019847381860017776,-0.00020386830146890134,-0.01492062397301197,0.01593445986509323,-0.00031460606260225177,0.01636352948844433
0.01979638822376728,-0.00019747826445382088,-0.014720429666340351,0.016338814049959183,-0.0003099767491221428,0.016610443592071533
0.019575633108615875,-0.00019147596322000027,-0.015528492629528046,0.015502466820180416,-0.00033275820896960795,0.016727108508348465
0.019419217482209206,-6.74576876917854e-05,-0.01496660616248846,0.0156309362500906,-0.0004275310202501714,0.016894156113266945
0.019858375191688538,-6.0434831539168954e-05,-0.015394735150039196,0.015756357461214066,-0.00048111227806657553,0.01615051180124283
0.019992217421531677,-5.841608071932569e-05,-0.014656045474112034,0.016129687428474426,-0.0005223264452069998,0.016522856429219246
0.019705967977643013,-5.657988367602229e-05,-0.015369419939815998,0.015946319326758385,-0.0005402491078712046,0.017006337642669678
0.019705967977643013,-5.657988367602229e-05,-0.015369419939815998,0.015946319326758385,-0.0005402491078712046,0.017006337642669678
0.020063452422618866,-5.485559086082503e-05,-0.015233566053211689,0.015619393438100815,-0.0005147087504155934,0.016822615638375282
0.020216744393110275,-5.32331905560568e-05,-0.015583829022943974,0.015711812302470207,-0.0005357461050152779,0.017051640897989273
0.019965359941124916,-5.170428266865201e-05,-0.015157296322286129,0.015611794777214527,-0.0006165015511214733,0.017582427710294724
0.020059555768966675,-5.026049620937556e-05,-0.015151694416999817,0.01609031669795513,-0.0006350461626425385,0.017207063734531403
0.020487211644649506,-4.889521733275615e-05,-0.015454962849617004,0.015758231282234192,-0.0006667115376330912,0.017404310405254364
0.020511504262685776,-4.760213414556347e-05,-0.015822550281882286,0.016036802902817726,-0.0006478357827290893,0.017335038632154465
0.020400676876306534,-4.6375778765650466e-05,-0.01563693955540657,0.015567184425890446,-0.0006268390570767224,0.01733100786805153
0.020563839003443718,-4.521086884778924e-05,-0.014917201362550259,0.015734585002064705,-0.0006121534388512373,0.017396818846464157
0.020106883719563484,-4.4103195250499994e-05,-0.015402904711663723,0.015083158388733864,-0.000597314618062228,0.017057079821825027
0.020487790927290916,-4.304840331315063e-05,-0.015025665983557701,0.015287630259990692,-0.0005578232230618596,0.017306042835116386
0.020683232694864273,-4.204302604193799e-05,-0.015682416036725044,0.01557179819792509,-0.0005494598299264908,0.017436299473047256
0.02055327408015728,-4.108336361241527e-05,-0.015177585184574127,0.015946509316563606,-0.0005404824623838067,0.017643705010414124
0.020833183079957962,-2.0432036762940697e-05,-0.014652942307293415,0.01599959097802639,-0.0005549642373807728,0.017514538019895554
0.02122483402490616,-1.923590389196761e-05,-0.015007266774773598,0.016043150797486305,-0.0005733269499614835,0.01765083149075508
0.02065093256533146,-1.882336800917983e-05,-0.014693021774291992,0.015500850044190884,-0.0005510708433575928,0.017794985324144363
0.020570816472172737,-1.8437625840306282e-05,-0.015347189269959927,0.015351810492575169,-0.0006982622435316443,0.018113991245627403
0.021044094115495682,-1.8067485143546946e-05,-0.01530572772026062,0.01487900223582983,-0.0006760549731552601,0.018350496888160706
0.021281694993376732,-1.7711909094941802e-05,-0.015605640597641468,0.015193233266472816,-0.0006911504315212369,0.017796548083424568
0.020981300622224808,-1.7370113710057922e-05,-0.015047688037157059,0.015254156664013863,-0.0006335669895634055,0.017870090901851654
0.020935337990522385,-1.7041211322066374e-05,-0.015297816134989262,0.016253206878900528,-0.0006472404347732663,0.01734880357980728
0.021557146683335304,-1.6724541637813672e-05,-0.015641456469893456,0.016580024734139442,-0.0006046501221135259,0.017348969355225563
0.021469097584486008,-1.641942435526289e-05,-0.015180769376456738,0.016203636303544044,-0.000640793819911778,0.017492221668362617
0.02105194889008999,-1.6125253750942647e-05,-0.01528721023350954,0.01600269228219986,-0.0006653512245975435,0.01776750013232231
0.02090412750840187,-1.5841444110265e-05,-0.015583684667944908,0.015748970210552216,-0.0006780670373700559,0.018310915678739548
0.020264292135834694,-1.5567426089546643e-05,-0.016114315018057823,0.016666803508996964,-0.0006332921329885721,0.01849670521914959
0.02202918939292431,-6.110275876380911e-07,-0.015239410102367401,0.016615109518170357,-0.0006165477097965777,0.01777619495987892
0.02202918939292431,-6.110275876380911e-07,-0.015239410102367401,0.016615109518170357,-0.0006165477097965777,0.01777619495987892
0.02184448204934597,-8.197714507218734e-09,-0.015531360171735287,0.016404975205659866,-0.0006011588266119361,0.018022334203124046
0.021717356517910957,-1.0998280758345302e-10,-0.015249584801495075,0.01533066388219595,-0.0005610888474620879,0.01820351369678974
0.022011803463101387,-1.4755598002139103e-12,-0.015597567893564701,0.015504254959523678,-0.0005700008478015661,0.01831774041056633
0.022228099405765533,-1.9796518618180395e-14,-0.015145941637456417,0.015310888178646564,-0.0005850138259120286,0.018078424036502838
0.021737070754170418,-2.655955715317196e-16,-0.015914209187030792,0.015394870191812515,-0.0005486779846251011,0.017840299755334854
0.021063318476080894,-3.56330341374725e-18,-0.015409901738166809,0.015381560660898685,-0.0004993989132344723,0.017791423946619034
0.021641308441758156,-4.780626372999721e-20,-0.01590014435350895,0.015216265805065632,-0.0005279351025819778,0.017949450761079788
0.022004062309861183,-6.413820841907208e-22,-0.015590273775160313,0.01573844626545906,-0.0004913513548672199,0.01804090291261673
0.02199956402182579,-8.60495865188412e-24,-0.015124290250241756,0.015593953430652618,-0.00045605923514813185,0.017636923119425774
0.021207913756370544,-1.1544651477595775e-25,-0.015418963506817818,0.016144948080182076,-0.00045478189713321626,0.018643930554389954
0.021695608273148537,-1.5488623280043642e-27,-0.015634307637810707,0.015489330515265465,-0.0004532347375061363,0.01869615726172924
0.022458156570792198,-2.077996407507914e-29,-0.016156310215592384,0.015581798739731312,-0.0004284963943064213,0.018888186663389206
0.022339267656207085,-2.7878973823536835e-31,-0.015565173700451851,0.015336018055677414,-0.0004101974773220718,0.018388723954558372
0.0217313002794981,-3.740320168560822e-33,-0.015666263177990913,0.015779554843902588,-0.00037715007783845067,0.018372658640146255
0.021792571991682053,-6.732444528799535e-37,-0.015568031929433346,0.015837661921977997,-0.00038703015889041126,0.018565325066447258
0.022046033293008804,-9.032433589406333e-39,-0.015145943500101566,0.01585778221487999,-0.0003616328467614949,0.01862502284348011
0.022165371105074883,-1.2118148859788153e-40,-0.01627318747341633,0.01576046459376812,-0.00033895476371981204,0.01858166605234146
0.022465672343969345,-1.6255062186167878e-42,-0.0161913949996233,0.01568978652358055,-0.0003648972779046744,0.018534056842327118
0.02267039567232132,-2.2420775429197073e-44,-0.015999536961317062,0.015592251904308796,-0.00035085459239780903,0.018650539219379425
0.02264544554054737,-0.0,-0.01673990860581398,0.016181476414203644,-0.00033273117151111364,0.019102854654192924
0.02223292365670204,0.0,-0.0159946009516716,0.015897700563073158,-0.00033809340675361454,0.01930784061551094
0.022398659959435463,0.0,-0.016114912927150726,0.016320303082466125,-0.00034244239213876426,0.019286030903458595
0.02280868962407112,0.0,-0.015361691825091839,0.0159173421561718,-0.0003281676908954978,0.019593065604567528
0.022776063531637192,0.0,-0.015914499759674072,0.016228539869189262,-0.0003410573990549892,0.019244035705924034
0.023008037358522415,0.0,-0.016074251383543015,0.015851637348532677,-0.00032608615583740175,0.019265778362751007
0.0227896086871624,0.0,-0.01689917780458927,0.015902169048786163,-0.00033423537388443947,0.019481709226965904
0.0227896086871624,0.0,-0.01689917780458927,0.015902169048786163,-0.00033423537388443947,0.019481709226965904
0.0226355642080307,0.0,-0.01671617291867733,0.015948187559843063,-0.00034037456498481333,0.019375771284103394
0.02295130491256714,0.0,-0.01625601202249527,0.01639886200428009,-0.0003411871730349958,0.019250143319368362
0.022870928049087524,0.0,-0.015649404376745224,0.01615632325410843,-0.0003347498713992536,0.01954486407339573
0.022870928049087524,0.0,-0.015649404376745224,0.01615632325410843,-0.0003347498713992536,0.01954486407339573
0.02261660434305668,0.0,-0.016198795288801193,0.01619146391749382,-0.0003407931071706116,0.01996788941323757
0.022968657314777374,0.00021320955420378596,-0.015929192304611206,0.014958115294575691,-0.000345096574164927,0.019874468445777893
0.023232493549585342,0.00026887323474511504,-0.01625070534646511,0.01508783083409071,-0.0003305981226731092,0.019917858764529228
0.021060796454548836,0.00025458142044954,-0.016119860112667084,0.015422910451889038,-0.00041417969623580575,0.01973704807460308
0.023734942078590393,0.0002409601438557729,-0.01647203229367733,0.015729958191514015,-0.0003928698424715549,0.01978008635342121
0.02347300760447979,0.00022871256805956364,-0.016559245064854622,0.015996310859918594,-0.0004295035032555461,0.019661622121930122
0.02322262153029442,0.00021764979464933276,-0.015755439177155495,0.015953343361616135,-0.00040197017369791865,0.019605550915002823
0.023027382791042328,0.00023483125551138073,-0.016342703253030777,0.01614593341946602,-0.0004202555282972753,0.019647175446152687
0.02335653267800808,0.00023795018205419183,-0.01611197181046009,0.015272321179509163,-0.0004073804884683341,0.019753163680434227
0.02326023392379284,0.00021883919544052333,-0.01611882820725441,0.015132044441998005,-0.00040622608503326774,0.019924694672226906
0.02411622740328312,0.0002439446107018739,-0.016367677599191666,0.01612057350575924,-0.0003903126926161349,0.02033424563705921
0.024211907759308815,0.00023615227837581187,-0.01670815236866474,0.015994301065802574,-0.0003714064951054752,0.0205868910998106
0.024560634046792984,0.00022763556626159698,-0.016187157481908798,0.01620999164879322,-0.0004149187880102545,0.02024884894490242
0.023386577144265175,0.00024981246679089963,-0.016447916626930237,0.016366267576813698,-0.0004409790853969753,0.0200031790882349
0.02301708608865738,0.00024260650388896465,-0.015869654715061188,0.016173798590898514,-0.00042412924813106656,0.02011781372129917
0.023749325424432755,0.00027420101105235517,-0.016795868054032326,0.015813229605555534,-0.00045105343451723456,0.020142899826169014
0.024009281769394875,0.0002773301675915718,-0.01642044074833393,0.015327585861086845,-0.0004579438827931881,0.020336372777819633
0.023942120373249054,0.0003075370623264462,-0.016512006521224976,0.01597246527671814,-0.0004567042051348835,0.020527277141809464
0.024585409089922905,0.00029646637267433107,-0.016649723052978516,0.016267720609903336,-0.00043116480810567737,0.02137727476656437
0.024829473346471786,0.00032729844679124653,-0.016156967729330063,0.01724524237215519,-0.0005490370676852763,0.020013241097331047
0.025135355070233345,0.00034090891131199896,-0.01654883474111557,0.017245890572667122,-0.0005578688578680158,0.020225174725055695
0.02458549290895462,0.0003392617800273001,-0.015979615971446037,0.017275476828217506,-0.0005466529983095825,0.020885486155748367
0.024534793570637703,0.0005853035254403949,-0.016446290537714958,0.017191510647535324,-0.0005392013117671013,0.021562565118074417
0.024051638320088387,0.0006188608822412789,-0.016267908737063408,0.016605740413069725,-0.0005303265643306077,0.021484876051545143
0.024302223697304726,0.0005858695367351174,-0.017093148082494736,0.01693420670926571,-0.0004913334269076586,0.02036428451538086
0.024302223697304726,0.0005858695367351174,-0.017093148082494736,0.01693420670926571,-0.0004913334269076586,0.02036428451538086
0.025376612320542336,0.0005863101105205715,-0.017100423574447632,0.01690882071852684,-0.0005121419089846313,0.019226230680942535
0.025271059945225716,0.0005615982809104025,-0.016612261533737183,0.01706378348171711,-0.000485284865135327,0.019977163523435593
0.02528686262667179,0.0005807579145766795,-0.017033105716109276,0.016813339665532112,-0.00045509784831665456,0.020985154435038567
0.02505338005721569,0.0005501020350493491,-0.016304543241858482,0.016522809863090515,-0.0004576093633659184,0.021368592977523804
0.025064237415790558,0.0006701131351292133,-0.016900882124900818,0.01655600592494011,-0.00042042139102704823,0.020766424015164375
0.024889377877116203,0.0006298127700574696,-0.016757884994149208,0.015913108363747597,-0.00038479844806715846,0.02090594731271267
0.025312460958957672,0.0007183141424320638,-0.01674974523484707,0.0164953600615263,-0.000420352938817814,0.02159441076219082
0.02525496482849121,0.000688705244101584,-0.017207669094204903,0.015980850905179977,-0.00039396618376486003,0.02243313193321228
0.025529557839035988,0.0010402067564427853,-0.016856517642736435,0.01616569049656391,-0.0004203275893814862,0.021898090839385986
0.025810562074184418,0.001033519278280437,-0.017115304246544838,0.016188763082027435,-0.0004008138785138726,0.02108175866305828
0.025668680667877197,0.0010147478897124529,-0.016762323677539825,0.016054479405283928,-0.0004035091260448098,0.02045406773686409
0.025813361629843712,0.0010764123871922493,-0.01729521155357361,0.015771210193634033,-0.0004050264833495021,0.020640971139073372
0.02538991905748844,0.001046896679326892,-0.01763085462152958,0.015292163006961346,-0.00038495054468512535,0.0214040819555521
0.025658730417490005,0.0009757147636264563,-0.01758548431098461,0.015501920133829117,-0.00038292547105811536,0.022188100963830948
0.025658730417490005,0.0009757147636264563,-0.01758548431098461,0.015501920133829117,-0.00038292547105811536,0.022188100963830948
0.026469780132174492,0.0009827170288190246,-0.01738663949072361,0.015617861412465572,-0.0003929266822524369,0.021984893828630447
0.026279166340827942,0.0009708264842629433,-0.017541734501719475,0.015803702175617218,-0.00042362482054159045,0.022141290828585625
0.026175975799560547,0.0009724564151838422,-0.016788296401500702,0.015282548032701015,-0.0004425653023645282,0.02223511040210724
0.026389218866825104,0.0012903899187222123,-0.017244962975382805,0.015418283641338348,-0.00042955222306773067,0.022138258442282677
0.026712199673056602,0.001232760027050972,-0.017070796340703964,0.01587800309062004,-0.0005780796054750681,0.022104522213339806
0.026446789503097534,0.0011780941858887672,-0.017650412395596504,0.01617075502872467,-0.0006140948389656842,0.02240678295493126
0.027027448639273643,0.0011501885019242764,-0.017657075077295303,0.016399910673499107,-0.0005744002410210669,0.02208908461034298
0.026929253712296486,0.0012224586680531502,-0.016642414033412933,0.016159068793058395,-0.0005953458021394908,0.02199520915746689
0.026937615126371384,0.0012045159237459302,-0.01774139702320099,0.016529088839888573,-0.0005532692885026336,0.022119034081697464
0.026663796976208687,0.0013629650929942727,-0.017351027578115463,0.015883011743426323,-0.0005719262408092618,0.022220812737941742
0.026919875293970108,0.0014570333296433091,-0.017845194786787033,0.016394538804888725,-0.0005377670750021935,0.022292571142315865
0.02748073637485504,0.0018316535279154778,-0.01759899966418743,0.016334328800439835,-0.0005049955798313022,0.022587968036532402
0.027406036853790283,0.001929356949403882,-0.016957160085439682,0.016166508197784424,-0.0005197126884013414,0.02256423607468605
0.027100935578346252,0.0019699763506650925,-0.017571700736880302,0.01609501987695694,-0.0004701615252997726,0.02227981947362423
0.02738049253821373,0.0017641853773966432,-0.01677834987640381,0.015916898846626282,-0.0005049562314525247,0.0220804400742054
0.027787841856479645,0.0016294065862894058,-0.017117343842983246,0.016247281804680824,-0.0005235091666691005,0.022470392286777496
0.028687018901109695,0.0016370295779779553,-0.017416028305888176,0.015510734170675278,-0.0004999286611564457,0.022585222497582436
0.028687018901109695,0.0016370295779779553,-0.017416028305888176,0.015510734170675278,-0.0004999286611564457,0.022585222497582436
0.028274226933717728,0.0018964336486533284,-0.017108751460909843,0.01614731177687645,-0.0005215026321820915,0.022427063435316086
0.026074692606925964,0.0022812930401414633,-0.017919475212693214,0.0161084346473217,-0.0004936153418384492,0.022709643468260765
0.027773365378379822,0.002638506703078747,-0.01704965904355049,0.016499308869242668,-0.0005079808179289103,0.022380901500582695
0.028937147930264473,0.002357801888138056,-0.017068520188331604,0.016328729689121246,-0.00049798988038674,0.02255762182176113
0.028338802978396416,0.002245508134365082,-0.017256874591112137,0.01648787409067154,-0.00045105829485692084,0.023089690133929253
0.028156587854027748,0.0020348052494227886,-0.017075562849640846,0.016186386346817017,-0.00048074708320200443,0.02300998568534851
0.02886706031858921,0.0021672770380973816,-0.01745026744902134,0.015785779803991318,-0.0004502449301071465,0.023080551996827126
0.029208792373538017,0.0021953238174319267,-0.01695353351533413,0.01605137623846531,-0.00044975540367886424,0.022648081183433533
0.02899600751698017,0.0022353571839630604,-0.017108134925365448,0.016110656782984734,-0.000448454957222566,0.022202057763934135
0.02790837176144123,0.002718936186283827,-0.017426257953047752,0.016695687547326088,-0.0004724437603726983,0.022415222600102425
0.029278835281729698,0.002523235511034727,-0.01746802218258381,0.016358107328414917,-0.0004907374968752265,0.02311394177377224
0.028921127319335938,0.002543502487242222,-0.01711609587073326,0.016291044652462006,-0.0005131870857439935,0.023055177181959152
0.028957612812519073,0.0023711787071079016,-0.01733419857919216,0.01577361486852169,-0.0004873866564594209,0.02337643690407276
0.028609199449419975,0.0023367705289274454,-0.017533959820866585,0.016163785010576248,-0.0005030399188399315,0.02339877188205719
0.02839704602956772,0.002674742601811886,-0.01683322712779045,0.01578322984278202,-0.0004816296277567744,0.02319364808499813
0.02855590730905533,0.0028185013215988874,-0.017434973269701004,0.016469789668917656,-0.0005037724622525275,0.023268312215805054
0.02890145406126976,0.00287614855915308,-0.0170780960470438,0.01617787778377533,-0.0004779362352564931,0.022458426654338837
0.0288659930229187,0.002651289803907275,-0.017277168110013008,0.016224130988121033,-0.0005519427359104156,0.022841574624180794
0.028888260945677757,0.002835551742464304,-0.017562929540872574,0.016402309760451317,-0.0005551166250370443,0.023656411096453667
0.028701335191726685,0.002984650433063507,-0.01695914752781391,0.016653193160891533,-0.0005438877851702273,0.02401409111917019
0.02891288883984089,0.0030257224570959806,-0.017231788486242294,0.0166742242872715,-0.0005680771428160369,0.023963777348399162
0.028858773410320282,0.0029077830258756876,-0.017262103036046028,0.015799446031451225,-0.0005857271607965231,0.02366805076599121
0.028737623244524002,0.0029218606650829315,-0.017369695007801056,0.015748361125588417,-0.0006588040851056576,0.02386326901614666
0.029393956065177917,0.002861978719010949,-0.017439965158700943,0.015825890004634857,-0.0007582299294881523,0.0238199383020401
0.02912270277738571,0.003302783938124776,-0.016966667026281357,0.0165074672549963,-0.0006962645566090941,0.023611731827259064
0.02912270277738571,0.003302783938124776,-0.016966667026281357,0.0165074672549963,-0.0006962645566090941,0.023611731827259064
0.029130464419722557,0.003212827490642667,-0.01734282448887825,0.016502823680639267,-0.0007142476970329881,0.02363671362400055
0.029122458770871162,0.0035050534643232822,-0.017362486571073532,0.016668353229761124,-0.0007329649524763227,0.023874079808592796
0.030649840831756592,0.0033058365806937218,-0.01795736700296402,0.01611914299428463,-0.000867265451233834,0.02377069555222988
0.030649840831756592,0.0033058365806937218,-0.01795736700296402,0.01611914299428463,-0.000867265451233834,0.02377069555222988
0.03020167537033558,0.0035775150172412395,-0.01725000888109207,0.016105514019727707,-0.0007648973842151463,0.0236673504114151
0.028681324794888496,0.0036621831823140383,-0.017383141443133354,0.01596510410308838,-0.0007744863978587091,0.023626381531357765
0.02916315197944641,0.003466891124844551,-0.017274431884288788,0.016586095094680786,-0.0007811259711161256,0.02376003935933113
0.030490081757307053,0.0035605602897703648,-0.017702138051390648,0.016571026295423508,-0.0007154389168135822,0.024765141308307648
0.029877876862883568,0.004005902446806431,-0.017066938802599907,0.016454381868243217,-0.0006777794915251434,0.023676376789808273
0.029877876862883568,0.004005902446806431,-0.017066938802599907,0.016454381868243217,-0.0006777794915251434,0.023676376789808273
0.030225709080696106,0.0038470749277621508,-0.017757166177034378,0.0166549701243639,-0.0006533882697112858,0.023618530482053757
0.029978569597005844,0.0043814219534397125,-0.01764468476176262,0.015995819121599197,-0.0006118512828834355,0.023928597569465637
0.029824834316968918,0.004679195117205381,-0.01818792149424553,0.016636716201901436,-0.000627764908131212,0.024386178702116013
0.030247872695326805,0.0043776738457381725,-0.017454855144023895,0.016286654397845268,-0.0006280273664742708,0.024489043280482292
0.030275052413344383,0.004502882249653339,-0.017453450709581375,0.016317695379257202,-0.0005905730067752302,0.024553680792450905
0.030418919399380684,0.00415894016623497,-0.017608270049095154,0.016015270724892616,-0.0006217768532224,0.02419218048453331
0.030495310202240944,0.004134002607315779,-0.017262298613786697,0.01551036536693573,-0.0006441738805733621,0.023869317024946213
0.03062475100159645,0.004065983463078737,-0.018050160259008408,0.015525318682193756,-0.0006357124075293541,0.023953130468726158
0.03049524687230587,0.004865337163209915,-0.01801534742116928,0.01530220452696085,-0.0006188800907693803,0.0238163061439991
0.03065660409629345,0.004475196823477745,-0.018283642828464508,0.0157674178481102,-0.0007123842369765043,0.02401401288807392
0.030899589881300926,0.004483306314796209,-0.018275894224643707,0.01579178124666214,-0.0007279732963070273,0.0243364330381155
0.030891889706254005,0.004361383616924286,-0.017297714948654175,0.016527093946933746,-0.0007208550232462585,0.024227546527981758
0.03085300326347351,0.0042073954828083515,-0.018287401646375656,0.016560643911361694,-0.0006911578821018338,0.024063516408205032
0.031040314584970474,0.004412401467561722,-0.018557047471404076,0.016524238511919975,-0.0006910506635904312,0.023991400375962257
0.03133196383714676,0.004724827595055103,-0.01811848022043705,0.016453534364700317,-0.0006490417872555554,0.024096181616187096
0.03133196383714676,0.004724827595055103,-0.01811848022043705,0.016453534364700317,-0.0006490417872555554,0.024096181616187096
0.03112257644534111,0.004803925286978483,-0.01819162257015705,0.015600825659930706,-0.0006542906630784273,0.024461330845952034
0.031204242259263992,0.00473835039883852,-0.017802769318223,0.016092650592327118,-0.0005911802290938795,0.024961235001683235
0.03142272308468819,0.004547484219074249,-0.01811118610203266,0.016049617901444435,-0.0006136830197647214,0.025007974356412888
0.03108355961740017,0.004528211895376444,-0.019038526341319084,0.016489656642079353,-0.0005620039883069694,0.024359578266739845
0.030926264822483063,0.004625803325325251,-0.017690401524305344,0.015990445390343666,-0.0005885262507945299,0.023498356342315674
0.031437672674655914,0.004661654122173786,-0.01782643049955368,0.01592325046658516,-0.0005429561133496463,0.023869967088103294
0.0316103957593441,0.005018842872232199,-0.018754756078124046,0.015941347926855087,-0.0005665377248078585,0.024586280807852745
0.031761348247528076,0.004870244301855564,-0.018662624061107635,0.016184231266379356,-0.0005330045241862535,0.024761643260717392
0.031569335609674454,0.004734284244477749,-0.018569277599453926,0.016349544748663902,-0.0005326906102709472,0.024480096995830536
0.03160981088876724,0.005092044360935688,-0.018532417714595795,0.01621335558593273,-0.0005500622792169452,0.024812495335936546
0.03147806599736214,0.005040764342993498,-0.017749052494764328,0.016239454969763756,-0.0005189548246562481,0.02598585933446884
0.03156040981411934,0.004789771977812052,-0.01853225566446781,0.015552619472146034,-0.0005481906118802726,0.02527063898742199
0.03198628127574921,0.005385614465922117,-0.018834343180060387,0.015962380915880203,-0.0005715072038583457,0.023544490337371826
0.03173273056745529,0.004821537062525749,-0.018687933683395386,0.016535762697458267,-0.0006246045813895762,0.02525823935866356
0.03196227550506592,0.005522784776985645,-0.018482010811567307,0.016312725841999054,-0.000671184272505343,0.025754457339644432
0.03228143975138664,0.0053572566248476505,-0.018602279946208,0.01616012118756771,-0.0006777001544833183,0.025496874004602432
0.03288333863019943,0.005479942075908184,-0.018500501289963722,0.01605568453669548,-0.0006326416623778641,0.024821219965815544
0.0325082428753376,0.005762409884482622,-0.017817728221416473,0.015162941999733448,-0.0006526432116515934,0.024828365072607994
0.031038133427500725,0.005197306629270315,-0.018644794821739197,0.015322668477892876,-0.0006846642354503274,0.025108681991696358
0.03151071071624756,0.00519204419106245,-0.018697168678045273,0.015271097421646118,-0.0007274308591149747,0.02527480013668537
0.03261048346757889,0.0054464456625282764,-0.018229197710752487,0.01622653193771839,-0.000694979855325073,0.02521703764796257
0.03261048346757889,0.0054464456625282764,-0.018229197710752487,0.01622653193771839,-0.000694979855325073,0.02521703764796257
0.031454313546419144,0.005499755032360554,-0.018564051017165184,0.016705084592103958,-0.0006944477208890021,0.02487245388329029
0.03249024227261543,0.005943038500845432,-0.01850448176264763,0.016659554094076157,-0.000646413245704025,0.025027096271514893
0.03321554511785507,0.005981743801385164,-0.01863761804997921,0.016704011708498,-0.0006490318919532001,0.02537391148507595
0.032617464661598206,0.005129726603627205,-0.01914992928504944,0.016517557203769684,-0.0006128113018348813,0.025419920682907104
0.031849637627601624,0.004895413294434547,-0.018923377618193626,0.01711243949830532,-0.0006091881659813225,0.02530195191502571
0.03173059970140457,0.005978404078632593,-0.018663574010133743,0.017136191949248314,-0.0005518589750863612,0.02539597451686859
0.03272349387407303,0.005646747071295977,-0.018810899928212166,0.017097240313887596,-0.0005837946082465351,0.02530840039253235
0.03218620643019676,0.005758862476795912,-0.01866864785552025,0.016493458300828934,-0.0005971401114948094,0.02564142644405365
0.03188151493668556,0.005783630535006523,-0.01875169202685356,0.01631825976073742,-0.0006030319491401315,0.025397032499313354
0.032879553735256195,0.005599488038569689,-0.01897258497774601,0.01593184843659401,-0.0005943337455391884,0.025479519739747047
0.03295903652906418,0.005165943875908852,-0.01870567724108696,0.015426626428961754,-0.0007532063173130155,0.02534298785030842
0.03240589052438736,0.004093773663043976,-0.018827002495527267,0.015813088044524193,-0.000810895289760083,0.025968218222260475
0.032721132040023804,0.0026640354190021753,-0.018956489861011505,0.016029950231313705,-0.0008240871829912066,0.02610369771718979
0.03285956382751465,0.0023958005476742983,-0.018616467714309692,0.016905849799513817,-0.001025093486532569,0.026195073500275612
0.032202187925577164,0.002381125232204795,-0.018959933891892433,0.01642099767923355,-0.0010687095345929265,0.02587599866092205
0.032586049288511276,0.0034073705319315195,-0.01922944188117981,0.01647358387708664,-0.0009865008760243654,0.025765910744667053
0.032529376447200775,0.00406629778444767,-0.0186319462954998,0.016631415113806725,-0.0009083968470804393,0.026055308058857918
0.03241563215851784,0.003083985997363925,-0.019227849319577217,0.016389142721891403,-0.0008085740264505148,0.026679297909140587
0.03282013535499573,0.0027611893601715565,-0.018446700647473335,0.015769323334097862,-0.0007161524845287204,0.02593514323234558
0.0340348444879055,0.003272547386586666,-0.019070861861109734,0.01597713865339756,-0.0007257560500875115,0.025297338142991066
0.033327046781778336,0.0033221314661204815,-0.019354239106178284,0.015424948185682297,-0.0007045097881928086,0.02565828710794449
0.03185722231864929,0.003396943910047412,-0.01894567534327507,0.015851039439439774,-0.0006762347766198218,0.026494432240724564
0.03240763396024704,0.0035216170363128185,-0.019571978598833084,0.01599952206015587,-0.000695732538588345,0.02597307413816452
0.033694084733724594,0.0034945651423186064,-0.02020455151796341,0.01651604287326336,-0.0008424675324931741,0.026103578507900238
0.032976411283016205,0.0033177006989717484,-0.01969200186431408,0.016556909307837486,-0.0008586625917814672,0.027112016454339027
0.03404299169778824,0.003009011270478368,-0.019232625141739845,0.016107304021716118,-0.0008646257338114083,0.026967516168951988
0.03390415757894516,0.0033034912776201963,-0.019502198323607445,0.016463154926896095,-0.0009775005746632814,0.026595713570713997
0.03314599394798279,0.0037674594204872847,-0.019596504047513008,0.01594734750688076,-0.0010700261918827891,0.026237189769744873
0.03193570673465729,0.0034221671521663666,-0.020518718287348747,0.016335979104042053,-0.0010684507433325052,0.025844847783446312
0.03193570673465729,0.0034221671521663666,-0.020518718287348747,0.016335979104042053,-0.0010684507433325052,0.025844847783446312
0.03373429551720619,0.0035146805457770824,-0.019474772736430168,0.015991607680916786,-0.0010278334375470877,0.02712530829012394
0.03448273614048958,0.003241719212383032,-0.01925654150545597,0.016187634319067,-0.0010055463062599301,0.02756856195628643
0.03348919376730919,0.003344497177749872,-0.019724732264876366,0.01596974767744541,-0.0008911307668313384,0.02702086791396141
0.033647119998931885,0.0035034487955272198,-0.02096056193113327,0.016042513772845268,-0.0008859868976287544,0.026671579107642174
0.033465538173913956,0.0036264038644731045,-0.020530816167593002,0.016186412423849106,-0.0008785876561887562,0.027006272226572037
0.033532191067934036,0.003534386632964015,-0.018956052139401436,0.01590803824365139,-0.0007843858329579234,0.026554947718977928
0.033619411289691925,0.0033438336104154587,-0.020379338413476944,0.01649084873497486,-0.0007907309336587787,0.026680869981646538
0.03418879583477974,0.0035472658928483725,-0.019931966438889503,0.016123199835419655,-0.0007210914045572281,0.027173597365617752
0.03380092605948448,0.0037788818590343,-0.01871110498905182,0.01633336953818798,-0.0006901322049088776,0.027473734691739082
0.03388628736138344,0.0038281569723039865,-0.019565485417842865,0.016585979610681534,-0.0006594261503778398,0.02733779139816761
0.033803440630435944,0.0038116835057735443,-0.020197603851556778,0.01686130091547966,-0.0006753369816578925,0.02719951421022415
0.034333620220422745,0.0038409405387938023,-0.019265424460172653,0.016782796010375023,-0.000663202372379601,0.027397118508815765
0.03451467677950859,0.0038157005328685045,-0.019514068961143494,0.01658940501511097,-0.0006459567812271416,0.027217941358685493
0.03455289080739021,0.0037685325369238853,-0.019584665074944496,0.017259571701288223,-0.0007245058077387512,0.02746419608592987
0.03402857109904289,0.003864999394863844,-0.01963522844016552,0.01686711795628071,-0.0007701420108787715,0.027490630745887756
0.03456072881817818,0.004068924114108086,-0.019930925220251083,0.016577064990997314,-0.0007777118007652462,0.027490219101309776
0.03506070002913475,0.004412591457366943,-0.019320905208587646,0.015827437862753868,-0.0007134416373446584,0.027940208092331886
0.035002484917640686,0.00411017844453454,-0.01925143599510193,0.015424520708620548,-0.0007593779009766877,0.028091181069612503
0.034754980355501175,0.004389220383018255,-0.019934920594096184,0.015012530609965324,-0.0007545294356532395,0.02810163050889969
0.03417636454105377,0.004118721466511488,-0.0193710345774889,0.015654023736715317,-0.0007715329993516207,0.028013451024889946
0.03459981456398964,0.003989128395915031,-0.019414404407143593,0.015436092391610146,-0.00078605703311041,0.027919594198465347
0.03463781252503395,0.004419894423335791,-0.01980270817875862,0.01583998277783394,-0.000874724704772234,0.028011586517095566
0.03525518253445625,0.0044452776201069355,-0.019615350291132927,0.015346336178481579,-0.0008918698877096176,0.027001259848475456
0.03513822704553604,0.004312381148338318,-0.019441690295934677,0.01599516160786152,-0.0008607978816144168,0.028476344421505928
0.03484443202614784,0.004476746078580618,-0.019753653556108475,0.015759026631712914,-0.0008083502762019634,0.028402145951986313
0.03484443202614784,0.004476746078580618,-0.019753653556108475,0.015759026631712914,-0.0008083502762019634,0.028402145951986313
0.03465745970606804,0.004685243591666222,-0.019652677699923515,0.01615915633738041,-0.0008149408386088908,0.028440283611416817
0.035077109932899475,0.0046025728806853294,-0.019634947180747986,0.0160924531519413,-0.0008287234813906252,0.029363013803958893
0.03625692054629326,0.0043943412601947784,-0.019570911303162575,0.01626032032072544,-0.0008376615587621927,0.029123062267899513
0.035728272050619125,0.004556330386549234,-0.019049549475312233,0.016286863014101982,-0.0008299363544210792,0.028101708739995956
0.03402356803417206,0.004926994442939758,-0.019044574350118637,0.0162640493363142,-0.0008102813153527677,0.027466339990496635
0.034434910863637924,0.005019861739128828,-0.01966424286365509,0.016668645665049553,-0.0008505965815857053,0.02776297740638256
0.03540372475981712,0.004872635938227177,-0.019508209079504013,0.016338858753442764,-0.0009042025194503367,0.02904105745255947
0.035660270601511,0.004621182568371296,-0.019054893404245377,0.016785960644483566,-0.0009067063219845295,0.02856152132153511
0.03671189770102501,0.0046089724637568,-0.019361551851034164,0.01673113740980625,-0.0009060988668352365,0.029224097728729248
0.03603285923600197,0.004646118730306625,-0.01932545192539692,0.016620997339487076,-0.000829676166176796,0.029439270496368408
0.03451039642095566,0.004816408269107342,-0.018953708931803703,0.0170489139854908,-0.0008727542008273304,0.028966639190912247
0.03451148420572281,0.005594216752797365,-0.01951507106423378,0.01640063337981701,-0.0008796905167400837,0.028004230931401253
0.03614768758416176,0.005210757255554199,-0.019774392247200012,0.016779113560914993,-0.0008658995502628386,0.027693724259734154
0.03598730266094208,0.004864874295890331,-0.0189189650118351,0.01761266589164734,-0.0008409941219724715,0.028511954471468925
0.03572484850883484,0.0051012178882956505,-0.019204871729016304,0.016862109303474426,-0.0007986222044564784,0.02920340746641159
0.03581405431032181,0.004863125272095203,-0.019610775634646416,0.016466738656163216,-0.0008746554958634079,0.029186343774199486
0.03577651083469391,0.0052968887612223625,-0.020210327580571175,0.016487883403897285,-0.0009149628458544612,0.028705904260277748
0.03628161922097206,0.005079234484583139,-0.02036222629249096,0.01632354035973549,-0.000993002555333078,0.02882464975118637
0.03579038754105568,0.004983628634363413,-0.0187445767223835,0.016406578943133354,-0.0010723983868956566,0.028715595602989197
0.035768963396549225,0.00519078504294157,-0.01903810165822506,0.015745704993605614,-0.0010101527441293001,0.029049575328826904
0.03542199358344078,0.004863892216235399,-0.019855905324220657,0.016046371310949326,-0.0009283539839088917,0.028959674760699272
0.03608238697052002,0.004829055164009333,-0.019255060702562332,0.015702523291110992,-0.0008971636416390538,0.02894430421292782
0.03719056397676468,0.005600959528237581,-0.02007458731532097,0.015801815316081047,-0.0008407049463130534,0.0290096253156662
0.03646036610007286,0.0057288650423288345,-0.01987200416624546,0.016025222837924957,-0.0008545253658667207,0.02922615222632885
0.0349152535200119,0.005110408179461956,-0.018924975767731667,0.016098782420158386,-0.0008133795927278697,0.029670441523194313
0.03581836819648743,0.005119819659739733,-0.019876200705766678,0.016884585842490196,-0.0007681546849198639,0.0295389574021101
0.035967759788036346,0.005600626114755869,-0.020372489467263222,0.0163563285022974,-0.0007788063958287239,0.028828049078583717
0.035951174795627594,0.0052422271110117435,-0.019772380590438843,0.01622389815747738,-0.000838059582747519,0.030096564441919327
0.037153225392103195,0.005896550603210926,-0.019780762493610382,0.015498444437980652,-0.0008516773232258856,0.029786866158246994
0.037153225392103195,0.005896550603210926,-0.019780762493610382,0.015498444437980652,-0.0008516773232258856,0.029786866158246994
0.0366627499461174,0.0054203118197619915,-0.02011755108833313,0.015756115317344666,-0.0008586416370235384,0.029379207640886307
0.035192131996154785,0.005394026171416044,-0.01967364363372326,0.015846528112888336,-0.0008494009380228817,0.029732879251241684
0.03582293167710304,0.005544884596019983,-0.019444508478045464,0.01591639779508114,-0.0008759256452322006,0.02991076186299324
0.03684509918093681,0.005164676811546087,-0.01965630054473877,0.01656651310622692,-0.0008892077603377402,0.03038618341088295
0.03702913969755173,0.005471440963447094,-0.020530998706817627,0.016395023092627525,-0.0008259049500338733,0.02950914390385151
0.03634946048259735,0.005260135978460312,-0.019847510382533073,0.016236405819654465,-0.0008313435828313231,0.02997714653611183
