davideferrari95/blind_handover_controller/data/Test 56 - [2024-02-07 -- 15-41-14]/joint_states_data.csv
shoulder_pan_joint,shoulder_lift_joint,elbow_joint,wrist_1_joint,wrist_2_joint,wrist_3_joint
0.005463222041726112,-0.002640660386532545,-0.005567460786551237,0.010133803822100163,0.00013190059689804912,0.005678886082023382
0.005463222041726112,-0.002640660386532545,-0.005567460786551237,0.010133803822100163,0.00013190059689804912,0.005678886082023382
0.005366113036870956,-0.0023635525722056627,-0.005383893381804228,0.009909568354487419,0.0001291970256716013,0.005356399342417717
0.006000487133860588,-0.003442607820034027,-0.005492318421602249,0.010986984707415104,0.00012660061474889517,0.005162607412785292
0.005591959226876497,-0.004678740166127682,-0.0050100162625312805,0.010452764108777046,0.00013726067845709622,0.005502128507941961
0.005591959226876497,-0.004678740166127682,-0.0050100162625312805,0.010452764108777046,0.00013726067845709622,0.005502128507941961
0.005707973148673773,-0.004520393908023834,-0.004897607024759054,0.009691170416772366,0.00013879709877073765,0.005979667883366346
0.005775217432528734,-0.0033916644752025604,-0.005085169803351164,0.010110522620379925,0.000133920184453018,0.0057745627127587795
0.005501887761056423,-0.0034634722396731377,-0.005400927271693945,0.010041342116892338,0.00013147595745977014,0.005955635104328394
0.005871546920388937,-0.0037820616271346807,-0.005235862452536821,0.010681218467652798,0.00012911806697957218,0.005714652594178915
0.005552803166210651,-0.004318049177527428,-0.005133832339197397,0.009940513409674168,0.0001606544537935406,0.00585084967315197
0.005552803166210651,-0.004318049177527428,-0.005133832339197397,0.009940513409674168,0.0001606544537935406,0.00585084967315197
0.005338383372873068,-0.0041616735979914665,-0.005340567324310541,0.010467030107975006,0.00016580238298047334,0.005327573046088219
0.005228730849921703,-0.003474337514489889,-0.005176286678761244,0.010175682604312897,0.0001606075675226748,0.005299112759530544
0.005578408017754555,-0.0034621243830770254,-0.005520727951079607,0.009368746541440487,0.00015511795936618,0.00537834083661437
0.005731259938329458,-0.003243444487452507,-0.0058228145353496075,0.009158932603895664,0.00014995130186434835,0.0050880517810583115
0.00557563453912735,-0.0034988801926374435,-0.005843032151460648,0.010360302403569221,0.00014511543849948794,0.0054811639711260796
0.005383417941629887,-0.0037127085961401463,-0.005245078820735216,0.00983866211026907,0.00014058142551220953,0.0053247795440256596
0.005548293236643076,-0.0032960628159344196,-0.005473393015563488,0.010223123244941235,0.00016175115888472646,0.005306283012032509
0.0052854218520224094,-0.0033091686200350523,-0.005140569992363453,0.01009497232735157,0.00015865650493651628,0.0053421854972839355
0.005502884276211262,-0.003290822496637702,-0.00596603425219655,0.009639333002269268,0.00015423314471263438,0.0052705612033605576
0.005569524597376585,-0.0031809299252927303,-0.0055045438930392265,0.01023638155311346,0.0001684728922555223,0.0052573964931070805
0.005488513503223658,-0.0033500094432383776,-0.005213527474552393,0.010100324638187885,0.00016980002692434937,0.00565224839374423
0.005823312792927027,-0.003346870420500636,-0.00545981852337718,0.01044498197734356,0.00016571665764786303,0.005452026147395372
0.005173897836357355,-0.0034200118388980627,-0.00518190348520875,0.01106818113476038,0.00016149328439496458,0.005382182076573372
0.0055157789029181,-0.0036018118262290955,-0.005703568458557129,0.010097636841237545,0.0001574585767230019,0.005465685855597258
0.005413328297436237,-0.0036784696858376265,-0.005613887216895819,0.009257568046450615,0.00015361902478616685,0.0055965036153793335
0.005508773494511843,-0.003207807196304202,-0.005360133480280638,0.010218094103038311,0.0001672162616159767,0.005738282110542059
0.005702642723917961,-0.0031894061248749495,-0.00560118118301034,0.009742861613631248,0.00016358474385924637,0.005426883231848478
0.005265453830361366,-0.0033864181023091078,-0.0056254868395626545,0.009610985405743122,0.00015996112779248506,0.0054282210767269135
0.0050398302264511585,-0.0036385643761605024,-0.006339128129184246,0.009332825429737568,0.00015687990526203066,0.005445777904242277
0.005113320890814066,-0.0038097675424069166,-0.006515661254525185,0.009056602604687214,0.00020713491539936513,0.005290492903441191
0.004840844310820103,-0.003421726869419217,-0.005673757288604975,0.009581269696354866,0.0002016114885918796,0.0057787164114415646
0.004488705191761255,-0.0031005316413939,-0.0059791612438857555,0.010114222764968872,0.00019319936109241098,0.005459410138428211
0.0043712519109249115,-0.0033780233934521675,-0.00557553069666028,0.00934575218707323,0.00018526001076679677,0.005900755990296602
0.0043712519109249115,-0.0033780233934521675,-0.00557553069666028,0.00934575218707323,0.00018526001076679677,0.005900755990296602
0.004894128069281578,-0.0031608990393579006,-0.006469989661127329,0.009671241976320744,0.0002042443084064871,0.00552446348592639
0.005042623728513718,-0.003391198581084609,-0.0061692832969129086,0.01039151381701231,0.0002047925372608006,0.005702188704162836
0.004700916353613138,-0.003458387218415737,-0.005851942580193281,0.0097744045779109,0.00019783104653470218,0.005411798600107431
0.004818919114768505,-0.003370193764567375,-0.006176162976771593,0.009816248901188374,0.00019087262626271695,0.005356948357075453
0.004966015927493572,-0.0031475978903472424,-0.005911232437938452,0.01002749614417553,0.0001843580830609426,0.005441837944090366
0.004896979313343763,-0.0029535400681197643,-0.00648310175165534,0.009187750518321991,0.00020026304991915822,0.005429665558040142
0.004985620267689228,-0.003165388712659478,-0.006445259787142277,0.00957743264734745,0.00020083114213775843,0.005591193214058876
0.00496604572981596,-0.0029558646492660046,-0.00575216906145215,0.009700734168291092,0.00019506675016600639,0.005765365902334452
0.004873138852417469,-0.003237675642594695,-0.0063492669723927975,0.009499081410467625,0.00018923669995274395,0.005855037830770016
0.005087024066597223,-0.0033110836520791054,-0.005880097392946482,0.009895187802612782,0.0001837194722611457,0.0053705754689872265
0.0054498352110385895,-0.0035357021261006594,-0.006199348252266645,0.010659885592758656,0.00017851348093245178,0.005643998272716999
0.005245054606348276,-0.003321817610412836,-0.005999274086207151,0.01009675394743681,0.00018576945876702666,0.0058092693798244
0.004823107272386551,-0.003140124259516597,-0.005877925548702478,0.01003238745033741,0.00019224903371650726,0.005861124023795128
0.005052804946899414,-0.0034050580579787493,-0.006210202816873789,0.01012098416686058,0.00018797685333993286,0.005500470288097858
0.005451133940368891,-0.0032322099432349205,-0.006639054045081139,0.00973175186663866,0.00017869650037027895,0.005609938409179449
0.005187500733882189,-0.0032749406527727842,-0.005866338033229113,0.01012373436242342,0.00017436870257370174,0.005782176274806261
0.005368554964661598,-0.003098173998296261,-0.006390434689819813,0.009371562860906124,0.00017025989654939622,0.005628877319395542
0.005625042133033276,-0.0029961345717310905,-0.006151784677058458,0.009598122909665108,0.00019363085448276252,0.0057706525549292564
0.005598896648734808,-0.0028400567825883627,-0.006180351134389639,0.00953633338212967,0.00018756608187686652,0.005519047379493713
0.0051133520901203156,-0.003173468168824911,-0.006686146836727858,0.009219835512340069,0.0001801852777134627,0.005655677989125252
0.004940908867865801,-0.003314987290650606,-0.0064241923391819,0.009584853425621986,0.00017325524822808802,0.005285655148327351
0.0051802280358970165,-0.003420246299356222,-0.005956561304628849,0.009488926269114017,0.00016683196008671075,0.005220477934926748
0.0051802280358970165,-0.003420246299356222,-0.005956561304628849,0.009488926269114017,0.00016683196008671075,0.005220477934926748
0.0054849423468112946,-0.003245641477406025,-0.006276867352426052,0.00904084462672472,0.0001887692342279479,0.005577695090323687
0.005261198617517948,-0.0031248792074620724,-0.00689043989405036,0.00985467154532671,0.00018609802646096796,0.005928264930844307
0.005731421988457441,-0.0033991169184446335,-0.006369033828377724,0.009951954707503319,0.00018013999215327203,0.005795019678771496
0.0053957863710820675,-0.0031212312169373035,-0.006194471847265959,0.009365891106426716,0.0001743394968798384,0.005792394746094942
0.005293828435242176,-0.0031670727767050266,-0.005963292438536882,0.009943452663719654,0.00016888768004719168,0.005955980159342289
0.005276292096823454,-0.0032703434117138386,-0.005997869651764631,0.009438030421733856,0.0001637652749195695,0.005897252820432186
0.005579716060310602,-0.0031883730553090572,-0.006619650404900312,0.009428928606212139,0.00015894463285803795,0.005625367164611816
0.00591250928118825,-0.003499238286167383,-0.006507884245365858,0.009570806287229061,0.00017673564434517175,0.005461185239255428
0.006066863890737295,-0.00326841720379889,-0.005934019573032856,0.009836996905505657,0.0001749036309774965,0.005596306174993515
0.005435123108327389,-0.002998928539454937,-0.0061157019808888435,0.009756599552929401,0.00017037396901287138,0.0052382322028279305
0.005687037482857704,-0.0030863939318805933,-0.006084747146815062,0.009728494100272655,0.0001659004483371973,0.005729177035391331
0.0055116210132837296,-0.00328061799518764,-0.006439763121306896,0.0098609933629632,0.0001616442168597132,0.0059167612344026566
0.0060438839718699455,-0.003181606298312545,-0.006363310385495424,0.009332647547125816,0.00015760042879264802,0.0056990040466189384
0.005431202240288258,-0.003067841986194253,-0.006510321516543627,0.009141541086137295,0.0001537540665594861,0.005175162106752396
0.005692879669368267,-0.0029396656900644302,-0.00616814661771059,0.010062060318887234,0.00015009084017947316,0.005755268502980471
0.005354432854801416,-0.0033865305595099926,-0.006554164458066225,0.00994911789894104,0.0001432641874998808,0.0059885308146476746
0.005427422001957893,-0.0035089075099676847,-0.006193615961819887,0.010102275758981705,0.00015875365352258086,0.005620278883725405
0.006067873444408178,-0.003437906503677368,-0.006088851485401392,0.009928155690431595,0.00015652040019631386,0.005798561964184046
0.005891649052500725,-0.003166294889524579,-0.006809233222156763,0.009587190113961697,0.00015326798893511295,0.005448139738291502
0.005812688264995813,-0.0030658848118036985,-0.007113687694072723,0.009309847839176655,0.0001500782964285463,0.005803832318633795
0.005588070023804903,-0.0034507671371102333,-0.006528301630169153,0.00961642898619175,0.0001470142597099766,0.005628580693155527
0.005793802905827761,-0.003148044692352414,-0.005970248952507973,0.009172854013741016,0.00014407254639081657,0.00586074311286211
0.005793802905827761,-0.003148044692352414,-0.005970248952507973,0.009172854013741016,0.00014407254639081657,0.00586074311286211
0.0066512892954051495,-0.003268815577030182,-0.006657284218817949,0.0095922676846385,0.00014124605513643473,0.005427047610282898
0.0062177530489861965,-0.0033178944140672684,-0.006931050214916468,0.009163608774542809,0.00013852839765604585,0.0056709484197199345
0.00585180101916194,-0.0035730721428990364,-0.00752235297113657,0.008648723363876343,0.00013591430615633726,0.005696709733456373
0.005483461078256369,-0.0035136935766786337,-0.006524375639855862,0.008910535834729671,0.00013339532597456127,0.0056963455863296986
0.005792807787656784,-0.0034543978981673717,-0.006173237226903439,0.009121579118072987,0.00013397031580097973,0.00563726807013154
0.006634776014834642,-0.0036561719607561827,-0.006478782277554274,0.008889664895832539,0.00013312693045008928,0.00565418740734458
0.006522639654576778,-0.0034066839143633842,-0.007559563964605331,0.008877374231815338,0.00012949937081430107,0.005412905476987362
0.005827928893268108,-0.0034928242675960064,-0.006695630494505167,0.00929271336644888,0.00012589083053171635,0.005703260190784931
0.005824550520628691,-0.0031142171937972307,-0.006421975791454315,0.008894854225218296,0.00012246472761034966,0.00572919799014926
0.006032866425812244,-0.0030766017735004425,-0.00636789808049798,0.009058096446096897,0.00011922066914848983,0.006195355206727982
0.006667648907750845,-0.0029414030723273754,-0.007070912979543209,0.009308245964348316,0.00011614247341640294,0.0064607057720422745
0.006486205384135246,-0.0033106738701462746,-0.007520545739680529,0.008994495496153831,0.00011322116188239306,0.006214054301381111
0.006354188080877066,-0.003724227426573634,-0.006521111819893122,0.009394350461661816,0.00011044264101656154,0.006232756190001965
0.005614274647086859,-0.0034143999218940735,-0.006221396382898092,0.009668502025306225,0.00010779573494801298,0.005752182099968195
0.00645745312795043,-0.0031000222079455853,-0.0068335398100316525,0.00950451660901308,0.00010527397535042837,0.005820384714752436
0.006911757402122021,-0.0029155404772609472,-0.007045967038720846,0.009463767521083355,0.0001028670376399532,0.005892188288271427
0.006653170567005873,-0.0032547798473387957,-0.007364734075963497,0.00980603788048029,0.00011045697465306148,0.005898406729102135
0.006061149295419455,-0.0033732187002897263,-0.006824158597737551,0.009651747532188892,0.00011737698514480144,0.006095617078244686
0.006121205631643534,-0.0034497857559472322,-0.006195803638547659,0.009620390832424164,0.00011547581380000338,0.0058446708135306835
0.006629329640418291,-0.0030011998023837805,-0.007178289350122213,0.009654426947236061,0.00011077905946876854,0.006125501357018948
0.0066112857311964035,-0.003208435606211424,-0.007174660451710224,0.009381531737744808,0.00010855255095520988,0.006298238877207041
0.0063982680439949036,-0.003391249105334282,-0.0069862972013652325,0.009990515187382698,0.00010641342669259757,0.006991819478571415
0.006072090473026037,-0.003363328520208597,-0.006591423414647579,0.00931925792247057,0.0001043560987454839,0.005773274227976799
0.006605455186218023,-0.003489893162623048,-0.00711169233545661,0.009482542052865028,0.00010237828246317804,0.005434785969555378
0.007083115633577108,-0.0033220790792256594,-0.00709369033575058,0.00974369514733553,0.0001004734804155305,0.005508776754140854
0.006674974225461483,-0.0031255248468369246,-0.0067576146684587,0.00933063868433237,9.863812010735273e-05,0.006175111047923565
0.006567030679434538,-0.003379604546353221,-0.006676570046693087,0.0085500068962574,9.686868725111708e-05,0.00651435786858201
0.0073383585549890995,-0.0031711577903479338,-0.007401041686534882,0.008682770654559135,9.516143472865224e-05,0.006295040249824524
0.0073383585549890995,-0.0031711577903479338,-0.007401041686534882,0.008682770654559135,9.516143472865224e-05,0.006295040249824524
0.006638118531554937,-0.003181888721883297,-0.00710227619856596,0.008811322040855885,9.351365588372573e-05,0.006403990089893341
0.006529602222144604,-0.0032148323953151703,-0.007161186076700687,0.008828600868582726,9.192175639327615e-05,0.0062921238131821156
0.0060420348308980465,-0.003333249595016241,-0.006993367336690426,0.009109845384955406,8.889532182365656e-05,0.006254136562347412
0.0060420348308980465,-0.003333249595016241,-0.006993367336690426,0.009109845384955406,8.889532182365656e-05,0.006254136562347412
0.006143932230770588,-0.0036068882327526808,-0.007417451124638319,0.009259925223886967,8.745570812607184e-05,0.0062291002832353115
0.006462013348937035,-0.003356711007654667,-0.00716724619269371,0.009580148383975029,8.606181654613465e-05,0.006257615052163601
0.00651707174256444,-0.0035400833003222942,-0.006965617649257183,0.009723472408950329,8.471179899061099e-05,0.006114410702139139
0.006114824675023556,-0.003254350507631898,-0.006846070289611816,0.009399542585015297,9.372422937303782e-05,0.006162705831229687
0.0062763928435742855,-0.0030996138229966164,-0.007406281773000956,0.008789108134806156,9.559016325511038e-05,0.006002130452543497
0.006503123324364424,-0.0029535198118537664,-0.007113573607057333,0.009010711684823036,9.437303378945217e-05,0.006121262442320585
0.006273037288337946,-0.003273224690929055,-0.006368604023009539,0.009209463372826576,9.299394878325984e-05,0.006399389356374741
0.0063784159719944,-0.003665415570139885,-0.005589998792856932,0.009331945329904556,9.1642199549824e-05,0.006124397274106741
0.006671124137938023,-0.003534540068358183,-0.00661232927814126,0.00974782183766365,9.03282780200243e-05,0.006329179275780916
0.006900187581777573,-0.0034622151870280504,-0.007110439706593752,0.009743892587721348,8.905148570192978e-05,0.006518909707665443
0.006208884064108133,-0.0036478585097938776,-0.006170914974063635,0.009748190641403198,8.781030919635668e-05,0.006296706851571798
0.006358354352414608,-0.003279740922152996,-0.005972250830382109,0.010424663312733173,8.660320600029081e-05,0.006312494166195393
0.0065864515490829945,-0.0032561153639107943,-0.0067115044221282005,0.009839624166488647,8.54288664413616e-05,0.005981333088129759
0.006452555768191814,-0.0032622867729514837,-0.007006620056927204,0.009977969340980053,8.42860754346475e-05,0.006027783267199993
0.006613586097955704,-0.0030836977530270815,-0.0061493138782680035,0.010129276663064957,8.317318861372769e-05,0.006420475896447897
0.006620142143219709,-0.0033056670799851418,-0.005870146211236715,0.009624950587749481,8.103360596578568e-05,0.00699912803247571
0.005596033297479153,-0.003130310447886586,-0.006291019264608622,0.009577123448252678,8.000458910828456e-05,0.006324194371700287
0.006471122615039349,-0.0030661115888506174,-0.006676827557384968,0.009344926103949547,7.900139462435618e-05,0.006269813980907202
0.00710333650931716,-0.00314045837149024,-0.005807105917483568,0.009149192832410336,7.802298932801932e-05,0.006516825407743454
0.007348674815148115,-0.003104036208242178,-0.005835947580635548,0.009935310110449791,7.706848555244505e-05,0.006803525611758232
0.006927566137164831,-0.0029412938747555017,-0.0065008956007659435,0.009551256895065308,7.613710477016866e-05,0.006725954357534647
0.0073515670374035835,-0.002801584079861641,-0.0067479657009243965,0.009192826226353645,7.522799569414929e-05,0.006626717746257782
0.0073515670374035835,-0.002801584079861641,-0.0067479657009243965,0.009192826226353645,7.522799569414929e-05,0.006626717746257782
0.0068961684592068195,-0.0028086204547435045,-0.0062671541236341,0.009043085388839245,7.347334758378565e-05,0.006287994794547558
0.0068961684592068195,-0.0028086204547435045,-0.0062671541236341,0.009043085388839245,7.347334758378565e-05,0.006287994794547558
0.006681826896965504,-0.00303071946837008,-0.006517994683235884,0.008930010721087456,7.262633153004572e-05,0.006580098997801542
0.006897837854921818,-0.0032819462940096855,-0.006449095904827118,0.009596726857125759,7.179866952355951e-05,0.006637717131525278
0.007104348391294479,-0.002967369742691517,-0.007067560683935881,0.009259955957531929,7.098963396856561e-05,0.006611985620111227
0.0072085256688296795,-0.003069422673434019,-0.006612477358430624,0.008418973535299301,7.019862823653966e-05,0.006158680655062199
0.0072601609863340855,-0.003043262753635645,-0.006001084111630917,0.009526404552161694,3.5191449569538236e-05,0.006373139098286629
0.0074022067710757256,-0.00335984886623919,-0.0059430706314742565,0.009856125339865685,2.2977503704169067e-06,0.006370523013174534
0.007714161183685064,-0.003191940253600478,-0.006372585892677307,0.00912492349743843,1.5002667907992873e-07,0.006333780940622091
0.007789729628711939,-0.002856435952708125,-0.007000445853918791,0.0089897895231843,9.795670052881178e-09,0.006296250503510237
0.00717617804184556,-0.0029808429535478354,-0.0068069458939135075,0.009294656105339527,6.39587327544433e-10,0.006618052255362272
0.007358765695244074,-0.00272652180865407,-0.006591469515115023,0.009219019673764706,4.176048395976295e-11,0.006631407421082258
0.007794810924679041,-0.0030823026318103075,-0.007223153952509165,0.008867275901138783,2.7266611277859676e-12,0.006208284292370081
0.007776962593197823,-0.0029457518830895424,-0.007127347402274609,0.009434716776013374,1.7803147194309088e-13,0.006501914467662573
0.007742272689938545,-0.0031826142221689224,-0.006810270715504885,0.009102931246161461,1.1624183806810927e-14,0.00644953828305006
0.007705076597630978,-0.0032909316942095757,-0.006525066215544939,0.008650628849864006,7.589760902720129e-16,0.00697918888181448
0.008033917285501957,-0.003113399725407362,-0.00675261951982975,0.009289136156439781,4.9555715518672045e-17,0.006565077695995569
0.007955162785947323,-0.0030082131270319223,-0.007487544324249029,0.009512646123766899,3.2356344256481503e-18,0.0064672501757740974
0.007833221927285194,-0.0033025487791746855,-0.007030810229480267,0.008879626169800758,2.8000549718854018e-05,0.006918843369930983
0.007565867621451616,-0.0029361213091760874,-0.0064550437964499,0.009120922535657883,2.548026714066509e-05,0.0070389132015407085
0.008230287581682205,-0.0030690247658640146,-0.006252148188650608,0.009068634361028671,2.4987823053379543e-05,0.006761164870113134
0.007941138930618763,-0.002755338093265891,-0.0068687270395457745,0.009025385603308678,2.4636765374452807e-05,0.0063128904439508915
0.007479327730834484,-0.003058123402297497,-0.007119590882211924,0.009263728745281696,2.4303526515723206e-05,0.006871256045997143
0.007312122732400894,-0.0028330290224403143,-0.007282924372702837,0.00961865670979023,2.397970274614636e-05,0.0070672836154699326
0.008190535940229893,-0.003001702483743429,-0.006443574093282223,0.009427053853869438,2.335739009140525e-05,0.006902997847646475
0.008301286958158016,-0.0029686151538044214,-0.0069294641725718975,0.00980947632342577,2.3058164515532553e-05,0.006908282171934843
0.007971063256263733,-0.003388300770893693,-0.006847377400845289,0.009546350687742233,2.276655868627131e-05,0.006903175264596939
0.007665112614631653,-0.00305672618560493,-0.006804324220865965,0.008863192051649094,2.2482196072814986e-05,0.007164825219660997
0.00808815285563469,-0.0031174742616713047,-0.006696461234241724,0.009691458195447922,2.2204851120477542e-05,0.00684159342199564
0.007567917928099632,-0.0029802480712532997,-0.007590141147375107,0.009075687266886234,2.1934265532763675e-05,0.006737428717315197
0.007567917928099632,-0.0029802480712532997,-0.007590141147375107,0.009075687266886234,2.1934265532763675e-05,0.006737428717315197
0.007986843585968018,-0.0026908405125141144,-0.006741506513208151,0.009364153258502483,2.141243385267444e-05,0.007002556696534157
0.007986843585968018,-0.0026908405125141144,-0.006741506513208151,0.009364153258502483,2.141243385267444e-05,0.007002556696534157
0.007999024353921413,-0.0030225294176489115,-0.006245145108550787,0.009708750061690807,2.116070390911773e-05,0.007095405366271734
0.008022410795092583,-0.003020425559952855,-0.006673312280327082,0.009062064811587334,2.091483293042984e-05,0.00667116092517972
0.008210697211325169,-0.003003958147019148,-0.0071653504855930805,0.009555586613714695,2.0674613551818766e-05,0.0064155287109315395
0.008161053992807865,-0.0027517788112163544,-0.007337232585996389,0.009128240868449211,2.043985659838654e-05,0.006640215869992971
0.007868790067732334,-0.0025558890774846077,-0.006954964250326157,0.008857621811330318,2.0210352886351757e-05,0.00705860648304224
0.007881585508584976,-0.002250752178952098,-0.006548323202878237,0.008788593113422394,1.998595143959392e-05,0.0067313238978385925
0.008214161731302738,-0.002037803642451763,-0.007109399884939194,0.009083044715225697,5.078706635686103e-06,0.007063668686896563
0.00853295624256134,-0.0018542881589382887,-0.006449891719967127,0.009109999984502792,3.316032461953e-07,0.007008370943367481
0.007765441667288542,-0.0019243845017626882,-0.007055920083075762,0.009448796510696411,2.1651320736282287e-08,0.007942724041640759
0.008054612204432487,-0.0023669942747801542,-0.00806446559727192,0.009722461923956871,1.4136765091876669e-09,0.00790115725249052
0.008149480447173119,-0.002321794396266341,-0.007756625302135944,0.009444079361855984,9.230298469997678e-11,0.007051883731037378
0.008559942245483398,-0.0023147098254412413,-0.007340422831475735,0.009398654103279114,6.026724692215213e-12,0.006374022923409939
0.007938305847346783,-0.002167391125112772,-0.006564721465110779,0.0096492450684309,3.9350209831041927e-13,0.0066871182061731815
0.008263672702014446,-0.001990821911022067,-0.006565776653587818,0.009358237497508526,2.5692875900277558e-14,0.007338516879826784
0.008592263795435429,-0.0019407994113862514,-0.007365156430751085,0.00878179632127285,1.677561034014877e-15,0.007579585071653128
0.00791944470256567,-0.0019548137206584215,-0.00717672985047102,0.009001296013593674,1.0953275532009956e-16,0.006953316740691662
0.008134487085044384,-0.0019297479884698987,-0.0069579510018229485,0.008900454267859459,7.151706796001809e-18,0.007139713503420353
0.008364166133105755,-0.001959548331797123,-0.007358541712164879,0.0095260851085186,3.0488846634113177e-20,0.007155332714319229
0.008116031996905804,-0.0019385312916710973,-0.007360814604908228,0.009458399377763271,1.990703848162627e-21,0.0072122421115636826
0.008703257888555527,-0.0018501377198845148,-0.007174474187195301,0.009192126803100109,1.2997874333064255e-22,0.007575639523565769
0.008552913554012775,-0.0019206207944080234,-0.006872181780636311,0.009612003341317177,8.486683158642523e-24,0.007634678855538368
0.008422255516052246,-0.0019090621499344707,-0.008054566569626331,0.00953646283596754,5.541198121734282e-25,0.007542692590504885
0.008308212272822857,-0.002253863727673888,-0.007890727370977402,0.009050845168530941,3.618006695653569e-26,0.007526428438723087
0.009065574035048485,-0.0020577367395162582,-0.006851088255643845,0.009052802808582783,2.362299832652707e-27,0.00760988425463438
0.008346494287252426,-0.0020411929581314325,-0.006317677907645702,0.009362950921058655,1.5424130145478433e-28,0.007511739153414965
0.008332560770213604,-0.0018143279012292624,-0.007103670854121447,0.009043977595865726,1.0070855445754606e-29,0.007614973932504654
0.008642581291496754,-0.0017061535036191344,-0.0076450458727777,0.008707965724170208,6.5755489484998e-31,0.0075346422381699085
0.008633339777588844,-0.00172891013789922,-0.007212088443338871,0.009296012111008167,4.293363518126227e-32,0.007212574128061533
0.008672941476106644,-0.0021375135984271765,-0.007123939692974091,0.009150256402790546,2.803259418439481e-33,0.007252401672303677
0.008672941476106644,-0.0021375135984271765,-0.007123939692974091,0.009150256402790546,2.803259418439481e-33,0.007252401672303677
0.008864029310643673,-0.0019751242361962795,-0.007444902788847685,0.009422443807125092,1.830328044943065e-34,0.007773484103381634
0.009033409878611565,-0.0020822896622121334,-0.007628070656210184,0.009886525571346283,1.1950734633637271e-35,0.0076073030941188335
0.009300232864916325,-0.0019171414896845818,-0.0068867565132677555,0.009665101766586304,7.802976019450037e-37,0.007793645840138197
0.008307120762765408,-0.0019348885398358107,-0.006888264324516058,0.009535400196909904,5.094784904653597e-38,0.008485469035804272
0.008979277685284615,-0.001997626619413495,-0.007062239106744528,0.009950163774192333,3.3265312140729686e-39,0.007756073493510485
0.009013528004288673,-0.0020313814748078585,-0.007872710935771465,0.009432745166122913,2.17198459373418e-40,0.00727201858535409
0.008449427783489227,-0.0023083200212568045,-0.007249494548887014,0.008683839812874794,1.418114045896715e-41,0.008171100169420242
0.009647083468735218,-0.0022529466077685356,-0.007104120682924986,0.00934306625276804,9.262582849187041e-43,0.00826839730143547
0.008875453844666481,-0.0023299248423427343,-0.007851394824683666,0.009139876812696457,4.203895392974451e-45,0.00737014738842845
0.008875453844666481,-0.0023299248423427343,-0.007851394824683666,0.009139876812696457,4.203895392974451e-45,0.00737014738842845
0.008711065165698528,-0.0024570918176323175,-0.007325633894652128,0.009459801018238068,0.0,0.00788900163024664
0.009041132405400276,-0.0024043277371674776,-0.007081504911184311,0.009350921027362347,0.0,0.007713915314525366
0.008956420235335827,-0.002266356023028493,-0.007121457252651453,0.009150887839496136,0.0,0.00792540144175291
0.008737645111978054,-0.002348989946767688,-0.007772688753902912,0.010369866155087948,0.0,0.00822056271135807
0.00940182339400053,-0.002162048127502203,-0.007451794110238552,0.009813552722334862,0.0,0.008564616553485394
0.00918059516698122,-0.002307615475729108,-0.006984230130910873,0.009167048148810863,0.0,0.007872018031775951
0.008547401987016201,-0.0022156252525746822,-0.007241666782647371,0.009444803930819035,0.0,0.0076675377786159515
0.009053069166839123,-0.002178013091906905,-0.007690982427448034,0.009462321177124977,0.0,0.008374099619686604
0.009853384457528591,-0.0023183091543614864,-0.007465177681297064,0.00910995714366436,0.0,0.008481062017381191
0.009056505747139454,-0.00219320273026824,-0.007200179621577263,0.009464327245950699,0.0,0.007950262166559696
0.009245648980140686,-0.002384128049015999,-0.007720722816884518,0.00926759373396635,0.0,0.007784043438732624
0.008981555700302124,-0.0022987793199718,-0.007461369503289461,0.00979975052177906,0.0,0.007878788746893406
0.008951226249337196,-0.0024755261838436127,-0.007263039704412222,0.009835191071033478,0.0,0.007662058342248201
0.009758434258401394,-0.0021916113328188658,-0.00721577787771821,0.00921205710619688,0.0,0.007987527176737785
0.009387143887579441,-0.0021999923046678305,-0.007993286475539207,0.00903802178800106,0.0,0.008768826723098755
0.008785266429185867,-0.0023437237832695246,-0.007331391330808401,0.009621113538742065,0.0,0.008183151483535767
0.009076565504074097,-0.0022436256986111403,-0.007148032076656818,0.009935980662703514,0.0,0.007941793650388718
0.009111637249588966,-0.002264871262013912,-0.007517825346440077,0.010528802871704102,0.0,0.008767079561948776
0.008877255022525787,-0.0021489341743290424,-0.007952331565320492,0.009883162565529346,0.0,0.00868857279419899
0.009308001026511192,-0.002269126707687974,-0.008101193234324455,0.009472379460930824,0.0,0.008359608240425587
0.009308001026511192,-0.002269126707687974,-0.008101193234324455,0.009472379460930824,0.0,0.008359608240425587
0.0101912347599864,-0.0020314776338636875,-0.007046414073556662,0.010361242108047009,0.0,0.008261202834546566
0.009314799681305885,-0.0021057238336652517,-0.008304353803396225,0.01007672306150198,0.0,0.008736145682632923
0.009720622561872005,-0.0021125366911292076,-0.008571156300604343,0.009656098671257496,0.0,0.008444814011454582
0.009656372480094433,-0.0021058395504951477,-0.00790436752140522,0.00994479563087225,0.0,0.008229206316173077
0.009549276903271675,-0.001988353207707405,-0.007520135026425123,0.010617583990097046,0.0,0.008674634620547295
0.009851441718637943,-0.001975616905838251,-0.008123168721795082,0.010155739262700081,0.0,0.009119028225541115
0.009582401253283024,-0.0022087106481194496,-0.00819755345582962,0.009982350282371044,0.0,0.009078525938093662
0.00926742423325777,-0.002180017763748765,-0.007783371489495039,0.010357752442359924,0.0,0.00888160988688469
0.009777333587408066,-0.0021957079879939556,-0.008116143755614758,0.010050339624285698,0.0,0.008668789640069008
0.009993072599172592,-0.002141455886885524,-0.008535151369869709,0.010849718935787678,0.0,0.008650334551930428
0.009679535403847694,-0.0021966465283185244,-0.007773397024720907,0.010533942840993404,0.0,0.00863843597471714
0.009990240447223186,-0.0019797333516180515,-0.007455522660166025,0.010618329048156738,0.0,0.009045019745826721
0.009459279477596283,-0.0020164174493402243,-0.00812339037656784,0.010432932525873184,0.0,0.008826009929180145
0.00917697325348854,-0.0018818620592355728,-0.008424571715295315,0.00999714620411396,0.0,0.00859079509973526
0.009922375902533531,-0.001981473993510008,-0.007939424365758896,0.009222165681421757,0.0,0.00861443392932415
0.010516478680074215,-0.0018673408776521683,-0.00759549206122756,0.010326763615012169,0.0,0.008446487598121166
0.010252900421619415,-0.0018308262806385756,-0.008172113448381424,0.009222711436450481,0.0,0.008984224870800972
0.009179318323731422,-0.0019063114887103438,-0.00793539173901081,0.009815385565161705,0.0,0.009206360206007957
0.009350664913654327,-0.0017513653729110956,-0.007604740094393492,0.010002709925174713,0.0,0.009293314069509506
0.010484317317605019,-0.0019118257332593203,-0.008516069501638412,0.009563490748405457,0.0,0.009250609204173088
0.009992508217692375,-0.0017803367227315903,-0.008513138629496098,0.010418370366096497,0.0,0.00911837536841631
0.009791540913283825,-0.0020427824929356575,-0.008033320307731628,0.010039662010967731,0.0,0.009273956529796124
0.010394847020506859,-0.0020663454197347164,-0.007894755341112614,0.00965175312012434,0.0,0.008794669061899185
0.009877880103886127,-0.0020671263337135315,-0.0081404410302639,0.010643956251442432,0.0,0.008983885869383812
0.0098402826115489,-0.0018507721833884716,-0.008679859340190887,0.010164392180740833,0.0,0.009025797247886658
0.0098402826115489,-0.0018507721833884716,-0.008679859340190887,0.010164392180740833,0.0,0.009025797247886658
0.010636215098202229,-0.00190072157420218,-0.008670713752508163,0.009395388886332512,0.0,0.009031860157847404
0.009924878366291523,-0.0017683885525912046,-0.008301090449094772,0.009218701161444187,0.0,0.009176495485007763
0.00998369324952364,-0.001944942050613463,-0.008083013817667961,0.009107878431677818,0.0,0.00868753157556057
0.010470603592693806,-0.0018208213150501251,-0.008107930421829224,0.00921205896884203,-0.00021018841653130949,0.008997946977615356
0.009933988563716412,-0.00199057231657207,-0.008358336053788662,0.009574145078659058,-0.00025378220016136765,0.009045330807566643
0.010825895704329014,-0.0018011642387136817,-0.008944051340222359,0.009775257669389248,-0.0002436650829622522,0.009451989084482193
0.01032779086381197,-0.0017316373996436596,-0.00821587722748518,0.009020729921758175,-0.0002539486449677497,0.00922734197229147
0.009859887883067131,-0.001698096632026136,-0.008156475611031055,0.00960879772901535,-0.00026253395481035113,0.009111183695495129
0.010425608605146408,-0.0015648783883079886,-0.00869313906878233,0.010008065961301327,-0.0002516659733373672,0.009352303110063076
0.010151553899049759,-0.0017695199931040406,-0.00878198817372322,0.00902626570314169,-0.00024054192181210965,0.00961218774318695
0.010480111464858055,-0.0019486607052385807,-0.008387730456888676,0.009334951639175415,-0.00026605126913636923,0.009486956521868706
0.010146929882466793,-0.0019966696854680777,-0.008393364027142525,0.00914005097001791,-0.00025750737404450774,0.009638135321438313
0.010044270195066929,-0.0020868803840130568,-0.008829928934574127,0.00919785164296627,-0.00024753937032073736,0.009252475574612617
0.009787394665181637,-0.0018391757039353251,-0.008463607169687748,0.009321269579231739,-0.00026769237592816353,0.009398452937602997
0.010030772536993027,-0.0016970353899523616,-0.008340918458998203,0.00971263274550438,-0.00026200327556580305,0.009946368634700775
0.009734075516462326,-0.0016079775523394346,-0.00881906971335411,0.009397324174642563,-0.0003305828431621194,0.010438397526741028
0.010170712135732174,-0.0017132785869762301,-0.008478661999106407,0.009687252342700958,-0.00031381897861137986,0.009639382362365723
0.010600150562822819,-0.0017406196566298604,-0.009175293147563934,0.009802236221730709,-0.0003369683981873095,0.00900307111442089
0.009689649567008018,-0.0018980796448886395,-0.008900502696633339,0.009800023399293423,-0.0003298916562926024,0.009580385871231556
0.009700695984065533,-0.0018818466924130917,-0.008873511105775833,0.00973527878522873,-0.0003117243177257478,0.010084262117743492
0.010324635542929173,-0.001855015754699707,-0.00923930387943983,0.009070917963981628,-0.0003187075781170279,0.010329842567443848
0.009902529418468475,-0.0018518458819016814,-0.00924391858279705,0.00990329124033451,-0.0003244417894165963,0.010215003974735737
0.009965676814317703,-0.001907600904814899,-0.00891486369073391,0.010716773569583893,-0.0003099263703916222,0.010459276847541332
0.010124770924448967,-0.0017385795945301652,-0.008566406555473804,0.009878327138721943,-0.00029548120801337063,0.010173236951231956
0.01040272694081068,-0.0017192944651469588,-0.00898871012032032,0.009570235386490822,-0.0003171768330503255,0.009709569625556469
0.010034321807324886,-0.0017879368970170617,-0.009014137089252472,0.009975865483283997,-0.00030838014208711684,0.009955424815416336
0.009924937970936298,-0.0018213948933407664,-0.008684024214744568,0.010206524282693863,-0.00029601319693028927,0.01002125907689333
0.009924937970936298,-0.0018213948933407664,-0.008684024214744568,0.010206524282693863,-0.00029601319693028927,0.01002125907689333
0.010183432139456272,-0.0018207530956715345,-0.009442141279578209,0.009957270696759224,-0.00031685392605140805,0.010415916331112385
0.010094784200191498,-0.0016973104793578386,-0.008804683573544025,0.010057864710688591,-0.0003252807364333421,0.010803187265992165
0.009837420657277107,-0.0016833809204399586,-0.008634554222226143,0.009653160348534584,-0.00030525855254381895,0.011015390045940876
0.010478011332452297,-0.0017106592422351241,-0.009306656196713448,0.01014849916100502,-0.00028598218341358006,0.011269323527812958
0.01060829870402813,-0.0017199647845700383,-0.008394727483391762,0.010104500688612461,-0.0003153995203319937,0.010290632024407387
0.010184396989643574,-0.0017398541094735265,-0.009262061677873135,0.009657387621700764,-0.00030399695970118046,0.010014589875936508
0.010242202319204807,-0.001881477888673544,-0.009720060043036938,0.010267546400427818,-0.0002881832479033619,0.010422221384942532
0.010393205098807812,-0.001882425625808537,-0.00923944916576147,0.010110356844961643,-0.00027360537205822766,0.010168895125389099
0.009999451227486134,-0.0019454885041341186,-0.009130151942372322,0.009708690457046032,-0.00028159914654679596,0.010448737069964409
0.010429639369249344,-0.0017634582472965121,-0.008612850680947304,0.009856498800218105,-0.0002883791457861662,0.010230179876089096
0.010306304320693016,-0.0016892139101400971,-0.009267285466194153,0.009512617252767086,-0.0002769842103589326,0.010468566790223122
0.01006033830344677,-0.0016874332213774323,-0.00891492236405611,0.009639118798077106,-0.00029341370100155473,0.010128987953066826
0.01028901245445013,-0.0015682186931371689,-0.009197918698191643,0.009793979115784168,-0.00029040779918432236,0.010325920768082142
0.010465316474437714,-0.0016636825166642666,-0.009552459232509136,0.009627941995859146,-0.00027970143128186464,0.010313154198229313
0.010497384704649448,-0.001812861068174243,-0.008298602886497974,0.01039548683911562,-0.00026042171521112323,0.01047064084559679
0.01011318527162075,-0.0016775523545220494,-0.009405499324202538,0.009942112490534782,-0.0002759498602245003,0.01062064804136753
0.01013205572962761,-0.0016297632828354836,-0.008912738412618637,0.009304480627179146,-0.0002619433216750622,0.01023794524371624
0.010350534692406654,-0.0016431300900876522,-0.008502653799951077,0.00961608812212944,-0.0002476568042766303,0.010118132457137108
0.010453409515321255,-0.0015359217068180442,-0.009192417375743389,0.01013365387916565,-0.00027537907590158284,0.010492369532585144
0.011117166839540005,-0.001647482393309474,-0.008875337429344654,0.010058432817459106,-0.000267308292677626,0.011236557736992836
0.011373399756848812,-0.0016333333915099502,-0.00879567489027977,0.010042119771242142,-0.0002550448989495635,0.011361869983375072
0.010130802169442177,-0.001588431652635336,-0.008831020444631577,0.009927794337272644,-0.00024356224457733333,0.01047479547560215
0.010144766420125961,-0.0016460942570120096,-0.009085861034691334,0.009625164791941643,-0.00025204059784300625,0.01078232191503048
0.010765166953206062,-0.0015165662625804543,-0.008664771914482117,0.010373204946517944,-0.00025934353470802307,0.010503893718123436
0.010634497739374638,-0.0015678222989663482,-0.008186858147382736,0.01071456354111433,-0.00025019896565936506,0.010508858598768711
0.010720020160079002,-0.0014348309487104416,-0.00902509968727827,0.010173127055168152,-0.0002407126739853993,0.010840989649295807
0.010586097836494446,-0.0013690668856725097,-0.008714769966900349,0.010621066205203533,-0.00026273465482518077,0.010795766487717628
0.010686416178941727,-0.0013706159079447389,-0.00878763198852539,0.010027597658336163,-0.0002554269158281386,0.01040108036249876
0.010686416178941727,-0.0013706159079447389,-0.00878763198852539,0.010027597658336163,-0.0002554269158281386,0.01040108036249876
0.0109043437987566,-0.0013990182196721435,-0.009138357825577259,0.01001531258225441,-0.0002829655131790787,0.010546250268816948
0.01033506728708744,-0.0014332564314827323,-0.00912794191390276,0.010580445639789104,-0.0002989824570249766,0.010652367025613785
0.010883008129894733,-0.0015264800749719143,-0.009055876173079014,0.009975013323128223,-0.00028248780290596187,0.010782812722027302
0.011664572171866894,-0.0014198764692991972,-0.008324211463332176,0.010404137894511223,-0.0002659352612681687,0.010839511640369892
0.01299791969358921,-0.0014633573591709137,-0.008954598568379879,0.010733334347605705,-0.0002510984777472913,0.01106423418968916
0.013276527635753155,-0.0013907408574596047,-0.008961575105786324,0.009773516096174717,-0.00023782382777426392,0.011195494793355465
0.012606030330061913,-0.0013147724093869328,-0.008750813081860542,0.010201891884207726,-0.00022588271531276405,0.011099249124526978
0.012702004984021187,-0.001197531819343567,-0.009152999147772789,0.010021691210567951,-0.00023608861374668777,0.011161699891090393
0.01253102719783783,-0.0012594877043738961,-0.009104233235120773,0.009560453705489635,-0.00024488483904860914,0.01048703957349062
0.012770992703735828,-0.001234623952768743,-0.008504685014486313,0.010165074840188026,-0.0002354804746573791,0.010607917793095112
0.012944206595420837,-0.0011840683873742819,-0.009063501842319965,0.010145275853574276,-0.00022571846784558147,0.010532910004258156
0.012749128974974155,-0.0012640716740861535,-0.009748391807079315,0.009805172681808472,-0.00024336008937098086,0.010787328705191612
0.01316957175731659,-0.0012513763504102826,-0.008529672399163246,0.010368475690484047,-0.00024240982020273805,0.011209938675165176
0.012957955710589886,-0.001481106854043901,-0.008680209517478943,0.010348730720579624,-0.00023395656899083406,0.011643502861261368
0.01303369551897049,-0.0014261117903515697,-0.009050210937857628,0.010330933146178722,-0.00022561276273336262,0.010886913165450096
0.012639428488910198,-0.001334050903096795,-0.008958364836871624,0.011040898971259594,-0.00021781357645522803,0.011020337231457233
0.013435711152851582,-0.0012963763438165188,-0.009332365356385708,0.010164990089833736,-0.00023256878193933517,0.011657878756523132
0.013096603564918041,-0.0012624314986169338,-0.009044752456247807,0.01040057372301817,-0.00022551808797288686,0.01170970220118761
0.013245344161987305,-0.0013770691584795713,-0.009043790400028229,0.010385805740952492,-0.00021868316980544478,0.011686383746564388
0.01300160400569439,-0.0014215217670425773,-0.009272434748709202,0.01021688524633646,-0.00021223707881290466,0.011450526304543018
0.013131494633853436,-0.0013930366840213537,-0.009056869894266129,0.010224169120192528,-0.00020615977700799704,0.011810893192887306
0.013199684210121632,-0.0013447161763906479,-0.008476894348859787,0.010251732543110847,-0.00020279041200410575,0.01184151228517294
0.013476683758199215,-0.0012561280746012926,-0.008707525208592415,0.010056741535663605,-0.00019463995704427361,0.011653009802103043
0.012998257763683796,-0.0012007610639557242,-0.008807466365396976,0.010290678590536118,-0.00018660745990928262,0.011830952018499374
0.013271811418235302,-0.0012089466908946633,-0.008772644214332104,0.01038493774831295,-0.00021257683692965657,0.012063663452863693
0.013099635019898415,-0.001152633922174573,-0.008914514444768429,0.010864845477044582,-0.0002234918501926586,0.011854707263410091
0.01370381098240614,-0.0011119458358734846,-0.009657194837927818,0.011197474785149097,-0.00023118489480111748,0.01184531208127737
0.013222179375588894,-0.0011106992606073618,-0.008910410106182098,0.010381323285400867,-0.00025176641065627337,0.012652045115828514
0.013426026329398155,-0.0011152330553159118,-0.00947459228336811,0.01104708667844534,-0.00024708022829145193,0.012102545239031315
0.01335065346211195,-0.0011830723378807306,-0.009644437581300735,0.011060488410294056,-0.000497204891871661,0.011937391944229603
0.013874895870685577,-0.001250913250260055,-0.009322673082351685,0.010817456990480423,-0.0004641338309738785,0.012009426951408386
0.013592047616839409,-0.0012591466074809432,-0.008404295891523361,0.011562153697013855,-0.00048352760495617986,0.012067105621099472
0.013592047616839409,-0.0012591466074809432,-0.008404295891523361,0.011562153697013855,-0.00048352760495617986,0.012067105621099472
0.015286702662706375,-0.0011917458614334464,-0.009355497546494007,0.010978849604725838,-0.0004613232158590108,0.012157103046774864
0.01329250168055296,-0.0011449456214904785,-0.009053872898221016,0.011105275712907314,-0.0004261439316906035,0.012243133969604969
0.013548417016863823,-0.0010447652311995625,-0.009157325141131878,0.01107834279537201,-0.00045186615898273885,0.012353643774986267
0.013952736742794514,-0.0010219791438430548,-0.00902738980948925,0.010292837396264076,-0.00042884715367108583,0.01222904585301876
0.013955471105873585,-0.0010141640668734908,-0.009123730473220348,0.010825072415173054,-0.00044424805673770607,0.012036414816975594
0.01410136092454195,-0.0010019169421866536,-0.009135903790593147,0.010358475148677826,-0.0004308813076931983,0.012296183034777641
0.013795419596135616,-0.0011719935573637486,-0.010289603844285011,0.010140279307961464,-0.0004320376319810748,0.012379901483654976
0.01431018766015768,-0.0011287715751677752,-0.00923770572990179,0.010539785027503967,-0.00045719314948655665,0.012577876448631287
0.013985364697873592,-0.0010926391696557403,-0.009539457969367504,0.010448595508933067,-0.0004937377525493503,0.012503859587013721
0.014124216511845589,-0.0009864390594884753,-0.009596306830644608,0.010609578341245651,-0.000525577983353287,0.012578289955854416
0.013508951291441917,-0.0009352209162898362,-0.009775880724191666,0.011256408877670765,-0.0005257788579910994,0.012561777606606483
0.013957304880023003,-0.0009309041779488325,-0.00938060600310564,0.01050739549100399,-0.000963804719503969,0.012487203814089298
0.014246017672121525,-0.0008089501643553376,-0.010284855961799622,0.010649001225829124,-0.0007546864217147231,0.012737393379211426
0.014092233031988144,-0.0007168945739977062,-0.0111696757376194,0.010040465742349625,-0.0007643246208317578,0.012989887036383152
0.014507086016237736,-0.0006436133407987654,-0.011711731553077698,0.010639346204698086,-0.0006874802056699991,0.012476122938096523
0.014389976859092712,-0.0005839305813424289,-0.010619424283504486,0.011017962358891964,-0.0006201413343660533,0.01270210649818182
0.014744210988283157,-0.0005343849188648164,-0.010467770509421825,0.010882451198995113,-0.0005645304336212575,0.012856483459472656
0.014318524859845638,-0.000554469006601721,-0.010825020261108875,0.011170582845807076,-0.0005180590087547898,0.012670842930674553
0.015112731605768204,-0.0005220084567554295,-0.011303133331239223,0.011200030334293842,-0.000478662783280015,0.012605416588485241
0.014888583682477474,-0.0004868083633482456,-0.010431544855237007,0.010290608741343021,-0.0004997167270630598,0.012605390511453152
0.015161603689193726,-0.000455974048236385,-0.011479807086288929,0.010662180371582508,-0.0004742710734717548,0.012905100360512733
0.014671661891043186,-0.0004288149648346007,-0.011066119186580181,0.009998687542974949,-0.00044540720409713686,0.013874302618205547
0.015023356303572655,-0.00040470834937877953,-0.011107909493148327,0.009895211085677147,-0.000419477466493845,0.013432429172098637
0.014889739453792572,-0.0003831679350696504,-0.011080601252615452,0.01070419605821371,-0.00039762695087119937,0.012570667080581188
0.015158044174313545,-0.0003638057387433946,-0.010718115605413914,0.009958218783140182,-0.00030521152075380087,0.012417171150445938
0.015158044174313545,-0.0003638057387433946,-0.010718115605413914,0.009958218783140182,-0.00030521152075380087,0.012417171150445938
0.014714285731315613,-0.00034630519803613424,-0.011751361191272736,0.009487608447670937,-0.0002817892818711698,0.012609635479748249
0.014945114962756634,-0.00033041287679225206,-0.011285990476608276,0.010352762416005135,-0.00030393843189813197,0.012229442596435547
0.015208378434181213,-0.000315913901431486,-0.01111876592040062,0.010698306374251842,-0.0002992796653416008,0.012440790422260761
0.014853357337415218,-0.00030263460939750075,-0.011665192432701588,0.01100906077772379,-0.00028431491227820516,0.01256998348981142
0.015110059641301632,-0.0002904266875702888,-0.011161874048411846,0.011039311066269875,-0.0003120677429251373,0.013003340922296047
0.015249178744852543,-0.00021489884238690138,-0.01178834494203329,0.01043474581092596,-0.00029994387296028435,0.012860659509897232
0.015081114135682583,-0.00019724993035197258,-0.010867551900446415,0.01082579419016838,-0.0003246088745072484,0.01304088719189167
0.014951949007809162,-0.00021363973792176694,-0.01038945559412241,0.010650965385138988,-0.00031299202237278223,0.01299627497792244
0.015319984406232834,-0.0002173278044210747,-0.011640985496342182,0.010373671539127827,-0.00043314945651218295,0.013057884760200977
0.014840553514659405,-0.00020907791622448713,-0.010800040327012539,0.010780643671751022,-0.00045327749103307724,0.012803744524717331
0.015355229377746582,-0.00023347395472228527,-0.010866505093872547,0.010945446789264679,-0.0004528108111117035,0.01333652250468731
0.014904746785759926,-0.00022637692745774984,-0.011170842684805393,0.010498554445803165,-0.0004804571799468249,0.013497746549546719
0.015518915839493275,-0.000218541594222188,-0.010812223888933659,0.010975604876875877,-0.00045419385423883796,0.01347765140235424
0.01463816687464714,-0.00021121483587194234,-0.011244455352425575,0.010668705217540264,-0.00048050106852315366,0.013917961157858372
0.014936578460037708,-0.0002331528958166018,-0.010937920771539211,0.0109321977943182,-0.0005594979738816619,0.013569628819823265
0.014751446433365345,-0.00022621409152634442,-0.010430972091853619,0.010450787842273712,-0.0006444740574806929,0.013588988222181797
0.015322012826800346,-0.00021932793606538326,-0.010244730859994888,0.010157717391848564,-0.0006267224671319127,0.013247215189039707
0.01554500125348568,-0.00020673306426033378,-0.0110041294246912,0.010593194514513016,-0.0005958944093436003,0.013250972144305706
0.015323021449148655,-0.00020096334628760815,-0.010952035896480083,0.010552067309617996,-0.0006173268775455654,0.01342699397355318
0.015247317031025887,-0.00019550591241568327,-0.010287325829267502,0.010851421393454075,-0.0005729300319217145,0.013515777885913849
0.015029484406113625,-0.0001903379161376506,-0.010943170636892319,0.010903586633503437,-0.0006190472049638629,0.01326357014477253
0.015605758875608444,-0.00018543571059126407,-0.011023804545402527,0.011075017042458057,-0.000653316208627075,0.013178695924580097
0.01583532802760601,-0.00018077983986586332,-0.010554901324212551,0.011062529869377613,-0.0005951688508503139,0.014012227766215801
0.015975769609212875,-0.0002229968667961657,-0.01092255674302578,0.010525521822273731,-0.0006138239987194538,0.013834042474627495
0.01583406887948513,-0.00021836279483977705,-0.01057108212262392,0.011031299829483032,-0.0005688549717888236,0.01369073148816824
0.015245920047163963,-0.00020833614689763635,-0.010426516644656658,0.011423769406974316,-0.0005223340122029185,0.013898821547627449
0.016161762177944183,-0.00019911803246941417,-0.010418410412967205,0.01120692677795887,-0.00048235029680654407,0.013962829485535622
0.015319108963012695,-0.00019068001711275429,-0.010405347682535648,0.011407650075852871,-0.0005075273802503943,0.014040363021194935
0.016166994348168373,-0.00018292816821485758,-0.011082177981734276,0.011244514025747776,-0.00047771824756637216,0.01404630858451128
0.016166994348168373,-0.00018292816821485758,-0.011082177981734276,0.011244514025747776,-0.00047771824756637216,0.01404630858451128
0.01590324006974697,-0.0001757827849360183,-0.011262044310569763,0.011242622509598732,-0.00044821813935413957,0.014117911458015442
0.01621491089463234,-0.0001691739889793098,-0.010217074304819107,0.011173591949045658,-0.00041968937148340046,0.013956462033092976
0.0162314772605896,-0.00016304389282595366,-0.011054896749556065,0.0104787927120924,-0.0003849875065498054,0.013770747929811478
0.016193246468901634,-0.00018837401876226068,-0.010546435602009296,0.010862519964575768,-0.0004067620902787894,0.013935171999037266
0.01593228057026863,-0.00018242672376800328,-0.010307679884135723,0.010665209032595158,-0.0003932868712581694,0.015685005113482475
0.015460583381354809,-0.00017647085769567639,-0.01101283822208643,0.01059036422520876,-0.0003675604530144483,0.01403781957924366
0.01622013747692108,-0.0001708862982923165,-0.010420579463243484,0.011167148128151894,-0.00039377156645059586,0.01346681360155344
0.015924526378512383,-0.0001656444073887542,-0.010206694714725018,0.010761192068457603,-0.00037697842344641685,0.01351962424814701
0.016200611367821693,-0.00016071426216512918,-0.010689827613532543,0.011063727550208569,-0.00040011745295487344,0.01408135425299406
0.015887416899204254,-0.000156069450895302,-0.010729693807661533,0.011438586749136448,-0.00038477787165902555,0.013723517768085003
0.016489284113049507,-0.00017399611533619463,-0.011609334498643875,0.010862232185900211,-0.00036681772326119244,0.013836459256708622
0.016524052247405052,-0.00017209166253451258,-0.011421063914895058,0.011249766685068607,-0.000421550270402804,0.013609352521598339
0.01610063575208187,-0.00016755300748627633,-0.010362516157329082,0.011203776113688946,-0.0004481123760342598,0.01411608885973692
0.016786156222224236,-0.00016321276780217886,-0.010949444957077503,0.011858961544930935,-0.0004304912581574172,0.014364275150001049
0.0169412549585104,-0.00015517290739808232,-0.009843048639595509,0.01086629182100296,-0.00047936319606378675,0.014360061846673489
0.016914255917072296,-0.00015144272765610367,-0.010583706200122833,0.01100692618638277,-0.0006006635958328843,0.014436143450438976
0.01686999201774597,-0.00014788754924666137,-0.0106420973315835,0.010966761037707329,-0.0007406946970149875,0.014465889893472195
0.017046034336090088,-0.00014449580339714885,-0.010571721941232681,0.010709105990827084,-0.0007389599340967834,0.014838358387351036
0.016779178753495216,-0.00014125581947155297,-0.010788673534989357,0.011341751553118229,-0.0007070426363497972,0.01458569522947073
0.017220597714185715,-0.00013815832789987326,-0.010477449744939804,0.010689505375921726,-0.0006825578748248518,0.015004337765276432
0.01706448197364807,-0.00013519366621039808,-0.011293397285044193,0.010803853161633015,-0.0006597535684704781,0.014664066955447197
0.016943957656621933,-6.613894220208749e-05,-0.01160725299268961,0.010938179679214954,-0.0006102615734562278,0.014964603818953037
0.016943957656621933,-6.613894220208749e-05,-0.01160725299268961,0.010938179679214954,-0.0006102615734562278,0.014964603818953037
0.0169085580855608,-5.922028867644258e-05,-0.012023435905575752,0.011161674745380878,-0.0006570711266249418,0.014460098929703236
0.0169085580855608,-5.922028867644258e-05,-0.012023435905575752,0.011161674745380878,-0.0006570711266249418,0.014460098929703236
0.01772557571530342,-5.7333472796017304e-05,-0.011293726041913033,0.011267803609371185,-0.0006456162082031369,0.014359500259160995
0.017023397609591484,-5.556380347115919e-05,-0.011057981289923191,0.011118593625724316,-0.0006253077299334109,0.014702259562909603
0.017361849546432495,-5.389989382820204e-05,-0.01142027135938406,0.011684492230415344,-0.0006472059758380055,0.014827821403741837
0.017296619713306427,-5.23328417330049e-05,-0.011317117139697075,0.011531945317983627,-0.0007124474504962564,0.015296300873160362
0.016758210957050323,-5.0854217988671735e-05,-0.011571287177503109,0.011773452162742615,-0.0007140683592297137,0.014833204448223114
0.017655080184340477,-4.945700857206248e-05,-0.011848225258290768,0.011442097835242748,-0.0006814902299083769,0.014744187705218792
0.01743227243423462,-4.813447594642639e-05,-0.011142407543957233,0.011049660854041576,-0.0006083865300752223,0.014453057199716568
0.01738119125366211,-4.6880806621629745e-05,-0.011675624176859856,0.011200652457773685,-0.0006135290605016053,0.014993948861956596
0.01753290183842182,-4.569082011585124e-05,-0.01135480497032404,0.011205810122191906,-0.0005777287879027426,0.014773488976061344
0.017304638400673866,-4.455971793504432e-05,-0.011370653286576271,0.01148957945406437,-0.0005303886719048023,0.015525964088737965
0.01783490553498268,-4.3483272747835144e-05,-0.011515527963638306,0.011403250508010387,-0.0005495528457686305,0.015491721220314503
0.017789870500564575,-4.245769014232792e-05,-0.011462700553238392,0.010947305709123611,-0.0005181996966712177,0.015340614132583141
0.017752282321453094,-4.147927393205464e-05,-0.01199111808091402,0.011682229116559029,-0.00048389064613729715,0.016040565446019173
0.017750319093465805,-4.0544979128753766e-05,-0.0111839035525918,0.011282387189567089,-0.0004544581170193851,0.014612684026360512
0.017909616231918335,-3.965181531384587e-05,-0.011602446436882019,0.01178569532930851,-0.0004014301230199635,0.014232947491109371
0.018517503514885902,-3.879715586663224e-05,-0.011450267396867275,0.011519780382514,-0.0003677659260574728,0.015031791292130947
0.01796538755297661,-3.7193854950601235e-05,-0.011882067658007145,0.01153082586824894,-0.0003769329923670739,0.015238584950566292
0.018361957743763924,-3.6440873373067006e-05,-0.011909722350537777,0.011237979866564274,-0.0003976223524659872,0.015799878165125847
0.018393930047750473,-3.5717777791433036e-05,-0.011670153588056564,0.011678109876811504,-0.00038687908090651035,0.0157910268753767
0.018553728237748146,-3.5022854717681184e-05,-0.011604913510382175,0.011592457070946693,-0.0004139124939683825,0.01611461490392685
0.01927320472896099,-3.435446706134826e-05,-0.011252783238887787,0.01100401021540165,-0.0003944561758544296,0.01544538326561451
0.01865624636411667,-3.371106140548363e-05,-0.012177370488643646,0.01159413531422615,-0.0004895200254395604,0.01538893487304449
0.01843562163412571,-3.3091349905589595e-05,-0.011560161598026752,0.011496810242533684,-0.000501789792906493,0.015309683047235012
0.018285047262907028,-3.249396104365587e-05,-0.011992018669843674,0.011682378128170967,-0.0004965889384038746,0.015748150646686554
0.017913803458213806,-3.19177852361463e-05,-0.012057928368449211,0.011878778226673603,-0.0004940562066622078,0.015867112204432487
0.01888664998114109,-3.1361705623567104e-05,-0.012123831547796726,0.011329369619488716,-0.0004893491859547794,0.01576836220920086
0.019134072586894035,-3.0824652640149e-05,-0.012261264026165009,0.011837164871394634,-0.0004561097885016352,0.015858739614486694
0.018996311351656914,-3.0305700420285575e-05,-0.011592659167945385,0.012137850746512413,-0.0004254344676155597,0.015853747725486755
0.018996311351656914,-3.0305700420285575e-05,-0.011592659167945385,0.012137850746512413,-0.0004254344676155597,0.015853747725486755
0.018717367202043533,-2.9803935831296258e-05,-0.01252663042396307,0.01177146378904581,-0.00042619844316504896,0.01586061529815197
0.018854325637221336,-2.93184639303945e-05,-0.011900483630597591,0.011251036077737808,-0.0004264294111635536,0.015730803832411766
0.0188937708735466,-2.8848586225649342e-05,-0.011770748533308506,0.010994845069944859,-0.0004041508072987199,0.015982452780008316
0.01959424652159214,-1.3983914868731517e-05,-0.012154525145888329,0.011648367159068584,-0.0003860254946630448,0.015963980928063393
0.01959424652159214,-1.3983914868731517e-05,-0.012154525145888329,0.011648367159068584,-0.0003860254946630448,0.015963980928063393
0.02056332863867283,-1.3762700291408692e-05,-0.01281343586742878,0.01171631645411253,-0.0003912209940608591,0.015953805297613144
0.019039232283830643,-1.3555331861425657e-05,-0.01186748780310154,0.012160585261881351,-0.0003942448238376528,0.016083773225545883
0.018552128225564957,-4.5617994146596175e-06,-0.012282445095479488,0.011818881146609783,-0.00039924070006236434,0.016097543761134148
0.01904919184744358,-6.120236406559343e-08,-0.01242930069565773,0.01169762946665287,-0.0004013729630969465,0.016195978969335556
0.01949424482882023,-8.211077373587727e-10,-0.012146562337875366,0.011664819903671741,-0.0004053844604641199,0.016338733956217766
0.020024994388222694,-1.1016208778524827e-11,-0.01279984600841999,0.011993186548352242,-0.0004068906418979168,0.016265755519270897
0.01958227902650833,-1.4779650214184065e-13,-0.012326776050031185,0.01169197540730238,-0.0003866322513204068,0.016567718237638474
0.019640915095806122,-1.9828785067756627e-15,-0.012927329167723656,0.01072672288864851,-0.00042638706509023905,0.01626594178378582
0.01961747743189335,-2.660284814683829e-17,-0.01230890117585659,0.011591807007789612,-0.0004420037439558655,0.01654428243637085
0.019745705649256706,-3.569111669213444e-19,-0.012934284284710884,0.012035218998789787,-0.0004058830672875047,0.017321452498435974
0.020022371783852577,-6.424275583929666e-23,-0.012424270622432232,0.011974134482443333,-0.0003440135042183101,0.016063079237937927
0.020057110115885735,-8.618984795994176e-25,-0.012810749933123589,0.011734428815543652,-0.00031956483144313097,0.016252774745225906
0.01976425014436245,-1.1563469045747603e-26,-0.012990170158445835,0.012353734113276005,-0.00029836499015800655,0.01700006052851677
0.02001599594950676,-1.5513870054943371e-28,-0.013422802090644836,0.011925659142434597,-0.00032100360840559006,0.01657540164887905
0.02012898400425911,-2.0813837120292436e-30,-0.012541266158223152,0.012245810590684414,-0.00031513412250205874,0.016710583120584488
0.020014313980937004,-2.792441784739245e-32,-0.013457681983709335,0.011893672868609428,-0.00029854767490178347,0.016736987978219986
0.019944077357649803,-3.746417127150751e-34,-0.012651881203055382,0.01175373699516058,-0.0002829540753737092,0.01711677946150303
0.019974397495388985,-5.026297327830351e-36,-0.012903430499136448,0.012488682754337788,-0.00026886409614235163,0.017268411815166473
0.020044837146997452,-6.743419834683759e-38,-0.012308039702475071,0.012050032615661621,-0.0002561087894719094,0.01713523268699646
0.020492233335971832,-9.047161236266387e-40,-0.012419984675943851,0.012437626719474792,-0.000244510272750631,0.017072871327400208
0.02017967961728573,-1.2138047297981565e-41,-0.012899642810225487,0.012421167455613613,-0.00023391569266095757,0.016560839489102364
0.02017967961728573,-1.2138047297981565e-41,-0.012899642810225487,0.012421167455613613,-0.00023391569266095757,0.016560839489102364
0.02023809216916561,-2.802596928649634e-45,-0.01343931071460247,0.012862177565693855,-0.0002498934918548912,0.01730264537036419
0.02023809216916561,-2.802596928649634e-45,-0.01343931071460247,0.012862177565693855,-0.0002498934918548912,0.01730264537036419
0.020368559285998344,-0.0,-0.012982306070625782,0.012082996778190136,-0.00024142874462995678,0.017199791967868805
0.02018614485859871,0.0,-0.013109877705574036,0.012318572960793972,-0.0002325871173525229,0.01701429858803749
0.01998836174607277,0.0,-0.012234189547598362,0.012518825009465218,-0.00022430917306337506,0.01671617105603218
0.02074407786130905,0.0,-0.012702150270342827,0.012864873744547367,-0.00021659707999788225,0.01674971915781498
0.020628873258829117,0.0,-0.01379306148737669,0.012595446780323982,-0.00023534789215773344,0.017267847433686256
0.020377829670906067,0.0,-0.014017012901604176,0.012225459329783916,-0.00023135288211051375,0.01722349040210247
0.020466743037104607,0.0,-0.013926944695413113,0.012198549695312977,-0.0002250312827527523,0.01727771945297718
0.02046837843954563,0.0,-0.013605160638689995,0.012319603003561497,-0.00018884087330661714,0.017118006944656372
0.020389365032315254,0.0,-0.013408908620476723,0.012891124933958054,-0.00019711506320163608,0.01708986423909664
0.020373456180095673,0.0,-0.012927227653563023,0.012318178080022335,-0.0002058660757029429,0.01691163331270218
0.02058900147676468,0.0,-0.013691372238099575,0.012189251370728016,-0.0001993295009015128,0.0170868169516325
0.02009461261332035,0.0,-0.013788011856377125,0.012270795181393623,-0.00023166407481767237,0.01724746823310852
0.020885508507490158,0.0,-0.013448771089315414,0.012162359431385994,-0.00023831601720303297,0.019104020670056343
0.021277030929923058,0.0,-0.01414021011441946,0.012142079882323742,-0.0005179347936064005,0.017783163115382195
0.020764006301760674,0.0,-0.013491551391780376,0.012656078673899174,-0.000574866309762001,0.017208613455295563
0.02052547037601471,0.0,-0.01388631109148264,0.012364061549305916,-0.000542346213478595,0.017400721088051796
0.02030748501420021,0.0,-0.012852819636464119,0.012534912675619125,-0.0005652819527313113,0.017966454848647118
0.020546354353427887,0.0,-0.013486080802977085,0.012456610798835754,-0.0005276489537209272,0.018012184649705887
0.020546354353427887,0.0,-0.013486080802977085,0.012456610798835754,-0.0005276489537209272,0.018012184649705887
0.02025209367275238,0.0,-0.013204392977058887,0.012083688750863075,-0.0005475224461406469,0.01855459436774254
0.020872212946414948,0.0,-0.01423991471529007,0.012242192402482033,-0.0005164516624063253,0.018533911556005478
0.020341629162430763,0.00018061709124594927,-0.01413385197520256,0.012778621166944504,-0.0005033990601077676,0.018015356734395027
0.020341629162430763,0.00018061709124594927,-0.01413385197520256,0.012778621166944504,-0.0005033990601077676,0.018015356734395027
0.020723573863506317,0.000178478701855056,-0.01378051470965147,0.012080206535756588,-0.00046999609912745655,0.017206775024533272
0.021785207092761993,0.00017173464584629983,-0.014215221628546715,0.012141413986682892,-0.0005058296374045312,0.01754792407155037
0.020563561469316483,0.0001595567591721192,-0.013873269781470299,0.012147104367613792,-0.0005354403401724994,0.0191621333360672
0.020563561469316483,0.0001595567591721192,-0.013873269781470299,0.012147104367613792,-0.0005354403401724994,0.0191621333360672
0.020465459674596786,0.00017878325888887048,-0.013673354871571064,0.011968028731644154,-0.0004951260634697974,0.018456246703863144
0.020465459674596786,0.00017878325888887048,-0.013673354871571064,0.011968028731644154,-0.0004951260634697974,0.018456246703863144
0.020693641155958176,0.00017305935034528375,-0.014320999383926392,0.01221728790551424,-0.0006015930557623506,0.0187733992934227
0.02067236416041851,0.00019524611707311124,-0.01407077070325613,0.012351566925644875,-0.0005406385171227157,0.01897587440907955
0.020025625824928284,0.00018973657279275358,-0.014241916127502918,0.012468069791793823,-0.000529663113411516,0.018977900967001915
0.02144230157136917,0.00018419358821120113,-0.01360295806080103,0.012903929688036442,-0.0005203375476412475,0.019096769392490387
0.0213753841817379,0.00017896114150062203,-0.014041791670024395,0.012564223259687424,-0.0005456045037135482,0.018811941146850586
0.020772503688931465,0.00019853463163599372,-0.013641446828842163,0.012699667364358902,-0.000510832411237061,0.01793113723397255
0.020918844267725945,0.00019352736126165837,-0.014209624379873276,0.011951527558267117,-0.0005358817288652062,0.017899755388498306
0.02125917561352253,0.0001884727244032547,-0.01408128347247839,0.013067827560007572,-0.0005028788582421839,0.018590306863188744
0.02110927179455757,0.00018383230781182647,-0.01439564861357212,0.012488043867051601,-0.0005091294297017157,0.018598493188619614
0.02127145789563656,0.00026794272707775235,-0.013896743766963482,0.013012484647333622,-0.0005054500070400536,0.01909465901553631
0.021492889150977135,0.00027205233345739543,-0.013911387883126736,0.013139165006577969,-0.00045914851943962276,0.018944883719086647
0.021432630717754364,0.0002737834583967924,-0.01425850484520197,0.013572716154158115,-0.0004888488911092281,0.01828964240849018
0.021396560594439507,0.00026076968060806394,-0.013512780889868736,0.013094699010252953,-0.0005140842986293137,0.018360285088419914
0.022100217640399933,0.00028852568357251585,-0.014183328486979008,0.013100640848279,-0.0004872602876275778,0.019167836755514145
0.022297540679574013,0.00027741468511521816,-0.013816745951771736,0.012322699651122093,-0.0005603370955213904,0.01982284151017666
0.022109149023890495,0.0002906357985921204,-0.014696985483169556,0.012708543799817562,-0.0006016873521730304,0.019333157688379288
0.021826816722750664,0.0002912286145146936,-0.01467161625623703,0.012216092087328434,-0.0005530765629373491,0.019106227904558182
0.022001070901751518,0.00043161187204532325,-0.014929083175957203,0.012569267302751541,-0.0005637122085317969,0.01961435377597809
0.022212058305740356,0.0004655395750887692,-0.013956626877188683,0.012751876376569271,-0.0005347991245798767,0.019325969740748405
0.022243482992053032,0.00045266046072356403,-0.014910360798239708,0.013138588517904282,-0.0005458850064314902,0.01925204135477543
0.022243482992053032,0.00045266046072356403,-0.014910360798239708,0.013138588517904282,-0.0005458850064314902,0.01925204135477543
0.02199154533445835,0.0004634413053281605,-0.014055829495191574,0.013359506614506245,-0.0005224195192568004,0.01976371742784977
0.0223100446164608,0.00045226787915453315,-0.014556115493178368,0.012577219866216183,-0.0005334391607902944,0.01947883889079094
0.022614039480686188,0.00046168529661372304,-0.014020539820194244,0.012806722894310951,-0.0005184511537663639,0.018856726586818695
0.022561408579349518,0.00045197721919976175,-0.014949574135243893,0.01233639381825924,-0.0004675690724980086,0.019227739423513412
0.02216779626905918,0.0005341131472960114,-0.014444882050156593,0.013112231157720089,-0.0004966455162502825,0.019443940371274948
0.02248750813305378,0.0005249374662525952,-0.01483406312763691,0.01326362881809473,-0.0004638713435269892,0.019282478839159012
0.022986512631177902,0.0005634568515233696,-0.014495734125375748,0.013884874060750008,-0.000493986124638468,0.019312171265482903
0.02286927029490471,0.0005861949757672846,-0.01457290630787611,0.013676551170647144,-0.0004941316437907517,0.01902708224952221
0.02265181951224804,0.0005448164301924407,-0.014283117838203907,0.013619489967823029,-0.0004900851636193693,0.01856425404548645
0.022441819310188293,0.0005721611669287086,-0.01506553404033184,0.013021649792790413,-0.00046337908133864403,0.01923120766878128
0.022805506363511086,0.0006426819018088281,-0.014856269583106041,0.013105521909892559,-0.0004914753371849656,0.02007243223488331
0.02306636981666088,0.0006113648414611816,-0.015919210389256477,0.01353676337748766,-0.0005248134257271886,0.01996917836368084
0.02346404641866684,0.0006449930951930583,-0.01534835435450077,0.012626444920897484,-0.000488140678498894,0.02005944401025772
0.023449242115020752,0.0006618876941502094,-0.015206755138933659,0.013910755515098572,-0.0004482872027438134,0.01957581751048565
0.023263631388545036,0.0006650249706581235,-0.01570591889321804,0.01231356617063284,-0.0004139381635468453,0.019108589738607407
0.02318921871483326,0.0008130623609758914,-0.015348474495112896,0.013459761627018452,-0.0004175857757218182,0.019697174429893494
0.023433083668351173,0.0007464410737156868,-0.014757981523871422,0.013908959925174713,-0.00039251649286597967,0.02013794705271721
0.023590009659528732,0.0007639869581907988,-0.01555471122264862,0.01352306641638279,-0.0003952482948079705,0.020107831805944443
0.023906612768769264,0.000778671819716692,-0.015476087108254433,0.013903353363275528,-0.00039716222090646625,0.020421091467142105
0.023305770009756088,0.0008836219203658402,-0.016368011012673378,0.013706396333873272,-0.00037786568282172084,0.02072072960436344
0.024361878633499146,0.0008929934701882303,-0.015424558892846107,0.014080670662224293,-0.0003591136774048209,0.0215098038315773
0.025059036910533905,0.0008939718827605247,-0.01582435518503189,0.013875040225684643,-0.0003465392510406673,0.02075360156595707
0.025059036910533905,0.0008939718827605247,-0.01582435518503189,0.013875040225684643,-0.0003465392510406673,0.02075360156595707
0.0246234443038702,0.0008946508169174194,-0.0154837341979146,0.013445986434817314,-0.00032307961373589933,0.020539212971925735
0.02416212297976017,0.000946365820709616,-0.01572568528354168,0.013851630501449108,-0.0003458724822849035,0.020040974020957947
0.02382303774356842,0.0010453019058331847,-0.015826720744371414,0.014039402827620506,-0.00033804852864705026,0.0198130551725626
0.023355962708592415,0.0010559300426393747,-0.015446120873093605,0.013840720057487488,-0.00036846197326667607,0.0200904943048954
0.02409360371530056,0.0011719565372914076,-0.01552071887999773,0.01336645521223545,-0.0003979360335506499,0.020735042169690132
0.025052256882190704,0.001269575790502131,-0.01564202830195427,0.013530121184885502,-0.0005141598521731794,0.02124146930873394
0.02458689548075199,0.0012432149378582835,-0.01625705510377884,0.013556621968746185,-0.0005731852725148201,0.02140008844435215
0.024777501821517944,0.0012896583648398519,-0.015373129397630692,0.013623311184346676,-0.0006112781702540815,0.021192654967308044
0.024486128240823746,0.0014089063042774796,-0.015650514513254166,0.013209248892962933,-0.0005996994441375136,0.02067680098116398
0.02486472949385643,0.0013447959208860993,-0.015116466209292412,0.01382477954030037,-0.0005845670239068568,0.020948810502886772
0.02463420480489731,0.0015056796837598085,-0.01564575359225273,0.013491016812622547,-0.0005373266176320612,0.021465899422764778
0.02499842457473278,0.0015254061436280608,-0.015449962578713894,0.013752424158155918,-0.0005562574951909482,0.021414868533611298
0.02463538572192192,0.0014412547461688519,-0.015545837581157684,0.013260871171951294,-0.0005267118685878813,0.020952587947249413
0.024932431057095528,0.0015092184767127037,-0.015267516486346722,0.013587290421128273,-0.0005423424299806356,0.021025020629167557
0.02503853477537632,0.001445889356546104,-0.01619846001267433,0.013612235896289349,-0.0005726398085244,0.02104642055928707
0.024888597428798676,0.0015651870053261518,-0.016559511423110962,0.01398638729006052,-0.0006041905144229531,0.020887356251478195
0.02481289580464363,0.0015767317963764071,-0.01548075396567583,0.013519070111215115,-0.0006001611473038793,0.020881889387965202
0.025162044912576675,0.0018218286568298936,-0.015604859218001366,0.013640380464494228,-0.0005449838354252279,0.02057308703660965
0.025319326668977737,0.0019283918663859367,-0.015907956287264824,0.013735581189393997,-0.0006091810646466911,0.02038678340613842
0.02539515495300293,0.0019800104200839996,-0.01525680162012577,0.013288921676576138,-0.0005689013632945716,0.02080874890089035
0.02542675845324993,0.0019482760690152645,-0.01603897660970688,0.012966799549758434,-0.0005071053747087717,0.021550877019762993
0.025397995486855507,0.0019077309407293797,-0.015779854729771614,0.013379649259150028,-0.000522433954756707,0.021437987685203552
0.025487398728728294,0.001889304956421256,-0.016264621168375015,0.013785822317004204,-0.0004950111033394933,0.021075265482068062
0.025513844564557076,0.001875963993370533,-0.01611768640577793,0.014565856195986271,-0.0005102130817249417,0.021147029474377632
0.025061555206775665,0.00207512266933918,-0.015809131786227226,0.01403807196766138,-0.0004879683256149292,0.02147528901696205
0.025061555206775665,0.00207512266933918,-0.015809131786227226,0.01403807196766138,-0.0004879683256149292,0.02147528901696205
0.025267530232667923,0.002029597293585539,-0.016039978712797165,0.014060594141483307,-0.0005099212867207825,0.021744417026638985
0.025606224313378334,0.002327660098671913,-0.015529812313616276,0.013710660859942436,-0.0004833824641536921,0.021628284826874733
0.025210630148649216,0.0025576867628842592,-0.015762807801365852,0.013949792832136154,-0.00046757387463003397,0.02175709791481495
0.025546900928020477,0.002415282651782036,-0.015225984156131744,0.013352354057133198,-0.00043698801891878247,0.021572818979620934
0.026458216831088066,0.0021875679958611727,-0.016309043392539024,0.01418248750269413,-0.00039915723027661443,0.021498311311006546
0.02619144879281521,0.0021195190493017435,-0.015392201952636242,0.013918610289692879,-0.0004299083084333688,0.021722707897424698
0.025403454899787903,0.0021622944623231888,-0.015492375940084457,0.014090519398450851,-0.0004061681102029979,0.021620282903313637
0.02295091561973095,0.002137800445780158,-0.015476910397410393,0.013793562538921833,-0.0004088663263246417,0.021499963477253914
0.02621499076485634,0.0023124925792217255,-0.015718458220362663,0.014292395673692226,-0.00041032020817510784,0.021764390170574188
0.02610793523490429,0.0024245225358754396,-0.01586924120783806,0.013619395904242992,-0.00038694884278811514,0.021778371185064316
0.02548964135348797,0.0023705456405878067,-0.015720752999186516,0.013658828102052212,-0.000409721746109426,0.021665440872311592
0.026219140738248825,0.0026215058751404285,-0.015728691592812538,0.013235044665634632,-0.0003934933338314295,0.022093677893280983
0.02637050673365593,0.002436154056340456,-0.015426349826157093,0.013840250670909882,-0.00037415558472275734,0.02195827104151249
0.026189904659986496,0.00237084343098104,-0.015957390889525414,0.013741422444581985,-0.00039783635293133557,0.021882152184844017
0.026270577684044838,0.002691224915906787,-0.015473779290914536,0.014247235842049122,-0.0004046487738378346,0.021831152960658073
0.0253716129809618,0.0029633038211613894,-0.01578078791499138,0.014094152487814426,-0.0004069246642757207,0.022045008838176727
0.025401635095477104,0.0029723932966589928,-0.01565728336572647,0.014021321199834347,-0.0004351688548922539,0.022637559100985527
0.026250213384628296,0.0028789318166673183,-0.01669866405427456,0.01432819850742817,-0.00044295223779045045,0.0215213131159544
0.026251427829265594,0.0029357229359447956,-0.016501683741807938,0.014579163864254951,-0.000622850377112627,0.022173650562763214
0.02606263756752014,0.003191717667505145,-0.016631586477160454,0.014476736076176167,-0.0006584966322407126,0.022697363048791885
0.026050671935081482,0.0031328864861279726,-0.016426024958491325,0.014392301440238953,-0.0006114822463132441,0.02320265583693981
0.0267199520021677,0.003413220401853323,-0.016759973019361496,0.014514852315187454,-0.0006359834806062281,0.02335207536816597
0.02698635868728161,0.003113655373454094,-0.01590762473642826,0.014539044350385666,-0.0006437583360821009,0.02297026477754116
0.026495084166526794,0.0033300549257546663,-0.01671450212597847,0.0154189458116889,-0.0006121105398051441,0.022151371464133263
0.026713306084275246,0.003486878238618374,-0.016322091221809387,0.014629637822508812,-0.0006663620588369668,0.022214729338884354
0.026985615491867065,0.0034347353503108025,-0.017334286123514175,0.01461152732372284,-0.0006742701516486704,0.022622693330049515
0.026985615491867065,0.0034347353503108025,-0.017334286123514175,0.01461152732372284,-0.0006742701516486704,0.022622693330049515
0.02669115737080574,0.003564323764294386,-0.017047187313437462,0.01421866100281477,-0.0006230641738511622,0.023000948131084442
0.027143530547618866,0.0033877433743327856,-0.016517750918865204,0.013958770781755447,-0.000646666157990694,0.022717848420143127
0.026943517848849297,0.0034892051480710506,-0.017292417585849762,0.013912806287407875,-0.0005916368681937456,0.022943273186683655
0.026670904830098152,0.0036889456678181887,-0.016776980832219124,0.014170545153319836,-0.0006077742436900735,0.023446818813681602
0.02683647722005844,0.00343895866535604,-0.01709388568997383,0.014340715482831001,-0.000568812305573374,0.0237033199518919
0.026758000254631042,0.0034199203364551067,-0.016782741993665695,0.014467986300587654,-0.0005276863812468946,0.02328825183212757
0.02691088616847992,0.0036133520770817995,-0.01642370969057083,0.015500005334615707,-0.0005001127137802541,0.022436071187257767
0.027152717113494873,0.0037420527078211308,-0.017090313136577606,0.01456962525844574,-0.00045527794281952083,0.022453751415014267
0.02737325243651867,0.003716288832947612,-0.016971668228507042,0.013685420155525208,-0.000413741945521906,0.022670036181807518
0.026822874322533607,0.0036496708635240793,-0.017264673486351967,0.013982136733829975,-0.0004442208737600595,0.022864462807774544
0.02739924006164074,0.003643718780949712,-0.017221391201019287,0.014704536646604538,-0.0004186503356322646,0.023335687816143036
0.02785751409828663,0.003680406603962183,-0.0165373794734478,0.014532513916492462,-0.00043670559534803033,0.023313919082283974
0.02744288556277752,0.003737559774890542,-0.017308179289102554,0.01493663527071476,-0.0004222893912810832,0.023392945528030396
0.02775712125003338,0.0038692299276590347,-0.016317931935191154,0.014399643056094646,-0.00043838124838657677,0.023538075387477875
0.02775430865585804,0.0039098444394767284,-0.017526274546980858,0.014484251849353313,-0.0004255550738889724,0.023320231586694717
0.027661597356200218,0.003958981949836016,-0.017494773492217064,0.014532261528074741,-0.00047141400864347816,0.02337959222495556
0.026905186474323273,0.003926428500562906,-0.017063889652490616,0.01438135001808405,-0.0005010950844734907,0.02279561571776867
0.028580613434314728,0.0042070928029716015,-0.016376789659261703,0.014405741356313229,-0.0004934889147989452,0.023327307775616646
0.02856220118701458,0.004229043610394001,-0.0170630794018507,0.014700010418891907,-0.00047316428390331566,0.023547938093543053
0.028705693781375885,0.004043756518512964,-0.01691584475338459,0.014562182128429413,-0.00048744885134510696,0.023752616718411446
0.027874724939465523,0.004024541936814785,-0.01698864810168743,0.015122507698833942,-0.0005658761947415769,0.02348671853542328
0.027076980099081993,0.003979664761573076,-0.01805197447538376,0.014954696409404278,-0.0005858226213604212,0.023168856278061867
0.02818155288696289,0.004360161256045103,-0.017089832574129105,0.015182195231318474,-0.0006001109140925109,0.023730576038360596
0.028826015070080757,0.004119759891182184,-0.017326047644019127,0.01475951261818409,-0.0005614305846393108,0.02384124882519245
0.028172416612505913,0.004067177418619394,-0.01730899140238762,0.01476904284209013,-0.0005099147674627602,0.02384594827890396
0.02875286526978016,0.003945250529795885,-0.017292028293013573,0.014401568099856377,-0.0005328949773684144,0.02366248145699501
0.029107986018061638,0.00390102481469512,-0.017684360966086388,0.014663176611065865,-0.0005343185621313751,0.023712536320090294
0.028395963832736015,0.0043995575979352,-0.017048664391040802,0.01426174957305193,-0.000527329568285495,0.023498620837926865
0.028395963832736015,0.0043995575979352,-0.017048664391040802,0.01426174957305193,-0.000527329568285495,0.023498620837926865
0.02809941954910755,0.00489299651235342,-0.017408885061740875,0.014481086283922195,-0.0005394046893343329,0.02375972457230091
0.028201119974255562,0.00479883560910821,-0.017192449420690536,0.014179609715938568,-0.0005702164489775896,0.024972742423415184
0.028540268540382385,0.004583843983709812,-0.01723828725516796,0.014745055697858334,-0.0006025877664797008,0.02480301819741726
0.02898782305419445,0.004303146619349718,-0.017444239929318428,0.014775972813367844,-0.0005698034656234086,0.02413305453956127
0.028754914179444313,0.004397351760417223,-0.01704876683652401,0.015478203073143959,-0.0005933250649832189,0.023154305294156075
0.02833242155611515,0.004962335340678692,-0.017489293590188026,0.01497413869947195,-0.0007470989949069917,0.023193439468741417
0.028809349983930588,0.004729808773845434,-0.017812732607126236,0.015294410288333893,-0.0008003429393284023,0.02384878881275654
0.02881242334842682,0.004995505791157484,-0.017422635108232498,0.014636705629527569,-0.0007855674484744668,0.02463705651462078
0.028960052877664566,0.004353453405201435,-0.01767456717789173,0.015211537480354309,-0.0007460865308530629,0.024034418165683746
0.02864610031247139,0.004569685086607933,-0.017172474414110184,0.01510187890380621,-0.0007589078741148114,0.023701805621385574
0.028657162562012672,0.00466251652687788,-0.017590241506695747,0.015413173474371433,-0.000762607145588845,0.024552112445235252
0.028660312294960022,0.00468097347766161,-0.01772204414010048,0.014928635209798813,-0.000710918742697686,0.024376478046178818
0.028982283547520638,0.004590687341988087,-0.017059503123164177,0.015159791335463524,-0.0007318948046304286,0.02412480115890503
0.02871639095246792,0.0046369172632694244,-0.01789962686598301,0.015285076573491096,-0.0007303212769329548,0.02350989356637001
0.029164139181375504,0.0047247945331037045,-0.017606673762202263,0.015406143851578236,-0.0007230364135466516,0.023674696683883667
0.028074663132429123,0.004543277435004711,-0.01770087331533432,0.015581527724862099,-0.0006964600761421025,0.023053055629134178
0.029650835320353508,0.0034653146285563707,-0.01789001002907753,0.015343318693339825,-0.0006948514492250979,0.023910313844680786
0.029690727591514587,0.0015246596885845065,-0.01770075038075447,0.01492794044315815,-0.0006414421950466931,0.024385401979088783
0.02931920997798443,0.0016902954084798694,-0.017724961042404175,0.015175917185842991,-0.0005846957210451365,0.02448337711393833
0.029078640043735504,0.002118634060025215,-0.018005404621362686,0.015014702454209328,-0.0005706684314645827,0.024357380345463753
0.029383933171629906,0.003455361584201455,-0.018469270318746567,0.015391651540994644,-0.0005583956954069436,0.02446509152650833
0.030896645039319992,0.0038139154203236103,-0.017434589564800262,0.015382228419184685,-0.0005787037662230432,0.024643344804644585
0.030645819380879402,0.003206192050129175,-0.018494825810194016,0.015821708366274834,-0.0005708154058083892,0.02465370111167431
0.029285728931427002,0.0027612317353487015,-0.018331995233893394,0.015294224955141544,-0.0006103597697801888,0.024968786165118217
0.029271777719259262,0.0021530580706894398,-0.017840594053268433,0.015153148211538792,-0.0006412342772819102,0.02505907602608204
0.030311882495880127,0.002107073552906513,-0.018329640850424767,0.014654207043349743,-0.0006661462830379605,0.025252290070056915
0.030320875346660614,0.002440334064885974,-0.01849541999399662,0.014975305646657944,-0.0008311127312481403,0.025158029049634933
0.029784811660647392,0.0028917179442942142,-0.0185089111328125,0.014947586692869663,-0.0008634041296318173,0.024798359721899033
0.029784811660647392,0.0028917179442942142,-0.0185089111328125,0.014947586692869663,-0.0008634041296318173,0.024798359721899033
0.030864981934428215,0.0031751981005072594,-0.018817322328686714,0.015450626611709595,-0.0008704522042535245,0.025289386510849
0.03114696964621544,0.0028891528490930796,-0.018923502415418625,0.015859000384807587,-0.0007577213691547513,0.025496307760477066
0.030347179621458054,0.002557062543928623,-0.01911134086549282,0.01552292425185442,-0.0007598715019412339,0.02514169178903103
0.029564345255494118,0.0021325061097741127,-0.01977337710559368,0.015212821774184704,-0.0006894654943607748,0.02568979561328888
0.029892807826399803,0.002216408494859934,-0.019483912736177444,0.015087302774190903,-0.0006221233052201569,0.02561717852950096
0.03051961213350296,0.0025590185541659594,-0.019437478855252266,0.015557581558823586,-0.0006412783986888826,0.02563447691500187
0.030681628733873367,0.002822238951921463,-0.019637275487184525,0.015037239529192448,-0.0005932941567152739,0.025619685649871826
0.030955832451581955,0.0026502027176320553,-0.01901722140610218,0.014871777966618538,-0.0005483878194354475,0.025557631626725197
0.030683016404509544,0.0025732778012752533,-0.01904381439089775,0.014625564217567444,-0.0005115133244544268,0.025347955524921417
0.03040400892496109,0.002310974057763815,-0.019611185416579247,0.015553995966911316,-0.0004119782242923975,0.025057414546608925
0.030659619718790054,0.002410320332273841,-0.019813217222690582,0.015830473974347115,-0.00037420555599965155,0.02555134892463684
0.03038409724831581,0.0026824113447219133,-0.01945824921131134,0.01609613001346588,-0.00040940247708931565,0.02603033185005188
0.03225666284561157,0.0033134666737169027,-0.019876008853316307,0.015512063167989254,-0.00038441302604041994,0.026329735293984413
0.031749509274959564,0.0032201146241277456,-0.019719501957297325,0.016437802463769913,-0.00041477454942651093,0.026530105620622635
0.031601641327142715,0.0029535647481679916,-0.0193981621414423,0.01645718701183796,-0.0003925673954654485,0.02627444453537464
0.0313720628619194,0.0033452112693339586,-0.019465621560811996,0.01662638783454895,-0.0004001955094281584,0.026080986484885216
0.03137999773025513,0.0032975792419165373,-0.01922059990465641,0.016091354191303253,-0.0004977447679266334,0.026358548551797867
0.031840965151786804,0.003517251694574952,-0.019688326865434647,0.016502758488059044,-0.0005352016305550933,0.027277937158942223
0.03182446211576462,0.0032682972960174084,-0.020043639466166496,0.01588631421327591,-0.0004971696180291474,0.02589055895805359
0.03223235532641411,0.00307135540060699,-0.019854934886097908,0.016108671203255653,-0.0005264662904664874,0.02595086582005024
0.03241362422704697,0.003199091413989663,-0.02008790336549282,0.016093552112579346,-0.0004901322536170483,0.02705470472574234
0.032383449375629425,0.0034818914718925953,-0.020190324634313583,0.016333281993865967,-0.0005154403625056148,0.027630211785435677
0.03243553638458252,0.0036451055202633142,-0.019526569172739983,0.016647910699248314,-0.0006047883653081954,0.026398375630378723
0.03239106759428978,0.00358228525146842,-0.019548160955309868,0.016424918547272682,-0.0006536568980664015,0.02572745643556118
0.03252013027667999,0.0034811131190508604,-0.020261993631720543,0.016162578016519547,-0.0006081708124838769,0.026693761348724365
0.03262500464916229,0.0035927060525864363,-0.020154476165771484,0.015351226553320885,-0.000632941722869873,0.027413809671998024
0.033005136996507645,0.003743508132174611,-0.020427586510777473,0.015896445140242577,-0.0006409724010154605,0.026975911110639572
0.03330159932374954,0.003782371524721384,-0.02076917514204979,0.015560233034193516,-0.0007103997049853206,0.027413975447416306
0.03316449746489525,0.0033994473051279783,-0.020500654354691505,0.01635660044848919,-0.0008064520079642534,0.02880413457751274
0.03316449746489525,0.0033994473051279783,-0.020500654354691505,0.01635660044848919,-0.0008064520079642534,0.02880413457751274
0.03430768847465515,0.003953821025788784,-0.020382896065711975,0.016405697911977768,-0.0007525745895691216,0.02665497548878193
0.03430768847465515,0.003953821025788784,-0.020382896065711975,0.016405697911977768,-0.0007525745895691216,0.02665497548878193
0.03415640816092491,0.00395342567935586,-0.02126072347164154,0.016329612582921982,-0.0007648118189536035,0.026248764246702194
0.03181302547454834,0.0038808153476566076,-0.020894309505820274,0.01611013524234295,-0.0006967887165956199,0.02753438986837864
0.03368356078863144,0.0038498439826071262,-0.020300142467021942,0.016646092757582664,-0.0007264086161740124,0.028076492249965668
0.03394174203276634,0.0038407552056014538,-0.02019713632762432,0.016139985993504524,-0.0007330988300964236,0.0280764177441597
0.03358443081378937,0.0033804276026785374,-0.02074008248746395,0.01635875180363655,-0.0006711586029268801,0.027857955545186996
0.03467324376106262,0.003922041039913893,-0.020184418186545372,0.016186516731977463,-0.000691015156917274,0.027912337332963943
0.03450075164437294,0.004228143021464348,-0.02019493468105793,0.016263315454125404,-0.0007054583984427154,0.028001494705677032
0.033367592841386795,0.004073210991919041,-0.02075551450252533,0.016069652512669563,-0.0007190066971816123,0.02780011296272278
0.03333326429128647,0.004170180764049292,-0.020373228937387466,0.016102122142910957,-0.0007783751934766769,0.02794700302183628
0.0349130779504776,0.004223460331559181,-0.020010054111480713,0.016625719144940376,-0.0007966706762090325,0.027785789221525192
0.03496525436639786,0.004047487862408161,-0.02021203376352787,0.016310447826981544,-0.0008089457405731082,0.027913140133023262
0.034496888518333435,0.0038384366780519485,-0.020595313981175423,0.016995074227452278,-0.0009030053042806685,0.02819390967488289
0.03466047719120979,0.003992254380136728,-0.02025962807238102,0.016515256837010384,-0.0009588858811184764,0.028029300272464752
0.03461635857820511,0.0040409015491604805,-0.020691998302936554,0.01674954779446125,-0.0008830869337543845,0.028146356344223022
0.03476598113775253,0.003947794437408447,-0.020420853048563004,0.016505129635334015,-0.000880878884345293,0.028302079066634178
0.034865424036979675,0.004609669093042612,-0.020272456109523773,0.01669878512620926,-0.0008249182719737291,0.02844243496656418
0.035002969205379486,0.004678125027567148,-0.02053801901638508,0.016099896281957626,-0.0008013603510335088,0.02856503054499626
0.03549342229962349,0.004197217058390379,-0.02035345509648323,0.0168728269636631,-0.0007528309943154454,0.028822092339396477
0.035106807947158813,0.004140335600823164,-0.020169012248516083,0.01648419164121151,-0.0007592127658426762,0.028309600427746773
0.035070836544036865,0.004011818673461676,-0.020563919097185135,0.016830332577228546,-0.0007364912307821214,0.02852150984108448
0.03500282019376755,0.0039795939810574055,-0.021460391581058502,0.01690344326198101,-0.000707389262970537,0.029182013124227524
0.03483380377292633,0.004776148125529289,-0.020769622176885605,0.017672471702098846,-0.0006531645194627345,0.029227925464510918
0.03603757172822952,0.005085960496217012,-0.020837757736444473,0.01707148738205433,-0.000632960582152009,0.028224686160683632
0.03682837262749672,0.004882053006440401,-0.02105574496090412,0.01646394096314907,-0.000558924803044647,0.02743479795753956
0.035866666585206985,0.004672379232943058,-0.020952416583895683,0.01679026335477829,-0.0005895084468647838,0.02833661437034607
0.035866666585206985,0.004672379232943058,-0.020952416583895683,0.01679026335477829,-0.0005895084468647838,0.02833661437034607
0.035059068351984024,0.004743988625705242,-0.020825820043683052,0.017197148874402046,-0.0006023362511768937,0.029305344447493553
0.0359114371240139,0.0048912991769611835,-0.021934865042567253,0.016942694783210754,-0.0006281372043304145,0.029554404318332672
0.036175645887851715,0.0045660631731152534,-0.021568503230810165,0.017284827306866646,-0.0005979625857435167,0.02985968068242073
0.03627265617251396,0.005090581718832254,-0.021389994770288467,0.017208565026521683,-0.0006366759189404547,0.029753411188721657
0.037056390196084976,0.0050414246506989,-0.021081386134028435,0.017441151663661003,-0.0006694289622828364,0.029479220509529114
0.037325337529182434,0.004742132034152746,-0.022247785702347755,0.017397701740264893,-0.0006883466267026961,0.028229396790266037
0.036089133471250534,0.004555725492537022,-0.022224772721529007,0.01687939651310444,-0.0007091594161465764,0.028347212821245193
0.03643478825688362,0.004559498745948076,-0.02176186442375183,0.017106281593441963,-0.0008458299562335014,0.02987632155418396
0.037000760436058044,0.00463796267285943,-0.021404022350907326,0.016550561413168907,-0.0009012906230054796,0.030288157984614372
0.0370173454284668,0.004700405057519674,-0.02129615843296051,0.01742067188024521,-0.0009041757439263165,0.029783673584461212
0.0371687188744545,0.005135967396199703,-0.02169041894376278,0.01763151027262211,-0.0008888297015801072,0.029640527442097664
0.036544326692819595,0.005328859202563763,-0.022387631237506866,0.017193296924233437,-0.0008147183107212186,0.029569804668426514
0.03681129589676857,0.004847238305956125,-0.02210400626063347,0.017378520220518112,-0.0008238866575993598,0.029790453612804413
0.03677046671509743,0.004929802380502224,-0.02158448100090027,0.017421292141079903,-0.0008329490665346384,0.029677988961338997
0.03661268949508667,0.004844935145229101,-0.02183431014418602,0.018087113276124,-0.0008258809102699161,0.029936784878373146
0.03759407624602318,0.00528652174398303,-0.02193940244615078,0.017666354775428772,-0.0007652432541362941,0.030246887356042862
0.03655800595879555,0.005416081752628088,-0.021687233820557594,0.017652761191129684,-0.0007019696058705449,0.03006586618721485
0.03785572573542595,0.004910532850772142,-0.02201669104397297,0.016926022246479988,-0.0006654737517237663,0.030615707859396935
0.03794733062386513,0.00489388732239604,-0.022609040141105652,0.017289714887738228,-0.0006834961823187768,0.02973543480038643
0.03773260861635208,0.004855469800531864,-0.022130222991108894,0.017623627558350563,-0.0006941622123122215,0.030240587890148163
0.037607621401548386,0.005067726131528616,-0.0215335451066494,0.017528090626001358,-0.0006467763450928032,0.030483802780508995
0.0380329005420208,0.0055419690907001495,-0.0220522228628397,0.01854284293949604,-0.0006658772472292185,0.030254369601607323
0.038093388080596924,0.004548410419374704,-0.02267664298415184,0.01814633421599865,-0.0007378188893198967,0.030561570078134537
0.038036659359931946,0.004432507790625095,-0.021897584199905396,0.01747114770114422,-0.0008358015329577029,0.030627204105257988
0.03823460265994072,0.004271204117685556,-0.021285727620124817,0.017667125910520554,-0.0008490349864587188,0.03043292835354805
0.03838934004306793,0.005038246046751738,-0.022233400493860245,0.017937274649739265,-0.0008065634174272418,0.030586881563067436
0.03838934004306793,0.005038246046751738,-0.022233400493860245,0.017937274649739265,-0.0008065634174272418,0.030586881563067436
0.0384986475110054,0.00494401715695858,-0.022724520415067673,0.019144728779792786,-0.0009317052317783237,0.030527297407388687
0.03856541961431503,0.004926119931042194,-0.02239101752638817,0.018674513325095177,-0.0009376787347719073,0.03044372983276844
0.03833584487438202,0.005099738948047161,-0.021701078861951828,0.017672555521130562,-0.0008809169521555305,0.030382435768842697
0.03833571821451187,0.004819546826183796,-0.022009894251823425,0.01837773621082306,-0.0008801086223684251,0.030283555388450623
0.03964754939079285,0.004737085662782192,-0.02258739434182644,0.01776115410029888,-0.0008323154179379344,0.03032715432345867
0.03984852507710457,0.004555157385766506,-0.02266428992152214,0.0176947470754385,-0.0008545978344045579,0.030288739129900932
0.03768273442983627,0.004907578695565462,-0.021845463663339615,0.018104923889040947,-0.0008956333622336388,0.030917536467313766
0.0388406477868557,0.0048701767809689045,-0.021857526153326035,0.018302151933312416,-0.0009299145895056427,0.03154359757900238
0.03903402015566826,0.004923171829432249,-0.022541753947734833,0.018678680062294006,-0.0013710326747968793,0.031046273186802864
0.04025369510054588,0.00486375717446208,-0.02342630922794342,0.018925419077277184,-0.001301756245084107,0.029536090791225433
0.03969688341021538,0.004592449404299259,-0.02334289252758026,0.01832529343664646,-0.00121245626360178,0.02963290363550186
0.038659170269966125,0.004569569602608681,-0.02255343459546566,0.019454453140497208,-0.0010677375830709934,0.031100740656256676
0.03873426094651222,0.004635957069694996,-0.022123828530311584,0.018392212688922882,-0.0009185704402625561,0.03112000785768032
0.039736151695251465,0.004560364875942469,-0.02295772358775139,0.01777583360671997,-0.0008978896657936275,0.032376065850257874
0.03844938799738884,0.005177362821996212,-0.023548588156700134,0.018312010914087296,-0.0008472072659060359,0.03250927850604057
0.0400814414024353,0.005031168460845947,-0.023666134104132652,0.018401656299829483,-0.0007959772483445704,0.030398404225707054
0.0402379184961319,0.004580362234264612,-0.022378822788596153,0.018684640526771545,-0.0008038034429773688,0.030437417328357697
0.03945436701178551,0.004626651294529438,-0.023065287619829178,0.019238250330090523,-0.0007824500789865851,0.03141460940241814
0.039768606424331665,0.004932795651257038,-0.024310123175382614,0.01888957992196083,-0.0008050225442275405,0.03223523870110512
0.03973017632961273,0.004878747742623091,-0.023736342787742615,0.01929360255599022,-0.0008138939156197011,0.03140227124094963
0.040051572024822235,0.004670560359954834,-0.02360653690993786,0.018773023039102554,-0.0008751077111810446,0.031335264444351196
0.04024648293852806,0.0050047761760652065,-0.0223586093634367,0.018938008695840836,-0.0009587316890247166,0.031326282769441605
0.03969063609838486,0.00468077976256609,-0.023056143894791603,0.019409654662013054,-0.0009193437872454524,0.031266938894987106
0.040483258664608,0.004994540009647608,-0.024036036804318428,0.019542455673217773,-0.0008561619906686246,0.03171292319893837
0.04216926917433739,0.004913507495075464,-0.024046961218118668,0.019259076565504074,-0.0008573251543566585,0.03221738338470459
0.03906042501330376,0.0051763118244707584,-0.0235005933791399,0.019315404817461967,-0.0008562215371057391,0.03225131332874298
