davideferrari95/blind_handover_controller/data/Test 282 - [2024-02-08 -- 13-54-29]/joint_states_data.csv
shoulder_pan_joint,shoulder_lift_joint,elbow_joint,wrist_1_joint,wrist_2_joint,wrist_3_joint
-0.0036785174161195755,-0.004242336377501488,0.004262967966496944,0.0004739649884868413,0.000656614953186363,-0.005674788728356361
-0.0033810234162956476,-0.0044831098057329655,0.004503730684518814,0.0004974289331585169,0.0006047919159755111,-0.005709427408874035
-0.0033810234162956476,-0.0044831098057329655,0.004503730684518814,0.0004974289331585169,0.0006047919159755111,-0.005709427408874035
-0.003235452575609088,-0.004744608886539936,0.004115433432161808,0.00047288325731642544,0.0006257168715819716,-0.0053254058584570885
-0.00346569181419909,-0.005000440403819084,0.0038628769107162952,0.0005164342583157122,0.0007125717820599675,-0.004979001358151436
-0.0033211109694093466,-0.004789643455296755,0.00388932041823864,0.0005498257814906538,0.0007860924815759063,-0.004626960027962923
-0.003095942549407482,-0.004576678853482008,0.0038854945451021194,0.0005446712020784616,0.000763316173106432,-0.00490157725289464
-0.0030110040679574013,-0.004560806788504124,0.004103268496692181,0.0005354205495677888,0.001088895252905786,-0.005040678195655346
-0.0030559501610696316,-0.004727411549538374,0.004059411585330963,0.0005568064516410232,0.0009597154567018151,-0.004854561761021614
-0.0031502884812653065,-0.004703392740339041,0.004363785497844219,0.000524690083693713,0.0009439869318157434,-0.0052421241998672485
-0.0031385542824864388,-0.0046128625981509686,0.004183302633464336,0.0005516597302630544,0.0008281132904812694,-0.004699713084846735
-0.0033234027214348316,-0.00508233392611146,0.003910234197974205,0.0005609846557490528,0.0008084271103143692,-0.004629899747669697
-0.0033114785328507423,-0.004531198646873236,0.003860265715047717,0.000549442833289504,0.0007477171602658927,-0.0046209413558244705
-0.003353440435603261,-0.004483545199036598,0.003950492944568396,0.0005789520218968391,0.0006786797312088311,-0.005119915120303631
-0.003353440435603261,-0.004483545199036598,0.003950492944568396,0.0005789520218968391,0.0006786797312088311,-0.005119915120303631
-0.003012661589309573,-0.004574405495077372,0.004507352132350206,0.0005350071005523205,0.0005735729355365038,-0.005134017206728458
-0.003095791442319751,-0.004671718925237656,0.004223115276545286,0.0005589124048128724,0.0005048310267738998,-0.005010043270885944
-0.003362382296472788,-0.004747028462588787,0.00391412852331996,0.0005226135835982859,0.000531607773154974,-0.004830855876207352
-0.0033010244369506836,-0.004808453377336264,0.0038752779364585876,0.000588247727137059,0.0004935422330163419,-0.00458178948611021
-0.0034672326873987913,-0.004357591271400452,0.00396358547732234,0.0005350993014872074,0.0005229042726568878,-0.0048437947407364845
-0.003242927137762308,-0.00429410208016634,0.003977435175329447,0.0005679790629073977,0.0005471486365422606,-0.004787073470652103
-0.0030091104563325644,-0.004524396266788244,0.00395694887265563,0.0005937337991781533,0.0006254920153878629,-0.004863550420850515
-0.0031775832176208496,-0.004694107919931412,0.003920195624232292,0.0005903290584683418,0.0006846859469078481,-0.0052271634340286255
-0.0033034004736691713,-0.004449160769581795,0.003844998776912689,0.0005782123189419508,0.0007679390255361795,-0.005027076229453087
-0.003148919902741909,-0.004486367106437683,0.0037678710650652647,0.0005373467574827373,0.0010171161266043782,-0.004595404025167227
-0.0032390719279646873,-0.004383437801152468,0.0037732822820544243,0.0005766227259300649,0.0011414776090532541,-0.0047601633705198765
-0.003124638693407178,-0.004125092178583145,0.0042836167849600315,0.000599111255723983,0.0010249852202832699,-0.004907366819679737
-0.0035329677630215883,-0.00440549710765481,0.004108285065740347,0.0005610333173535764,0.0009708815487101674,-0.004583791363984346
-0.003227343549951911,-0.004728065803647041,0.0038722071330994368,0.00058844214072451,0.0008685638895258307,-0.00450987508520484
-0.003217057790607214,-0.00480191595852375,0.003899727715179324,0.0005429390585049987,0.0008445097482763231,-0.00457038963213563
-0.0032792678102850914,-0.004458529409021139,0.004015909042209387,0.0005665241624228656,0.000777602253947407,-0.004657076206058264
-0.0031839588191360235,-0.004261697176843882,0.004045590758323669,0.0006296198698692024,0.0006564651266671717,-0.004540084395557642
-0.0034239450469613075,-0.004373572766780853,0.004054610151797533,0.0006153375143185258,0.0006460152217186987,-0.004428171552717686
-0.0032172303181141615,-0.003983619157224894,0.004048164933919907,0.0006028844509273767,0.0006263501127250493,-0.004252335987985134
-0.003128262236714363,-0.004234891850501299,0.0038310529198497534,0.0005873552872799337,0.0006482377066276968,-0.004324940964579582
-0.0031944303773343563,-0.004621306899935007,0.0036649464163929224,0.0006061458261683583,0.0007620122632943094,-0.00456831231713295
-0.0031326492317020893,-0.004490701947361231,0.0037022533360868692,0.0005675500142388046,0.0008030490716919303,-0.004596250597387552
-0.003488720627501607,-0.0044090840965509415,0.0038396758027374744,0.0005987330805510283,0.0007290654466487467,-0.004222369287163019
-0.0032525279093533754,-0.004417300224304199,0.0042524696327745914,0.0005916515365242958,0.0007436135783791542,-0.0041815475560724735
-0.0030503221787512302,-0.004210829269140959,0.004004208371043205,0.0005755843594670296,0.0007534013711847365,-0.004040690138936043
-0.0030503221787512302,-0.004210829269140959,0.004004208371043205,0.0005755843594670296,0.0007534013711847365,-0.004040690138936043
-0.003059541340917349,-0.00396176241338253,0.003863801946863532,0.0005228774971328676,0.0007005237275734544,-0.003907131962478161
-0.0032112663611769676,-0.0042967768386006355,0.00392646249383688,0.0005453353514894843,0.0007704019080847502,-0.004232918377965689
-0.0033164392225444317,-0.004314420744776726,0.003917311783879995,0.0005457809311337769,0.0007908418192528188,-0.004609959665685892
-0.0034221711102873087,-0.004381362348794937,0.003914556931704283,0.0005378009518608451,0.0007524853572249413,-0.004534453619271517
-0.0031570219434797764,-0.004273018799722195,0.003924930933862925,0.00056428462266922,0.0007583537371829152,-0.004362484440207481
-0.0029713911935687065,-0.004233231768012047,0.0038913958705961704,0.0005723173380829394,0.0006964046042412519,-0.004058848600834608
-0.0030167410150170326,-0.0042621963657438755,0.004325430374592543,0.000559405772946775,0.0006376714445650578,-0.0039520300924777985
-0.0031690960749983788,-0.004441820550709963,0.004192281048744917,0.0005096065578982234,0.0006378148682415485,-0.004204807803034782
-0.003081942442804575,-0.0041038887575268745,0.0035580042749643326,0.0005378852365538478,0.0005637477152049541,-0.004493699874728918
-0.003420483320951462,-0.004445724189281464,0.0035691303201019764,0.0005523341242223978,0.0005493246135301888,-0.00458983751013875
-0.003218145575374365,-0.00455842399969697,0.0036571489181369543,0.0005283637437969446,0.0005377177731133997,-0.004623857792466879
-0.0034598715137690306,-0.004377951845526695,0.0037413635291159153,0.0005930112092755735,0.0004915542667731643,-0.004470871761441231
-0.0030669395346194506,-0.0045215836726129055,0.003827738808467984,0.0006175123853608966,0.0005057547241449356,-0.004088854882866144
-0.0030899124685674906,-0.004973314702510834,0.0038736339192837477,0.0005766547983512282,0.00048395400517620146,-0.0042145270854234695
-0.003024161094799638,-0.004479346796870232,0.004232543986290693,0.0006032417295500636,0.0004816737782675773,-0.004034827463328838
-0.003415704471990466,-0.004558300133794546,0.004252451006323099,0.000593754171859473,0.0004783398180734366,-0.003843549406155944
-0.00323111773468554,-0.004455777816474438,0.0035390264820307493,0.0005809655413031578,0.0004502908850554377,-0.004171796143054962
-0.002919539576396346,-0.004772371146827936,0.003613470122218132,0.0006413017399609089,0.00041608099127188325,-0.004051411058753729
-0.0030203363858163357,-0.004820331931114197,0.0037813596427440643,0.0006499568116851151,0.00038106556166894734,-0.0035419445484876633
-0.0031067864038050175,-0.004845117684453726,0.0038149275351315737,0.0006271929596550763,0.0004119247605558485,-0.00353978481143713
-0.0031540512572973967,-0.004328451119363308,0.003749322146177292,0.0006587983225472271,0.0003940724127460271,-0.004409041255712509
-0.0030627527739852667,-0.004214529879391193,0.0037465125788003206,0.0006215192261151969,0.00039640304748900235,-0.004304635804146528
-0.0029223915189504623,-0.004386002663522959,0.0037155700847506523,0.0006796904490329325,0.0003746012516785413,-0.0040583801455795765
-0.002788438694551587,-0.004586733411997557,0.0041075884364545345,0.000710733758751303,0.00035367824602872133,-0.003927191719412804
-0.002944063628092408,-0.004690735135227442,0.004232196137309074,0.0007333812536671758,0.00033487880136817694,-0.0035071037709712982
-0.0032182869035750628,-0.004723015241324902,0.003539918689057231,0.0007511263247579336,0.0003572969581000507,-0.0035268310457468033
-0.0029040302615612745,-0.004518692381680012,0.003559511387720704,0.0009226077818311751,0.00034553278237581253,-0.003625223645940423
-0.0029040302615612745,-0.004518692381680012,0.003559511387720704,0.0009226077818311751,0.00034553278237581253,-0.003625223645940423
-0.003049487015232444,-0.004082938190549612,0.0032621235586702824,0.0010222981218248606,0.0003300422104075551,-0.0037663502153009176
-0.003040917683392763,-0.004411646164953709,0.004114359151571989,0.0009462913149036467,0.0003155948652420193,-0.0038100015372037888
-0.0030074238311499357,-0.004664878826588392,0.004077023360878229,0.00093732780078426,0.0003023412427864969,-0.003498614067211747
-0.0027920228894799948,-0.004591276869177818,0.0038876181934028864,0.0009816811652854085,0.00029015442123636603,-0.003324001794680953
-0.002923984546214342,-0.00483753951266408,0.0038145447615534067,0.0009699700167402625,0.00027891225181519985,-0.0034390632063150406
-0.002948261331766844,-0.004817664157599211,0.0037905750796198845,0.0009314464987255633,0.00026958147645927966,-0.003499434795230627
-0.0029019725043326616,-0.004703412298113108,0.0038299155421555042,0.0008955210796557367,0.0002553325321059674,-0.003473122138530016
-0.0026852325536310673,-0.004300446715205908,0.003300864016637206,0.0008432614849880338,0.00024168248637579381,-0.003242801409214735
-0.0029981713742017746,-0.004381959792226553,0.0032813954167068005,0.0007750613149255514,0.00022936449386179447,-0.003074130741879344
-0.003033487591892481,-0.004980887286365032,0.0034100357443094254,0.0008535109227523208,0.00021823757560923696,-0.003461608197540045
-0.00262480229139328,-0.004586120136082172,0.0035315079148858786,0.0008636360289528966,0.0002081405691569671,-0.004287565127015114
-0.0026288738008588552,-0.0045735700987279415,0.0036236154846847057,0.0008288594544865191,0.0002360056241741404,-0.0038987831212580204
-0.002443866338580847,-0.0042075407691299915,0.003359325462952256,0.0010713925585150719,0.00022843721671961248,-0.0035279132425785065
-0.002370761474594474,-0.0043435911647975445,0.0036383240949362516,0.001056873588822782,0.00021931597439106554,-0.003137200139462948
-0.002639761660248041,-0.004607426002621651,0.0033376505598425865,0.0010345097398385406,0.00021076462871860713,-0.0031550806015729904
-0.00282609136775136,-0.004656403325498104,0.0030819764360785484,0.0009407486650161445,0.00020284649508539587,-0.0032604283187538385
-0.002900623483583331,-0.004131306894123554,0.003081723116338253,0.0008980982820503414,0.0002258777094539255,-0.0031523816287517548
-0.0026618284173309803,-0.004409567918628454,0.0032521835528314114,0.0008853038307279348,0.00021997086878400296,-0.0034102078061550856
-0.0025127914268523455,-0.00452051404863596,0.0035907821729779243,0.0008695914875715971,0.00021267397096380591,-0.0032584078144282103
-0.0022332777734845877,-0.004667346365749836,0.0033999562729150057,0.0007899745251052082,0.00020573646179400384,-0.0030783216934651136
-0.002348685637116432,-0.004831673111766577,0.0033979511354118586,0.0007539123180322349,0.0001931220613187179,-0.0032384018413722515
-0.0022864590864628553,-0.004639897961169481,0.0031027584336698055,0.0007748849457129836,0.00020051187311764807,-0.00330400001257658
-0.002428259002044797,-0.004440515302121639,0.0032693909015506506,0.0008452978800050914,0.00020706989744212478,-0.003290256718173623
-0.0025639331433922052,-0.004427088424563408,0.0033169433008879423,0.0008084947476163507,0.000202063427423127,-0.003115885891020298
-0.0023774614091962576,-0.004562484100461006,0.0030784443952143192,0.0010636181104928255,0.00019659806275740266,-0.0031685582362115383
-0.0022668831516057253,-0.004491373896598816,0.002941192127764225,0.001090789446607232,0.0001913758460432291,-0.0032185306772589684
-0.0021389832254499197,-0.004420063458383083,0.003302366938441992,0.0010833850828930736,0.00018642068607732654,-0.0028067275416105986
-0.0021389832254499197,-0.004420063458383083,0.003302366938441992,0.0010833850828930736,0.00018642068607732654,-0.0028067275416105986
-0.002262770663946867,-0.004542815499007702,0.0031690809410065413,0.001253491616807878,0.0001817155280150473,-0.0024991927202790976
-0.0022089125122874975,-0.004421611316502094,0.0032293996773660183,0.001210940768942237,0.00017724197823554277,-0.0025504515506327152
-0.0023848675191402435,-0.00451149744912982,0.003189232898876071,0.0011979186674579978,0.00017298343300353736,-0.002742910757660866
-0.0022968382108956575,-0.0046928199008107185,0.0030281245708465576,0.0011364005040377378,0.00017000196385197341,-0.0031809427309781313
-0.002235949272289872,-0.004313899204134941,0.0030707749538123608,0.001121897017583251,0.000164165670867078,-0.003018296090885997
-0.0020684266928583384,-0.004376186989247799,0.0032829984556883574,0.0010844689095392823,0.00015840960259083658,-0.0030472171492874622
-0.0020333232823759317,-0.004549958743155003,0.0030833843629807234,0.0010755727998912334,0.0001530237204860896,-0.002630226779729128
-0.0021283512469381094,-0.0050102826207876205,0.003030088497325778,0.0012594201834872365,0.00014799073687754571,-0.0024578955490142107
-0.001892901724204421,-0.0045946938917040825,0.0028442079201340675,0.0013237616512924433,0.0001432783028576523,-0.0023785405792295933
-0.002033040625974536,-0.0046016681008040905,0.00290263001807034,0.0013750906800851226,0.00015247942064888775,-0.002269632648676634
-0.0018749115988612175,-0.004964382387697697,0.0027688476257026196,0.0015240582870319486,0.00016071603749878705,-0.0023823301307857037
-0.0021437094546854496,-0.004871888551861048,0.003087379038333893,0.0014578922418877482,0.00015688130224589258,-0.0023685568012297153
-0.0020786544773727655,-0.004846712574362755,0.003084692871198058,0.0014692554250359535,0.00015250490105245262,-0.002343169879168272
-0.0022697187960147858,-0.004980509635061026,0.0032350693363696337,0.0013739976566284895,0.00014831931912340224,-0.0025483379140496254
-0.0021926912013441324,-0.005168052390217781,0.0027330447919666767,0.001328223617747426,0.0001443543442292139,-0.0023685216438025236
-0.0018950765952467918,-0.004824791569262743,0.00269345217384398,0.001248497050255537,0.00014059565728530288,-0.0023074490018188953
-0.0017184307798743248,-0.004903157241642475,0.0027166984509676695,0.0012005808530375361,0.00013702776050195098,-0.002297881990671158
-0.0015581173356622458,-0.004329177085310221,0.002857818966731429,0.0011465965071693063,0.00015014645759947598,-0.002300590742379427
-0.0015925170155242085,-0.004926130175590515,0.00268039689399302,0.0011201913002878428,0.00015176758461166173,-0.0024431042838841677
-0.0018487374763935804,-0.004957858938723803,0.0027185759972780943,0.0011418821522966027,0.00014513207133859396,-0.0023081384133547544
-0.0020788870751857758,-0.004833998158574104,0.0026833314914256334,0.0012882552109658718,0.00014186518092174083,-0.0023074839264154434
-0.0018869743216782808,-0.004733835346996784,0.0026971925981342793,0.0013447050005197525,0.00013874091382604092,-0.0020719298627227545
-0.0018869743216782808,-0.004733835346996784,0.0026971925981342793,0.0013447050005197525,0.00013874091382604092,-0.0020719298627227545
-0.0017332856077700853,-0.0037047727964818478,0.002773482585325837,0.0013628085143864155,0.00013575126649811864,-0.0019062377978116274
-0.001487203873693943,-0.003311484819278121,0.0026254309341311455,0.001277493080124259,0.00013014259457122535,-0.0017989773768931627
-0.001487203873693943,-0.003311484819278121,0.0026254309341311455,0.001277493080124259,0.00013014259457122535,-0.0017989773768931627
-0.0015113601693883538,-0.003751249285414815,0.0028817837592214346,0.0012297170469537377,0.00014333470608107746,-0.001805880106985569
-0.0014621455920860171,-0.0043872203677892685,0.002698673866689205,0.001193388132378459,0.00014267703227233142,-0.0019495128653943539
-0.0016087755793705583,-0.004067051690071821,0.0024703764356672764,0.0012763540726155043,0.00014004438708070666,-0.0018988250521942973
-0.0016356747364625335,-0.0038066182751208544,0.002346283057704568,0.001332599320448935,0.00013738156121689826,-0.0017695548012852669
-0.0014959042891860008,-0.003272875677794218,0.0024707631673663855,0.0015982495388016105,0.00013480978668667376,-0.0015603132778778672
-0.001512731658294797,-0.0034541641362011433,0.002393026603385806,0.001575786154717207,0.00013233194476924837,-0.0014681870816275477
-0.0013911172281950712,-0.0032239987049251795,0.0028893675189465284,0.0014978458639234304,0.0001299437426496297,-0.0013769824290648103
-0.0012598717585206032,-0.0033167293295264244,0.0027476768009364605,0.0015334005001932383,0.000127640159917064,-0.0013309878995642066
-0.0011845958651974797,-0.003493010066449642,0.0025019394233822823,0.001524986932054162,0.00012541667092591524,-0.001511093694716692
-0.0011460144305601716,-0.003570237895473838,0.0023454627953469753,0.0014395267935469747,0.00012326939031481743,-0.0017337532481178641
-0.0011272383853793144,-0.0035149420145899057,0.0024705969262868166,0.0014953489881008863,0.0001212287534144707,-0.0017845284892246127
-0.0012471901718527079,-0.0034331760834902525,0.0023837487678974867,0.0014743495266884565,0.000129120031488128,-0.0018110002856701612
-0.0013129551662132144,-0.003639752045273781,0.0026646568439900875,0.0017709292005747557,0.00012624048395082355,-0.001710002077743411
-0.0013561431551352143,-0.003395708976313472,0.002693787682801485,0.001663125236518681,0.00012284259719308466,-0.0016164889093488455
-0.001320715295150876,-0.0032722107134759426,0.0025142449885606766,0.001666226307861507,0.00011958119284827262,-0.0015121815958991647
-0.0012374684447422624,-0.0033487577456980944,0.002411917317658663,0.001500520622357726,0.0001164858476840891,-0.0013934557791799307
-0.001050120103172958,-0.0031032091937959194,0.0021423257421702147,0.001424244255758822,0.00011354630987625569,-0.0012030461803078651
-0.0010267174802720547,-0.0033326183911412954,0.0020507609006017447,0.0013857277808710933,0.0001107516436604783,-0.0011016462231054902
-0.0008845038828440011,-0.003551593516021967,0.0020410038996487856,0.0014617254491895437,0.00010809120431076735,-0.001063531613908708
-0.0008677461300976574,-0.0035440470091998577,0.002232260536402464,0.0019387825159355998,0.00010313621169188991,-0.0010351863456889987
-0.000871729978825897,-0.003414591308683157,0.002196147572249174,0.002438944997265935,0.0001008253893814981,-0.0010282774455845356
-0.000799311907030642,-0.003502767300233245,0.0019770110957324505,0.0022640505339950323,9.861577564151958e-05,-0.0010084419045597315
-0.0008478400995954871,-0.0034459044691175222,0.001927775563672185,0.002159449737519026,9.650085848988965e-05,-0.000993177411146462
-0.0008564025047235191,-0.0034096601884812117,0.0019996659830212593,0.0019317262340337038,9.447480260860175e-05,-0.0008907908922992647
-0.0008488473249599338,-0.003209950402379036,0.0019646112341433764,0.0017960694385692477,0.00010980485239997506,-0.0008485239814035594
-0.0007596967625431716,-0.0034359327983111143,0.002311858581379056,0.0017321149352937937,0.00010872069833567366,-0.000824721239041537
-0.000770763901527971,-0.0036891414783895016,0.0020749252289533615,0.0019399027805775404,0.000106647057691589,-0.0007429428515024483
-0.0006995323346927762,-0.0037232604809105396,0.002088598208501935,0.001965283416211605,0.00010458628821652383,-0.0007483945228159428
-0.0006995323346927762,-0.0037232604809105396,0.002088598208501935,0.001965283416211605,0.00010458628821652383,-0.0007483945228159428
-0.0006362403510138392,-0.0037481251638382673,0.0018658209592103958,0.0021966854110360146,0.00010259940609103069,-0.0007270193891599774
-0.0005585203762166202,-0.0033528669737279415,0.0017508435994386673,0.002153921639546752,0.00010068633127957582,-0.000699149735737592
-0.0005946951569058001,-0.003181371372193098,0.0017627803608775139,0.00208343961276114,9.884330938803032e-05,-0.0006539839087054133
-0.0005950959166511893,-0.0032334511633962393,0.0020707251969724894,0.0018016493413597345,9.706657147035003e-05,-0.0006745608407072723
-0.0005692789563909173,-0.003102469490841031,0.0018711929442360997,0.0017856898484751582,9.535257413517684e-05,-0.0006993933930061758
-0.0005224309279583395,-0.0034730907063931227,0.0018517171265557408,0.001768408459611237,9.369798499392346e-05,-0.0007079985807649791
-0.0005503345746546984,-0.0032919812947511673,0.001783548854291439,0.001853702706284821,9.210000280290842e-05,-0.0006660645012743771
-0.0005120964488014579,-0.003504903055727482,0.0017326702363789082,0.0020921265240758657,9.055546252056956e-05,-0.0007856786251068115
-0.0005256190779618919,-0.0033026726450771093,0.0016074511222541332,0.002242820803076029,8.90618612174876e-05,-0.0008081643027253449
-0.00047293328680098057,-0.003286955179646611,0.001670984085649252,0.0025355529505759478,8.761685603531078e-05,-0.0008124469895847142
-0.0004837039450649172,-0.0033462666906416416,0.001769914524629712,0.0023832987062633038,8.621792221674696e-05,-0.0007823992636986077
-0.00046854474931024015,-0.0033805929124355316,0.001639772206544876,0.0022411413956433535,8.486300794174895e-05,-0.0007469449774362147
-0.00043145843665115535,-0.003515655407682061,0.0016163036925718188,0.0020169964991509914,8.354999590665102e-05,-0.0006811165949329734
-0.0003995314473286271,-0.0031871264800429344,0.0016397966537624598,0.0019337718840688467,8.22770016384311e-05,-0.0006563774077221751
-0.0003720003296621144,-0.0035449035931378603,0.0016509535489603877,0.0020774267613887787,8.104217704385519e-05,-0.0005769815761595964
-0.00034802398295141757,-0.0033498695120215416,0.0015367659507319331,0.002164339181035757,7.984387775650248e-05,-0.0005606460617855191
-0.00032694695983082056,-0.003531445050612092,0.001477193902246654,0.002708276268094778,7.86805321695283e-05,-0.0005476700607687235
-0.00030827903538011014,-0.003686603857204318,0.0016807285137474537,0.00252518174238503,7.7550568676088e-05,-0.000499812769703567
-0.00033444672590121627,-0.0038063519168645144,0.0015819234540686011,0.0021316660568118095,7.645263394806534e-05,-0.0004944799584336579
-0.00016108267300296575,-0.0037821552250534296,0.0016702054999768734,0.0018130398821085691,7.434737926814705e-05,-0.00045628624502569437
-0.00013161517563275993,-0.0032404493540525436,0.001449720817618072,0.002064312342554331,7.333770190598443e-05,-0.00042558740824460983
-0.0001224227889906615,-0.0032368905376642942,0.0013723833253607154,0.002228947589173913,7.235504745040089e-05,-0.0003986514057032764
-0.00016507641703356057,-0.0033885370939970016,0.0014155617682263255,0.0026223487220704556,7.139835361158475e-05,-0.00037491676630452275
-0.0001615467481315136,-0.0036023978609591722,0.0016011899570003152,0.002652951283380389,7.046665996313095e-05,-0.00035384827060624957
-0.000152965760207735,-0.0038144555874168873,0.0015116631984710693,0.002552035031840205,6.955894059501588e-05,-0.00037958635948598385
0.00013688909530173987,-0.0034445677883923054,0.0014069103635847569,0.0025337713304907084,6.86743514961563e-05,-0.0003633313172031194
1.8365417417953722e-06,-0.0035892075393348932,0.0014386441325768828,0.0024983275216072798,6.781197589589283e-05,-0.0003460536536294967
1.8365417417953722e-06,-0.0035892075393348932,0.0014386441325768828,0.0024983275216072798,6.781197589589283e-05,-0.0003460536536294967
2.4639550844085534e-08,-0.003735087113454938,0.0013716360554099083,0.002422332065179944,6.697099161101505e-05,-0.0003301914839539677
3.3057104276146276e-10,-0.0038386944215744734,0.0012865894241258502,0.002600747160613537,6.615059828618541e-05,-0.00031571032013744116
4.4350322025987765e-12,-0.0033837566152215004,0.0013254896039143205,0.0026605932507663965,6.535003194585443e-05,-0.0003024458419531584
5.950161831346293e-14,-0.0030497254338115454,0.001242964412085712,0.0025917983148247004,6.456867413362488e-05,-0.0002902515116147697
7.982901186671964e-16,-0.003199248341843486,0.0012196027673780918,0.0027504628524184227,6.380572449415922e-05,-0.0002790025027934462
1.0710080626888549e-17,-0.0034954764414578676,0.0012129034148529172,0.0026373628061264753,6.306057912297547e-05,-0.0002685925574041903
1.4368941495961573e-19,-0.0034565182868391275,0.0013357280986383557,0.0025243498384952545,6.233269959921017e-05,-0.00025893194833770394
0.0007214520592242479,-0.0034937141463160515,0.001260769204236567,0.002609082031995058,6.162140925880522e-05,-0.00024994206614792347
0.0006733788759447634,-0.003781178267672658,0.001232574344612658,0.0024280596990138292,6.09261442150455e-05,-0.000241555564571172
0.0004708972992375493,-0.0034763794392347336,0.0011755939340218902,0.0023882805835455656,6.0246446082601324e-05,-0.0002337139449082315
0.0003128344542346895,-0.003584520658478141,0.0011307483073323965,0.0026532895863056183,5.95817000430543e-05,-0.00022636527137365192
0.0002790733997244388,-0.003275353694334626,0.001095438376069069,0.0026507689617574215,3.890258994942997e-06,-0.0002194647240685299
0.00033595404238440096,-0.0034740508999675512,0.0010191139299422503,0.0025799116119742393,2.540061245781544e-07,-0.00021297222701832652
0.00016027005040086806,-0.0037301185075193644,0.0011066650040447712,0.0026829408016055822,1.6584785100803856e-08,-0.00020685364142991602
0.00012185054220026359,-0.0033673045691102743,0.001108190044760704,0.00250352849252522,1.0828680174768124e-09,-0.0002010763855651021
0.00010710790229495615,-0.0033172680996358395,0.0011820367071777582,0.002384212566539645,7.070353330584922e-11,-0.00019561297085601836
0.00018731382442638278,-0.0033681311178952456,0.0011450033634901047,0.002372052753344178,4.616436139609492e-12,-0.0001682302390690893
0.00017295172438025475,-0.0034359481651335955,0.0011019802186638117,0.002473793225362897,3.0142029280519345e-13,-0.0001624441210879013
0.0001578291557962075,-0.0036032276693731546,0.0010299606947228312,0.0024194023571908474,1.9680591994953277e-14,-0.00015826844901312143
0.00019244750728830695,-0.0033330523874610662,0.0009366394951939583,0.0027866947930306196,1.2850020264230954e-15,-0.00015438355330843478
0.00018742415704764426,-0.0032675941474735737,0.0007929131970740855,0.0031717047095298767,5.478165734032486e-18,-0.00014717008161824197
0.0002328415575902909,-0.0036280208732932806,0.0007281891885213554,0.003259576391428709,3.576850202337819e-19,-0.00014381040818989277
0.0004068702401127666,-0.003358361776918173,0.0007115680491551757,0.0029558432288467884,2.3354278141524066e-20,-0.00014060093963053077
0.0003949351666960865,-0.003315963549539447,0.0006689724395982921,0.002837903331965208,1.5248673724857468e-21,-0.00013753191160503775
0.00043297684169374406,-0.0033942493610084057,0.0006810544873587787,0.002837013453245163,9.956294895239809e-23,-5.014754424337298e-05
0.0004034067678730935,-0.003588710678741336,0.0006308103911578655,0.00308173312805593,6.50074910114533e-24,-4.345872002886608e-05
0.0004034067678730935,-0.003588710678741336,0.0006308103911578655,0.00308173312805593,6.50074910114533e-24,-4.345872002886608e-05
0.00043535613804124296,-0.003535079536959529,0.000604021071922034,0.0029338763561099768,4.24452477207148e-25,-4.2084826418431476e-05
0.0004477045440580696,-0.003630182472988963,0.0006361234118230641,0.0030701325740665197,2.7713712817376425e-26,-3.0998231522971764e-05
0.0004393774433992803,-0.00325815100222826,0.0006347739836201072,0.003418488660827279,1.8095074792490274e-27,-2.0772891730302945e-05
0.0006056546117179096,-0.003520241705700755,0.0006036669947206974,0.0032423215452581644,1.1814790577538493e-28,-1.9696526578627527e-05
0.0006421360303647816,-0.003304898040369153,0.0005512289935722947,0.0030603043269366026,7.714214591113085e-30,-1.9234932551626116e-05
0.000666922249365598,-0.003533780574798584,0.0005705360090360045,0.0027874954976141453,5.036830604855348e-31,-1.2559036122183898e-06
0.0006627799011766911,-0.00368867302313447,0.0005360151408240199,0.003071397775784135,3.288690243123908e-32,-8.200152734616495e-08
0.0006318017840385437,-0.0033267901744693518,0.0004991891328245401,0.003397357417270541,2.1472799387508882e-33,-5.354113596922616e-09
0.000740267161745578,-0.003202238352969289,0.0005077589303255081,0.0035761918406933546,1.4020202626260263e-34,-3.4958536065943235e-10
0.000779352558311075,-0.0031534514855593443,0.0004570399469230324,0.0032856434118002653,9.1541902381563e-36,-2.2825427312134217e-11
0.0007948780548758805,-0.00313737615942955,0.00048779090866446495,0.0034679891541600227,5.977032104235804e-37,-1.4903372589844532e-12
0.0008067033486440778,-0.003271230962127447,0.00045569188660010695,0.0032562054693698883,3.9025744644503787e-38,-9.730837826054523e-14
0.0009403195581398904,-0.003215789096429944,0.0004203353601042181,0.0030237736646085978,2.548102910648211e-39,-6.353541621311777e-15
0.0009557390585541725,-0.00342156901024282,0.00038997275987640023,0.00298033794388175,1.6637336407235688e-40,0.000562122615519911
0.000951451831497252,-0.0031834421679377556,0.0003637002664618194,0.002849432872608304,1.0862865695445982e-41,0.0009713835315778852
0.0009413119405508041,-0.003151769982650876,0.00034074700670316815,0.002898282604292035,7.090570229483574e-43,0.0009938412113115191
0.0011250803945586085,-0.00320928986184299,0.0003205176326446235,0.002955860458314419,4.624284932271896e-44,0.0009356130030937493
0.0012490720255300403,-0.003205090994015336,0.00030255812453106046,0.003072722814977169,2.802596928649634e-45,0.0011426769196987152
0.001729844487272203,-0.00312495743855834,0.00028650255990214646,0.0031409442890435457,0.0,0.0011767448158934712
0.001648062840104103,-0.003400822402909398,0.00023210937797557563,0.0033403688576072454,0.0,0.0013126630801707506
0.0015504882903769612,-0.0030452755745500326,0.00016497322940267622,0.0034959104377776384,0.0,0.001368835219182074
0.0014221363235265017,-0.0030819023959338665,7.200348773039877e-05,0.0037269217427819967,0.0,0.0015077524585649371
0.001410377211868763,-0.0030507470946758986,5.684268762706779e-05,0.003863048041239381,0.0,0.0016674395883455873
0.0014669150114059448,-0.002968303393572569,5.333089211490005e-05,0.0034643812105059624,0.0,0.002609661314636469
0.0014184672618284822,-0.003006925340741873,1.7379219571012072e-05,0.0034591497387737036,0.0,0.0034652340691536665
0.001637752284295857,-0.0031037030275911093,2.3316441399856558e-07,0.003618511138483882,0.0,0.003472783137112856
0.0016291361534968019,-0.0031423268374055624,3.1281983670083946e-09,0.003795510856434703,0.0,0.00303833675570786
0.001784149557352066,-0.002829756122082472,4.1968768738076534e-11,0.003908147104084492,0.0,0.002748726634308696
0.0018697577761486173,-0.002825315110385418,5.630645689286284e-13,0.0038871392607688904,0.0,0.0026989292819052935
0.0018697577761486173,-0.002825315110385418,5.630645689286284e-13,0.0038871392607688904,0.0,0.0026989292819052935
0.0024978395085781813,-0.0028727417811751366,7.554230305802535e-15,0.003771565854549408,0.0,0.002863432513549924
0.0026348952669650316,-0.0028941959608346224,1.0134964942601457e-16,0.0032543328125029802,0.0,0.003506075358018279
0.002582611981779337,-0.0029019892681390047,1.3597348971535757e-18,0.003109873039647937,0.0,0.0035622839350253344
0.0027376615907996893,-0.0027807585429400206,1.8242579836933384e-20,0.0033864639699459076,0.0,0.0034510043915361166
0.002854403341189027,-0.0028208729345351458,2.44747491102155e-22,0.003720109350979328,0.0,0.003137196647003293
0.00297668669372797,-0.002816947875544429,3.2835997941787634e-24,0.003987806383520365,0.0,0.0030913904774934053
0.002915266202762723,-0.0028213802725076675,4.40536845700587e-26,0.00367294205352664,0.0,0.003301183693110943
0.0030966349877417088,-0.002754994435235858,5.9103641097785195e-28,0.0035594140645116568,0.0,0.0036154016852378845
0.0032486747950315475,-0.002820210298523307,7.929507980138504e-30,0.003485398832708597,0.0,0.0037707809824496508
0.0035936073400080204,-0.0028441990725696087,1.0638446043374007e-31,0.0034305453300476074,0.0,0.003802873659878969
0.00388352875597775,-0.002729142317548394,1.4272834958939945e-33,0.0036336390767246485,0.0,0.004071197472512722
0.0035815085284411907,-0.0025812380481511354,1.9148828803628358e-35,0.0033283475786447525,0.0,0.004140470176935196
0.0035489178262650967,-0.002764450153335929,2.5690596654938202e-37,0.003428269410505891,0.0,0.003923086449503899
0.003990162163972855,-0.0026211196091026068,3.4467219846565725e-39,0.0036657906603068113,0.0,0.004194211680442095
0.00416141003370285,-0.0026322815101593733,4.624284932271896e-41,0.004094662144780159,0.0,0.0037187617272138596
0.0043397024273872375,-0.002665325067937374,6.20775219695894e-43,0.004294234327971935,0.0,0.0035252703819423914
0.004451460670679808,-0.002715011825785041,8.407790785948902e-45,0.004137113224714994,0.0,0.003972640261054039
0.004486364312469959,-0.002689206274226308,-0.0,0.004134511109441519,0.0,0.004535643383860588
0.004536046646535397,-0.002915953751653433,-0.0,0.004163730423897505,0.0,0.00526109803467989
0.004950930364429951,-0.0029143502470105886,-0.0,0.004184369929134846,0.0,0.005233497358858585
0.004882637411355972,-0.0025916025042533875,-0.0,0.004287248011678457,0.0,0.004140959586948156
0.004895372316241264,-0.002687534550204873,-0.0,0.004343878012150526,0.0,0.003736325306817889
0.005428684875369072,-0.0026625185273587704,-0.0,0.004756218753755093,0.0,0.004163470584899187
0.005428684875369072,-0.0026625185273587704,-0.0,0.004756218753755093,0.0,0.004163470584899187
0.005166312213987112,-0.002780609531328082,-0.0,0.004429380875080824,0.0,0.005092982202768326
0.005218035075813532,-0.0026917546056210995,-0.0,0.00449414225295186,0.0,0.005040781106799841
0.005444658920168877,-0.002847746480256319,-0.0,0.004522829316556454,0.0,0.004866701550781727
0.005083177238702774,-0.0028932492714375257,-0.0,0.004092853982001543,0.0,0.005033431109040976
0.005283479578793049,-0.0028450707904994488,-0.0,0.0038782963529229164,0.0,0.004632003139704466
0.005896846763789654,-0.002732932334765792,-0.0002423632686259225,0.003973740618675947,0.0,0.004626807756721973
0.006256855558604002,-0.0030201401095837355,-0.00024963225587271154,0.003594710025936365,0.0,0.004906822927296162
0.006050832103937864,-0.0032514475751668215,-0.0002367747074458748,0.003559439443051815,0.0,0.004948066547513008
0.005546747241169214,-0.0028187597636133432,-0.00022494184668175876,0.004115072079002857,0.0,0.004905319772660732
0.0061136637814342976,-0.002637662459164858,-0.0002553264785092324,0.00412646634504199,0.0,0.005133360158652067
0.006869862787425518,-0.0026642107404768467,-0.0002453710185363889,0.0042400904931128025,0.0,0.005037860479205847
0.006448392756283283,-0.002812744351103902,-0.000269214971922338,0.00423215189948678,0.0,0.004943006671965122
0.006345274392515421,-0.0028804654721170664,-0.00026237760903313756,0.004067789763212204,0.0,0.005492003168910742
0.0063461195677518845,-0.002920981729403138,-0.00025194307090714574,0.004377412144094706,9.90556486613059e-07,0.005234424956142902
0.0067592100240290165,-0.0029430855065584183,-0.0002763802476692945,0.0044408636167645454,6.467625723871606e-08,0.005383949261158705
0.006777049973607063,-0.0028795746620744467,-0.0002666043001227081,0.0044740792363882065,4.2228971430802176e-09,0.005580016877502203
0.006777747068554163,-0.0027360934764146805,-0.0003815266245510429,0.004814340732991695,2.7572502614425787e-10,0.005600190255790949
0.006916109938174486,-0.002201394410803914,-0.00035662384470924735,0.004519355949014425,1.8002876966960457e-11,0.005157222971320152
0.007350900210440159,-0.0018794374773278832,-0.00037366984179243445,0.004346324596554041,1.1754592525031748e-12,0.00528161833062768
0.0070196823216974735,-0.0014932758640497923,-0.000369147805031389,0.004376495257019997,7.674907936830802e-14,0.005633787717670202
0.007215234450995922,-0.0015485334442928433,-0.00040103416540659964,0.004661493003368378,5.011166347602004e-15,0.006129126530140638
0.007240339182317257,-0.00180175737477839,-0.0003791087365243584,0.004897850099951029,3.2719336917304883e-16,0.005969265941530466
0.007864890620112419,-0.0019186409190297127,-0.00040797845576889813,0.004866478033363819,2.1363388539615133e-17,0.005734581965953112
0.0075103770941495895,-0.002433682791888714,-0.00039018483948893845,0.004369059577584267,1.3948766315021254e-18,0.0056809415109455585
0.007572378031909466,-0.0021054809913039207,-0.0005554631934501231,0.004835610277950764,-1.4550384548783768e-05,0.006440894212573767
0.008177480660378933,-0.0018772194162011147,-0.0005853476468473673,0.004893791396170855,-0.00031037998269312084,0.006214769557118416
0.00835274625569582,-0.0015953711699694395,-0.0006061424501240253,0.0052079446613788605,-0.00030848802998661995,0.005834632553160191
0.008190593682229519,-0.001638890476897359,-0.0005706956144422293,0.005051515065133572,-0.0002898765087593347,0.005951698403805494
0.007867353036999702,-0.0017337041208520532,-0.0008269691024906933,0.004881605505943298,-0.0002724031510297209,0.006136496551334858
0.008710570633411407,-0.001698130159638822,-0.0007583112455904484,0.005137421656399965,-0.00030129068181850016,0.006639787461608648
0.008710570633411407,-0.001698130159638822,-0.0007583112455904484,0.005137421656399965,-0.00030129068181850016,0.006639787461608648
0.008747163228690624,-0.001852627843618393,-0.0007746368064545095,0.005325471516698599,-0.0002911231422331184,0.006633332464843988
0.00835100095719099,-0.001686711679212749,-0.0007883365615271032,0.005332007072865963,-0.0002766028919722885,0.006323555950075388
0.00929348636418581,-0.0015757645014673471,-0.0008903536945581436,0.005288675893098116,-0.00026314606657251716,0.006447505671530962
0.008975137025117874,-0.00154179148375988,-0.0008987357723526657,0.005321692209690809,-0.00027134569245390594,0.006404505111277103
0.008455820381641388,-0.0015345386927947402,-0.0008988981135189533,0.005095722619444132,-0.00027833878993988037,0.006964369677007198
0.008692076429724693,-0.0014530385378748178,-0.0008989605121314526,0.005206229630857706,-0.0002677486336324364,0.006442883051931858
0.00922075193375349,-0.0015323514817282557,-0.0010884356452152133,0.004758791532367468,-0.00028403723263181746,0.0065338341519236565
0.009093394502997398,-0.0014390733558684587,-0.0010996672790497541,0.0049887765198946,-0.0002814849140122533,0.006349795963615179
0.00884403195232153,-0.0015309075824916363,-0.001087262644432485,0.005465599708259106,-0.0002714311413001269,0.006383913569152355
0.009685537777841091,-0.0015445661265403032,-0.0013759274734184146,0.00509384972974658,-0.0002812399761751294,0.006614821497350931
0.009649824351072311,-0.0014881226234138012,-0.0012973217526450753,0.004784029442816973,-0.0002829242148436606,0.0067375097423791885
0.009062779136002064,-0.0015641654608771205,-0.0014243164332583547,0.004782776348292828,-0.0002673763665370643,0.006896842736750841
0.009370634332299232,-0.0014477631775662303,-0.0015344172716140747,0.004769555293023586,-0.00029945073765702546,0.006876221392303705
0.009532636031508446,-0.0014825098915025592,-0.0014659564476460218,0.005174021236598492,-0.0002866227296181023,0.0066568381153047085
0.010006694123148918,-0.0014215974370017648,-0.0016421630280092359,0.005492255091667175,-0.00031459235469810665,0.0066097090020775795
0.010041046887636185,-0.0013707848265767097,-0.0016805792693048716,0.005139040295034647,-0.0003023029421456158,0.006922105327248573
0.009994227439165115,-0.0014211395755410194,-0.0020558759570121765,0.005251408088952303,-0.00030872938805259764,0.007074481341987848
0.009744834154844284,-0.001483804197050631,-0.0019212393090128899,0.005155592225492001,-0.0003140453773085028,0.00758644612506032
0.010954054072499275,-0.0016149865696206689,-0.0021664367523044348,0.005755358375608921,-0.0003020953736267984,0.0070802150294184685
0.00994785688817501,-0.0015222299844026566,-0.002368744695559144,0.005779757164418697,-0.00040179200004786253,0.007302914746105671
0.009758180938661098,-0.0015792088815942407,-0.0022880355827510357,0.005855475552380085,-0.0004723937308881432,0.007605528924614191
0.010537304915487766,-0.0016336689004674554,-0.0024136884603649378,0.005317140836268663,-0.0004812187689822167,0.007650339975953102
0.010879158973693848,-0.001563607482239604,-0.0024810750037431717,0.005267218220978975,-0.000501666625496,0.007346917875111103
0.010413403622806072,-0.0014736917801201344,-0.0026952510233968496,0.005326080601662397,-0.00047615953371860087,0.007491891272366047
0.010151145048439503,-0.0014077540254220366,-0.00287045631557703,0.005684517789632082,-0.0006231334409676492,0.008098909631371498
0.010437765158712864,-0.0014953099889680743,-0.00274860393255949,0.005516888108104467,-0.0005991604411974549,0.0077471318654716015
0.010437765158712864,-0.0014953099889680743,-0.00274860393255949,0.005516888108104467,-0.0005991604411974549,0.0077471318654716015
0.009609338827431202,-0.0015448379563167691,-0.0029329457320272923,0.005701350513845682,-0.0005320850759744644,0.007516609504818916
0.008398320525884628,-0.0014610390644520521,-0.002950370544567704,0.005487940739840269,-0.0005642038304358721,0.007877638563513756
0.008423681370913982,-0.001540912315249443,-0.0029981827829033136,0.006094193551689386,-0.0005160093423910439,0.008336913771927357
0.009150050580501556,-0.001430528238415718,-0.0031354096718132496,0.0063282581977546215,-0.0005288629909045994,0.00782761164009571
0.009518714621663094,-0.0014968018513172865,-0.0031866980716586113,0.006006133276969194,-0.0005043278215453029,0.008016103878617287
0.008803866803646088,-0.0013870293041691184,-0.003181095700711012,0.006045818328857422,-0.00046800734708085656,0.008254983462393284
0.009511839598417282,-0.0014599335845559835,-0.0034049719106405973,0.005747432820498943,-0.000435695139458403,0.008078481070697308
0.00946631096303463,-0.0013934370363131166,-0.0033030123449862003,0.005863681901246309,-0.0004074996104463935,0.007955921813845634
0.00975837279111147,-0.0014168304624035954,-0.00359737197868526,0.005549139343202114,-0.0004336058918852359,0.007639659568667412
0.009661585092544556,-0.0013547196285799146,-0.003744500922039151,0.005703521892428398,-0.0004120975499972701,0.009270955808460712
0.00913185253739357,-0.001488970941863954,-0.0037367406766861677,0.005878560710698366,-0.0003911291714757681,0.009192198514938354
0.009302162565290928,-0.0014085855800658464,-0.0037107402458786964,0.005710586439818144,-0.00033758426434360445,0.008957944810390472
0.00957367941737175,-0.0015923077007755637,-0.0037493251729756594,0.0057079484686255455,-0.00031253197812475264,0.008562826551496983
0.010036851279437542,-0.0015755107160657644,-0.003670757869258523,0.005960439797490835,-0.00034259952371940017,0.008592059835791588
0.00922139547765255,-0.0014857634669169784,-0.004150936380028725,0.006118915043771267,-0.00032864423701539636,0.008592158555984497
0.009829004295170307,-0.0015067093772813678,-0.004097850061953068,0.005653054919093847,-0.0003102098999079317,0.008670806884765625
0.010346855036914349,-0.0014434276381507516,-0.004161009564995766,0.005620458163321018,-0.00033889844780787826,0.009176553227007389
0.009203804656863213,-0.0014814562164247036,-0.00405746279284358,0.00598859554156661,-0.00032441344228573143,0.009202721528708935
0.009862794540822506,-0.0014211327070370317,-0.004013406112790108,0.006047089584171772,-0.0003087060758844018,0.008222305215895176
0.010355526581406593,-0.001518573029898107,-0.004833245184272528,0.0061780852265655994,-0.00033070892095565796,0.00846185814589262
0.01068487111479044,-0.0015161986229941249,-0.004739818163216114,0.0053963083773851395,-0.00030756916385143995,0.007632570806890726
0.010954875499010086,-0.0015621241182088852,-0.005105046555399895,0.005595807917416096,-0.00029498562798835337,0.007879441604018211
0.01078874059021473,-0.001480771228671074,-0.005105103366076946,0.0064363740384578705,-0.0002833757898770273,0.008837520144879818
0.011100901290774345,-0.0013702202122658491,-0.00552326487377286,0.006759578827768564,-0.0003170151903759688,0.008703372441232204
0.011592952534556389,-0.0013303386513143778,-0.005877174902707338,0.006101381033658981,-0.0003320154210086912,0.008247820660471916
0.011592952534556389,-0.0013303386513143778,-0.005877174902707338,0.006101381033658981,-0.0003320154210086912,0.008247820660471916
0.011438079178333282,-0.0012704507680609822,-0.005377265624701977,0.006139268167316914,-0.0003597190079744905,0.008531466126441956
0.010945855639874935,-0.0014212585519999266,-0.005408606957644224,0.006292691454291344,-0.00035203638253733516,0.008581516332924366
0.011079898104071617,-0.0014415603363886476,-0.005783879663795233,0.006231237668544054,-0.0003754944773390889,0.008344806730747223
0.011079898104071617,-0.0014415603363886476,-0.005783879663795233,0.006231237668544054,-0.0003754944773390889,0.008344806730747223
0.010991913266479969,-0.0012806233717128634,-0.006596402730792761,0.006181677803397179,-0.0003623046795837581,0.008753803558647633
0.011040383018553257,-0.0012897745473310351,-0.00657533947378397,0.0060399617068469524,-0.0005463342531584203,0.009151247330009937
0.011578163132071495,-0.0013478436740115285,-0.005749481730163097,0.0065208179876208305,-0.0005139774293638766,0.00932509358972311
0.010808343067765236,-0.0013492830330505967,-0.005883003585040569,0.006866345182061195,-0.0005488872993737459,0.008992739021778107
0.011268568225204945,-0.001458083395846188,-0.00605938583612442,0.0065324571914970875,-0.0005034051137045026,0.009820817969739437
0.011580613441765308,-0.0014067055890336633,-0.00677148113027215,0.00616565952077508,-0.0005269816028885543,0.009222590364515781
0.010943102650344372,-0.001576856360770762,-0.0066571542993187904,0.00621118163689971,-0.0004946094704791903,0.009657315909862518
0.011626644991338253,-0.0014476043870672584,-0.006825971882790327,0.0065767765045166016,-0.000459128525108099,0.009363129734992981
0.011216623708605766,-0.001365771284326911,-0.006969362962990999,0.007278522476553917,-0.00042795774061232805,0.009409844875335693
0.011331663466989994,-0.0013770211953669786,-0.007888189516961575,0.0066980766132473946,-0.00044285980402491987,0.009492491371929646
0.011530139483511448,-0.001420367625541985,-0.007107070181518793,0.006364369299262762,-0.0004295828694012016,0.009740331210196018
0.011394656263291836,-0.0016617889050394297,-0.006959679536521435,0.0067054801620543,-0.0004150416061747819,0.010096563957631588
0.012379346415400505,-0.001560089411213994,-0.006824307609349489,0.006975211668759584,-0.0003887091588694602,0.009958361275494099
0.011194566264748573,-0.001468025497160852,-0.007560182362794876,0.007293344009667635,-0.000393063499359414,0.01051630824804306
0.011439998634159565,-0.0015106688952073455,-0.007628215476870537,0.006561057176440954,-0.000395914918044582,0.010398795828223228
0.01156152319163084,-0.0013939373893663287,-0.006784697063267231,0.006284566130489111,-0.0004008172545582056,0.009929497726261616
0.011209814809262753,-0.0013198147062212229,-0.007032050751149654,0.0065123336389660835,-0.00040285399882122874,0.010385271161794662
0.011125698685646057,-0.0013300152495503426,-0.007751544937491417,0.007282170932739973,-0.00038033651071600616,0.010768042877316475
0.011191253550350666,-0.0013988714199513197,-0.007931719534099102,0.006449311040341854,-0.00038932039751671255,0.010689815506339073
0.011690911836922169,-0.0013610625173896551,-0.007807581685483456,0.006746923550963402,-0.000479637470562011,0.010343173518776894
0.01117674633860588,-0.0012684280518442392,-0.008619805797934532,0.0071204123087227345,-0.0005173017270863056,0.010518867522478104
0.01159636490046978,-0.0012105387868359685,-0.00824780948460102,0.007229429204016924,-0.00048198580043390393,0.011149588972330093
0.011871999129652977,-0.0010623109992593527,-0.008032724261283875,0.007231604773551226,-0.0005068049649707973,0.010891029611229897
0.011871999129652977,-0.0010623109992593527,-0.008032724261283875,0.007231604773551226,-0.0005068049649707973,0.010891029611229897
0.01167369820177555,-0.0011423256946727633,-0.007872075773775578,0.006952275522053242,-0.0004771157109644264,0.010998261161148548
0.012026817537844181,-0.0011381445219740272,-0.008329330943524837,0.007110751699656248,-0.0004988236469216645,0.010848741978406906
0.011387824080884457,-0.0013271248899400234,-0.008467352017760277,0.007316949777305126,-0.00047351347166113555,0.011341158300638199
0.011948270723223686,-0.0013065470848232508,-0.008443489670753479,0.007255242671817541,-0.0005326884565874934,0.011730387806892395
0.012048893608152866,-0.0012493077665567398,-0.008659949526190758,0.00728291692212224,-0.0005777143524028361,0.011232743039727211
0.012451901100575924,-0.0013935344759374857,-0.008813295513391495,0.007997031323611736,-0.0005879282834939659,0.011822124943137169
0.012695908546447754,-0.001341222203336656,-0.008772335946559906,0.007136708591133356,-0.0005752960569225252,0.011400253511965275
0.012218811549246311,-0.0012632206780835986,-0.008946653455495834,0.007234581746160984,-0.0005850849556736648,0.011397071182727814
0.012370848096907139,-0.0011933452915400267,-0.009312271140515804,0.006731663830578327,-0.0005571467918343842,0.011683657765388489
0.0122561976313591,-0.001125710434280336,-0.009111999534070492,0.007160577457398176,-0.0006030574440956116,0.011810099706053734
0.01243959367275238,-0.0010989080183207989,-0.00872037559747696,0.007019151467829943,-0.0006050396477803588,0.012026026844978333
0.012368511408567429,-0.0010731244692578912,-0.00964447297155857,0.0068364073522388935,-0.0006377724930644035,0.011477595195174217
0.012342276982963085,-0.0011473498307168484,-0.009352819994091988,0.0069221979938447475,-0.0005764748784713447,0.01118328794836998
0.012553849257528782,-0.0011445031268522143,-0.009317925199866295,0.007408597506582737,-0.0006017984123900533,0.011533519253134727
0.01230157632380724,-0.0011182889575138688,-0.00980035774409771,0.007950901053845882,-0.0005541084101423621,0.011293241754174232
0.012453392148017883,-0.0013101306976750493,-0.00970239844173193,0.007626996375620365,-0.0005448306328617036,0.011614715680480003
0.012533015571534634,-0.0012353530619293451,-0.00976842362433672,0.007430306635797024,-0.0005363452946767211,0.011972811073064804
0.013142690993845463,-0.001178136677481234,-0.009987077675759792,0.007845956832170486,-0.0005020968383178115,0.011626972816884518
0.012982113286852837,-0.001057664048857987,-0.009684986434876919,0.007891882210969925,-0.0004935737233608961,0.011358790099620819
0.012902401387691498,-0.0010601762915030122,-0.009802724234759808,0.007768452633172274,-0.0004474993038456887,0.011462216265499592
0.01247092429548502,-0.0010688086040318012,-0.009824785403907299,0.0073656486347317696,-0.0004827453230973333,0.012172245420515537
0.012862474657595158,-0.0010444442741572857,-0.00960164237767458,0.008166953921318054,-0.00044764342601411045,0.012424161657691002
0.013295408338308334,-0.001114778919145465,-0.009444615803658962,0.008483855053782463,-0.00041364782373420894,0.012477693147957325
0.013169425539672375,-0.0011970275081694126,-0.008450212888419628,0.008458980359137058,-0.000418168434407562,0.01190915796905756
0.013057726435363293,-0.0010585259879007936,-0.006586460862308741,0.008432498201727867,-0.000444515811977908,0.012397844344377518
0.013873004354536533,-0.0009748342563398182,-0.006735583301633596,0.008348561823368073,-0.00042187696089968085,0.012440318241715431
0.013873004354536533,-0.0009748342563398182,-0.006735583301633596,0.008348561823368073,-0.00042187696089968085,0.012440318241715431
0.01352739054709673,-0.0010392117546871305,-0.007468742784112692,0.0076221320778131485,-0.00045604497427120805,0.012529554776847363
0.013387808576226234,-0.001042421325109899,-0.006791312713176012,0.007650007028132677,-0.0004550240410026163,0.012496009469032288
0.01400088518857956,-0.0010470827110111713,-0.00708343181759119,0.007993861101567745,-0.00047353943227790296,0.01261137519031763
0.01400088518857956,-0.0010470827110111713,-0.00708343181759119,0.007993861101567745,-0.00047353943227790296,0.01261137519031763
0.013937005773186684,-0.0010353414108976722,-0.008056025952100754,0.008192864246666431,-0.0004554784100037068,0.01275909785181284
0.014521096833050251,-0.001016235095448792,-0.007762531749904156,0.009286614134907722,-0.00047048315173015,0.012726586312055588
0.014101417735219002,-0.0010797773720696568,-0.007266055792570114,0.010268489830195904,-0.0004547718563117087,0.012642011046409607
0.014430716633796692,-0.001046918798238039,-0.007295651827007532,0.00886817742139101,-0.0004286061448510736,0.01335066743195057
0.014056487008929253,-0.0010228166356682777,-0.008173235692083836,0.009290800429880619,-0.0005104306619614363,0.01314498670399189
0.014585185796022415,-0.0009953140979632735,-0.007728318218141794,0.009196355007588863,-0.0004735469410661608,0.013297287747263908
0.014738422818481922,-0.0009038349380716681,-0.007627679035067558,0.009105763398110867,-0.0004708186024799943,0.01341275405138731
0.015142466872930527,-0.0008010515593923628,-0.007011346984654665,0.009499208070337772,-0.00046753184869885445,0.013133462518453598
0.014789559878408909,-0.0008144840248860419,-0.008729509077966213,0.009550591930747032,-0.00043251627357676625,0.012740314938127995
0.01514830719679594,-0.000812788144685328,-0.007925182580947876,0.008628195151686668,-0.0004496127658057958,0.013028280809521675
0.014802319929003716,-0.0007311476510949433,-0.007826274260878563,0.009353633038699627,-0.0004338920407462865,0.013354163616895676
0.015408827923238277,-0.0007474370067939162,-0.008396927267313004,0.009224439971148968,-0.00040685562998987734,0.013444026000797749
0.015249407850205898,-0.0007272415678016841,-0.009154368191957474,0.00880975741893053,-0.000382225145585835,0.013625102117657661
0.015789443626999855,-0.0007438482134602964,-0.00806406419724226,0.008533907122910023,-0.0004082696104887873,0.01326637901365757
0.014899165369570255,-0.0007630498730577528,-0.00795329175889492,0.0093004135414958,-0.00038931233575567603,0.013718480244278908
0.01570293866097927,-0.0007781143067404628,-0.008637513034045696,0.009121372364461422,-0.00036985022597946227,0.013226303271949291
0.015610347501933575,-0.0008860391099005938,-0.008822181262075901,0.008204330690205097,-0.00035729273804463446,0.013967577368021011
0.015701550990343094,-0.0009186938987113535,-0.00831009540706873,0.0087821613997221,-0.0003320169635117054,0.01376623660326004
0.015410248190164566,-0.0009163935319520533,-0.009922978468239307,0.009002495557069778,-0.00035474036121740937,0.014232064597308636
0.015850095078349113,-0.000836828607134521,-0.009138518944382668,0.008554603904485703,-0.0003461667220108211,0.014327269047498703
0.01611815020442009,-0.0008431333699263632,-0.008459657430648804,0.008589102886617184,-0.00032617608667351305,0.014329452067613602
0.015798315405845642,-0.000861023785546422,-0.009490957483649254,0.009330629371106625,-0.00033912103390321136,0.015527809970080853
0.015640994533896446,-0.0008664890774525702,-0.00879696011543274,0.008956517092883587,-0.00035612666397355497,0.013872792944312096
0.015640994533896446,-0.0008664890774525702,-0.00879696011543274,0.008956517092883587,-0.00035612666397355497,0.013872792944312096
0.01585511863231659,-0.0009229214629158378,-0.009531069546937943,0.008993279188871384,-0.0003339980903547257,0.013853136450052261
0.016323566436767578,-0.0009686729754321277,-0.009473603218793869,0.00879663322120905,-0.0004028067924082279,0.014530566520988941
0.016323566436767578,-0.0009686729754321277,-0.009473603218793869,0.00879663322120905,-0.0004028067924082279,0.014530566520988941
0.016041308641433716,-0.0009587735985405743,-0.009063724428415298,0.009145270101726055,-0.0004374703567009419,0.014372685924172401
0.01635090447962284,-0.000923400919418782,-0.010372800752520561,0.009360305964946747,-0.0004215036751702428,0.014965380541980267
0.016478482633829117,-0.0008511978667229414,-0.009762351401150227,0.009052971377968788,-0.00044850714039057493,0.014637446962296963
0.016253134235739708,-0.0008310380508191884,-0.00914083793759346,0.00992431491613388,-0.00047075378824956715,0.014653501100838184
0.016901332885026932,-0.0007327820640057325,-0.009618815965950489,0.009707024320960045,-0.0004554423503577709,0.014522132463753223
0.016340265050530434,-0.0007121071103028953,-0.009492725133895874,0.009246453642845154,-0.0006303238333202899,0.014291862025856972
0.01723998785018921,-0.0006629491690546274,-0.010167806409299374,0.009177221916615963,-0.0006648158887401223,0.014476004056632519
0.017108874395489693,-0.0006548869423568249,-0.010106596164405346,0.009489636868238449,-0.0006166614475660026,0.01472797617316246
0.017095236107707024,-0.0006208820268511772,-0.009682946838438511,0.009596421383321285,-0.0006408082554116845,0.014753201976418495
0.017716819420456886,-0.0005655335844494402,-0.010198725387454033,0.010099292732775211,-0.0006590196280740201,0.014992748387157917
0.016789376735687256,-0.0005919902469031513,-0.010124819353222847,0.01008749008178711,-0.0007030999986454844,0.014595150016248226
0.017538530752062798,-0.0005479095852933824,-0.010017577558755875,0.009464857168495655,-0.0007498338236473501,0.014513358473777771
0.01728939451277256,-0.0005091706407256424,-0.009835838340222836,0.009346096776425838,-0.0007139274966903031,0.014531448483467102
0.016842199489474297,-0.00041694630635902286,-0.010213089175522327,0.0097419498488307,-0.0007320381118915975,0.014940964989364147
0.0176209956407547,-0.00039032098720781505,-0.010281575843691826,0.009451235644519329,-0.0007071942090988159,0.014962633140385151
0.017511973157525063,-0.0003675357438623905,-0.009717644192278385,0.009675710462033749,-0.0006815172964707017,0.015065453015267849
0.01799379661679268,-0.0003472738608252257,-0.010116170160472393,0.009876119904220104,-0.0006250145961530507,0.014771546237170696
0.01788468472659588,-0.0003291294851806015,-0.010754328221082687,0.008860627189278603,-0.0006192578584887087,0.015140886418521404
0.017319055274128914,-0.00031278873211704195,-0.010217010043561459,0.00958588719367981,-0.0005526562454178929,0.01488804817199707
0.01839117519557476,-0.0002979925775434822,-0.010774062015116215,0.009463822469115257,-0.0005839799996465445,0.015386738814413548
0.01801292784512043,-0.0002845308627001941,-0.010433408431708813,0.009418918751180172,-0.0005323484656400979,0.01516422163695097
0.018475761637091637,-0.0002722355420701206,-0.010125086642801762,0.009364305064082146,-0.000559905543923378,0.015481092035770416
0.018020374700427055,-0.0002609743969514966,-0.010539980605244637,0.009637964889407158,-0.0005187003989703953,0.01520803663879633
0.01851971633732319,-0.00010328304779250175,-0.010881325230002403,0.009396431036293507,-0.0005080559640191495,0.01558303739875555
0.01851971633732319,-0.00010328304779250175,-0.010881325230002403,0.009396431036293507,-0.0005080559640191495,0.01558303739875555
0.018201107159256935,-7.753391400910914e-05,-0.010439053177833557,0.009663322940468788,-0.0004713501257356256,0.015882248058915138
0.01891690492630005,-7.432939310092479e-05,-0.011135127395391464,0.009708823636174202,-0.00042805864359252155,0.015955299139022827
0.01930716633796692,-7.13816552888602e-05,-0.011313444003462791,0.01025562733411789,-0.00042870870674960315,0.01628601923584938
0.019246529787778854,-6.865867908345535e-05,-0.011605064384639263,0.010249430313706398,-0.0004289508506190032,0.015066883526742458
0.01935887336730957,-6.613624282181263e-05,-0.011513677425682545,0.01042709406465292,-0.0004483842058107257,0.015095033682882786
0.018989067524671555,-6.379210390150547e-05,-0.011403415352106094,0.01068697590380907,-0.0004329164221417159,0.0151762580499053
0.01904180459678173,-6.160853081382811e-05,-0.01070060208439827,0.01087284367531538,-0.00040601319051347673,0.015958137810230255
0.01939498633146286,-5.9569818404270336e-05,-0.011692231521010399,0.01053018867969513,-0.00042860579560510814,0.016011977568268776
0.01939498633146286,-5.9569818404270336e-05,-0.011692231521010399,0.01053018867969513,-0.00042860579560510814,0.016011977568268776
0.019327668473124504,-5.766140384366736e-05,-0.01064871996641159,0.010639715008437634,-0.00041060015792027116,0.01617410033941269
0.019381802529096603,-5.587167834164575e-05,-0.011841616593301296,0.010661629028618336,-0.00041263026650995016,0.015727004036307335
0.019868949428200722,-5.4189593356568366e-05,-0.011320426128804684,0.010697534307837486,-0.00040054565761238337,0.01612955331802368
0.019579147920012474,-5.260581383481622e-05,-0.011197049170732498,0.01067985501140356,-0.0003692689351737499,0.016322266310453415
0.019664596766233444,-5.111213613417931e-05,-0.011297447606921196,0.010853433050215244,-0.00040479248855262995,0.01641654781997204
0.019950466230511665,-3.3367112337145954e-05,-0.010786324739456177,0.010945712216198444,-0.0003804073785431683,0.016674013808369637
0.019924046471714973,-2.4296979972859845e-05,-0.011437039822340012,0.010495259426534176,-0.0004107407003175467,0.016126058995723724
0.019703028723597527,-2.3551430786028504e-05,-0.01119814533740282,0.010661080479621887,-0.0003889840445481241,0.016018273308873177
0.020182620733976364,-2.294941987202037e-05,-0.010781068354845047,0.010247896425426006,-0.00039208141970448196,0.01623610220849514
0.0203117523342371,-2.2378775611286983e-05,-0.011735213920474052,0.01035269908607006,-0.0003941619652323425,0.01646842062473297
0.020037084817886353,-2.183581455028616e-05,-0.011646230705082417,0.0109892962500453,-0.00046078499872237444,0.0165775865316391
0.02002011612057686,-2.131861401721835e-05,-0.011449169367551804,0.010500509291887283,-0.0004449518455658108,0.01629766635596752
0.020562637597322464,-2.0825298634008504e-05,-0.011211964301764965,0.010153831914067268,-0.00047673421795479953,0.016518311575055122
0.020290115848183632,-2.0354316802695394e-05,-0.010425277054309845,0.010777024552226067,-0.0004830026882700622,0.016459524631500244
0.020234452560544014,-1.9904209693777375e-05,-0.011332775466144085,0.010608748532831669,-0.00047968991566449404,0.016752421855926514
0.020639151334762573,-1.94735166587634e-05,-0.011130212806165218,0.01039738580584526,-0.000503031478729099,0.016771014779806137
0.020804567262530327,-1.9061100829276256e-05,-0.011184079572558403,0.01064810436218977,-0.0005881201359443367,0.01710888184607029
0.020331835374236107,-1.8665810785023496e-05,-0.011556643061339855,0.010257834568619728,-0.0007027430692687631,0.017027340829372406
0.02108355611562729,-2.4533727582820575e-07,-0.011412493884563446,0.011271027848124504,-0.0006739533273503184,0.01709505170583725
0.020986707881093025,-3.291512618019965e-09,-0.011075499467551708,0.010597859509289265,-0.0006142036872915924,0.017181606963276863
0.020709509029984474,-4.4159838979984656e-11,-0.01104266569018364,0.010920686647295952,-0.0006342082633636892,0.017472682520747185
0.02104760892689228,-5.924605424312279e-13,-0.01184561476111412,0.011632388457655907,-0.0005873075569979846,0.017600521445274353
0.020986922085285187,-7.948614775274768e-15,-0.011271956376731396,0.010673235170543194,-0.000579104118514806,0.01795574650168419
0.02107034996151924,-1.0664081940205087e-16,-0.011581123806536198,0.011555187404155731,-0.0005469826282933354,0.01731107570230961
0.020785225555300713,-1.4307228135398405e-18,-0.01174069195985794,0.011308525688946247,-0.0004898718907497823,0.017220791429281235
0.021484501659870148,-1.919497168353736e-20,-0.011367445811629295,0.01150965690612793,-0.0005238324520178139,0.01768556423485279
0.021484501659870148,-1.919497168353736e-20,-0.011367445811629295,0.01150965690612793,-0.0005238324520178139,0.01768556423485279
0.02222687564790249,-2.5752504352636698e-22,-0.01171870157122612,0.01158467959612608,-0.00048236490692943335,0.018413454294204712
0.02159697376191616,-3.455026960277115e-24,-0.011236795224249363,0.01086296048015356,-0.0005067805177532136,0.01836312748491764
0.021103831008076668,-4.6353596213278917e-26,-0.011597790755331516,0.011263408698141575,-0.0004770733939949423,0.018701834604144096
0.021176781505346298,-6.218926494336034e-28,-0.012033563107252121,0.011421803385019302,-0.0004987788270227611,0.018835773691534996
0.021617025136947632,-8.343484364735387e-30,-0.011775881983339787,0.01126125082373619,-0.00047347304644063115,0.018257560208439827
0.02144750766456127,-1.1193848316227925e-31,-0.01183009147644043,0.011665238067507744,-0.00048086282913573086,0.017265254631638527
0.021560953930020332,-1.5017977154506347e-33,-0.011017123237252235,0.01146774273365736,-0.00044703108142130077,0.017518745735287666
0.02134495973587036,-2.0148531360719093e-35,-0.011467540636658669,0.011742125265300274,-0.00048307469114661217,0.018072467297315598
0.021493693813681602,-2.7031827619810657e-37,-0.011678928509354591,0.011800270527601242,-0.00048411512398160994,0.01874467544257641
0.021733229979872704,-3.6266641217589866e-39,-0.011254389770328999,0.011350433342158794,-0.0004804022319149226,0.01877460442483425
0.022047750651836395,-4.86558852782863e-41,-0.012168950401246548,0.01184761617332697,-0.0005079389084130526,0.01855749450623989
0.021765397861599922,-6.5300508437536476e-43,-0.01160246692597866,0.011488199234008789,-0.0006382187129929662,0.018813230097293854
0.022216560319066048,-8.407790785948902e-45,-0.011416500434279442,0.011477704159915447,-0.000719594128895551,0.018624521791934967
0.0212550088763237,-0.0,-0.011344272643327713,0.011209491640329361,-0.0007368865190073848,0.019265634939074516
0.021305037662386894,0.0,-0.012015272863209248,0.01139738317579031,-0.0007415891741402447,0.019198471680283546
0.021778739988803864,0.0,-0.011934150941669941,0.011679441668093204,-0.0008361078216694295,0.018872063606977463
0.022346481680870056,0.0,-0.011540453881025314,0.010837637819349766,-0.0008993793744593859,0.01859065145254135
0.022708939388394356,0.0,-0.01195685938000679,0.012136634439229965,-0.0007284771418198943,0.01819959096610546
0.022227566689252853,0.0,-0.011762281879782677,0.011567557230591774,-0.0007338234572671354,0.018947914242744446
0.022147152572870255,0.0,-0.012263664044439793,0.01156985480338335,-0.0007142537506297231,0.019410470500588417
0.02213725633919239,0.0,-0.011913870461285114,0.01088164746761322,-0.0006880383007228374,0.019244952127337456
0.02238643914461136,0.0,-0.012737034820020199,0.011502141132950783,-0.0006304941489361227,0.020220384001731873
0.02265443466603756,0.0,-0.012529040686786175,0.012583623640239239,-0.0005569555214606225,0.018661709502339363
0.02275107614696026,0.0,-0.012296649627387524,0.011965244077146053,-0.0004917408805340528,0.018531451001763344
0.022923719137907028,0.0,-0.012363456189632416,0.012465057894587517,-0.0005192058742977679,0.019351523369550705
0.02303164079785347,0.0,-0.01225497666746378,0.012194107286632061,-0.0004830484394915402,0.02023436315357685
0.02303164079785347,0.0,-0.01225497666746378,0.012194107286632061,-0.0004830484394915402,0.02023436315357685
0.0228203684091568,0.0,-0.012608549557626247,0.01215255819261074,-0.0005077885580249131,0.020085103809833527
0.022848326712846756,0.0,-0.01222127117216587,0.011983770877122879,-0.00047796923900023103,0.019897816702723503
0.023269478231668472,0.0,-0.012697264552116394,0.012042205780744553,-0.0004914844175800681,0.02028224989771843
0.023021655157208443,0.0,-0.012503606267273426,0.01211290992796421,-0.0004737142298836261,0.02010471560060978
0.022800642997026443,6.934371776878834e-05,-0.01279511209577322,0.011754857376217842,-0.00044778158189728856,0.019884217530488968
0.02250606380403042,0.00021772063337266445,-0.0126982806250453,0.012207687832415104,-0.0004732669040095061,0.020371833816170692
0.023014845326542854,0.00020961847621947527,-0.012360986322164536,0.011853918433189392,-0.0004958424251526594,0.020150337368249893
0.023480935022234917,0.00020031390886288136,-0.012922480702400208,0.011530259624123573,-0.0004722844751086086,0.019845908507704735
0.02319316193461418,0.00021693478629458696,-0.012387103401124477,0.011712300591170788,-0.000502907729241997,0.020299196243286133
0.023397549986839294,0.0002205475466325879,-0.013087905012071133,0.011541043408215046,-0.0005192026146687567,0.02066180668771267
0.02363070473074913,0.00021205453958828002,-0.012587733566761017,0.0127100870013237,-0.0005029850290156901,0.02061188593506813
0.02316119894385338,0.00020404381211847067,-0.012832986190915108,0.012027472257614136,-0.0006966706132516265,0.020484017208218575
0.023969417437911034,0.00019661441911011934,-0.01279909536242485,0.011695994064211845,-0.0006772465421818197,0.02029481716454029
0.024111291393637657,0.0002200444578193128,-0.013316855765879154,0.012107889167964458,-0.000699229072779417,0.020401954650878906
0.023943593725562096,0.00021379611280281097,-0.013263897970318794,0.01238663587719202,-0.0006787636666558683,0.02061963826417923
0.023935284465551376,0.00020679454610217363,-0.012932052835822105,0.013013646006584167,-0.0006566092488355935,0.021092116832733154
0.023828750476241112,0.00022767034533899277,-0.013143044896423817,0.012937850318849087,-0.0006040847511030734,0.02116909623146057
0.023917311802506447,0.00022176170023158193,-0.01265743002295494,0.012264941819012165,-0.0006286771385930479,0.020444808527827263
0.024027489125728607,0.00021514997933991253,-0.013178560882806778,0.013290759176015854,-0.0005633350228890777,0.019714802503585815
0.024415889754891396,0.0002970714995171875,-0.012971358373761177,0.013911750167608261,-0.0005942505085840821,0.020524756982922554
0.024752177298069,0.0003123570349998772,-0.012980571947991848,0.013491567224264145,-0.0005708033568225801,0.02039584517478943
0.024566112086176872,0.0003008494386449456,-0.013736570253968239,0.013321937993168831,-0.0005257258890196681,0.020589767023921013
0.02375519648194313,0.0002850458840839565,-0.013789640739560127,0.013610278256237507,-0.0005497889942489564,0.02017972432076931
0.02435879409313202,0.00027075508842244744,-0.014188703149557114,0.013404110446572304,-0.0005146813346073031,0.020847927778959274
0.025031572207808495,0.0003001919249072671,-0.01398690976202488,0.01324216928333044,-0.00048058124957606196,0.021956132724881172
0.025031572207808495,0.0003001919249072671,-0.01398690976202488,0.01324216928333044,-0.00048058124957606196,0.021956132724881172
0.024736203253269196,0.00028708044555969536,-0.013925583101809025,0.013190901838243008,-0.00046823808224871755,0.02186356671154499
0.024836555123329163,0.00031325078452937305,-0.01393098197877407,0.013234161771833897,-0.0004280511348042637,0.020954325795173645
0.025398725643754005,0.000404284248361364,-0.01437557116150856,0.013227549381554127,-0.00039109683712013066,0.02113191969692707
0.025501590222120285,0.00047256704419851303,-0.01412179321050644,0.012846441939473152,-0.00042666649096645415,0.02078157290816307
0.025012440979480743,0.0004593260819092393,-0.01415746845304966,0.013217872008681297,-0.00043175893370062113,0.020873690024018288
0.0249387938529253,0.0004912943695671856,-0.014034299179911613,0.012771164067089558,-0.0004319789877627045,0.020918449386954308
0.024668296799063683,0.0005010185996070504,-0.01385424192994833,0.01335237082093954,-0.0004562333633657545,0.02201429009437561
0.026083627715706825,0.0006828201003372669,-0.014241473749279976,0.013050754554569721,-0.0005186076741665602,0.021765142679214478
0.026083627715706825,0.0006828201003372669,-0.014241473749279976,0.013050754554569721,-0.0005186076741665602,0.021765142679214478
0.025679074227809906,0.0007271958747878671,-0.014681490138173103,0.013122784905135632,-0.0005604727193713188,0.021281879395246506
0.02558332309126854,0.0006529184756800532,-0.014126853086054325,0.013086291961371899,-0.0005760985659435391,0.021257933229207993
0.02541072480380535,0.0006678216741420329,-0.014533407986164093,0.013314940966665745,-0.0005458894302137196,0.021764611825346947
0.025572672486305237,0.000613331503700465,-0.013884724117815495,0.012975108809769154,-0.0005703526549041271,0.02180664613842964
0.025575198233127594,0.0006110755493864417,-0.01448492705821991,0.013418563641607761,-0.0006894179969094694,0.02164240926504135
0.026097528636455536,0.0005864290869794786,-0.014756785705685616,0.013356569223105907,-0.0007398641901090741,0.02178308367729187
0.02606685273349285,0.0005905518773943186,-0.015064653009176254,0.013727408833801746,-0.0007615230861119926,0.022045588120818138
0.026317615061998367,0.0006213859305717051,-0.015800852328538895,0.013295920565724373,-0.0007772115059196949,0.02195802330970764
0.026619698852300644,0.0006581569905392826,-0.015054692514240742,0.014036983251571655,-0.0008697990560904145,0.023054245859384537
0.02666187845170498,0.0006812706124037504,-0.015377847477793694,0.013527551665902138,-0.000993523164652288,0.02201097644865513
0.02680484764277935,0.00098489283118397,-0.015146901831030846,0.01415340043604374,-0.0009864106541499496,0.021308988332748413
0.026849906891584396,0.0009705377160571516,-0.014838329516351223,0.013904394581913948,-0.00086909782839939,0.022443663328886032
0.026911329478025436,0.000920451304409653,-0.015890691429376602,0.013586942106485367,-0.000817644118797034,0.02269347570836544
0.02663285844027996,0.000852753350045532,-0.015507710166275501,0.01386325154453516,-0.0007308511412702501,0.02278802916407585
0.026882817968726158,0.000899200327694416,-0.016035471111536026,0.01368878036737442,-0.0006912121898494661,0.022541137412190437
0.027093462646007538,0.000900005514267832,-0.015703124925494194,0.014302447438240051,-0.0006598521140404046,0.022560620680451393
0.027437565848231316,0.0009269838919863105,-0.015600728802382946,0.014246075414121151,-0.0006757008959539235,0.02288404107093811
0.027220215648412704,0.0012743599945679307,-0.015389182604849339,0.014307052828371525,-0.0006635196623392403,0.022701401263475418
0.026985814794898033,0.0012700926745310426,-0.016197171062231064,0.014341888949275017,-0.0006435256800614297,0.022881455719470978
0.027510687708854675,0.001233839662745595,-0.016561612486839294,0.014711949042975903,-0.0006222067167982459,0.0229314137250185
0.027510687708854675,0.001233839662745595,-0.016561612486839294,0.014711949042975903,-0.0006222067167982459,0.0229314137250185
0.027328260242938995,0.001426986651495099,-0.0161697119474411,0.01427378412336111,-0.0006117454031482339,0.02282724715769291
0.027812253683805466,0.001318478025496006,-0.01606757380068302,0.01490812562406063,-0.0005929861799813807,0.023068197071552277
0.028720157220959663,0.001257800031453371,-0.015644045546650887,0.014323966577649117,-0.0005802448140457273,0.023111168295145035
0.02854577638208866,0.0012535719433799386,-0.016893384978175163,0.014632180333137512,-0.0005670749815180898,0.022879669442772865
0.027445288375020027,0.0012313799234107137,-0.01585371606051922,0.014230716042220592,-0.0005919290706515312,0.023113710805773735
0.027898093685507774,0.0012266847770661116,-0.015553466975688934,0.014378225430846214,-0.000655320705845952,0.023420721292495728
0.02924022078514099,0.0016377093270421028,-0.01559039019048214,0.013999647460877895,-0.0006635653553530574,0.0233929343521595
0.028501298278570175,0.0015537019353359938,-0.016126757487654686,0.014210481196641922,-0.0006388709880411625,0.023804903030395508
0.02894759178161621,0.0016913258004933596,-0.01680295355618,0.014315105974674225,-0.0006566953379660845,0.02383771538734436
0.02941136807203293,0.0016678085085004568,-0.01603536866605282,0.014889071695506573,-0.0006049566436558962,0.024075796827673912
0.02919682115316391,0.0015360865509137511,-0.016267597675323486,0.014560227282345295,-0.000625884160399437,0.02400592714548111
0.028835192322731018,0.0015953074907884002,-0.016024967655539513,0.014512350782752037,-0.0006422064616344869,0.024920374155044556
0.027948951348662376,0.0016805734485387802,-0.016410065814852715,0.014233330264687538,-0.0006163191865198314,0.023632708936929703
0.028543146327137947,0.0017846872797235847,-0.015897518023848534,0.014693344943225384,-0.0006392183713614941,0.023619793355464935
0.029425250366330147,0.001827881787903607,-0.016212932765483856,0.014444995671510696,-0.000654088391456753,0.023615246638655663
0.029386647045612335,0.0018307314021512866,-0.016333596780896187,0.014599158428609371,-0.0006130301626399159,0.024257270619273186
0.029292019084095955,0.0017125196754932404,-0.016554122790694237,0.014850854873657227,-0.0006289048469625413,0.025070754811167717
0.028970997780561447,0.00189840083476156,-0.016642509028315544,0.014415529556572437,-0.0005870553432032466,0.024895139038562775
0.02954152598977089,0.002084091305732727,-0.016695324331521988,0.015065339393913746,-0.0005531893693841994,0.023696761578321457
0.0295597855001688,0.00198931572958827,-0.01613856852054596,0.014660979621112347,-0.0005854968330822885,0.024346934631466866
0.02991935983300209,0.0021660281345248222,-0.01675761304795742,0.014731397852301598,-0.0005336523754522204,0.024856185540556908
0.029675191268324852,0.0022180001251399517,-0.01650250144302845,0.014819031581282616,-0.0005557436961680651,0.024995218962430954
0.029549825936555862,0.002192349638789892,-0.016038665547966957,0.015883242711424828,-0.0005193999968469143,0.024835186079144478
0.029922306537628174,0.002383886370807886,-0.01655600406229496,0.01598270609974861,-0.0005396147025749087,0.024930350482463837
0.029781511053442955,0.0021829428151249886,-0.01652752049267292,0.01621481403708458,-0.0005588548956438899,0.025705726817250252
0.02994433417916298,0.0022272237110882998,-0.017121074721217155,0.01582355983555317,-0.0005933412467129529,0.025490038096904755
0.02994433417916298,0.0022272237110882998,-0.017121074721217155,0.01582355983555317,-0.0005933412467129529,0.025490038096904755
0.030166158452630043,0.0022735176607966423,-0.01665477268397808,0.01609165035188198,-0.0005684462375938892,0.02445964515209198
0.030166158452630043,0.0022735176607966423,-0.01665477268397808,0.01609165035188198,-0.0005684462375938892,0.02445964515209198
0.03044161945581436,0.002415439812466502,-0.016992108896374702,0.015934674069285393,-0.0005565666942857206,0.02436046488583088
0.030554119497537613,0.002287592738866806,-0.017086470499634743,0.016590869054198265,-0.0005818618810735643,0.02505267783999443
0.030824098736047745,0.0024030546192079782,-0.017397530376911163,0.01607285439968109,-0.0006290022865869105,0.025711556896567345
0.03121628612279892,0.002561306580901146,-0.016251245513558388,0.01637451723217964,-0.0006855785031802952,0.02537105605006218
0.031291790306568146,0.0027871185448020697,-0.016838684678077698,0.01618274301290512,-0.0006603404763154685,0.02524716779589653
0.03131866455078125,0.0026702340692281723,-0.01649094931781292,0.01623900793492794,-0.0006831729551777244,0.02533082477748394
0.03128719702363014,0.0030214842408895493,-0.017036933451890945,0.01604626514017582,-0.000704996520653367,0.026136841624975204
0.03111991100013256,0.0030861760023981333,-0.01730354130268097,0.015954047441482544,-0.0009381373529322445,0.025104116648435593
0.029581131413578987,0.002932087518274784,-0.0166921429336071,0.015887809917330742,-0.0009453185484744608,0.02516482211649418
0.031641606241464615,0.0028717422392219305,-0.01702325977385044,0.0153702013194561,-0.0009399426635354757,0.025512458756566048
0.032090358436107635,0.002892507705837488,-0.016492826864123344,0.015846675261855125,-0.0008936391095630825,0.025769589468836784
0.031482450664043427,0.0028870401438325644,-0.016807161271572113,0.01574840396642685,-0.0010664034634828568,0.025891436263918877
0.03144652023911476,0.003200789215043187,-0.017332090064883232,0.016113417223095894,-0.0010101365623995662,0.025843922048807144
0.030525745823979378,0.0031902005430310965,-0.01692434772849083,0.015164762735366821,-0.0009286576532758772,0.02598755434155464
0.031187208369374275,0.003482967847958207,-0.017174342647194862,0.01608811691403389,-0.0009204739471897483,0.025942089036107063
0.03160163015127182,0.0032040076330304146,-0.0175474863499403,0.01636459492146969,-0.0008652036776766181,0.02578531950712204
0.032746583223342896,0.003320930292829871,-0.017678534612059593,0.01629803702235222,-0.0007746910559944808,0.0259945560246706
0.03220264986157417,0.003568886546418071,-0.017099492251873016,0.01621989719569683,-0.0007840083562768996,0.026029925793409348
0.03158532455563545,0.003362913616001606,-0.01789226569235325,0.016589468345046043,-0.0007897160830907524,0.026268770918250084
0.03096739389002323,0.003469574498012662,-0.01742764376103878,0.01641756482422352,-0.0007558056968264282,0.02710973657667637
0.031172577291727066,0.0036838760133832693,-0.017409512773156166,0.01661900244653225,-0.0007450072444044054,0.027193989604711533
0.03222482278943062,0.003869128180667758,-0.017974697053432465,0.01621277444064617,-0.0007634041248820722,0.026296742260456085
0.03222482278943062,0.003869128180667758,-0.017974697053432465,0.01621277444064617,-0.0007634041248820722,0.026296742260456085
0.0319710336625576,0.003959765657782555,-0.017850060015916824,0.016563372686505318,-0.0007372176623903215,0.025956224650144577
0.0319710336625576,0.003959765657782555,-0.017850060015916824,0.016563372686505318,-0.0007372176623903215,0.025956224650144577
0.03246775269508362,0.0042054615914821625,-0.017554957419633865,0.016335900872945786,-0.0006795988883823156,0.02685452438890934
0.0321863554418087,0.003671595361083746,-0.017926819622516632,0.016812432557344437,-0.0007268469780683517,0.026582125574350357
0.03230347856879234,0.003464335575699806,-0.019058095291256905,0.015978820621967316,-0.0006345502915792167,0.026670850813388824
0.032341368496418,0.003611735999584198,-0.01797342486679554,0.016334783285856247,-0.0006520242895931005,0.027161817997694016
0.03176574781537056,0.003820133162662387,-0.017936788499355316,0.015948576852679253,-0.0005932328058406711,0.027347415685653687
0.03201449289917946,0.003868481609970331,-0.01834109239280224,0.016339361667633057,-0.0006179463816806674,0.026626508682966232
0.0320228673517704,0.0038575376383960247,-0.01831543631851673,0.016154127195477486,-0.000637577089946717,0.026737408712506294
0.032784603536129,0.0035030522849410772,-0.018640290945768356,0.0161655992269516,-0.000600310682784766,0.02601020596921444
0.031038010492920876,0.004081674851477146,-0.018561825156211853,0.017090607434511185,-0.0005761542706750333,0.026376884430646896
0.033168721944093704,0.00410457281395793,-0.01837674155831337,0.016785627231001854,-0.0006020257133059204,0.02722991816699505
0.032940756529569626,0.00394004350528121,-0.01819433458149433,0.016915615648031235,-0.0005969138583168387,0.02724270336329937
0.0322934091091156,0.0038210072088986635,-0.018191808834671974,0.016448454931378365,-0.000582447275519371,0.02739163674414158
0.03268587961792946,0.0041356016881763935,-0.018669432029128075,0.0168320145457983,-0.0006015414255671203,0.027356963604688644
0.031916506588459015,0.004215529188513756,-0.01874750666320324,0.01687224581837654,-0.0006487173959612846,0.02730030193924904
0.0337163470685482,0.004091157577931881,-0.01890680566430092,0.01655515469610691,-0.0007012306596152484,0.02744232304394245
0.034184567630290985,0.004093611612915993,-0.01907067559659481,0.017072079703211784,-0.0006734053022228181,0.027288023382425308
0.0321330688893795,0.00405372679233551,-0.01895555667579174,0.01659667305648327,-0.0006753529305569828,0.02748098224401474
0.03315669670701027,0.003844737308099866,-0.020325150340795517,0.01714611053466797,-0.0006450473447330296,0.027865951880812645
0.03293664753437042,0.004267476499080658,-0.01813189499080181,0.016851278021931648,-0.0006610177224501967,0.02766568586230278
0.03304697573184967,0.00416496442630887,-0.018077049404382706,0.017294475808739662,-0.0006879963329993188,0.027865225449204445
0.03304697573184967,0.00416496442630887,-0.018077049404382706,0.017294475808739662,-0.0006879963329993188,0.027865225449204445
0.034422606229782104,0.00422435998916626,-0.01960238441824913,0.016480034217238426,-0.0007138197543099523,0.02822435088455677
0.03444207087159157,0.004150310531258583,-0.01923527382314205,0.01732618920505047,-0.0007343182223848999,0.027977949008345604
0.03285171836614609,0.0044260164722800255,-0.01883336715400219,0.017145423218607903,-0.0008663998451083899,0.028095481917262077
0.03306736424565315,0.0046506840735673904,-0.019557779654860497,0.01695622131228447,-0.0010951694566756487,0.02797350101172924
0.03434410318732262,0.0047457097098231316,-0.019351517781615257,0.017055582255125046,-0.001135147293098271,0.02819628082215786
0.03389140963554382,0.004320681095123291,-0.018387090414762497,0.01683652773499489,-0.0015766160795465112,0.028312569484114647
0.034152306616306305,0.004408755339682102,-0.01908770389854908,0.017843186855316162,-0.0014935823855921626,0.028265023604035378
0.03419084474444389,0.00458564842119813,-0.019582413136959076,0.018065663054585457,-0.0013825420755892992,0.028052177280187607
0.034119803458452225,0.00458056665956974,-0.01875099539756775,0.017748456448316574,-0.0011884530540555716,0.02790464274585247
0.03250445798039436,0.004841243382543325,-0.01889452151954174,0.017801176756620407,-0.001125634415075183,0.028193701058626175
0.03460102155804634,0.004699277691543102,-0.019107334315776825,0.01760498434305191,-0.0010746897896751761,0.028677375987172127
0.035305749624967575,0.004740465432405472,-0.01920822635293007,0.018323907628655434,-0.0010303726885467768,0.02886516973376274
0.03530145063996315,0.004740505944937468,-0.019422009587287903,0.017695976421236992,-0.0009278103825636208,0.028553085401654243
0.03501097112894058,0.004921848885715008,-0.019652031362056732,0.017603443935513496,-0.0007993263425305486,0.028911929577589035
0.035066068172454834,0.004441116936504841,-0.019051186740398407,0.018342996016144753,-0.000679938355460763,0.02875266596674919
0.035395547747612,0.004008491989225149,-0.019238490611314774,0.01751365140080452,-0.0006997770979069173,0.029008403420448303
0.036333415657281876,0.0024359412491321564,-0.019394267350435257,0.017716964706778526,-0.0007153063197620213,0.02903287298977375
0.03570536896586418,0.0018614967120811343,-0.018688106909394264,0.018279222771525383,-0.0007340028532780707,0.02830366976559162
0.0357121117413044,0.001819422235712409,-0.01860668696463108,0.018289802595973015,-0.0007602361729368567,0.02896532416343689
0.035833023488521576,0.0016672773053869605,-0.01902371644973755,0.01890304870903492,-0.0007952612359076738,0.030172955244779587
0.036656368523836136,0.0031172444578260183,-0.019341757521033287,0.018986593931913376,-0.0007945665856823325,0.02942732535302639
0.03626147657632828,0.003514378098770976,-0.019806547090411186,0.018103040754795074,-0.0007798539008945227,0.028510278090834618
0.03655475750565529,0.002999805612489581,-0.01980930007994175,0.018078690394759178,-0.0007455975865013897,0.029572607949376106
0.03658008575439453,0.0025537628680467606,-0.0194085780531168,0.018050918355584145,-0.0007501266663894057,0.029874736443161964
0.03694351762533188,0.002095298608765006,-0.019817782565951347,0.017918992787599564,-0.0007692639483138919,0.02947753109037876
0.03684946522116661,0.0021756200585514307,-0.01976420171558857,0.01834305003285408,-0.0007868859684094787,0.03068743273615837
0.03664242476224899,0.0025699702091515064,-0.019968613982200623,0.017970604822039604,-0.0007489699637517333,0.031272899359464645
0.03817547857761383,0.0028580441139638424,-0.020669355988502502,0.017779948189854622,-0.000761652656365186,0.029967693611979485
0.03489229083061218,0.0029042894020676613,-0.020393913611769676,0.01762295700609684,-0.0007125837146304548,0.02969963662326336
0.037359219044446945,0.0027426418382674456,-0.020535584539175034,0.017938261851668358,-0.0007127043791115284,0.030518293380737305
0.03831888735294342,0.002412637462839484,-0.021198343485593796,0.01764700375497341,-0.0006542194169014692,0.030807802453637123
0.03817736357450485,0.002503441646695137,-0.02144543267786503,0.017503807321190834,-0.0006754517671652138,0.03071153350174427
0.03932098671793938,0.002749187406152487,-0.02106102928519249,0.017917003482580185,-0.0006578040192835033,0.03081955760717392
0.03864708170294762,0.0028632027097046375,-0.020401453599333763,0.017600418999791145,-0.0006381134735420346,0.030660875141620636
0.03698141127824783,0.002655177377164364,-0.02089037373661995,0.01780705526471138,-0.0006408911431208253,0.03102217987179756
0.03698141127824783,0.002655177377164364,-0.02089037373661995,0.01780705526471138,-0.0006408911431208253,0.03102217987179756
0.038833800703287125,0.0026756974402815104,-0.02085149846971035,0.01788250543177128,-0.000664598133880645,0.03112882189452648
0.038795892149209976,0.002636015648022294,-0.02088494412600994,0.017561014741659164,-0.0006159037002362311,0.030860165134072304
0.038658615201711655,0.0025319289416074753,-0.021033603698015213,0.01796693354845047,-0.0006400591810233891,0.0312560498714447
0.038741592317819595,0.0028188121505081654,-0.021399011835455894,0.01842038705945015,-0.000658319506328553,0.031066568568348885
0.03844881430268288,0.0029551044572144747,-0.0215689055621624,0.018906529992818832,-0.0007186791626736522,0.030957156792283058
0.038655467331409454,0.0028961910866200924,-0.0219186432659626,0.019169757142663002,-0.0008125582826323807,0.031208841130137444
0.03895917162299156,0.0027579700108617544,-0.021130401641130447,0.019019383937120438,-0.0008451908943243325,0.03135577589273453
0.038753919303417206,0.0028141294606029987,-0.02165212295949459,0.019060133025050163,-0.0008531875209882855,0.03127921745181084
0.03888341411948204,0.002847809810191393,-0.020786099135875702,0.018888404592871666,-0.0009909928776323795,0.03129423409700394
0.03882744908332825,0.0029344065114855766,-0.020580196753144264,0.01818814128637314,-0.001039246330037713,0.031016411259770393
0.03931855037808418,0.003330971347168088,-0.021058063954114914,0.0181654654443264,-0.0010205467697232962,0.030736401677131653
0.03847948834300041,0.003010672517120838,-0.021724563091993332,0.018426530063152313,-0.0010036334861069918,0.03142827749252319
0.038249194622039795,0.00312015600502491,-0.021463055163621902,0.01811056397855282,-0.0010034984443336725,0.032106902450323105
0.04012429714202881,0.003443038323894143,-0.021578866988420486,0.01860794611275196,-0.0009846185566857457,0.03148942440748215
0.0411720871925354,0.0033289825078099966,-0.021810021251440048,0.019062465056777,-0.0009711970342323184,0.030229482799768448
0.03861173242330551,0.0035647707991302013,-0.021674219518899918,0.019393600523471832,-0.0009614406735636294,0.03069550171494484
0.0383874736726284,0.003281246405094862,-0.021589593961834908,0.02005290426313877,-0.0009509736555628479,0.03132535517215729
0.03993586450815201,0.0035565944854170084,-0.021243631839752197,0.019830942153930664,-0.0009549064561724663,0.031612854450941086
0.04027591273188591,0.00354972155764699,-0.022017454728484154,0.018600542098283768,-0.000925348955206573,0.03251289576292038
0.04087453708052635,0.004135229159146547,-0.021022064611315727,0.01846994087100029,-0.0008442921098321676,0.03152862936258316
0.03904657065868378,0.0035780114121735096,-0.021371692419052124,0.018378065899014473,-0.0008078308892436326,0.030305463820695877
0.0398436076939106,0.00355598540045321,-0.02217257395386696,0.018900901079177856,-0.0008232058025896549,0.031412459909915924
0.04014645889401436,0.003576352959498763,-0.021965032443404198,0.018505433574318886,-0.0008252464467659593,0.032743774354457855
0.040216315537691116,0.003554500639438629,-0.021679861471056938,0.017835522070527077,-0.0008335141465067863,0.03263279050588608
0.04042818024754524,0.003589924657717347,-0.022019216790795326,0.018750328570604324,-0.0008880345267243683,0.03243722394108772
0.03999321907758713,0.0036638579331338406,-0.02190014347434044,0.01925000548362732,-0.000898064230568707,0.03229635953903198
0.04029987007379532,0.0037455495912581682,-0.021850189194083214,0.019943175837397575,-0.0008989879279397428,0.03263123705983162
0.04029987007379532,0.0037455495912581682,-0.021850189194083214,0.019943175837397575,-0.0008989879279397428,0.03263123705983162
0.04059496521949768,0.004187301266938448,-0.021906474605202675,0.019828256219625473,-0.0008701366605237126,0.03289979696273804
0.04048497602343559,0.004172718618065119,-0.021628767251968384,0.01919749192893505,-0.000822184607386589,0.03291541337966919
0.04106658697128296,0.00440360838547349,-0.02185678668320179,0.019279982894659042,-0.000835093145724386,0.03310391306877136
0.04104522243142128,0.004258193541318178,-0.021661898121237755,0.019831499084830284,-0.0008243505144491792,0.033031512051820755
0.04089164361357689,0.0040160189382731915,-0.02180354669690132,0.019971394911408424,-0.0007433051359839737,0.033683087676763535
0.041578058153390884,0.004271143116056919,-0.021593082696199417,0.019669799134135246,-0.0007345748017542064,0.03273206576704979
0.041147518903017044,0.004330762661993504,-0.02225496806204319,0.019877998158335686,-0.0007264065206982195,0.03234734758734703
0.04098351299762726,0.0043704998679459095,-0.022291725501418114,0.020039953291416168,-0.0006993746501393616,0.03276053071022034
0.04127125069499016,0.004222446586936712,-0.02190404385328293,0.01978958584368229,-0.0006616210448555648,0.032762229442596436
0.04170161485671997,0.004372936207801104,-0.0214534942060709,0.019768832251429558,-0.0006728762527927756,0.03324457257986069
0.04192294552922249,0.004561007022857666,-0.021817373111844063,0.020155273377895355,-0.0006979143363423645,0.03317057341337204
0.04184415936470032,0.004186661448329687,-0.021704012528061867,0.020036451518535614,-0.0007309120846912265,0.03287588432431221
0.041763849556446075,0.004375596065074205,-0.021858960390090942,0.019840719178318977,-0.0010769021464511752,0.032725367695093155
0.04238314554095268,0.004543779883533716,-0.021934501826763153,0.01963440701365471,-0.001130518619902432,0.032849445939064026
0.041905224323272705,0.00438152439892292,-0.021967198699712753,0.019712265580892563,-0.001099772285670042,0.03309077024459839
0.04183899238705635,0.00432948861271143,-0.022020699456334114,0.019776469096541405,-0.0010817074216902256,0.03319908306002617
0.04343976080417633,0.004539635963737965,-0.022651338949799538,0.019987845793366432,-0.0011153651867061853,0.0331270769238472
0.04068038985133171,0.004450253676623106,-0.02241910994052887,0.019114166498184204,-0.0012852178188040853,0.033388469368219376
0.04177223891019821,0.004163025412708521,-0.02230517938733101,0.019730541855096817,-0.0014216561103239655,0.03391149640083313
0.04255981370806694,0.004416700452566147,-0.02250039018690586,0.019328325986862183,-0.0013708184706047177,0.033927276730537415
0.04363566264510155,0.004632358439266682,-0.021774595603346825,0.01911497674882412,-0.0015447449404746294,0.03259254992008209
0.04363566264510155,0.004632358439266682,-0.021774595603346825,0.01911497674882412,-0.0015447449404746294,0.03259254992008209
0.04253228008747101,0.004709337837994099,-0.021706124767661095,0.019347986206412315,-0.0014426218112930655,0.03251611813902855
0.041176795959472656,0.004768471233546734,-0.022938711568713188,0.01931486837565899,-0.0013419435126706958,0.03374511003494263
0.04254310950636864,0.004992753732949495,-0.02271658554673195,0.019041819497942924,-0.001166734378784895,0.033838264644145966
0.04207425191998482,0.004431571811437607,-0.022772371768951416,0.019965022802352905,-0.0009348056628368795,0.03498163819313049
0.04338774457573891,0.004507094155997038,-0.02261047624051571,0.02027629129588604,-0.0009164130315184593,0.03474066033959389
0.04325410723686218,0.004453106317669153,-0.022863389924168587,0.01989452913403511,-0.0009756892104633152,0.03279334679245949
0.04253210499882698,0.004855011589825153,-0.022979792207479477,0.020399456843733788,-0.0010046031093224883,0.03371567651629448
0.042974650859832764,0.004977154079824686,-0.023157289251685143,0.02070774883031845,-0.0010591009631752968,0.03455866500735283
0.04282985255122185,0.00479995459318161,-0.022327765822410583,0.02041422203183174,-0.0011193964164704084,0.034221310168504715
0.04308367893099785,0.0042562889866530895,-0.022237325087189674,0.020348215475678444,-0.0012175149749964476,0.03372768312692642
0.043676652014255524,0.004200027324259281,-0.02232208661735058,0.020500581711530685,-0.0011109582846984267,0.03379557654261589
0.04317997768521309,0.0041685388423502445,-0.02346298098564148,0.020082833245396614,-0.0010659591061994433,0.034098878502845764
0.04283381998538971,0.004426758736371994,-0.023181162774562836,0.019631674513220787,-0.0008994042873382568,0.0341334193944931
0.044875968247652054,0.005068013444542885,-0.022554563358426094,0.019926996901631355,-0.0008643959299661219,0.03434125334024429
0.04369811341166496,0.0046852570958435535,-0.022269470617175102,0.020564084872603416,-0.0007847851375117898,0.03444528952240944
0.04234658181667328,0.004477133043110371,-0.022583715617656708,0.02030733972787857,-0.0007473239093087614,0.034478358924388885
0.043940864503383636,0.004516186658293009,-0.023013317957520485,0.02033952623605728,-0.0007160270470194519,0.034720201045274734
0.043722864240407944,0.004637861158698797,-0.022865325212478638,0.02059224620461464,-0.0005744656664319336,0.034524381160736084
0.044859111309051514,0.004975139629095793,-0.022710662335157394,0.020353808999061584,-0.0005943666910752654,0.034321099519729614
0.043841082602739334,0.004936728626489639,-0.022723883390426636,0.020468655973672867,-0.0006178417825140059,0.03432946279644966
0.044279422610998154,0.004035069141536951,-0.023283831775188446,0.02178964950144291,-0.0005990753415971994,0.03489374369382858
0.04405741021037102,0.003696233266964555,-0.023281166329979897,0.02145041525363922,-0.0006622895016334951,0.03513454273343086
0.044169262051582336,0.004265577532351017,-0.022871121764183044,0.021058309823274612,-0.0006695020711049438,0.03484410420060158
0.044287703931331635,0.00409615458920598,-0.022799944505095482,0.020868469029664993,-0.0006977369193919003,0.03533810377120972
0.043801724910736084,0.004405049607157707,-0.023099379613995552,0.02089952491223812,-0.0006744441343471408,0.0364086739718914
0.043745506554841995,0.004126391373574734,-0.023196283727884293,0.020726902410387993,-0.0006499340524896979,0.03577214479446411
0.04381828010082245,0.004329152405261993,-0.023486625403165817,0.021350784227252007,-0.0006702588289044797,0.03415345028042793
0.04381828010082245,0.004329152405261993,-0.023486625403165817,0.021350784227252007,-0.0006702588289044797,0.03415345028042793
0.04385766759514809,0.004471935331821442,-0.02273925021290779,0.021631641313433647,-0.0007081768126226962,0.03485449403524399
0.04433721303939819,0.004017039202153683,-0.022429635748267174,0.021069616079330444,-0.0007511358126066625,0.035070281475782394
0.04437127336859703,0.004278632812201977,-0.023210637271404266,0.020607933402061462,-0.0007708201301284134,0.03566155582666397
0.04479021579027176,0.004142723977565765,-0.02341398410499096,0.021439937874674797,-0.0007722864393144846,0.03713737055659294
0.044216930866241455,0.004048740956932306,-0.023530391976237297,0.021641070023179054,-0.0008498967508785427,0.0356239378452301
0.04466550797224045,0.003986232448369265,-0.023386627435684204,0.0210418701171875,-0.0009409814956597984,0.03467608243227005
0.04510059580206871,0.0044557140208780766,-0.02342807874083519,0.02018858678638935,-0.0009352266206406057,0.03685612231492996
0.04510059580206871,0.0044557140208780766,-0.02342807874083519,0.02018858678638935,-0.0009352266206406057,0.03685612231492996
0.04453981667757034,0.004229019396007061,-0.024094562977552414,0.020000070333480835,-0.000948891683947295,0.036519214510917664
0.044853463768959045,0.003964252304285765,-0.02381427213549614,0.019958630204200745,-0.0010114619508385658,0.036048416048288345
0.045154109597206116,0.004364668857306242,-0.023872727528214455,0.021620722487568855,-0.000998143688775599,0.03559132665395737
0.04519842565059662,0.004757556598633528,-0.02452060580253601,0.02137313038110733,-0.000993275549262762,0.03586171939969063
0.045212943106889725,0.004631427116692066,-0.024400020018219948,0.021154208108782768,-0.001040494185872376,0.03643835708498955
