davideferrari95/blind_handover_controller/data/Test 23 - [2024-02-07 -- 14-19-46]/joint_states_data.csv
shoulder_pan_joint,shoulder_lift_joint,elbow_joint,wrist_1_joint,wrist_2_joint,wrist_3_joint
-0.0061012920923531055,-0.006486102938652039,0.005845305509865284,0.001909139915369451,-0.002065978478640318,-0.006129817105829716
-0.0061012920923531055,-0.006486102938652039,0.005845305509865284,0.001909139915369451,-0.002065978478640318,-0.006129817105829716
-0.006621799897402525,-0.00569769274443388,0.007036564871668816,0.002128826454281807,-0.001750561292283237,-0.006108399480581284
-0.006664601154625416,-0.005796909332275391,0.0064011672511696815,0.003071460872888565,-0.0014268752420321107,-0.006436467636376619
-0.00618673674762249,-0.005892521236091852,0.005812563933432102,0.004087527748197317,-0.0009685924160294235,-0.00613456079736352
-0.0062869517132639885,-0.0062905107624828815,0.00556673388928175,0.004249043762683868,-0.0009078906732611358,-0.0058313999325037
-0.006578525528311729,-0.006358267739415169,0.0038806351367384195,0.0036845020949840546,-0.0008861449314281344,-0.006073071621358395
-0.006230621132999659,-0.005710175260901451,0.00298747094348073,0.0031042098999023438,-0.000802968570496887,-0.005625663325190544
-0.006435374729335308,-0.005820352118462324,0.0024606059305369854,0.0030214355792850256,-0.0008013753104023635,-0.00592070771381259
-0.00663576228544116,-0.005751226097345352,0.003352378960698843,0.0035368415992707014,-0.0007317991694435477,-0.005618415307253599
-0.00663576228544116,-0.005751226097345352,0.003352378960698843,0.0035368415992707014,-0.0007317991694435477,-0.005618415307253599
-0.006203474942594767,-0.005604534409940243,0.0041678473353385925,0.004744348581880331,-0.0006760681862942874,-0.005775129422545433
-0.006505884695798159,-0.005839841905981302,0.004026480950415134,0.004879852756857872,-0.0005987809272482991,-0.00572242122143507
-0.00645813811570406,-0.006021138280630112,0.003080911934375763,0.004253891762346029,-0.0005797740304842591,-0.005812924820929766
-0.006291015539318323,-0.005305140744894743,0.00273322151042521,0.0034749412443488836,-0.0005644435877911747,-0.005942461546510458
-0.0060762749053537846,-0.005689132958650589,0.002774846972897649,0.0031410919036716223,-0.0005136699764989316,-0.005886212922632694
-0.006151380483061075,-0.0059259068220853806,0.0035339274909347296,0.003572645131498575,-0.00043165500392206013,-0.005697375629097223
-0.00582745810970664,-0.005848530679941177,0.003641759976744652,0.00377860339358449,-0.0003996799059677869,-0.005864943377673626
-0.006039043422788382,-0.005784244742244482,0.003235138487070799,0.0037496055010706186,-0.00037211799644865096,-0.006070285569876432
-0.005890810862183571,-0.005918148905038834,0.003015578491613269,0.003333592088893056,-0.00034811467048712075,-0.006150779314339161
-0.0059201386757195,-0.005813415627926588,0.0028097741305828094,0.003260300261899829,-0.00032702236785553396,-0.0067136287689208984
-0.005972418934106827,-0.006012325175106525,0.0030824861023575068,0.003462875261902809,-0.0003462120075710118,-0.00614023394882679
-0.0058646309189498425,-0.005783692002296448,0.0033280442003160715,0.0035517930518835783,-0.00033941000583581626,-0.0059576453641057014
-0.0060905152931809425,-0.005676917731761932,0.0034736988600343466,0.003858810057863593,-0.00032279014703817666,-0.005767750088125467
-0.006372750271111727,-0.006201000418514013,0.003223224077373743,0.004056731704622507,-0.0003071007668040693,-0.006109009962528944
-0.006209625396877527,-0.005812790244817734,0.0032613533549010754,0.003891788888722658,-0.0002928268222603947,-0.0061601134948432446
-0.006313248071819544,-0.005862860940396786,0.003389529651030898,0.0036902681458741426,-0.0002798169443849474,-0.006225391291081905
-0.0059898667968809605,-0.005674832966178656,0.0036441960837692022,0.0035619628615677357,-0.00026791420532390475,-0.006132901180535555
-0.0058822412975132465,-0.005491056479513645,0.00320866028778255,0.0035260135773569345,-0.0002569834759924561,-0.006291575264185667
-0.006233798339962959,-0.005642501637339592,0.0031473294366151094,0.0034246970899403095,-0.0002469105238560587,-0.006079923827201128
-0.005804542917758226,-0.006250507663935423,0.003353265579789877,0.0031168153509497643,-0.00023759636678732932,-0.006220109295099974
-0.005891246255487204,-0.006403246894478798,0.003228026209399104,0.0031234752386808395,-0.000228960532695055,-0.006017701234668493
-0.005183835979551077,-0.005918521899729967,0.0031136851757764816,0.003249985631555319,-0.00025035568978637457,-0.0058660260401666164
-0.005261295009404421,-0.005649646744132042,0.0034592077136039734,0.0031078399624675512,-0.00024379674869123846,-0.006046037655323744
-0.005504841450601816,-0.005830409936606884,0.0032981294207274914,0.003263831837102771,-0.00023593289370182902,-0.006116880103945732
-0.005521128885447979,-0.006133662536740303,0.0032498810905963182,0.003314674599096179,-0.00022845363127999008,-0.006147143896669149
-0.005736472085118294,-0.0062420363537967205,0.0032880548387765884,0.0031171818263828754,-0.0002214280393673107,-0.006302188616245985
-0.005922098644077778,-0.005945850163698196,0.0033702561631798744,0.0030801568645983934,-0.00021482081501744688,-0.006157469004392624
-0.005323626101016998,-0.00600820267572999,0.0031824109610170126,0.003228989662602544,-0.0002085961605189368,-0.006335277575999498
-0.00496983528137207,-0.005694775376468897,0.003485229332000017,0.0031821574084460735,-0.00020272284746170044,-0.00625495845451951
-0.005607017315924168,-0.006132652051746845,0.003352467669174075,0.0032543374691158533,-0.00017340059275738895,-0.006129867862910032
-0.005607017315924168,-0.006132652051746845,0.003352467669174075,0.0032543374691158533,-0.00017340059275738895,-0.006129867862910032
-0.0056420741602778435,-0.006813677027821541,0.003329402767121792,0.0033043071161955595,-0.0001457292673876509,-0.006167419254779816
-0.0059211719781160355,-0.006274071056395769,0.0029680440202355385,0.003430606797337532,-0.000139760464662686,-0.006234873551875353
-0.0051080514676868916,-0.006145088002085686,0.003402487374842167,0.0031664117705076933,-0.00014440057566389441,-0.006368288304656744
-0.00499931164085865,-0.006378408521413803,0.0036393182817846537,0.0032337410375475883,-0.0001524375838926062,-0.006391068920493126
-0.005839118734002113,-0.006537238135933876,0.0036543034948408604,0.003005287377163768,-0.00014902232214808464,-0.006102933082729578
-0.005474161356687546,-0.006590801756829023,0.0036246192175894976,0.003044980112463236,-0.00014507019659504294,-0.006086117587983608
-0.005365724675357342,-0.0057762921787798405,0.0036561244633048773,0.0029378191102296114,-0.00014127798203844577,-0.006293224636465311
-0.004867766983807087,-0.005928302649408579,0.0033195537980645895,0.0028720744885504246,-0.00014894794730935246,-0.005853107664734125
-0.004661564249545336,-0.006566727068275213,0.003511653048917651,0.002660739002749324,-0.00015586621884722263,-0.006325706373900175
-0.005166861694306135,-0.006660452112555504,0.0032594134099781513,0.002416839124634862,-0.0001527788263047114,-0.006646951660513878
-0.005166861694306135,-0.006660452112555504,0.0032594134099781513,0.002416839124634862,-0.0001527788263047114,-0.006646951660513878
-0.005203319247812033,-0.0062974970787763596,0.0031387521885335445,0.0022087935358285904,-0.0001457565085729584,-0.00619058683514595
-0.005035650450736284,-0.006433336995542049,0.00314127653837204,0.002311520976945758,-0.00015755202912259847,-0.006344247609376907
-0.004785700235515833,-0.00644643371924758,0.0032317659351974726,0.002236610511317849,-0.00015886836627032608,-0.0063773286528885365
-0.004671866539865732,-0.006074574775993824,0.0035495911724865437,0.001974904676899314,-0.00015574484132230282,-0.006455469876527786
-0.004710872657597065,-0.005857046693563461,0.003733147168532014,0.0019268052419647574,-0.0001524672843515873,-0.006719240918755531
-0.005077163688838482,-0.005834003910422325,0.0037343690637499094,0.002047058427706361,-0.00014951547200325876,-0.0066009038127958775
-0.0050849891267716885,-0.006346840877085924,0.0032692851964384317,0.0021147620864212513,-0.00023008861171547323,-0.006348486989736557
-0.005100337788462639,-0.006827482022345066,0.0030564595945179462,0.0023365288507193327,-0.0002243820927105844,-0.0064256563782691956
-0.004892040975391865,-0.00612137233838439,0.00338240759447217,0.002348522190004587,-0.0002140818105544895,-0.00678598927333951
-0.004707365296781063,-0.005828891880810261,0.0036543882451951504,0.002322835149243474,-0.0002345691027585417,-0.006899601314216852
-0.004491165280342102,-0.006546284072101116,0.003711511380970478,0.0024116693530231714,-0.00023390352725982666,-0.006477088201791048
-0.004718675743788481,-0.006268288940191269,0.0036769313737750053,0.002177468966692686,-0.00024311635934282094,-0.006575730629265308
-0.005232859402894974,-0.0061427331529557705,0.003279716009274125,0.0022597480565309525,-0.0002505636657588184,-0.006414241157472134
-0.004888104274868965,-0.006474957801401615,0.003394725499674678,0.002145441947504878,-0.00024205479712691158,-0.006985727697610855
-0.004802200943231583,-0.005841564852744341,0.0035444600507616997,0.002067253226414323,-0.0002578060666564852,-0.006569105200469494
-0.004802200943231583,-0.005841564852744341,0.0035444600507616997,0.002067253226414323,-0.0002578060666564852,-0.006569105200469494
-0.004294289276003838,-0.006048903800547123,0.00355799263343215,0.002148290164768696,-0.00025640465901233256,-0.006214536726474762
-0.004412710666656494,-0.006646013353019953,0.00353058660402894,0.002075336640700698,-0.0002480780240148306,-0.006432163994759321
-0.0047261035069823265,-0.0062455181032419205,0.0034902014303952456,0.002149375854060054,-0.0003586974926292896,-0.006441236939281225
-0.004909468349069357,-0.005955713801085949,0.0036374751944094896,0.0020679093431681395,-0.000384624203434214,-0.006083753891289234
-0.004800571594387293,-0.0063485754653811455,0.0038936131168156862,0.001894498709589243,-0.0003921811585314572,-0.005910966545343399
-0.0048873950727283955,-0.00621230760589242,0.0038072436582297087,0.0018117361469194293,-0.00039484555600211024,-0.006114597897976637
-0.004345151595771313,-0.006445683538913727,0.003562724217772484,0.0018043264281004667,-0.00041935671470128,-0.006185593549162149
-0.004121101927012205,-0.0065206922590732574,0.003582602133974433,0.0018355973297730088,-0.00040233982144854963,-0.006224590819329023
-0.0042332313023507595,-0.00618385523557663,0.0038447901606559753,0.0019154221517965198,-0.0005277892923913896,-0.0062177712097764015
-0.004484823904931545,-0.006323714274913073,0.003962417598813772,0.0023556186351925135,-0.0005160668515600264,-0.006832834333181381
-0.0046036820858716965,-0.006586198695003986,0.0035214654635638,0.0025552092120051384,-0.0005338792107068002,-0.006955094635486603
-0.00465271295979619,-0.00643540546298027,0.003597363131120801,0.002359849400818348,-0.0005050475592724979,-0.006662038154900074
-0.004487273283302784,-0.006202004849910736,0.003431181190535426,0.0020549565088003874,-0.0004630831244867295,-0.006622562184929848
-0.00409840838983655,-0.006339733954519033,0.00340211926959455,0.0019094309536740184,-0.0004878936742898077,-0.006727150641381741
-0.0038385477382689714,-0.006067476235330105,0.0036298225168138742,0.001631875871680677,-0.0004605624417308718,-0.006955976597964764
-0.004345061723142862,-0.006259639281779528,0.003757308004423976,0.0017771359998732805,-0.000474825210403651,-0.0068748947232961655
-0.004691896960139275,-0.0058783115819096565,0.0034028817899525166,0.001966844778507948,-0.00045866984874010086,-0.006743632722645998
-0.004439337644726038,-0.004895634483546019,0.0032760922331362963,0.002078636083751917,-0.0004709770146291703,-0.006756720133125782
-0.004059784580022097,-0.004213201347738504,0.0032433781307190657,0.0023386687971651554,-0.000507736171130091,-0.00677031883969903
-0.003999175503849983,-0.004065215587615967,0.0034466697834432125,0.0021834552753716707,-0.0005317368777468801,-0.006840100511908531
-0.003994686994701624,-0.004547292832285166,0.003694432321935892,0.0021403287537395954,-0.0005074996151961386,-0.007221503648906946
-0.004245255142450333,-0.00470708915963769,0.003789596725255251,0.001944465679116547,-0.0005288287647999823,-0.0070036412216722965
-0.004278530366718769,-0.004727689549326897,0.003525043372064829,0.001771036651916802,-0.0005000747623853385,-0.006660551764070988
-0.004085172899067402,-0.004617752972990274,0.0034332494251430035,0.0017689191736280918,-0.0006573324208147824,-0.007003503385931253
-0.003920190967619419,-0.004322629421949387,0.0032181863207370043,0.002012855838984251,-0.0005994592211209238,-0.007013488095253706
-0.004046208690851927,-0.0045585036277771,0.0034530237317085266,0.0019258829997852445,-0.0005814491887576878,-0.006933209486305714
-0.004033950157463551,-0.00454350933432579,0.0036554127000272274,0.002186751924455166,-0.0005659765447489917,-0.0069128782488405704
-0.004033950157463551,-0.00454350933432579,0.0036554127000272274,0.002186751924455166,-0.0005659765447489917,-0.0069128782488405704
-0.003900804789736867,-0.004252302460372448,0.0036945692263543606,0.0020597686525434256,-0.0005149377975612879,-0.0071763270534574986
-0.003750873263925314,-0.004085929598659277,0.00314139761030674,0.0018956203712150455,-0.0004995240014977753,-0.007535018026828766
-0.003750873263925314,-0.004085929598659277,0.00314139761030674,0.0018956203712150455,-0.0004995240014977753,-0.007535018026828766
-0.004437316674739122,-0.0039001205004751682,0.0034483789931982756,0.0018526669591665268,-0.00043489070958457887,-0.007628939114511013
-0.004287291783839464,-0.004312325734645128,0.0037125148810446262,0.0020666306372731924,-0.0004068106645718217,-0.0071032484993338585
-0.0040612719021737576,-0.0046967496164143085,0.003333183005452156,0.0022179940715432167,-0.0003821238351520151,-0.007311588618904352
-0.003996198531240225,-0.004452722612768412,0.0029300078749656677,0.0021644507069140673,-0.0003602615324780345,-0.007433800492435694
-0.004050421994179487,-0.004246967379003763,0.0032519479282200336,0.0020585490856319666,-0.00034076758311130106,-0.007054149638861418
-0.004068062640726566,-0.004040392581373453,0.0033334463369101286,0.0019941229838877916,-0.00034580755163915455,-0.006740951910614967
-0.004041991196572781,-0.004471035208553076,0.003356552915647626,0.001799189718440175,-0.00034987556864507496,-0.006897007115185261
-0.003970054909586906,-0.004252775572240353,0.0033278523478657007,0.001787706045433879,-0.00033495971001684666,-0.00706644169986248
-0.0039827399887144566,-0.005097896791994572,0.003334030043333769,0.0016597084468230605,-0.00032015255419537425,-0.007094989996403456
-0.003998969215899706,-0.004792620427906513,0.003162533277645707,0.0018946938216686249,-0.00030652512214146554,-0.007148410193622112
-0.0039747036062181,-0.00439920648932457,0.0035287700593471527,0.0022121863439679146,-0.00029400570201687515,-0.0075636813417077065
-0.003988942131400108,-0.004427302163094282,0.0032968258019536734,0.002414372516795993,-0.00023674005933571607,-0.007268191780894995
-0.003987967502325773,-0.004525650758296251,0.003063670825213194,0.0025921808555722237,-0.0002191725798184052,-0.007329505402594805
-0.003956185188144445,-0.004308053757995367,0.0031192335300147533,0.0024795609060674906,-0.0002086138556478545,-0.00766406673938036
-0.0035135610960423946,-0.004439738113433123,0.003261964302510023,0.002303876681253314,-0.00019934470765292645,-0.00729382736608386
-0.003956031519919634,-0.00462605943903327,0.003549074986949563,0.0019599043298512697,-0.00022396798885893077,-0.006952513474971056
-0.0041881403885781765,-0.005145033821463585,0.003659558715298772,0.0018914235988631845,-0.0002194065018557012,-0.006782518699765205
-0.004034555982798338,-0.004951696377247572,0.0034184420946985483,0.001927881850861013,-0.0002111238136421889,-0.007079660892486572
-0.0038822954520583153,-0.004511076491326094,0.0033650894183665514,0.001932567567564547,-0.00020319721079431474,-0.00744911702349782
-0.003945919685065746,-0.004502793774008751,0.0031704052817076445,0.002011290518566966,-0.00019582852837629616,-0.007462306879460812
-0.003593911649659276,-0.00453193299472332,0.0030036461539566517,0.0020695142447948456,-0.0002122785517713055,-0.007698470260947943
-0.003448187606409192,-0.005069185048341751,0.0031113005243241787,0.0021217891480773687,-0.0002124803577316925,-0.007581840269267559
-0.003448187606409192,-0.005069185048341751,0.0031113005243241787,0.0021217891480773687,-0.0002124803577316925,-0.007581840269267559
-0.0036547379568219185,-0.004962251987308264,0.003228403627872467,0.002056157449260354,-0.00020601206051651388,-0.007577516138553619
-0.0038453834131360054,-0.004983327817171812,0.0031387940980494022,0.002189194317907095,-0.00021349763846956193,-0.007949711754918098
-0.0038587828166782856,-0.004823865368962288,0.0034823163878172636,0.002175424015149474,-0.00022007506049703807,-0.007963989861309528
-0.0035795592702925205,-0.004675185773521662,0.0033374971244484186,0.0023893534671515226,-0.00020823333761654794,-0.007659095339477062
-0.003230778966099024,-0.0049799541011452675,0.0030473179649561644,0.0022364486940205097,-0.00023486590362153947,-0.0071611665189266205
-0.0031620420049875975,-0.004953993018716574,0.0029721148312091827,0.0019143868703395128,-0.00025260879192501307,-0.007088344078511
-0.003228377550840378,-0.0049401200376451015,0.0031553106382489204,0.0018573839915916324,-0.00024109528749249876,-0.007909897714853287
-0.0034143407829105854,-0.005384261719882488,0.0031401298474520445,0.0018399165710434318,-0.0002289570402354002,-0.00842199008911848
-0.003683831775560975,-0.005110176280140877,0.0030568328220397234,0.0018540818709880114,-0.00021787668811157346,-0.008009145967662334
-0.00376409525051713,-0.004783637821674347,0.002910132985562086,0.002020366955548525,-0.00020781229250133038,-0.007680945564061403
-0.003764720167964697,-0.005230684299021959,0.0030391712207347155,0.0020930268801748753,-0.00023565138690173626,-0.007653211709111929
-0.003761786036193371,-0.0052641588263213634,0.003378963330760598,0.0021048407070338726,-0.00022810869268141687,-0.007938763126730919
-0.0033811433240771294,-0.005149927921593189,0.0034546032547950745,0.0020814246963709593,-0.00021901306172367185,-0.00859406590461731
-0.003517461009323597,-0.005136324558407068,0.003499050857499242,0.001979595050215721,-0.00021048505732323974,-0.0071411216631531715
-0.003254830837249756,-0.004988275934010744,0.0032349927350878716,0.001927569042891264,-0.00020258748554624617,-0.007192505523562431
-0.003400340909138322,-0.0047184317372739315,0.0030840581748634577,0.0018388062017038465,-0.00022559997159987688,-0.007583279628306627
-0.003081776900216937,-0.00495860306546092,0.0029615594539791346,0.00183323142118752,-0.0002197096182499081,-0.007887769490480423
-0.0032700197771191597,-0.005026922561228275,0.002947842702269554,0.001939542475156486,-0.00021243010996840894,-0.008083755150437355
-0.003470576833933592,-0.0049841757863759995,0.0030805221758782864,0.0019865459762513638,-0.00023097895609680563,-0.00788167119026184
-0.003488545073196292,-0.005166658200323582,0.00307454913854599,0.0022668109741061926,-0.00022719264961779118,-0.008107074536383152
-0.003561990801244974,-0.005137041676789522,0.003458007238805294,0.0023759626783430576,-0.00022046460071578622,-0.00774638494476676
-0.0032702339813113213,-0.005006791558116674,0.0032809649128466845,0.002168277744203806,-0.00021392852067947388,-0.008126219734549522
-0.0034935411531478167,-0.0049018822610378265,0.00298899644985795,0.0019200013484805822,-0.00020775600569322705,-0.00838657096028328
-0.0034935411531478167,-0.0049018822610378265,0.00298899644985795,0.0019200013484805822,-0.00020775600569322705,-0.00838657096028328
-0.003254976589232683,-0.004898135084658861,0.0029390808194875717,0.0018724743276834488,-0.0002019290259340778,-0.00868611503392458
-0.0029478922951966524,-0.005076057743281126,0.0029335543513298035,0.002122705802321434,-0.00019641965627670288,-0.008022146299481392
-0.002872768323868513,-0.005530967377126217,0.0029405870009213686,0.0021704158280044794,-0.0002092222566716373,-0.00817029271274805
-0.002918532583862543,-0.005001737270504236,0.00278284284286201,0.0024370099417865276,-0.00020260548626538366,-0.008481490425765514
-0.0033572129905223846,-0.004722354467958212,0.002796306973323226,0.002298821462318301,-0.00019405066268518567,-0.008342268876731396
-0.003435423830524087,-0.004782028496265411,0.002850339515134692,0.002226786455139518,-0.00018603856733534485,-0.008247729390859604
-0.0030460762791335583,-0.005623522214591503,0.0026149882469326258,0.0018906525801867247,-0.0002050038310699165,-0.008286661468446255
-0.002979730721563101,-0.005242335144430399,0.002814345760270953,0.0017857298953458667,-0.0001985322596738115,-0.008156889118254185
-0.0029224143363535404,-0.004989725071936846,0.003243585117161274,0.0019795619882643223,-0.0001915584143716842,-0.008751383982598782
-0.0029468988068401814,-0.0049847825430333614,0.0027874617371708155,0.002238060813397169,-0.00018499945872463286,-0.008339665830135345
-0.002772255800664425,-0.004944027867168188,0.002807715442031622,0.0022838860750198364,-0.00020666980708483607,-0.0081337234005332
-0.0029022670350968838,-0.0052914367988705635,0.0027885157614946365,0.0022725944872945547,-0.0002018596132984385,-0.008649175986647606
-0.002925256500020623,-0.0054772826842963696,0.0027043435256928205,0.002173213753849268,-0.0001957070780918002,-0.008586861193180084
-0.0029057974461466074,-0.005377675406634808,0.0026301743928343058,0.002032684860751033,-0.00018981803441420197,-0.008302228525280952
-0.002805838594213128,-0.0053304946050047874,0.002772751497104764,0.001988218165934086,-0.0002071126946248114,-0.007646425161510706
-0.002903904765844345,-0.004860731307417154,0.0028433355037122965,0.002156513510271907,-0.00020437798229977489,-0.00807211920619011
-0.002866388065740466,-0.005281955469399691,0.0028656392823904753,0.0020086155273020267,-0.0001989360898733139,-0.00855989009141922
-0.002848814008757472,-0.0055437334813177586,0.0026183417066931725,0.0020250354427844286,-0.00019359997531864792,-0.008522535674273968
-0.0026687385980039835,-0.005336185451596975,0.0025327920448035,0.002022762317210436,-0.00023621153377462178,-0.00846032053232193
-0.0028420148883014917,-0.005233528558164835,0.0026437509804964066,0.0020346716046333313,-0.000239304979913868,-0.008659332990646362
-0.0026236840058118105,-0.0050383382476866245,0.002566836541518569,0.0019394364207983017,-0.00022819195874035358,-0.00871810968965292
-0.0024684653617441654,-0.005063330754637718,0.0029553803615272045,0.0019491526763886213,-0.00021723940153606236,-0.00848365854471922
-0.002385298488661647,-0.005106242373585701,0.0029515933711081743,0.0018859492847695947,-0.00022748761693947017,-0.008673309348523617
-0.0024667084217071533,-0.005210346542298794,0.0025450480170547962,0.002044335240498185,-0.0002363498933846131,-0.008913868106901646
-0.0024667084217071533,-0.005210346542298794,0.0025450480170547962,0.002044335240498185,-0.0002363498933846131,-0.008913868106901646
-0.002464024815708399,-0.005140467081218958,0.0025677867233753204,0.0022314065136015415,-0.00022761571744922549,-0.009087921120226383
-0.002724608639255166,-0.005419490858912468,0.002476890804246068,0.0025226916186511517,-0.00021848570031579584,-0.008816082030534744
-0.002455455483868718,-0.00500070583075285,0.0024145301431417465,0.002698636846616864,-0.00020999267871957272,-0.008855754509568214
-0.0024048974737524986,-0.004784040618687868,0.0026425241958349943,0.0023358389735221863,-0.00022704705770593137,-0.008455745875835419
-0.0027307963464409113,-0.00472260033711791,0.0025059834588319063,0.002250753343105316,-0.00022673736384604126,-0.008605346083641052
-0.0028785408940166235,-0.005180434789508581,0.0024277367629110813,0.0019822418689727783,-0.0002193553518736735,-0.008860738016664982
-0.002574959537014365,-0.0050786579959094524,0.002581818960607052,0.0019783072639256716,-0.0002120068675139919,-0.00932385865598917
-0.002608685754239559,-0.004941077437251806,0.0025027559604495764,0.0019898193422704935,-0.00020510585454758257,-0.009201393462717533
-0.002430412219837308,-0.005005705635994673,0.002038397826254368,0.0019799924921244383,-0.0001986385032068938,-0.008912966586649418
-0.002625365275889635,-0.005258143413811922,0.0012771482579410076,0.002471700543537736,-0.00021308210853021592,-0.009106883779168129
-0.002769466955214739,-0.005141072906553745,0.0013598341029137373,0.0023245057091116905,-0.00020736547594424337,-0.009027823805809021
-0.0024065033067017794,-0.0050223334692418575,0.0015093367546796799,0.002414615359157324,-0.00020158705592621118,-0.008970185182988644
-0.0023335563018918037,-0.005106544587761164,0.0016752966912463307,0.0022477719467133284,-0.00022132156300358474,-0.008918942883610725
-0.002382345497608185,-0.005313751753419638,0.0018788300221785903,0.00248572020791471,-0.00021915597608312964,-0.00892778392881155
-0.0023153312504291534,-0.005081808194518089,0.0019785582553595304,0.0024786528665572405,-0.00020951393526047468,-0.00915552955120802
-0.002843555761501193,-0.005472525954246521,0.00174028892070055,0.0024040162097662687,-0.00021980039309710264,-0.008969631977379322
-0.0027630028780549765,-0.005188211798667908,0.001376217813231051,0.0023824572563171387,-0.00022869922395329922,-0.008893342688679695
-0.002597171114757657,-0.00500823138281703,0.0012636263854801655,0.002165252575650811,-0.00022054869623389095,-0.009395807050168514
-0.002420996781438589,-0.005021190270781517,0.0013431682018563151,0.0020870035514235497,-0.00021196734451223165,-0.009596395306289196
-0.0021270697470754385,-0.004864817950874567,0.001451148884370923,0.002152705332264304,-0.0002206105855293572,-0.009349103085696697
-0.0022366391494870186,-0.004809021949768066,0.0015308397123590112,0.002129296539351344,-0.0002281641063746065,-0.009951392188668251
-0.002135991118848324,-0.005170396063476801,0.001958181383088231,0.002109560649842024,-0.00022116997570265085,-0.009702435694634914
-0.0021340404637157917,-0.005115370731800795,0.0018768345471471548,0.0020558489486575127,-0.00021373192430473864,-0.00940223690122366
-0.0023759284522384405,-0.004737445153295994,0.001630223821848631,0.0018105701310560107,-0.00023426034022122622,-0.009497564285993576
-0.0022257857490330935,-0.004843979608267546,0.001466427813284099,0.001779419369995594,-0.00022861720935907215,-0.00988674908876419
-0.002134929411113262,-0.004792106803506613,0.0015186528908088803,0.0019815736450254917,-0.00022236048243939877,-0.009689087979495525
-0.0019636559300124645,-0.004908264148980379,0.0015301494859158993,0.0020507320296019316,-0.0003071698301937431,-0.009531952440738678
-0.0021303079556673765,-0.004973908886313438,0.0016471587587147951,0.002348117297515273,-0.0003222617961000651,-0.009387388825416565
-0.002129275118932128,-0.005022197496145964,0.0020053209736943245,0.0023315155413001776,-0.0003293157496955246,-0.009841986000537872
-0.002129275118932128,-0.005022197496145964,0.0020053209736943245,0.0023315155413001776,-0.0003293157496955246,-0.009841986000537872
-0.0021238988265395164,-0.004944156855344772,0.0019069600384682417,0.002473922912031412,-0.00035036428016610444,-0.009379534050822258
-0.0021020867861807346,-0.004599418491125107,0.0016627857694402337,0.00238980446010828,-0.0003433754900470376,-0.009524645283818245
-0.002052459167316556,-0.004466129932552576,0.001686244155280292,0.002246178686618805,-0.0003263725957367569,-0.009578943252563477
-0.0018656287575140595,-0.004945817869156599,0.001526134554296732,0.0019896095618605614,-0.0003376366221345961,-0.010280056856572628
-0.0018656287575140595,-0.004945817869156599,0.001526134554296732,0.0019896095618605614,-0.0003376366221345961,-0.010280056856572628
-0.0017499846871942282,-0.00523539911955595,0.0014043516712263227,0.0021012069191783667,-0.0003228379355277866,-0.00974151398986578
-0.0016116311307996511,-0.005083989817649126,0.001431891811080277,0.0020036122296005487,-0.0004313143726903945,-0.009946976788341999
-0.0016259964322671294,-0.004772798623889685,0.0014314898289740086,0.0023766434751451015,-0.000451034982688725,-0.010126404464244843
-0.0015395631780847907,-0.005136028863489628,0.0015948921209201217,0.002337150741368532,-0.0004685316525865346,-0.009904691949486732
-0.0016562631353735924,-0.00546254264190793,0.0014904543058946729,0.002244878327473998,-0.00045092677464708686,-0.0103289894759655
-0.0016465230146422982,-0.0054494235664606094,0.0013907724060118198,0.0022036812733858824,-0.0004217683745082468,-0.010086585767567158
-0.0015035232063382864,-0.005098875146359205,0.0012223620433360338,0.002178916474804282,-0.0004478983173612505,-0.010136212222278118
-0.001401622430421412,-0.005126617848873138,0.0011554561788216233,0.0023509752936661243,-0.00042488760664127767,-0.00996713899075985
-0.00142305763438344,-0.004955020267516375,0.0011146357282996178,0.0024108404759317636,-0.0004014149308204651,-0.009572582319378853
-0.00133770820684731,-0.0052621932700276375,0.0011032785987481475,0.0028754884842783213,-0.00044974053162150085,-0.00970358308404684
-0.001420003012754023,-0.005608770065009594,0.0011723821517080069,0.0029096438083797693,-0.0004191954212728888,-0.010114665143191814
-0.0013675214722752571,-0.005269520450383425,0.001137829152867198,0.0025937403552234173,-0.000440447183791548,-0.010322647169232368
-0.0016379804583266377,-0.005723410286009312,0.0011021319078281522,0.0025858180597424507,-0.0004233808722347021,-0.010634743608534336
-0.0016308960039168596,-0.0052659534849226475,0.0012977240839973092,0.0023681423626840115,-0.00039364269468933344,-0.01082085631787777
-0.00154847779776901,-0.0049238200299441814,0.0012371363118290901,0.0023040813393890858,-0.00042382488027215004,-0.011174077168107033
-0.0014475848292931914,-0.005653068423271179,0.0014125413727015257,0.0023757903836667538,-0.0004005786613561213,-0.010335029102861881
-0.0014598264824599028,-0.005489741917699575,0.0015398309333249927,0.0022572369780391455,-0.00042340639629401267,-0.009752047248184681
-0.0012791508343070745,-0.005833482835441828,0.001454621204175055,0.002385101979598403,-0.0004059080092702061,-0.009827498346567154
-0.0011946075828745961,-0.005527948960661888,0.0013173234183341265,0.0025630497839301825,-0.00042525678873062134,-0.009932518936693668
-0.0011946075828745961,-0.005527948960661888,0.0013173234183341265,0.0025630497839301825,-0.00042525678873062134,-0.009932518936693668
-0.0011780991917476058,-0.005699366796761751,0.0011964538134634495,0.0024520494043827057,-0.0004242905997671187,-0.009866483509540558
-0.0011534971417859197,-0.005387797020375729,0.0011791830183938146,0.002556035527959466,-0.0003900536394212395,-0.010608071461319923
-0.0013230836484581232,-0.005352637730538845,0.0011466911528259516,0.0026744462084025145,-0.00035906967241317034,-0.010915354825556278
-0.0012562352931126952,-0.00548225361853838,0.001206658431328833,0.0025043452624231577,-0.0003325250290799886,-0.010480320081114769
-0.0012010856298729777,-0.005620325915515423,0.0011928390013054013,0.0025308551266789436,-0.000367213215213269,-0.01015355996787548
-0.0011383426608517766,-0.005405424162745476,0.0011578976409509778,0.0024642536882311106,-0.00034733960637822747,-0.010744619183242321
-0.0010935314930975437,-0.00558882299810648,0.0011951947817578912,0.002368295332416892,-0.00032656939583830535,-0.010416842997074127
-0.0010606575524434447,-0.005331246182322502,0.0011533295037224889,0.002300148829817772,-0.00033295623143203557,-0.01081753708422184
-0.0009179078624583781,-0.0054731545969843864,0.0010770700173452497,0.00230836751870811,-0.0003223732637707144,-0.011117953807115555
-0.0008709740359336138,-0.005438985303044319,0.0011542264837771654,0.002347250934690237,-0.00030676956521347165,-0.01055099256336689
-0.0009048710344359279,-0.005519716069102287,0.0011119433911517262,0.0023627649061381817,-0.00032338470919057727,-0.010198119096457958
-0.0009046887280419469,-0.005216638557612896,0.001111191581003368,0.0026287580840289593,-0.00031876537832431495,-0.010215041227638721
-0.0010383439948782325,-0.005644337739795446,0.0011075818911194801,0.0024969547521322966,-0.00030585628701373935,-0.01150220911949873
-0.0010358317522332072,-0.005776208359748125,0.0011066964361816645,0.0024132076650857925,-0.0002934303192887455,-0.011509377509355545
-0.0010021976195275784,-0.005785655230283737,0.001084203366190195,0.00257083959877491,-0.0002782961237244308,-0.011392737738788128
-0.0008779855561442673,-0.004553178790956736,0.0010463771177455783,0.002768008504062891,-0.00026169256307184696,-0.010784724727272987
-0.000876011501532048,-0.003816574579104781,0.0009372985805384815,0.0028840380255132914,-0.00024727897834964097,-0.010735133662819862
-0.000789397512562573,-0.0033361269161105156,0.0009630514541640878,0.0027639511972665787,-0.00026897070347331464,-0.01098443754017353
-0.0006946016801521182,-0.004067118279635906,0.0009864958701655269,0.002764472272247076,-0.0002665385545697063,-0.011589248664677143
-0.0007073852466419339,-0.0042291125282645226,0.0009750798926688731,0.0026185759343206882,-0.000254674261668697,-0.011254018172621727
-0.0006368522299453616,-0.004345940425992012,0.0010241181589663029,0.002474424196407199,-0.0002783670206554234,-0.01098819263279438
-0.0006633271696045995,-0.004031260497868061,0.001013059401884675,0.0026201605796813965,-0.0002712011628318578,-0.010888718068599701
-0.0006571909179911017,-0.004240603651851416,0.0008980491547845304,0.002631224924698472,-0.0002603082684800029,-0.011068330146372318
-0.0006268780562095344,-0.004188531078398228,0.0008968829060904682,0.002642792882397771,-0.00028095702873542905,-0.01108370441943407
-0.0005769895506091416,-0.004016370512545109,0.0008940201951190829,0.002697876188904047,-0.00027449539629742503,-0.011563414707779884
-0.0005341770593076944,-0.004381408914923668,0.0008334554149769247,0.0025489935651421547,-0.00026468143914826214,-0.011434436775743961
-0.0005020632524974644,-0.004183945711702108,0.0008488132152706385,0.002448668470606208,-0.00034689807216636837,-0.01094359252601862
-0.0004522581584751606,-0.003935018554329872,0.0008560002315789461,0.0024194696452468634,-0.00033465580781921744,-0.010994656011462212
-0.0004522581584751606,-0.003935018554329872,0.0008560002315789461,0.0024194696452468634,-0.00033465580781921744,-0.010994656011462212
-0.0004514745669439435,-0.003873594105243683,0.0007787317153997719,0.0023924086708575487,-0.0003494204138405621,-0.011704796925187111
-0.0004514745669439435,-0.003873594105243683,0.0007787317153997719,0.0023924086708575487,-0.0003494204138405621,-0.011704796925187111
-0.00041695486288517714,-0.0038236931432038546,0.0008119205012917519,0.0026893827598541975,-0.0003290590248070657,-0.012097672559320927
-0.0003611703868955374,-0.004205908626317978,0.000867303810082376,0.0029315107967704535,-0.000342013081535697,-0.011553088203072548
-0.0003385248128324747,-0.004009486176073551,0.0007742470479570329,0.0028286336455494165,-0.0003472153621260077,-0.01194315031170845
-0.00031855155248194933,-0.004021104425191879,0.0007536414195783436,0.003017585724592209,-0.0003512429539114237,-0.012652724981307983
-0.00030080589931458235,-0.003954004496335983,0.0007098796777427197,0.003078594570979476,-0.0003362094284966588,-0.012389454059302807
-0.00028493136051110923,-0.0038470239378511906,0.0006465194164775312,0.0033084729220718145,-0.0004059492493979633,-0.011916320770978928
-0.00031390797812491655,-0.003837360069155693,0.0006004683091305196,0.0032585281878709793,-0.00038436753675341606,-0.01238134317100048
-0.00030066072940826416,-0.0043658544309437275,0.0005409209989011288,0.0030840737745165825,-0.00042084878077730536,-0.012538006529211998
-0.0002869875752367079,-0.004198749084025621,0.00048299363697879016,0.0029966398142278194,-0.000394448492443189,-0.012539452873170376
-0.00013967558334115893,-0.004390914924442768,0.00043615562026388943,0.0031506428495049477,-0.0004248626355547458,-0.01258364412933588
-0.00011409370927140117,-0.004293500911444426,0.0004737620474770665,0.003180518513545394,-0.0004294212267268449,-0.01287344191223383
-0.00010707987530622631,-0.00400212686508894,0.00043833049130626023,0.0033928686752915382,-0.00042970565846189857,-0.012614141218364239
-6.797648529754952e-05,-0.004333416931331158,0.00047020340571179986,0.00322503549978137,-0.0005667134537361562,-0.012445851229131222
-2.198699803557247e-06,-0.004091199487447739,0.0004399449680931866,0.003490188391879201,-0.0006020527798682451,-0.012215477414429188
-2.9498366416191857e-08,-0.004147235304117203,0.00046757078962400556,0.003304628422483802,-0.0005642239120788872,-0.01262147631496191
-3.9575820398596306e-10,-0.004118232987821102,0.00044116791104897857,0.0033545782789587975,-0.0005747688701376319,-0.012431496754288673
-5.309601282948995e-12,-0.004417103249579668,0.00041572132613509893,0.003242944134399295,-0.0005444440757855773,-0.01254972629249096
-7.123507784079913e-14,-0.004623717162758112,0.0003930250240955502,0.003013614332303405,-0.0005689454264938831,-0.01290034782141447
0.0003804980660788715,-0.0046636988408863544,0.00037268034066073596,0.00288931792601943,-0.0007187034352682531,-0.013225221075117588
0.0003804980660788715,-0.0046636988408863544,0.00037268034066073596,0.00288931792601943,-0.0007187034352682531,-0.013225221075117588
0.00031359330751001835,-0.004280734807252884,0.00035433744778856635,0.0032046998385339975,-0.0007025485974736512,-0.012920615263283253
0.0002670013054739684,-0.00435380544513464,0.000337715056957677,0.0033026186283677816,-0.0007227654568850994,-0.012564664706587791
0.0003469281073193997,-0.004491867963224649,0.0003225846157874912,0.003328719874843955,-0.0006542636547237635,-0.012376938946545124
0.00030877950484864414,-0.004130075685679913,0.0003087498480454087,0.0035130036994814873,-0.0006716413772664964,-0.012783677317202091
0.00036550918594002724,-0.004466505721211433,0.00029605423333123326,0.0037519412580877542,-0.0006190054700709879,-0.012781915254890919
0.00033500295830890536,-0.0047100260853767395,0.0002843602269422263,0.0037003690376877785,-0.0006172104040160775,-0.012971202842891216
0.0003065158671233803,-0.004353008698672056,0.0002735563612077385,0.0036401033867150545,-0.0005827099084854126,-0.013212133198976517
0.000261904759099707,-0.004605353344231844,0.0002542364236433059,0.0033478825353085995,-0.000601764942985028,-0.013365714810788631
0.0001774366246536374,-0.004271630197763443,0.00024556549033150077,0.003410335863009095,-0.0006484216428361833,-0.01336212083697319
0.00015432278451044112,-0.0044505400583148,0.0002374661562498659,0.003227451117709279,-0.0007240105187520385,-0.013496934436261654
0.00021007399482186884,-0.004345692228525877,0.00022988415730651468,0.003503218060359359,-0.0008194567053578794,-0.01324746385216713
0.00019742411677725613,-0.00458409171551466,0.00022277121024671942,0.004006677772849798,-0.0008352494915015996,-0.012885605916380882
0.00024278878117911518,-0.004352549556642771,0.0002160854055546224,0.004196307621896267,-0.0007638243841938674,-0.012730518355965614
0.00022964835807215422,-0.004198518116027117,0.00020978922839276493,0.003681427799165249,-0.0007667160825803876,-0.013035526499152184
0.0002691104600671679,-0.004434347618371248,0.00020384926756378263,0.00352079002186656,-0.0007064245291985571,-0.013307237066328526
0.0004839117464143783,-0.004176820162683725,0.0001982366811716929,0.0032065040431916714,-0.0007219260442070663,-0.013657577335834503
0.0005362005904316902,-0.003977182321250439,0.00019292485376354307,0.0029823293443769217,-0.0007370961247943342,-0.013697768561542034
0.0004804162890650332,-0.004352920223027468,0.000187890327651985,0.003218296682462096,-0.0006617064937017858,-0.013856938108801842
0.0005171966040506959,-0.00412786053493619,0.00018311197345610708,0.003656970337033272,-0.0006747748702764511,-0.013811571523547173
0.0004749953222926706,-0.0038801277987658978,0.00017857046623248607,0.003948651719838381,-0.0006198273040354252,-0.013706936500966549
0.00043662020470947027,-0.004281225148588419,0.00017424892575945705,0.004320849664509296,-0.0005649339873343706,-0.01394039299339056
0.0004684629966504872,-0.0041082692332565784,0.0001701313303783536,0.004095649812370539,-0.0005184452747926116,-0.013835646212100983
0.0005053493659943342,-0.0038941495586186647,0.00014571422070730478,0.0038902570959180593,-0.0005380497896112502,-0.013963640667498112
0.0005053493659943342,-0.0038941495586186647,0.00014571422070730478,0.0038902570959180593,-0.0005380497896112502,-0.013963640667498112
0.0007217956590466201,-0.003939456306397915,0.00014215112605597824,0.0037724864669144154,-0.0005081044510006905,-0.01397597324103117
0.0007850115653127432,-0.004096295218914747,0.00013901102647650987,0.0036848383024334908,-0.0004584432172123343,-0.014165321364998817
0.0019054180011153221,-0.004472080152481794,0.0001360097376164049,0.003745171008631587,-0.0004155692004133016,-0.013913232833147049
0.001541581586934626,-0.00454618688672781,0.00013313567615114152,0.0034110834822058678,-0.0004510191211011261,-0.01395389623939991
0.0012389618204906583,-0.004342253785580397,0.00013038027100265026,0.004040287807583809,-0.00045445834985002875,-0.013708095997571945
0.0010350424563512206,-0.004506727214902639,0.0001279798016184941,0.004127867054194212,-0.0004530681762844324,-0.014123741537332535
0.0010138088837265968,-0.0042353784665465355,4.291407094569877e-05,0.003966914489865303,-0.0004540467634797096,-0.01431685034185648
0.0007968152640387416,-0.003957278095185757,4.083872045157477e-05,0.0038275306578725576,-0.0004526817938312888,-0.014548232778906822
0.0009102224721573293,-0.004196433816105127,3.9052032661857083e-05,0.00420831423252821,-0.000575849786400795,-0.014319621957838535
0.001914920168928802,-0.0046806600876152515,3.8222784496610984e-05,0.004017166793346405,-0.0005636707064695656,-0.014135809615254402
0.0019396381685510278,-0.004321196116507053,2.511657658033073e-05,0.003900255309417844,-0.0005758076440542936,-0.014273717999458313
0.0016321639996021986,-0.004487089812755585,1.841869561758358e-05,0.0043084933422505856,-0.0005454351776279509,-0.014192501083016396
0.0014539859257638454,-0.004159369505941868,1.7968006432056427e-05,0.0041421083733439445,-0.000569908122997731,-0.014684155583381653
0.0013860746985301375,-0.0039170715026557446,1.761518797138706e-05,0.003960436675697565,-0.0006145922234281898,-0.014794821850955486
0.0012355634244158864,-0.004397440701723099,1.7277021470363252e-05,0.0040578036569058895,-0.0006116330623626709,-0.014908685348927975
0.0013903279323130846,-0.004538333509117365,1.6951611542026512e-05,0.004048636648803949,-0.0006436372641474009,-0.014812945388257504
0.0026493845507502556,-0.004639931954443455,1.663823422859423e-05,0.00383471860550344,-0.0006645238026976585,-0.014961197972297668
0.003014498157426715,-0.004661473445594311,2.2322315373912716e-07,0.0034803948365151882,-0.0006756890215910971,-0.014723296277225018
0.0024622094351798296,-0.004374211188405752,2.9948237223464957e-09,0.003545768093317747,-0.0006364095606841147,-0.014831824228167534
0.0019686315208673477,-0.004524491261690855,4.0179380655924746e-11,0.004089807625859976,-0.0007824888452887535,-0.01503528468310833
0.0019216339569538832,-0.004192601423710585,5.390576765344768e-13,0.004492918495088816,-0.0008477201918140054,-0.015378208830952644
0.0022953194566071033,-0.00428902730345726,7.232146874642034e-15,0.004467979539185762,-0.00085750239668414,-0.015002829022705555
0.0029201842844486237,-0.00463746627792716,9.702847775837226e-17,0.004330483730882406,-0.0007943284581415355,-0.015089821070432663
0.0031073102727532387,-0.004735174588859081,1.3017608065494545e-18,0.004047747701406479,-0.0009319479577243328,-0.014778830111026764
0.0029546187724918127,-0.004875911865383387,1.7464782876302053e-20,0.0034635213669389486,-0.0009228911949321628,-0.015163736417889595
0.0028365631587803364,-0.004658052232116461,2.3431233807369557e-22,0.0037864544428884983,-0.0009191805147565901,-0.015344048850238323
0.0028365631587803364,-0.004658052232116461,2.3431233807369557e-22,0.0037864544428884983,-0.0009191805147565901,-0.015344048850238323
0.0027637085877358913,-0.004315497819334269,3.14359907160738e-24,0.004482407588511705,-0.0009014283423312008,-0.01566332019865513
0.0033777104690670967,-0.004341353662312031,4.217539442877583e-26,0.004521432798355818,-0.000834498496260494,-0.015543142333626747
0.003795879427343607,-0.004551992751657963,5.65836725065263e-28,0.004442361183464527,-0.0008396774646826088,-0.015558366663753986
0.0034304182045161724,-0.004635368473827839,7.591421510830708e-30,0.004171007312834263,-0.0008482717094011605,-0.015690743923187256
0.0035012555308640003,-0.004528477787971497,1.0184861564705264e-31,0.0043189432471990585,-0.00088363146642223,-0.015740562230348587
0.0031033805571496487,-0.004611278884112835,1.3664291635423824e-33,0.004561433102935553,-0.0008238598238676786,-0.01583707518875599
0.0033513791859149933,-0.0045919883996248245,1.833239258869866e-35,0.004635273013263941,-0.0010233611101284623,-0.016210470348596573
0.003855633083730936,-0.004503112751990557,3.2997664134043646e-39,0.0042428369633853436,-0.0009646606049500406,-0.015897007659077644
0.004263382405042648,-0.004443393554538488,4.4271222383413946e-41,0.004302838817238808,-0.0009158264147117734,-0.015825053676962852
0.004093789961189032,-0.0046876221895217896,-0.0003745104477275163,0.004162431228905916,-0.0009782108245417476,-0.015626154839992523
0.0044293091632425785,-0.00476429145783186,-0.00035428471164777875,0.0044575645588338375,-0.0009696902125142515,-0.015654370188713074
0.004713201895356178,-0.004415949806571007,-0.0003285400744061917,0.004724962171167135,-0.0009600913035683334,-0.015935448929667473
0.004707633052021265,-0.004577697720378637,-0.0003665367839857936,0.00470756646245718,-0.0009099313174374402,-0.01573747768998146
0.004807427059859037,-0.004262138623744249,-0.00034399458672851324,0.0043546659871935844,-0.0008919878164306283,-0.015849165618419647
0.004827362485229969,-0.00426154350861907,-0.00035867103724740446,0.00429737800732255,-0.0008919888059608638,-0.016132615506649017
0.004890442360192537,-0.004121209494769573,-0.00035572893102653325,0.004586846102029085,-0.0008671820978634059,-0.016799665987491608
0.0050995065830647945,-0.003977375570684671,-0.00033693466684781015,0.0048466757871210575,-0.0007875669398345053,-0.0170681681483984
0.0055358633399009705,-0.004778028931468725,-0.0003497651487123221,0.0046413615345954895,-0.0007497149636037648,-0.016535326838493347
0.005584909580647945,-0.004911669995635748,-0.00034764883457683027,0.004992447327822447,-0.0007180889951996505,-0.016588564962148666
0.005582232493907213,-0.004513457417488098,-0.00041574303759261966,0.005368020385503769,-0.000646670872811228,-0.016476918011903763
0.006058500614017248,-0.004078280180692673,-0.0005098432884551585,0.005425685551017523,-0.0005668764933943748,-0.017060209065675735
0.0054918378591537476,-0.003992985934019089,-0.0005412700702436268,0.005292653571814299,-0.0005967284087091684,-0.01732058823108673
0.0060984003357589245,-0.004301397129893303,-0.0005246038781479001,0.0054643722251057625,-0.0005428552976809442,-0.01664072275161743
0.0063963583670556545,-0.004479603376239538,-0.0008968153269961476,0.005589577369391918,-0.0005537407123483717,-0.016341958194971085
0.006269142031669617,-0.004541071597486734,-0.0007917879265733063,0.005608364008367062,-0.0005261703045107424,-0.016857871785759926
0.006631945725530386,-0.0041572521440684795,-0.0008064185385592282,0.005577226635068655,-0.00048670003889128566,-0.016881342977285385
0.006793424487113953,-0.003952112980186939,-0.0007031241548247635,0.005273252259939909,-0.0004517986089922488,-0.017061075195670128
0.006793424487113953,-0.003952112980186939,-0.0007031241548247635,0.005273252259939909,-0.0004517986089922488,-0.017061075195670128
0.006935406010597944,-0.0042938594706356525,-0.0007111946470104158,0.004798554349690676,-0.0004510592552833259,-0.01742577739059925
0.006935406010597944,-0.0042938594706356525,-0.0007111946470104158,0.004798554349690676,-0.0004510592552833259,-0.01742577739059925
0.006839926820248365,-0.004344204440712929,-0.0006778415990993381,0.0050799124874174595,-0.0004278789565432817,-0.01751597225666046
0.006924882531166077,-0.004277514293789864,-0.0006753457710146904,0.0050394246354699135,-0.0003848967608064413,-0.017786279320716858
0.007251711096614599,-0.0043874820694327354,-0.0007013512658886611,0.00537697272375226,-0.00041519725346006453,-0.017780134454369545
0.007748305331915617,-0.0045560626313090324,-0.0007222663844004273,0.005117743741720915,-0.00039327837293967605,-0.01742892898619175
0.0072191376239061356,-0.004206731915473938,-0.0006943814223632216,0.005238979589194059,-0.00041989856981672347,-0.017369640991091728
0.007986900396645069,-0.004383370280265808,-0.0010369349038228393,0.005038728937506676,-0.00042892288183793426,-0.017972830682992935
0.007981437258422375,-0.004380685277283192,-0.0010173521004617214,0.005472847260534763,-0.0005161492736078799,-0.01775754615664482
0.00802291464060545,-0.004303809255361557,-0.0010202437406405807,0.0053627067245543,-0.0005561536527238786,-0.017969101667404175
0.007703878916800022,-0.004449940752238035,-0.0010470837587490678,0.005036649294197559,-0.000593914242926985,-0.01867508329451084
0.007920274510979652,-0.004604364279657602,-0.0011227625655010343,0.005079526919871569,-0.000584335473831743,-0.018729211762547493
0.008304933086037636,-0.004235689993947744,-0.0012252265587449074,0.004874509293586016,-0.0005709369434043765,-0.01836232654750347
0.00844917818903923,-0.004372111055999994,-0.0013859758619219065,0.004649341572076082,-0.0005906293517909944,-0.017952891066670418
0.008063842542469501,-0.00435748090967536,-0.0013512592995539308,0.004990721587091684,-0.0006800091941840947,-0.018105437979102135
0.008574939332902431,-0.004351290874183178,-0.0016110347351059318,0.005481823813170195,-0.0007224336150102317,-0.018794065341353416
0.009072035551071167,-0.004854131489992142,-0.0016083044465631247,0.005199134815484285,-0.0007452351273968816,-0.01896132156252861
0.008479885756969452,-0.004521164111793041,-0.0017310022376477718,0.005214286502450705,-0.0007623735000379384,-0.018751809373497963
0.008190643973648548,-0.004536163527518511,-0.0017672490794211626,0.0046654194593429565,-0.0008643166511319578,-0.01806318573653698
0.009254003874957561,-0.00449697021394968,-0.0019496730528771877,0.0046605393290519714,-0.0009730749879963696,-0.018239127472043037
0.00905599445104599,-0.0046663652174174786,-0.0019400876481086016,0.005131130572408438,-0.0009680840303190053,-0.0185447558760643
0.008916187100112438,-0.004743705969303846,-0.0020777485333383083,0.005470669362694025,-0.0009593695285730064,-0.01882847398519516
0.008984867483377457,-0.004759592469781637,-0.002096286742016673,0.0051641021855175495,-0.0009606080129742622,-0.018967404961586
0.009372112341225147,-0.004664538893848658,-0.0023382529616355896,0.005202138796448708,-0.0008726577507331967,-0.019612524658441544
0.008897239342331886,-0.004670319147408009,-0.0025649676099419594,0.0050397044979035854,-0.0008716688025742769,-0.019718533381819725
0.009372719563543797,-0.004684681538492441,-0.0024680099450051785,0.005273894872516394,-0.0008665375644341111,-0.01885497197508812
0.00947593618184328,-0.004223472438752651,-0.0024938159622251987,0.0056509594433009624,-0.0008700396283529699,-0.018743285909295082
0.00947593618184328,-0.004223472438752651,-0.0024938159622251987,0.0056509594433009624,-0.0008700396283529699,-0.018743285909295082
0.009573500603437424,-0.004497529938817024,-0.0023655924014747143,0.005501904524862766,-0.0008373545133508742,-0.019496146589517593
0.009713487699627876,-0.004638367332518101,-0.002486430574208498,0.0054297917522490025,-0.0008771955035626888,-0.020430078729987144
0.009483029134571552,-0.004711916670203209,-0.0028254680801182985,0.005236678756773472,-0.0008824064279906452,-0.01962524838745594
0.010060765780508518,-0.004677605349570513,-0.003219400066882372,0.004781441297382116,-0.000869897601660341,-0.019248420372605324
0.009973190724849701,-0.0046715266071259975,-0.0031360280700027943,0.004926261957734823,-0.0008055936777964234,-0.01912713795900345
0.009906044229865074,-0.004272656049579382,-0.0028534631710499525,0.005200634710490704,-0.0008512516506016254,-0.019323330372571945
0.009955300949513912,-0.004196456633508205,-0.0030289681162685156,0.005497419741004705,-0.0008607376948930323,-0.0197078138589859
0.010096403770148754,-0.004868270829319954,-0.0033278572373092175,0.0051478310488164425,-0.0008622582536190748,-0.0201678778976202
0.010165219195187092,-0.004871278535574675,-0.0031431259121745825,0.005141576286405325,-0.0007865282823331654,-0.020341593772172928
0.010385253466665745,-0.004531982354819775,-0.0034224758855998516,0.005524489097297192,-0.0008306964882649481,-0.020043114200234413
0.010559474118053913,-0.004404962528496981,-0.00407633138820529,0.005910648964345455,-0.0008426252752542496,-0.020139435306191444
0.009692832827568054,-0.004175369627773762,-0.0036822576075792313,0.005538375116884708,-0.0008501476841047406,-0.020160257816314697
0.010376966558396816,-0.004786796867847443,-0.0035507865250110626,0.005285413004457951,-0.0008157297852449119,-0.020318320021033287
0.010857872664928436,-0.004897107370197773,-0.0030875306110829115,0.005381549708545208,-0.0010435758158564568,-0.02000027522444725
0.010288669727742672,-0.004551293328404427,-0.003305746242403984,0.005654412321746349,-0.0011372079607099295,-0.02018541470170021
0.010508481413125992,-0.004511498846113682,-0.003737617516890168,0.0058933342806994915,-0.0012501896126195788,-0.020564256235957146
0.010296357795596123,-0.004887273535132408,-0.003966189455240965,0.0059096128679811954,-0.0013286530738696456,-0.020228704437613487
0.010475709103047848,-0.004467257764190435,-0.004276256076991558,0.005934905260801315,-0.0012651702854782343,-0.020076686516404152
0.008588213473558426,-0.004344186745584011,-0.004563724156469107,0.00590240815654397,-0.0012044251197949052,-0.020457366481423378
0.008690963499248028,-0.004288773518055677,-0.004075747914612293,0.006206474266946316,-0.001066825003363192,-0.020795978605747223
0.008905954658985138,-0.004427744075655937,-0.004276482854038477,0.0065220678225159645,-0.0010217655217275023,-0.02099371887743473
0.009528174065053463,-0.004630872514098883,-0.004142405930906534,0.006210200488567352,-0.0010009602410718799,-0.02088593877851963
0.009771964512765408,-0.004636208061128855,-0.00432059308513999,0.0060819280333817005,-0.0009953132830560207,-0.020905178040266037
0.009537342004477978,-0.004675266332924366,-0.004654618911445141,0.005703942384570837,-0.000949323468375951,-0.02068476937711239
0.009474472142755985,-0.004407639615237713,-0.004671652801334858,0.006218895316123962,-0.0010350733064115047,-0.020876813679933548
0.00962807983160019,-0.004416829906404018,-0.004790680017322302,0.006534958723932505,-0.0010551485465839505,-0.021011238917708397
0.0096250269562006,-0.004593227058649063,-0.005002646241337061,0.006292698904871941,-0.0011950151529163122,-0.021068455651402473
0.010273884050548077,-0.004621381871402264,-0.005353155545890331,0.006291316822171211,-0.001205906388349831,-0.02130039595067501
0.010273884050548077,-0.004621381871402264,-0.005353155545890331,0.006291316822171211,-0.001205906388349831,-0.02130039595067501
0.009951225481927395,-0.004518460016697645,-0.00508850859478116,0.005780165549367666,-0.0011537851532921195,-0.02158200368285179
0.00997203215956688,-0.00433688098564744,-0.005491112824529409,0.0057942820712924,-0.0011229361407458782,-0.021452389657497406
0.01007396075874567,-0.0035227560438215733,-0.005438133142888546,0.006090949755162001,-0.001165273366495967,-0.021730221807956696
0.01061681192368269,-0.0029425963293761015,-0.005788477137684822,0.005980234127491713,-0.0012229704298079014,-0.02166128344833851
0.010109986178576946,-0.0028770288918167353,-0.0055836886167526245,0.006041787564754486,-0.0013110853033140302,-0.021422451362013817
0.010580315254628658,-0.0030643874779343605,-0.0054682353511452675,0.005954613909125328,-0.0014856274938210845,-0.021488377824425697
0.010695175267755985,-0.004177027847617865,-0.006283842492848635,0.006419469602406025,-0.0015966184437274933,-0.022026950493454933
0.011282186955213547,-0.0035540899261832237,-0.006669103633612394,0.006001945585012436,-0.0014784745872020721,-0.022371981292963028
0.011143893003463745,-0.0033285748213529587,-0.00594650162383914,0.0060061807744205,-0.0013686566380783916,-0.022022658959031105
0.01140939723700285,-0.003278126008808613,-0.005739695858210325,0.00642385333776474,-0.0011829014401882887,-0.022297265008091927
0.01166523527354002,-0.003556980984285474,-0.005927687976509333,0.006698934361338615,-0.0012110446114093065,-0.02245418168604374
0.011647693812847137,-0.0033525899052619934,-0.006540113594383001,0.006399322301149368,-0.001162831555120647,-0.022559862583875656
0.011481312103569508,-0.003513094736263156,-0.006971960421651602,0.006320268381386995,-0.0010609630262479186,-0.02277211658656597
0.011205870658159256,-0.0033515857066959143,-0.006721061188727617,0.006339009385555983,-0.0009741507237777114,-0.022794246673583984
0.01153667364269495,-0.003500285791233182,-0.006036789156496525,0.006415033247321844,-0.0009510760428383946,-0.022916672751307487
0.012346869334578514,-0.0037122073117643595,-0.006449883338063955,0.006911481264978647,-0.0009245205437764525,-0.023140553385019302
0.012040907517075539,-0.003398982109501958,-0.007424935232847929,0.007121355272829533,-0.0009356160880997777,-0.023175925016403198
0.01183489803224802,-0.0033531931694597006,-0.00681464234367013,0.006635493598878384,-0.0009361960110254586,-0.02349206991493702
0.011351056396961212,-0.0034195987973362207,-0.006742996629327536,0.006773603614419699,-0.0009567390661686659,-0.02346675470471382
0.012286359444260597,-0.0034609439317137003,-0.006651419680565596,0.0074811759404838085,-0.0010489902924746275,-0.023402417078614235
0.011957217007875443,-0.0034218677319586277,-0.007456677500158548,0.00713693629950285,-0.0013129148865118623,-0.0231744684278965
0.012029730714857578,-0.0036001307889819145,-0.007416965905576944,0.007192945573478937,-0.001479270402342081,-0.0231990534812212
0.012054100632667542,-0.0038534991908818483,-0.007239222526550293,0.0066735451109707355,-0.0016724561573937535,-0.023523638024926186
0.011687328107655048,-0.0036290872376412153,-0.008017209358513355,0.007010187022387981,-0.0017593341181054711,-0.02382666990160942
0.0120603758841753,-0.0035040543880313635,-0.007987530902028084,0.006464085541665554,-0.0017543565481901169,-0.023621032014489174
0.011973523534834385,-0.0036444664001464844,-0.007900815457105637,0.007278557866811752,-0.0017606545006856322,-0.024202896282076836
0.012289655394852161,-0.0038477943744510412,-0.0074120876379311085,0.006842234171926975,-0.0016557134222239256,-0.02515942044556141
0.012289655394852161,-0.0038477943744510412,-0.0074120876379311085,0.006842234171926975,-0.0016557134222239256,-0.02515942044556141
0.012644032016396523,-0.003924757707864046,-0.007697067689150572,0.006826393771916628,-0.001550233457237482,-0.025045253336429596
0.012298038229346275,-0.0035686262417584658,-0.008623923175036907,0.006720236036926508,-0.001593212247826159,-0.02434643730521202
0.012318299151957035,-0.003447522409260273,-0.008502229116857052,0.007033154368400574,-0.0015370132168754935,-0.023690776899456978
0.012231603264808655,-0.003660108894109726,-0.007724825292825699,0.006579083856195211,-0.0016038445755839348,-0.02385104075074196
0.012334729544818401,-0.0038651677314192057,-0.008191145025193691,0.006465017329901457,-0.001540728728286922,-0.024590080603957176
0.01262275967746973,-0.0038369721733033657,-0.008507603779435158,0.007082964293658733,-0.0013790484517812729,-0.02515740506350994
0.013166762888431549,-0.0037828783970326185,-0.008270793594419956,0.007202819921076298,-0.0012936353450641036,-0.025258593261241913
0.012377075850963593,-0.004165905527770519,-0.00888621062040329,0.006983891595155001,-0.001182988635264337,-0.02564922161400318
0.012496793642640114,-0.004246879834681749,-0.008438744582235813,0.006976739503443241,-0.0011652321554720402,-0.024977099150419235
0.013346981257200241,-0.004012354649603367,-0.008574278093874454,0.006926288828253746,-0.0012488409411162138,-0.02422235906124115
0.013135972432792187,-0.003947227727621794,-0.009343253448605537,0.007004790008068085,-0.0015642731450498104,-0.024041272699832916
0.012286138720810413,-0.0038656992837786674,-0.009257085621356964,0.006826136261224747,-0.0016467986861243844,-0.024803761392831802
0.012576902285218239,-0.004310173448175192,-0.009009424597024918,0.007234226446598768,-0.001815196592360735,-0.025645341724157333
0.01313841063529253,-0.004203609190881252,-0.009411921724677086,0.007493479643017054,-0.0018650387646630406,-0.02558942325413227
0.012986956164240837,-0.004041373264044523,-0.00958112720400095,0.007207675836980343,-0.0020714853890240192,-0.025530023500323296
0.01277858205139637,-0.003915887791663408,-0.008821394294500351,0.007165665738284588,-0.002031349577009678,-0.02513343282043934
0.012883058749139309,-0.003487415611743927,-0.009003739804029465,0.007518934551626444,-0.0019886912778019905,-0.02519591525197029
0.013469337485730648,-0.003505730303004384,-0.009579626843333244,0.007785777561366558,-0.001866997336037457,-0.025518635287880898
0.01276146899908781,-0.00417592516168952,-0.00894657801836729,0.0071922955103218555,-0.0016314839012920856,-0.02571769803762436
0.013430154882371426,-0.004155429545789957,-0.008655764162540436,0.0066865128464996815,-0.0014702115440741181,-0.026371579617261887
0.013301828876137733,-0.004128091037273407,-0.009637312963604927,0.007555709686130285,-0.001347620040178299,-0.02675182931125164
0.013465123251080513,-0.003871223656460643,-0.009842216037213802,0.007971764542162418,-0.001276136375963688,-0.026296446099877357
0.013297333382070065,-0.003605264937505126,-0.008171788416802883,0.008118594996631145,-0.001216282369568944,-0.026108337566256523
0.01354566216468811,-0.0035507327411323786,-0.006514428183436394,0.007649813778698444,-0.0012611404526978731,-0.02583201415836811
0.013663102872669697,-0.003886055201292038,-0.00593014620244503,0.007683212403208017,-0.0015797732630744576,-0.02606322057545185
0.013636112213134766,-0.003962664864957333,-0.006743296515196562,0.007640432100743055,-0.0017697778530418873,-0.027279118075966835
0.013599752448499203,-0.00393566582351923,-0.0071832179091870785,0.006760226096957922,-0.0023187235929071903,-0.026978710666298866
0.013599752448499203,-0.00393566582351923,-0.0071832179091870785,0.006760226096957922,-0.0023187235929071903,-0.026978710666298866
0.01374085620045662,-0.00435824878513813,-0.00715928990393877,0.00665070628747344,-0.002108945744112134,-0.026611290872097015
0.014236102811992168,-0.004529639147222042,-0.0071713002398610115,0.006806384306401014,-0.0018208632245659828,-0.02632429078221321
0.013644854538142681,-0.004307998809963465,-0.006426014471799135,0.007418376859277487,-0.0015798072563484311,-0.025434184819459915
0.014193203300237656,-0.00443879934027791,-0.006219744682312012,0.00806889683008194,-0.0015177258756011724,-0.0265151746571064
0.014067829586565495,-0.004150141030550003,-0.006385609041899443,0.008335072547197342,-0.0015287173446267843,-0.027219602838158607
0.014155324548482895,-0.0040952786803245544,-0.007010823581367731,0.008868792094290257,-0.0018530340166762471,-0.026514505967497826
0.013875680044293404,-0.004183587618172169,-0.006960277445614338,0.00885495264083147,-0.0022527275141328573,-0.02709394134581089
0.014258226379752159,-0.0044209277257323265,-0.0066753532737493515,0.00891509372740984,-0.0020253590773791075,-0.027752136811614037
0.01385632436722517,-0.004411025904119015,-0.006805823650211096,0.009437039494514465,-0.0017707017250359058,-0.02599189803004265
0.013830170966684818,-0.004137273412197828,-0.007496133912354708,0.009380284696817398,-0.0015968659427016973,-0.026409730315208435
0.014508985914289951,-0.004415765404701233,-0.00723628606647253,0.009250125847756863,-0.0015790552133694291,-0.02703873999416828
0.013744129799306393,-0.004104213323444128,-0.006437862291932106,0.008666063658893108,-0.0016792077803984284,-0.027364511042833328
0.014296667650341988,-0.004097918048501015,-0.006887373514473438,0.008034850470721722,-0.0017445990815758705,-0.026975926011800766
0.013717223890125751,-0.004204453434795141,-0.007983473129570484,0.007605172228068113,-0.0019005489302799106,-0.0271185040473938
0.014531672932207584,-0.004421854391694069,-0.007609117776155472,0.007629376370459795,-0.0019308972405269742,-0.02702999860048294
0.014057577587664127,-0.004496310837566853,-0.007214581593871117,0.00824078731238842,-0.0019659558311104774,-0.02745235525071621
0.014770539477467537,-0.004256906919181347,-0.007290948648005724,0.00817784946411848,-0.0018364627612754703,-0.027611326426267624
0.014491602778434753,-0.0044724904000759125,-0.008080671541392803,0.007730322424322367,-0.001748572918586433,-0.027648529037833214
0.014895868487656116,-0.004312070552259684,-0.007651509717106819,0.00779182743281126,-0.0015926928026601672,-0.02744072489440441
0.014392887242138386,-0.004295791499316692,-0.00798763893544674,0.00829851720482111,-0.001548329251818359,-0.02826111949980259
0.014863205142319202,-0.004422696772962809,-0.007917146198451519,0.00851813517510891,-0.0013930858112871647,-0.02840632200241089
0.014355091378092766,-0.00458130706101656,-0.0082441670820117,0.008674688637256622,-0.0014073819620534778,-0.028369663283228874
0.015258309431374073,-0.0046747829765081406,-0.007807387039065361,0.008718498982489109,-0.0013919410994276404,-0.027822159230709076
0.01511270459741354,-0.00432478217408061,-0.007612450513988733,0.008781976997852325,-0.0017318206373602152,-0.028779035434126854
0.014975772239267826,-0.004368355497717857,-0.008572171442210674,0.008416426368057728,-0.0016941125504672527,-0.028806308284401894
0.014975772239267826,-0.004368355497717857,-0.008572171442210674,0.008416426368057728,-0.0016941125504672527,-0.028806308284401894
0.015287633053958416,-0.004636649042367935,-0.008759230375289917,0.008851196616888046,-0.002366239670664072,-0.02852873131632805
0.014842928387224674,-0.004664056934416294,-0.00836452841758728,0.008894385769963264,-0.002368473680689931,-0.028766732662916183
0.0152738681063056,-0.004669983871281147,-0.008777352049946785,0.008259904570877552,-0.0021590779069811106,-0.028950057923793793
0.014920994639396667,-0.005018018651753664,-0.00820223055779934,0.00857948325574398,-0.0018484871834516525,-0.029000336304306984
0.015142476186156273,-0.004808493889868259,-0.008202211931347847,0.008140253834426403,-0.0016501395730301738,-0.02884047105908394
0.015103866346180439,-0.004380186088383198,-0.008951290510594845,0.007988755591213703,-0.0015685871476307511,-0.02878887765109539
0.015103866346180439,-0.004380186088383198,-0.008951290510594845,0.007988755591213703,-0.0015685871476307511,-0.02878887765109539
0.01552730891853571,-0.004530948121100664,-0.008239013142883778,0.00877321232110262,-0.001816950854845345,-0.02914402261376381
0.01552730891853571,-0.004530948121100664,-0.008239013142883778,0.00877321232110262,-0.001816950854845345,-0.02914402261376381
0.015372482128441334,-0.004995955154299736,-0.008834206499159336,0.0088950851932168,-0.0022754864767193794,-0.02968440018594265
0.015781410038471222,-0.00490658450871706,-0.009241451509296894,0.008844736032187939,-0.002482837066054344,-0.02921413630247116
0.01511337235569954,-0.004479763098061085,-0.008450845256447792,0.009683817625045776,-0.0026680296286940575,-0.029080376029014587
0.015269187279045582,-0.003602831158787012,-0.009163069538772106,0.009335561655461788,-0.002486816141754389,-0.02979464642703533
0.01521593052893877,-0.004318122752010822,-0.008628781884908676,0.009476680308580399,-0.0024168824311345816,-0.029576674103736877
0.015027010813355446,-0.004179316572844982,-0.008672241121530533,0.009250114671885967,-0.002119871322065592,-0.02954745478928089
0.01586833782494068,-0.0039271404966712,-0.00913248397409916,0.008791747502982616,-0.0016014452558010817,-0.029898768290877342
0.015361390076577663,-0.004193390719592571,-0.009128779172897339,0.009459087625145912,-0.0015152792911976576,-0.029671544209122658
0.015949731692671776,-0.004254590254276991,-0.008601466193795204,0.009491907432675362,-0.0014396354090422392,-0.029742399230599403
0.015733366832137108,-0.003584127640351653,-0.008960467763245106,0.008696934208273888,-0.0014276737347245216,-0.030930940061807632
0.014975388534367085,-0.0035116919316351414,-0.00899964664131403,0.008550330065190792,-0.001550294109620154,-0.0314357690513134
0.015527942217886448,-0.00371266296133399,-0.009059813804924488,0.008516374975442886,-0.002366433385759592,-0.03132589906454086
0.016081446781754494,-0.003800273174419999,-0.009300332516431808,0.008044026792049408,-0.002573545090854168,-0.031110409647226334
0.016727391630411148,-0.004304153379052877,-0.009855765849351883,0.008233126252889633,-0.0025491351261734962,-0.02987218089401722
0.01580878719687462,-0.003578767878934741,-0.009380758740007877,0.008979575708508492,-0.002499347785487771,-0.030193857848644257
0.015703827142715454,-0.00315089151263237,-0.009984406642615795,0.009432166814804077,-0.002165745012462139,-0.03119106963276863
0.016083702445030212,-0.0031596447806805372,-0.009907255880534649,0.010078353807330132,-0.0020267467480152845,-0.030958905816078186
0.017127834260463715,-0.003493740689009428,-0.009409686550498009,0.01099722646176815,-0.0018872603541240096,-0.03239745646715164
0.016369568184018135,-0.0036692803259938955,-0.009020336903631687,0.010459301061928272,-0.0018082463648170233,-0.032158371061086655
0.016978934407234192,-0.003589716972783208,-0.009743636474013329,0.010021742433309555,-0.0017293692799285054,-0.03132295981049538
0.01739654503762722,-0.003566996194422245,-0.009870153851807117,0.009894581511616707,-0.0018768447916954756,-0.029974302276968956
0.01726163737475872,-0.0035473215393722057,-0.009604189544916153,0.009701047092676163,-0.0022091262508183718,-0.031131189316511154
0.01641688495874405,-0.0034533648286014795,-0.010377072729170322,0.010114854201674461,-0.0022668198216706514,-0.0323154516518116
0.017985960468649864,-0.0035578308161348104,-0.009988524951040745,0.010333335027098656,-0.002489072037860751,-0.032393019646406174
0.017816603183746338,-0.0038845024537295103,-0.010251101106405258,0.010171267203986645,-0.0023031081072986126,-0.03207772225141525
0.017816603183746338,-0.0038845024537295103,-0.010251101106405258,0.010171267203986645,-0.0023031081072986126,-0.03207772225141525
0.017479991540312767,-0.003538611112162471,-0.009631546214222908,0.010939156636595726,-0.00236344151198864,-0.03202644735574722
0.017278175801038742,-0.0035750996321439743,-0.010061589069664478,0.01020805910229683,-0.0022232714109122753,-0.031947873532772064
0.017935458570718765,-0.003929548431187868,-0.011123892851173878,0.009904596954584122,-0.0020575574599206448,-0.032174430787563324
0.017935458570718765,-0.003929548431187868,-0.011123892851173878,0.009904596954584122,-0.0020575574599206448,-0.032174430787563324
0.017844026908278465,-0.004054111894220114,-0.010118862614035606,0.010061400942504406,-0.001990147400647402,-0.03192765638232231
0.018455009907484055,-0.004024895373731852,-0.009741230867803097,0.010369839146733284,-0.001969850854948163,-0.03226567804813385
0.018028898164629936,-0.0038724506739526987,-0.010261953808367252,0.010111230425536633,-0.00195312371943146,-0.03239309787750244
0.018408745527267456,-0.003936050925403833,-0.010494541376829147,0.009970537386834621,-0.002085956512019038,-0.03257504105567932
0.01813097670674324,-0.003907168284058571,-0.010300613939762115,0.009997976943850517,-0.0019027828238904476,-0.03385882452130318
0.018408354371786118,-0.003783738473430276,-0.010029563680291176,0.00986117497086525,-0.0018717338098213077,-0.03379025682806969
0.018604552373290062,-0.003837676253169775,-0.010437197983264923,0.00931707862764597,-0.0020129610784351826,-0.03180641680955887
0.018237855285406113,-0.003839345881715417,-0.010409435257315636,0.009622383862733841,-0.001989321783185005,-0.031091583892703056
0.018880682066082954,-0.003829346504062414,-0.009817559272050858,0.010078650899231434,-0.002207318553701043,-0.032528914511203766
0.0187149066478014,-0.003970442805439234,-0.010774819180369377,0.009948590770363808,-0.0021590145770460367,-0.03330536559224129
0.01810687780380249,-0.0038766257930547,-0.010114487260580063,0.009979036636650562,-0.0021614902652800083,-0.03334606811404228
0.018805453553795815,-0.003722206223756075,-0.0099054966121912,0.010051831603050232,-0.0019229117315262556,-0.034697432070970535
0.018595213070511818,-0.003645766293630004,-0.010531099513173103,0.009750689379870892,-0.0018896762048825622,-0.03370507061481476
0.0185374915599823,-0.0036521204747259617,-0.010516962967813015,0.010360091924667358,-0.002202256117016077,-0.03271714225411415
0.018888156861066818,-0.003750898176804185,-0.009758902713656425,0.009442564100027084,-0.0023328629322350025,-0.033034030348062515
0.019043292850255966,-0.003770762123167515,-0.010833523236215115,0.009397381916642189,-0.0026352570857852697,-0.033616259694099426
0.019022047519683838,-0.003776267869397998,-0.010426504537463188,0.009853903204202652,-0.0026207014452666044,-0.03418700397014618
0.01936311461031437,-0.0038020717911422253,-0.01039645541459322,0.00991818681359291,-0.0024961894378066063,-0.03392352536320686
0.019183354452252388,-0.003823528764769435,-0.010691807605326176,0.009710827842354774,-0.0021761797834187746,-0.03376377373933792
0.019269704818725586,-0.0037883927579969168,-0.010253933258354664,0.010615463368594646,-0.002072372240945697,-0.03285716474056244
0.019657814875245094,-0.003690120531246066,-0.01089053601026535,0.010766100138425827,-0.0020972387865185738,-0.034628380089998245
0.01958562061190605,-0.004172965884208679,-0.010784236714243889,0.010841249488294125,-0.0021007233299314976,-0.03552299737930298
0.019663715735077858,-0.004164405167102814,-0.010563096962869167,0.011040612123906612,-0.0022886034566909075,-0.03512388467788696
0.019887594506144524,-0.003595611546188593,-0.011056401766836643,0.01115865632891655,-0.002295167651027441,-0.03488602861762047
0.019991600885987282,-0.003461946966126561,-0.010865109972655773,0.011319167912006378,-0.0023850477300584316,-0.03506352752447128
0.019238905981183052,-0.0035266124177724123,-0.010890920646488667,0.011125658638775349,-0.0027399274986237288,-0.03499440476298332
0.019919971004128456,-0.004245595540851355,-0.011007064953446388,0.010875380598008633,-0.002911023097112775,-0.034832049161195755
0.01994304358959198,-0.004188545048236847,-0.010796453803777695,0.011086197569966316,-0.0028004145715385675,-0.03500029444694519
0.01994304358959198,-0.004188545048236847,-0.010796453803777695,0.011086197569966316,-0.0028004145715385675,-0.03500029444694519
0.020168790593743324,-0.0035068511497229338,-0.01104030292481184,0.011067397892475128,-0.0025898453313857317,-0.03565050661563873
0.0203012153506279,-0.0034474146086722612,-0.01071430929005146,0.010052211582660675,-0.0023286461364477873,-0.035482823848724365
0.020264914259314537,-0.003692703088745475,-0.011241855099797249,0.009914567694067955,-0.0022267173044383526,-0.03566111996769905
0.020295266062021255,-0.0037248346488922834,-0.011037622578442097,0.010340574197471142,-0.0019965162500739098,-0.03589912876486778
0.019975019618868828,-0.0036156598944216967,-0.011270027607679367,0.010146900080144405,-0.001890648389235139,-0.03623499721288681
0.02037413790822029,-0.003614806802943349,-0.011552761308848858,0.009847687557339668,-0.0017718970775604248,-0.03630516678094864
0.02057589218020439,-0.00370455882512033,-0.010563064366579056,0.010023744776844978,-0.0018995892023667693,-0.03636445477604866
0.020948756486177444,-0.00371585413813591,-0.010891352780163288,0.010679063387215137,-0.0018267823616042733,-0.035853929817676544
0.02085741050541401,-0.004197403322905302,-0.011467046104371548,0.010251929983496666,-0.002117773750796914,-0.03625335916876793
0.020617296919226646,-0.0040690042078495026,-0.010988928377628326,0.010516834445297718,-0.002018766012042761,-0.0366414412856102
0.021050844341516495,-0.003968663047999144,-0.011125821620225906,0.010959140956401825,-0.002192932879552245,-0.03673984110355377
0.02193274535238743,-0.003995866980403662,-0.010996353812515736,0.010303933173418045,-0.002297996776178479,-0.03616104647517204
0.02171373926103115,-0.004042703192681074,-0.01114871446043253,0.010658472776412964,-0.002225699834525585,-0.0373719297349453
0.02108771912753582,-0.0041420054621994495,-0.011100787669420242,0.010422003455460072,-0.00230759521946311,-0.0381481908261776
0.02106795273721218,-0.0040635946206748486,-0.010952345095574856,0.010313013568520546,-0.002198505448177457,-0.03664951026439667
0.02142484299838543,-0.0038955325726419687,-0.012072152458131313,0.010916636325418949,-0.002305578673258424,-0.035508014261722565
0.02150769904255867,-0.003911230247467756,-0.01152829360216856,0.011107594706118107,-0.0022540376521646976,-0.03705158084630966
0.022173171862959862,-0.003947280813008547,-0.011221717111766338,0.011258503422141075,-0.002150947693735361,-0.03739944472908974
0.022033989429473877,-0.004316908773034811,-0.012143545784056187,0.01161408144980669,-0.0021301249507814646,-0.039227236062288284
0.022287677973508835,-0.004262478556483984,-0.011328810825943947,0.011053143069148064,-0.0020821543876081705,-0.03899364545941353
0.022218007594347,-0.004060152918100357,-0.011494094505906105,0.011629066430032253,-0.002304509747773409,-0.036356136202812195
0.021626951172947884,-0.0038792090490460396,-0.01139267161488533,0.011100975796580315,-0.002805162686854601,-0.036382194608449936
0.0222135242074728,-0.0038188903126865625,-0.011393808759748936,0.010982225649058819,-0.0029689844232052565,-0.037284936755895615
0.0222135242074728,-0.0038188903126865625,-0.011393808759748936,0.010982225649058819,-0.0029689844232052565,-0.037284936755895615
0.022446682676672935,-0.004067373927682638,-0.011672303080558777,0.011298563331365585,-0.0029124566353857517,-0.0378863662481308
0.02261645905673504,-0.00405921321362257,-0.011202950030565262,0.01144117210060358,-0.0023047644644975662,-0.03754057735204697
0.02261645905673504,-0.00405921321362257,-0.011202950030565262,0.01144117210060358,-0.0023047644644975662,-0.03754057735204697
0.022567199543118477,-0.0034958943724632263,-0.011269635520875454,0.011019926518201828,-0.0018810250330716372,-0.03791879862546921
0.022567199543118477,-0.0034958943724632263,-0.011269635520875454,0.011019926518201828,-0.0018810250330716372,-0.03791879862546921
0.023098263889551163,-0.004057375248521566,-0.011719812639057636,0.011527784168720245,-0.002064509317278862,-0.038235124200582504
0.023072605952620506,-0.004000526387244463,-0.010726437903940678,0.011366136372089386,-0.003255621064454317,-0.03806333616375923
0.02309107966721058,-0.0034413698595017195,-0.011454462073743343,0.012038450688123703,-0.003133416874334216,-0.03836613893508911
0.02284417673945427,-0.0035987920127809048,-0.011928119696676731,0.011331787332892418,-0.0029706836212426424,-0.03795887529850006
0.023644929751753807,-0.003804480191320181,-0.011745273135602474,0.01150635164231062,-0.002857905114069581,-0.03868234157562256
0.023319710046052933,-0.004322155844420195,-0.011768195778131485,0.01123715192079544,-0.002761265728622675,-0.040214698761701584
0.023396451026201248,-0.004142602439969778,-0.011467109434306622,0.011077904142439365,-0.0025166484992951155,-0.039340272545814514
0.023527022451162338,-0.00392896356061101,-0.012002846226096153,0.011418122798204422,-0.002548207063227892,-0.03752883896231651
0.023434998467564583,-0.003775946097448468,-0.011167115531861782,0.011365959420800209,-0.0024238021578639746,-0.03767356649041176
0.023229623213410378,-0.0037490965332835913,-0.010996172204613686,0.011811705306172371,-0.0023612792138010263,-0.03942035138607025
0.023488478735089302,-0.003732601646333933,-0.011853990145027637,0.01122470572590828,-0.0025865708012133837,-0.04028959572315216
0.023764286190271378,-0.00408484973013401,-0.011305639520287514,0.011293500661849976,-0.0029450547881424427,-0.040409862995147705
0.0237567238509655,-0.004003600683063269,-0.011804157868027687,0.01154498290270567,-0.0028286485467106104,-0.03832918405532837
0.02353254333138466,-0.0038767822552472353,-0.011490566655993462,0.011040942743420601,-0.002661380684003234,-0.03836449235677719
0.023745186626911163,-0.004305529873818159,-0.010388395749032497,0.0120902294293046,-0.0025367990601807833,-0.04000015929341316
0.02411523275077343,-0.00449733342975378,-0.0116393668577075,0.012119848281145096,-0.0025222862605005503,-0.040183134377002716
0.02502836100757122,-0.004358493257313967,-0.01131562888622284,0.011801927350461483,-0.002550367731601,-0.04003974795341492
0.024810396134853363,-0.00402408791705966,-0.011903807520866394,0.01175509113818407,-0.0027329244185239077,-0.03974084556102753
0.024161074310541153,-0.004265362862497568,-0.011731289327144623,0.011550952680408955,-0.002453840570524335,-0.040439002215862274
0.021965818479657173,-0.004263506270945072,-0.011700688861310482,0.012045581825077534,-0.002251937286928296,-0.0401882641017437
0.021965818479657173,-0.004263506270945072,-0.011700688861310482,0.012045581825077534,-0.002251937286928296,-0.0401882641017437
0.025129521265625954,-0.00423166761174798,-0.011461671441793442,0.01196799986064434,-0.002030370756983757,-0.04019394516944885
0.024673789739608765,-0.004369813483208418,-0.011940049938857555,0.012365823611617088,-0.002158420393243432,-0.040879372507333755
0.024673789739608765,-0.004369813483208418,-0.011940049938857555,0.012365823611617088,-0.002158420393243432,-0.040879372507333755
0.024887913838028908,-0.0045766280964016914,-0.01193862035870552,0.011753561906516552,-0.0022406182251870632,-0.04077935963869095
0.024801181629300117,-0.004164045210927725,-0.012307276949286461,0.012335059233009815,-0.0025572977028787136,-0.040227558463811874
0.024635110050439835,-0.0043730298057198524,-0.011740321293473244,0.0117220189422369,-0.0026804362423717976,-0.040694430470466614
0.024171309545636177,-0.00427927216514945,-0.012530313804745674,0.011980186216533184,-0.0025457940064370632,-0.041382450610399246
0.024098332971334457,-0.00397493178024888,-0.011709194630384445,0.011762586422264576,-0.002652134746313095,-0.04058556631207466
0.02490057982504368,-0.00342684518545866,-0.012250552885234356,0.012140505015850067,-0.0028428840450942516,-0.04088864102959633
0.025587407872080803,-0.003484050277620554,-0.012270896695554256,0.012086104601621628,-0.0025272013153880835,-0.040876105427742004
0.02563423290848732,-0.004208465572446585,-0.011896827258169651,0.012412692420184612,-0.002302398905158043,-0.040678124874830246
0.02517235092818737,-0.004096167627722025,-0.011887953616678715,0.012290083803236485,-0.0021285787224769592,-0.040498554706573486
0.02513114921748638,-0.003548836335539818,-0.012332629412412643,0.012090392410755157,-0.0022672535851597786,-0.040654875338077545
0.024805765599012375,-0.003538480494171381,-0.012795894406735897,0.012550059705972672,-0.0026510332245379686,-0.04070216044783592
0.025430960580706596,-0.004004090558737516,-0.01276342011988163,0.011721592396497726,-0.0029108733870089054,-0.04154134541749954
0.02543574571609497,-0.004201292525976896,-0.012200509198009968,0.012004007585346699,-0.0029306893702596426,-0.04244813695549965
0.025566531345248222,-0.0041016023606061935,-0.012108996510505676,0.012114361859858036,-0.002838622545823455,-0.04121844470500946
0.025633132085204124,-0.0038652420043945312,-0.011595482937991619,0.012843078002333641,-0.0026733994018286467,-0.03960170969367027
0.02556855045258999,-0.0037992869038134813,-0.012490678578615189,0.013155318796634674,-0.002499295398592949,-0.041148699820041656
0.02598428912460804,-0.0033518525306135416,-0.012379823252558708,0.013196432963013649,-0.002670408459380269,-0.040007978677749634
0.026194721460342407,-0.003470779163762927,-0.012707825750112534,0.012471855618059635,-0.00285016349516809,-0.04336598888039589
0.02567421644926071,-0.0036960395518690348,-0.012657619081437588,0.013051788322627544,-0.003116861917078495,-0.042248692363500595
0.025665435940027237,-0.0038242493756115437,-0.012579445727169514,0.013669979758560658,-0.0027764509432017803,-0.04064599424600601
0.025852369144558907,-0.0038205720484256744,-0.012792525812983513,0.01306714117527008,-0.0026984037831425667,-0.04165482148528099
0.02578835003077984,-0.003826545085757971,-0.012130370363593102,0.013205708004534245,-0.002604877110570669,-0.04177941381931305
0.025936363264918327,-0.0037613038439303637,-0.013281225226819515,0.012797676958143711,-0.002361094346269965,-0.042049407958984375
0.026268821209669113,-0.0037044547498226166,-0.013394924812018871,0.013123022392392159,-0.0024822764098644257,-0.04177834093570709
0.02628934755921364,-0.0036464573349803686,-0.014072739519178867,0.012950005009770393,-0.002719354582950473,-0.04192092642188072
0.026429785415530205,-0.0037212022580206394,-0.01342692133039236,0.01304563321173191,-0.0028043370693922043,-0.041969139128923416
0.026716601103544235,-0.0038543748669326305,-0.014064899645745754,0.013569536618888378,-0.0027425403241068125,-0.04207343980669975
0.026416273787617683,-0.0034452711697667837,-0.013518063351511955,0.01344307605177164,-0.0031554102897644043,-0.04259132221341133
0.026416273787617683,-0.0034452711697667837,-0.013518063351511955,0.01344307605177164,-0.0031554102897644043,-0.04259132221341133
0.026147203519940376,-0.0035100842360407114,-0.013976547867059708,0.013366213999688625,-0.0033757502678781748,-0.042318448424339294
0.026882022619247437,-0.003814090508967638,-0.0142195550724864,0.01323417853564024,-0.00298889447003603,-0.04220829904079437
0.026299461722373962,-0.00375477341003716,-0.01355040818452835,0.012373010627925396,-0.0027070578653365374,-0.042916055768728256
0.02656923420727253,-0.003622752847149968,-0.014547565020620823,0.013131816871464252,-0.0025238406378775835,-0.044522009789943695
0.025372540578246117,-0.003622000804170966,-0.014405792579054832,0.012630210258066654,-0.002287500072270632,-0.044412579387426376
0.027254581451416016,-0.0036984116304665804,-0.014722153544425964,0.012972905300557613,-0.0024846107698976994,-0.04217657819390297
0.027297940105199814,-0.003790317103266716,-0.013668552041053772,0.012832704931497574,-0.0027222507633268833,-0.042650241404771805
0.027599211782217026,-0.0038353847339749336,-0.014363188296556473,0.013066527433693409,-0.002907872200012207,-0.0432293675839901
0.027827538549900055,-0.0034580593928694725,-0.014243947342038155,0.013567770831286907,-0.002907449146732688,-0.04475729539990425
0.02689489908516407,-0.0034611178562045097,-0.01444526482373476,0.012675754725933075,-0.003046260681003332,-0.044552478939294815
0.026570728048682213,-0.004192715045064688,-0.014561647549271584,0.013450891710817814,-0.002956409938633442,-0.04246623069047928
0.027537113055586815,-0.004165951162576675,-0.015245506539940834,0.013331810012459755,-0.0028101331554353237,-0.04332853853702545
0.027505705133080482,-0.003544045612215996,-0.01431925781071186,0.013839231804013252,-0.0027023395523428917,-0.04391920566558838
0.026990631595253944,-0.003376265289261937,-0.01467149518430233,0.013345685787498951,-0.0025731183122843504,-0.04272763058543205
0.027942797169089317,-0.0034138732589781284,-0.0141707519069314,0.014200489036738873,-0.002619929611682892,-0.043455105274915695
0.028252383694052696,-0.00346941570751369,-0.014322797767817974,0.013737472705543041,-0.0025133455637842417,-0.04446454718708992
0.027279498055577278,-0.003810661379247904,-0.013975588604807854,0.01406417228281498,-0.0024934711400419474,-0.0441630482673645
0.027475368231534958,-0.003919756039977074,-0.014583243057131767,0.013602439314126968,-0.002449296647682786,-0.04396897926926613
0.027308957651257515,-0.0036934183444827795,-0.01464614737778902,0.014019746333360672,-0.0024261658545583487,-0.0435708723962307
0.02733417972922325,-0.0035037011839449406,-0.015231669880449772,0.013943009078502655,-0.0028131105937063694,-0.044103413820266724
0.027807466685771942,-0.0035976769868284464,-0.014666274189949036,0.014240503311157227,-0.003278388874605298,-0.04396775737404823
0.028017813339829445,-0.00396044971421361,-0.01493032369762659,0.013944842852652073,-0.003192002885043621,-0.04440806061029434
0.02790670096874237,-0.004020340275019407,-0.014338788576424122,0.01380053162574768,-0.002764569129794836,-0.04466136917471886
0.027614697813987732,-0.003954479470849037,-0.014871204271912575,0.01363022718578577,-0.0027783201076090336,-0.04511944577097893
0.028047077357769012,-0.003438929794356227,-0.014585730619728565,0.0142842847853899,-0.0030326913110911846,-0.04508773982524872
0.028047077357769012,-0.003438929794356227,-0.014585730619728565,0.0142842847853899,-0.0030326913110911846,-0.04508773982524872
0.02809778042137623,-0.003606573212891817,-0.015553412027657032,0.014256288297474384,-0.003531437134370208,-0.044314585626125336
0.027744099497795105,-0.0038895283360034227,-0.015143840573728085,0.014435957185924053,-0.0031450504902750254,-0.04521948844194412
0.027619823813438416,-0.0034451615065336227,-0.014501345343887806,0.01496489904820919,-0.0027732406742870808,-0.04515455290675163
0.02796451561152935,-0.00357305770739913,-0.015753677114844322,0.014305751770734787,-0.0023199699353426695,-0.04442243278026581
0.02782127633690834,-0.0036997993011027575,-0.014676317572593689,0.014115015044808388,-0.0023909518495202065,-0.04581688344478607
0.028131971135735512,-0.0037181840743869543,-0.014861474744975567,0.013748024590313435,-0.002444764133542776,-0.045678962022066116
0.028230782598257065,-0.003633462591096759,-0.014951991848647594,0.013678300194442272,-0.00291615491732955,-0.04344838112592697
0.02784779667854309,-0.003638659603893757,-0.015243945643305779,0.013552716001868248,-0.0029442959930747747,-0.04482632875442505
0.029564430937170982,-0.0032978735398501158,-0.015329842455685139,0.013613488525152206,-0.0025482201017439365,-0.04551074653863907
0.028839295729994774,-0.0032163492869585752,-0.01516966987401247,0.013680108822882175,-0.002484077587723732,-0.04744287207722664
0.028539694845676422,-0.003227695357054472,-0.01507486216723919,0.013660095632076263,-0.0026303448248654604,-0.04446300491690636
0.02878114953637123,-0.003458549967035651,-0.014836341142654419,0.014017131179571152,-0.0031982967630028725,-0.04498227685689926
0.028520364314317703,-0.003789363196119666,-0.015197763219475746,0.013630756177008152,-0.0034297392703592777,-0.046750303357839584
0.029038378968834877,-0.003910376690328121,-0.014906937256455421,0.013512174598872662,-0.0033895066007971764,-0.046584080904722214
0.02988230064511299,-0.0039063976146280766,-0.015267551876604557,0.013253665529191494,-0.003096850821748376,-0.0461810939013958
0.029686035588383675,-0.0034261334221810102,-0.01521728653460741,0.014171083457767963,-0.0030494339298456907,-0.0467052087187767
0.0280716922134161,-0.0035056504420936108,-0.015332126058638096,0.014226745814085007,-0.0029642339795827866,-0.04692778363823891
0.028812779113650322,-0.003666490549221635,-0.01490191463381052,0.015017270110547543,-0.002843668917194009,-0.04688107222318649
0.02958589978516102,-0.0038237900007516146,-0.015620656311511993,0.01473592221736908,-0.002755692694336176,-0.04722348228096962
0.02914303168654442,-0.003733393270522356,-0.015012651681900024,0.014586356468498707,-0.0028026157524436712,-0.047468509525060654
0.02953016571700573,-0.0038127638399600983,-0.015206226147711277,0.014172391034662724,-0.0028804398607462645,-0.047086846083402634
0.030423711985349655,-0.0038827976677566767,-0.014838414266705513,0.014739331789314747,-0.003016937291249633,-0.04683962091803551
0.030312685295939445,-0.0040356763638556,-0.015815235674381256,0.01408859807997942,-0.0031423710752278566,-0.04792053997516632
0.02958797477185726,-0.0034930859692394733,-0.015118325129151344,0.014523345977067947,-0.0029278863221406937,-0.047478534281253815
0.02958797477185726,-0.0034930859692394733,-0.015118325129151344,0.014523345977067947,-0.0029278863221406937,-0.047478534281253815
0.02994641289114952,-0.0037137544713914394,-0.014972951263189316,0.015148523263633251,-0.0030314053874462843,-0.04734904319047928
0.02994641289114952,-0.0037137544713914394,-0.014972951263189316,0.015148523263633251,-0.0030314053874462843,-0.04734904319047928
0.030551603063941002,-0.0037818728014826775,-0.015413508750498295,0.015571140684187412,-0.003281546989455819,-0.04551215097308159
0.03058856539428234,-0.0037543342914432287,-0.015095312148332596,0.015864213928580284,-0.0031688385643064976,-0.046930454671382904
0.03099948726594448,-0.003781866980716586,-0.015497058629989624,0.01602896675467491,-0.002885079011321068,-0.048206012696027756
0.030315781012177467,-0.0038928359281271696,-0.01557961292564869,0.014635707251727581,-0.0028401347808539867,-0.04691586270928383
0.031017282977700233,-0.0034355157986283302,-0.015832001343369484,0.014523686841130257,-0.0031416986603289843,-0.04585430398583412
0.030441656708717346,-0.0035384963266551495,-0.015050324611365795,0.014874415472149849,-0.0035604634322226048,-0.04806746914982796
0.031767118722200394,-0.004212719853967428,-0.015607042238116264,0.014707069844007492,-0.003760291263461113,-0.04820333793759346
0.031232452020049095,-0.00404136860743165,-0.014881993643939495,0.015424053184688091,-0.0033259063493460417,-0.04776856303215027
0.03145356848835945,-0.003387768752872944,-0.015442242845892906,0.014990052208304405,-0.0031134486198425293,-0.04704694449901581
0.031080270186066628,-0.003272001165896654,-0.015138272196054459,0.015029262751340866,-0.0029225714970380068,-0.04722002148628235
0.03127030283212662,-0.003610634943470359,-0.015841035172343254,0.014441062696278095,-0.0029818955808877945,-0.047772131860256195
0.031473174691200256,-0.0038741466123610735,-0.01530610304325819,0.015150300227105618,-0.0028950453270226717,-0.047287467867136
0.03170251473784447,-0.0038085945416241884,-0.015264048241078854,0.014760034158825874,-0.0028376064728945494,-0.0476917140185833
0.03157099336385727,-0.003720290493220091,-0.015140175819396973,0.015428283251821995,-0.002579956315457821,-0.047767192125320435
0.03160392865538597,-0.004209240432828665,-0.015427112579345703,0.014860734343528748,-0.002454498317092657,-0.04717312380671501
0.032114580273628235,-0.004157382529228926,-0.015180738642811775,0.01551297027617693,-0.002676109317690134,-0.0470457449555397
0.03225690871477127,-0.003517558565363288,-0.015510297380387783,0.014885777607560158,-0.0028868624940514565,-0.048861563205718994
0.03215768560767174,-0.003395416308194399,-0.01563386246562004,0.014958414249122143,-0.0028763343580067158,-0.048189520835876465
0.03207174688577652,-0.003503684885799885,-0.015592685900628567,0.014770975336432457,-0.003200515639036894,-0.048195887356996536
0.03229828551411629,-0.0036178603768348694,-0.016030728816986084,0.015252141281962395,-0.003098428249359131,-0.04733062908053398
0.03242295980453491,-0.003502286272123456,-0.015383847989141941,0.015022524632513523,-0.00346222217194736,-0.04840810224413872
0.03230953589081764,-0.0035651898942887783,-0.015691079199314117,0.015328598208725452,-0.0036509190686047077,-0.0495324470102787
0.032794833183288574,-0.0038750614039599895,-0.015472650527954102,0.015137209556996822,-0.0036975941620767117,-0.04775965213775635
0.032794833183288574,-0.0038750614039599895,-0.015472650527954102,0.015137209556996822,-0.0036975941620767117,-0.04775965213775635
0.03271304443478584,-0.0037990654818713665,-0.01647896133363247,0.01551807951182127,-0.00348862586542964,-0.047929953783750534
0.03406453877687454,-0.0035698835272341967,-0.015711583197116852,0.015567272901535034,-0.003070416394621134,-0.04916314408183098
0.03370834141969681,-0.0038151019252836704,-0.015442552976310253,0.015862157568335533,-0.0033052682410925627,-0.04959997162222862
0.03370834141969681,-0.0038151019252836704,-0.015442552976310253,0.015862157568335533,-0.0033052682410925627,-0.04959997162222862
0.031210701912641525,-0.003855123883113265,-0.01585896499454975,0.01544380933046341,-0.0032340185716748238,-0.0484151728451252
0.0339529924094677,-0.0037085923831909895,-0.01609799452126026,0.015360024757683277,-0.0032017475459724665,-0.04947877302765846
0.033384017646312714,-0.003977055661380291,-0.01681164652109146,0.016163703054189682,-0.003340489463880658,-0.049535121768713
0.03404742106795311,-0.0038851886056363583,-0.015903059393167496,0.015614699572324753,-0.00326426699757576,-0.049720484763383865
0.03424026817083359,-0.003631750587373972,-0.016605470329523087,0.015864921733736992,-0.0035029002465307713,-0.049183327704668045
0.03345256671309471,-0.0033997884020209312,-0.016395488753914833,0.01552341878414154,-0.0033177006989717484,-0.04939865693449974
0.032748449593782425,-0.0038104706909507513,-0.016137730330228806,0.015440771356225014,-0.003083958523347974,-0.04953909292817116
0.03441007435321808,-0.004132293630391359,-0.01614445075392723,0.015301034785807133,-0.002821529284119606,-0.049098867923021317
0.03446624428033829,-0.0043535116128623486,-0.016221337020397186,0.015465221367776394,-0.0027534652035683393,-0.04903893545269966
0.03410110995173454,-0.004470217972993851,-0.016742629930377007,0.015312465839087963,-0.002601834712550044,-0.050472475588321686
0.034100491553545,-0.004658394493162632,-0.01618693396449089,0.01527549047023058,-0.002506055636331439,-0.04986623302102089
0.033901892602443695,-0.004451025277376175,-0.016409369185566902,0.016153687611222267,-0.0026894742622971535,-0.04869247227907181
0.034095749258995056,-0.0040497141890227795,-0.015733903273940086,0.01573188044130802,-0.003083790885284543,-0.050484586507081985
0.03469490632414818,-0.00417803879827261,-0.016681820154190063,0.01571398787200451,-0.0037039306480437517,-0.05106870085000992
0.03453397378325462,-0.004580163862556219,-0.016411390155553818,0.015331060625612736,-0.003723251400515437,-0.04900358244776726
0.034097544848918915,-0.0042639183811843395,-0.016221152618527412,0.015836818143725395,-0.003345807082951069,-0.04948101565241814
0.03442886471748352,-0.004504419397562742,-0.016563210636377335,0.01578430086374283,-0.002647987799718976,-0.050595056265592575
0.03459635376930237,-0.004734579939395189,-0.016416402533650398,0.01609385386109352,-0.002499411581084132,-0.05243552103638649
0.035060055553913116,-0.0043562897481024265,-0.017085572704672813,0.016048505902290344,-0.002478680107742548,-0.049857452511787415
0.03456571698188782,-0.003951313905417919,-0.01602763868868351,0.015938805416226387,-0.0030344370752573013,-0.049281250685453415
0.03322623297572136,-0.003833683906123042,-0.016476351767778397,0.015728693455457687,-0.00349525292403996,-0.05115708336234093
0.035130374133586884,-0.004139910452067852,-0.01669618859887123,0.01544247753918171,-0.0035286457277834415,-0.050952862948179245
0.03637447580695152,-0.004498410504311323,-0.01656276173889637,0.01581372320652008,-0.0035029673017561436,-0.05103948339819908
0.03588787093758583,-0.004249474965035915,-0.017474839463829994,0.015891991555690765,-0.0036119408905506134,-0.05067043378949165
0.033991966396570206,-0.004467440769076347,-0.016550187021493912,0.016855651512742043,-0.003984892275184393,-0.050599515438079834
0.033991966396570206,-0.004467440769076347,-0.016550187021493912,0.016855651512742043,-0.003984892275184393,-0.050599515438079834
0.03448832035064697,-0.004545905627310276,-0.017097629606723785,0.01675664260983467,-0.0039550685323774815,-0.050496336072683334
0.03557809442281723,-0.004308475647121668,-0.016476385295391083,0.017012475058436394,-0.003530641086399555,-0.05074536055326462
0.036403268575668335,-0.004122879356145859,-0.01736104115843773,0.015617778524756432,-0.002661244012415409,-0.051189206540584564
0.03587862104177475,-0.004130080342292786,-0.0168120339512825,0.015900520607829094,-0.0025956430472433567,-0.0507831908762455
0.03526295721530914,-0.004436491057276726,-0.017307335510849953,0.015873903408646584,-0.0028227248694747686,-0.050893642008304596
0.03505799174308777,-0.004113851580768824,-0.017095377668738365,0.01681528612971306,-0.0033169861417263746,-0.05088804289698601
0.03563893958926201,-0.004391638562083244,-0.01785058155655861,0.01677718199789524,-0.0037464911583811045,-0.05153445526957512
0.03600724786520004,-0.0041441526263952255,-0.018336916342377663,0.01685987040400505,-0.0035242384765297174,-0.05281827598810196
