davideferrari95/blind_handover_controller/data/Test 242 - [2024-02-08 -- 12-34-56]/joint_states_data.csv
shoulder_pan_joint,shoulder_lift_joint,elbow_joint,wrist_1_joint,wrist_2_joint,wrist_3_joint
0.006854683626443148,0.0077806334011256695,-0.012273755855858326,0.004876754246652126,0.0,0.008048891089856625
0.006854683626443148,0.0077806334011256695,-0.012273755855858326,0.004876754246652126,0.0,0.008048891089856625
0.006916080601513386,0.007778140716254711,-0.011646282859146595,0.004506183322519064,0.0,0.00778311537578702
0.006916080601513386,0.007778140716254711,-0.011646282859146595,0.004506183322519064,0.0,0.00778311537578702
0.007092172745615244,0.007751447148621082,-0.012260067276656628,0.004501867573708296,0.0,0.007274831645190716
0.00773756206035614,0.0074674091301858425,-0.011676023714244366,0.004668273963034153,0.0,0.00771154323592782
0.007045204285532236,0.008118860423564911,-0.012432473711669445,0.0048089465126395226,0.0,0.007623110897839069
0.006800226867198944,0.00794507097452879,-0.011433631181716919,0.004926668014377356,0.0,0.007412100676447153
0.006800226867198944,0.00794507097452879,-0.011433631181716919,0.004926668014377356,0.0,0.007412100676447153
0.007178973406553268,0.008034415543079376,-0.011917859315872192,0.004672244191169739,0.0,0.007324411068111658
0.007313953712582588,0.007953048683702946,-0.012045078910887241,0.004612116143107414,0.0,0.007364975288510323
0.00673142122104764,0.007695814128965139,-0.011475250124931335,0.0049186511896550655,0.0,0.007429442368447781
0.006877935957163572,0.007399834226816893,-0.011587751097977161,0.005032336339354515,0.0,0.0073365396820008755
0.007164232898503542,0.007721909321844578,-0.012368868105113506,0.004919797647744417,0.0,0.007309436798095703
0.007039791438728571,0.008099199272692204,-0.011497307568788528,0.004651886876672506,0.0,0.007468135096132755
0.006940294988453388,0.008116059936583042,-0.011941357515752316,0.004516297485679388,0.0,0.007717255502939224
0.007224299944937229,0.007789181545376778,-0.01152605377137661,0.0044515253975987434,0.0,0.007161610294133425
0.007063357159495354,0.00848567858338356,-0.011783689260482788,0.004984675440937281,0.0,0.007303860504180193
0.00733583327382803,0.007989131845533848,-0.01211575511842966,0.005019159987568855,0.0,0.007601041812449694
0.007329190149903297,0.007483630906790495,-0.011415914632380009,0.00493905134499073,0.0,0.007116543594747782
0.0074395230039954185,0.007690854370594025,-0.011923953890800476,0.0050052981823682785,0.0,0.007148032076656818
0.006960374303162098,0.007885727100074291,-0.012058446183800697,0.004922330845147371,0.0,0.007213005796074867
0.007192786782979965,0.007282592356204987,-0.011979762464761734,0.004823056049644947,0.0,0.0073173376731574535
0.007475246209651232,0.006996361538767815,-0.012025983072817326,0.004728646017611027,0.0,0.008053935132920742
0.0067965248599648476,0.006391677539795637,-0.01136177871376276,0.004707354586571455,0.0,0.007786162197589874
0.007047463674098253,0.008194242604076862,-0.012090936303138733,0.004919741302728653,0.0,0.007723713759332895
0.007047463674098253,0.008194242604076862,-0.012090936303138733,0.004919741302728653,0.0,0.007723713759332895
0.007310904562473297,0.006107374094426632,-0.011316622607409954,0.004950860980898142,0.0,0.006913432851433754
0.0073293522000312805,0.007420681416988373,-0.011610177345573902,0.00503655057400465,0.0,0.00705163087695837
0.00687655434012413,0.0075297048315405846,-0.011719640344381332,0.00494132936000824,0.0,0.007027562242001295
0.006998997647315264,0.00747618917375803,-0.011369564570486546,0.004745587706565857,0.0,0.007158119697123766
0.007139150053262711,0.007476480677723885,-0.012200433760881424,0.004736905451864004,0.0,0.007160446606576443
0.007174456492066383,0.007120529655367136,-0.01145497988909483,0.005079289432615042,0.0,0.007037008181214333
0.007078135386109352,0.0073560564778745174,-0.011815606616437435,0.004997909534722567,0.0,0.007134399842470884
0.007400348782539368,0.007627333514392376,-0.011378461495041847,0.005030528176575899,0.0,0.007159791421145201
0.006921861320734024,0.007095118053257465,-0.011795058846473694,0.004789197351783514,0.0,0.007537798024713993
0.006799261085689068,0.007277252618223429,-0.011198649182915688,0.004472036845982075,0.0,0.007771220989525318
0.007169434800744057,0.007690292317420244,-0.011492056772112846,0.004599808249622583,0.0,0.0070830159820616245
0.006940643768757582,0.007096045184880495,-0.011604195460677147,0.004859792999923229,0.0,0.006747071165591478
0.006828467361629009,0.007332364097237587,-0.011525790207087994,0.004596473649144173,0.0,0.00672116968780756
0.006840050686150789,0.007672553416341543,-0.011976143345236778,0.004511683713644743,0.0,0.006989882793277502
0.007405274547636509,0.007736971601843834,-0.011283316649496555,0.004429123364388943,0.0,0.007394434418529272
0.007147364784032106,0.007507092785090208,-0.01172251719981432,0.0042300354689359665,0.0,0.007565611507743597
0.007214370183646679,0.006967388559132814,-0.011632191017270088,0.0043724337592720985,0.0,0.007054363377392292
0.0074810911901295185,0.006919829174876213,-0.01140623725950718,0.004926428198814392,0.0,0.006736312992870808
0.00769709050655365,0.007407574914395809,-0.011942368000745773,0.004842137452214956,0.0,0.0070292348973453045
0.00785212591290474,0.008133919909596443,-0.01119737233966589,0.004587021190673113,0.0,0.007149978540837765
0.006875936407595873,0.006798270158469677,-0.01164213102310896,0.0041921124793589115,0.0,0.006862633861601353
0.0066223726607859135,0.0066625033505260944,-0.011327121406793594,0.003957130014896393,0.0,0.0070989676751196384
0.007014390081167221,0.007263784296810627,-0.011079473420977592,0.004324772395193577,0.0,0.00743565009906888
0.007222676184028387,0.007379235699772835,-0.01207798533141613,0.004981027450412512,0.0,0.007164782378822565
0.007121070753782988,0.007144150324165821,-0.011583929881453514,0.005021567456424236,0.0,0.0069868434220552444
0.007008047308772802,0.0070390840992331505,-0.011668330058455467,0.004950810689479113,0.0,0.006971727591007948
0.0068317800760269165,0.0073200734332203865,-0.01169822458177805,0.00479862792417407,0.0,0.007193056866526604
0.007287181448191404,0.0070988270454108715,-0.011341767385601997,0.004659113008528948,0.0,0.006438662298023701
0.00799606554210186,0.007319123018532991,-0.012317102402448654,0.004267208278179169,0.0,0.006451404187828302
0.007265146356076002,0.007081176154315472,-0.011566590517759323,0.004345613997429609,0.0,0.006605550646781921
0.007265146356076002,0.007081176154315472,-0.011566590517759323,0.004345613997429609,0.0,0.006605550646781921
0.006656162440776825,0.007967988029122353,-0.01194547675549984,0.004714891314506531,0.0,0.006929507479071617
0.007030359469354153,0.007821330800652504,-0.012042628601193428,0.00479334220290184,0.0,0.007235381752252579
0.008081842213869095,0.006919851526618004,-0.011837413534522057,0.004686982370913029,0.0,0.006921626627445221
0.007140252273529768,0.007443485781550407,-0.011929638683795929,0.004468745086342096,0.0,0.007227966096252203
0.006775442976504564,0.007600642275065184,-0.011609955690801144,0.004169211722910404,0.0,0.007013745605945587
0.007452760823071003,0.007086265366524458,-0.011752785183489323,0.004610202740877867,0.0,0.006766601465642452
0.007321373093873262,0.0067065865732729435,-0.011773313395678997,0.0048349834978580475,0.0,0.00671320129185915
0.007321373093873262,0.0067065865732729435,-0.011773313395678997,0.0048349834978580475,0.0,0.00671320129185915
0.0070866309106349945,0.00719826016575098,-0.012271901592612267,0.004289374686777592,0.0,0.006483122706413269
0.007290922570973635,0.00663061672821641,-0.012506112456321716,0.004673426505178213,0.0,0.006575372070074081
0.0071984222158789635,0.00684179225936532,-0.01199264731258154,0.005064663477241993,0.0,0.006828320678323507
0.006977117154747248,0.007291670423001051,-0.01223014947026968,0.004846926312893629,0.0,0.006764997728168964
0.007399065885692835,0.007786490023136139,-0.011881811544299126,0.004862179979681969,0.0,0.006485643796622753
0.007426522206515074,0.0070862132124602795,-0.01179109513759613,0.0051683783531188965,0.0,0.006254654843360186
0.007343623787164688,0.007249136921018362,-0.012682017870247364,0.004687600303441286,0.0,0.006491356063634157
0.007204633671790361,0.006729920860379934,-0.011521905660629272,0.004533845465630293,0.0,0.006474034395068884
0.007272462826222181,0.007228356786072254,-0.011722649447619915,0.004562167916446924,0.0,0.007061263080686331
0.007673987187445164,0.007198391016572714,-0.011867466382682323,0.004505590070039034,0.0,0.007505963556468487
0.007458077743649483,0.006568816490471363,-0.011416628956794739,0.004787599202245474,0.0,0.007173923775553703
0.006958615034818649,0.006737737916409969,-0.011162356473505497,0.004973478149622679,0.0,0.006732488051056862
0.007400629576295614,0.006974630989134312,-0.01183202862739563,0.0048250239342451096,0.0,0.006242061499506235
0.007674961816519499,0.007455884944647551,-0.012766807340085506,0.004595581442117691,0.0,0.0065303221344947815
0.007379647344350815,0.007029256783425808,-0.011344392783939838,0.004690481349825859,0.0,0.006815396714955568
0.007214725483208895,0.00659992266446352,-0.011357511393725872,0.004708110820502043,0.0,0.006332485005259514
0.00728605268523097,0.006477307062596083,-0.011929493397474289,0.004684779327362776,0.0,0.006509438622742891
0.007365867495536804,0.006975072436034679,-0.011554324999451637,0.004700484685599804,0.0,0.006576547399163246
0.007631251588463783,0.006908899638801813,-0.012271723710000515,0.004874781239777803,0.0,0.006316407583653927
0.007075619418174028,0.006462567951530218,-0.012089884839951992,0.004455622285604477,0.0,0.005947645287960768
0.007075619418174028,0.006462567951530218,-0.012089884839951992,0.004455622285604477,0.0,0.005947645287960768
0.007360580377280712,0.006218127906322479,-0.011371355503797531,0.00446077436208725,0.0,0.006226127035915852
0.00758984312415123,0.0069194664247334,-0.011693624779582024,0.00451627979055047,0.0,0.006753366906195879
0.00769156264141202,0.006848810240626335,-0.011931908316910267,0.004619379062205553,0.0,0.006727198138833046
0.007079970091581345,0.006680821999907494,-0.012121663428843021,0.00470876507461071,0.0,0.006308890879154205
0.007461044006049633,0.006749716121703386,-0.011505291797220707,0.004636968486011028,0.0,0.0062571638263762
0.007633394096046686,0.007426642347127199,-0.01111727673560381,0.004655533470213413,0.0,0.006700859870761633
0.007538948208093643,0.007069539278745651,-0.011602820828557014,0.004701240919530392,0.0,0.0062647233717143536
0.007438275963068008,0.006658424623310566,-0.011844877153635025,0.004833885934203863,0.0,0.0060165212489664555
0.007562665734440088,0.006334762554615736,-0.011522060260176659,0.004701371304690838,0.0,0.00592662300914526
0.008019402623176575,0.007216636557132006,-0.011367949657142162,0.00505198584869504,0.0,0.006174357607960701
0.007928639650344849,0.007374993525445461,-0.011834956705570221,0.005328360013663769,0.0,0.006334872450679541
0.007855101488530636,0.006735311821103096,-0.011307968758046627,0.005232801660895348,0.0,0.006207250524312258
0.007862215861678123,0.006239054258912802,-0.011501781642436981,0.004946165718138218,0.0,0.005453944206237793
0.007688663899898529,0.006851610727608204,-0.011728616431355476,0.004879185929894447,0.0,0.005133835598826408
0.00761601934209466,0.007118011359125376,-0.011358734220266342,0.005153503734618425,0.0,0.005822161678224802
0.007725472562015057,0.007373288739472628,-0.011433734558522701,0.005034241359680891,0.0,0.006012178957462311
0.00714487861841917,0.0070406654849648476,-0.011088498868048191,0.004877012688666582,0.0,0.006152202375233173
0.008092112839221954,0.006559191737323999,-0.011498832143843174,0.004637744277715683,0.0,0.006165013648569584
0.0078067234717309475,0.007027250248938799,-0.011789821088314056,0.0047873882576823235,0.0,0.005630980711430311
0.007818236947059631,0.006827074568718672,-0.010913414880633354,0.004706388805061579,0.0,0.005900993011891842
0.007968350313603878,0.006910383235663176,-0.011276532895863056,0.005285877268761396,0.0,0.005885673221200705
0.00768139585852623,0.00700072618201375,-0.011832356452941895,0.0053137741051614285,0.0,0.006548355799168348
0.007531249430030584,0.007529757916927338,-0.011572977527976036,0.004901421722024679,0.0,0.006458721589297056
0.0075305369682610035,0.0075896307826042175,-0.011024328880012035,0.004570449702441692,0.0,0.005773513577878475
0.008078326471149921,0.007010600529611111,-0.010582225397229195,0.0047114999033510685,0.0,0.005775766912847757
0.00767480256035924,0.007325984537601471,-0.011090406216681004,0.0048932223580777645,0.0,0.005643839947879314
0.00668310234323144,0.006833795458078384,-0.011027061380445957,0.004516589920967817,0.0,0.0061151981353759766
0.007427941542118788,0.007070901803672314,-0.010323354974389076,0.004924978129565716,0.0,0.005890437867492437
0.0076082549057900906,0.006818053778260946,-0.010661712847650051,0.005239853635430336,0.0,0.006004901137202978
0.0074155875481665134,0.006905246526002884,-0.010434389114379883,0.004991081543266773,0.0,0.006182721350342035
0.007486057933419943,0.00733252102509141,-0.010257902555167675,0.004668841138482094,0.0,0.005695862229913473
0.007511537056416273,0.007335539907217026,-0.010878982953727245,0.004833313636481762,0.0,0.006348862312734127
0.007511537056416273,0.007335539907217026,-0.010878982953727245,0.004833313636481762,0.0,0.006348862312734127
0.0076172323897480965,0.0069485995918512344,-0.01041281595826149,0.004760334268212318,0.0,0.0059543210081756115
0.007504082750529051,0.007390609942376614,-0.010700098238885403,0.005266735330224037,0.0,0.005820913705974817
0.007376531139016151,0.007657445967197418,-0.010841865092515945,0.005268723703920841,0.0,0.005664639174938202
0.008158113807439804,0.007140386383980513,-0.01050499640405178,0.004996492061764002,0.0,0.005954954773187637
0.007930385880172253,0.007775761652737856,-0.010424179956316948,0.00514493091031909,0.0,0.006027187220752239
0.007930385880172253,0.007775761652737856,-0.010424179956316948,0.00514493091031909,0.0,0.006027187220752239
0.007788222748786211,0.007276969961822033,-0.010793441906571388,0.005380016751587391,0.0,0.005617487709969282
0.008060150779783726,0.007139307446777821,-0.010681193321943283,0.005074191838502884,0.0,0.005697609391063452
0.00778438663110137,0.007085605524480343,-0.010889274068176746,0.0047175283543765545,0.0,0.005740060005337
0.00770557951182127,0.006885966286063194,-0.011010466143488884,0.004643715918064117,0.0,0.0060538845136761665
0.00832708552479744,0.007461772300302982,-0.010716348886489868,0.004702437669038773,0.0,0.005634137894958258
0.00855351984500885,0.007105070631951094,-0.011971975676715374,0.004875087644904852,0.0,0.005817631725221872
0.008022304624319077,0.006996141746640205,-0.011115647852420807,0.005096254870295525,0.0,0.0055730631574988365
0.007789081893861294,0.006782625801861286,-0.010917543433606625,0.004815792199224234,0.0,0.00583651103079319
0.008086033165454865,0.0072007025592029095,-0.011398863978683949,0.00462557515129447,0.0,0.005639253184199333
0.007771999575197697,0.007365187164396048,-0.010986530221998692,0.004577632062137127,0.0,0.005364380311220884
0.007630566600710154,0.0069323256611824036,-0.011286563239991665,0.004705083090811968,0.0,0.005549205467104912
0.007914036512374878,0.00727742537856102,-0.011216707527637482,0.005062977317720652,0.0,0.006034466437995434
0.008145288564264774,0.007904528640210629,-0.01072127278894186,0.0051190853118896484,0.0,0.005751518998295069
0.008197834715247154,0.006978701800107956,-0.01145317405462265,0.004916767589747906,0.0,0.0058562555350363255
0.007668221835047007,0.006587579846382141,-0.011412257328629494,0.0047719432041049,0.0,0.005262217950075865
0.008058992214500904,0.00682096928358078,-0.012242025695741177,0.004683602601289749,0.0,0.004984401166439056
0.008101401850581169,0.0069757187739014626,-0.011455289088189602,0.005032057408243418,0.0,0.005235713440924883
0.008116510696709156,0.007160577457398176,-0.01076644379645586,0.005012636072933674,0.0,0.004970564506947994
0.008318832144141197,0.006797155365347862,-0.011160703375935555,0.005340036936104298,0.0,0.004980509635061026
0.008162148296833038,0.007146307732909918,-0.011030064895749092,0.005455768201500177,0.0,0.005398782901465893
0.00831934530287981,0.00655693095177412,-0.011551100760698318,0.005054606590420008,0.0,0.005173230543732643
0.00831934530287981,0.00655693095177412,-0.011551100760698318,0.005054606590420008,0.0,0.005173230543732643
0.007759325671941042,0.006775801535695791,-0.012013298459351063,0.0048316651955246925,0.0,0.0052182856015861034
0.008190451189875603,0.006765266414731741,-0.01117019820958376,0.005097263492643833,0.0,0.0051467749290168285
0.008253964595496655,0.0068735056556761265,-0.011826511472463608,0.005440352950245142,0.0,0.0051336633041501045
0.008253964595496655,0.0068735056556761265,-0.011826511472463608,0.005440352950245142,0.0,0.0051336633041501045
0.008686590008437634,0.0066555822268128395,-0.01139126718044281,0.004961508326232433,0.0,0.004754926543682814
0.00853033922612667,0.006374558433890343,-0.011433430016040802,0.004483433905988932,0.0,0.004901139065623283
0.008107882924377918,0.006535479333251715,-0.01201135478913784,0.004762525670230389,0.0,0.0050520519725978374
0.00831607822328806,0.007304333616048098,-0.0113450912758708,0.0048055644147098064,0.0,0.004872561898082495
0.008380836807191372,0.0068306997418403625,-0.010834894143044949,0.005110073368996382,0.0,0.004829266108572483
0.008567091077566147,0.006411097012460232,-0.011725184507668018,0.005707840900868177,0.0,0.005166166462004185
0.00851693470031023,0.006567984353750944,-0.010929911397397518,0.005433996208012104,0.0,0.0046744258143007755
0.008724253624677658,0.006641429383307695,-0.011212948709726334,0.004883963614702225,0.0,0.004492952488362789
0.008717098273336887,0.0073872520588338375,-0.011419674381613731,0.0046134148724377155,0.0,0.004585303831845522
0.008999640122056007,0.007468384224921465,-0.011902550235390663,0.004701454658061266,0.0,0.005078718066215515
0.008881660178303719,0.006543197203427553,-0.0101791275665164,0.0053675612434744835,0.0,0.004966313485056162
0.009002101607620716,0.006483164615929127,-0.011099761351943016,0.005710193421691656,0.0,0.004928817972540855
0.008566503413021564,0.006845522206276655,-0.011407511308789253,0.005297901574522257,0.0,0.004910201299935579
0.008563444018363953,0.007310759741812944,-0.011474411934614182,0.005133771803230047,0.0,0.004762479104101658
0.008902225643396378,0.0067941914312541485,-0.010731393471360207,0.004943791311234236,0.0,0.004709992092102766
0.00884869322180748,0.006388070061802864,-0.011742628179490566,0.004711161367595196,0.0,0.004672900773584843
0.00881923083215952,0.006395108066499233,-0.011133367195725441,0.005267169326543808,0.0,0.004661970771849155
0.0091529106721282,0.007008680142462254,-0.012158548459410667,0.005326165817677975,0.0,0.004756147973239422
0.009296787902712822,0.006935580167919397,-0.011388005688786507,0.005456902086734772,0.0,0.004765298217535019
0.00859072059392929,0.00692241033539176,-0.010990509763360023,0.0056897541508078575,0.0,0.004908937960863113
0.008789412677288055,0.006991069298237562,-0.011340469121932983,0.004961470607668161,0.0,0.00489755067974329
0.00943914894014597,0.006748374085873365,-0.011249084025621414,0.004912189207971096,0.0,0.004394280258566141
0.008690924383699894,0.006955660413950682,-0.011162355542182922,0.005447206553071737,0.0,0.00438315374776721
0.008900216780602932,0.00670729810371995,-0.011543949134647846,0.005590885411947966,0.0,0.004549896810203791
0.008900216780602932,0.00670729810371995,-0.011543949134647846,0.005590885411947966,0.0,0.004549896810203791
0.008903398178517818,0.006880173459649086,-0.010892483405768871,0.005568719003349543,0.0,0.004710023757070303
0.00875178910791874,0.00710959592834115,-0.011741135269403458,0.005278542637825012,0.0,0.004749424755573273
0.008849921636283398,0.007593556772917509,-0.011950591579079628,0.0052450234070420265,0.0,0.004306908696889877
0.009037259966135025,0.006450606510043144,-0.01150023564696312,0.005749966017901897,0.0,0.004123731516301632
0.00872029922902584,0.006604859139770269,-0.010935129597783089,0.005494366865605116,0.0,0.004048292990773916
0.009224859066307545,0.00727941794320941,-0.011458326131105423,0.005117510911077261,0.0,0.004391530063003302
0.009223133325576782,0.007085561286658049,-0.011347955092787743,0.005060805007815361,0.0,0.004687651060521603
0.009319675154983997,0.006897680927067995,-0.01112800557166338,0.004905991721898317,0.0,0.004384065046906471
0.009090375155210495,0.006708555854856968,-0.011973817832767963,0.0049366578459739685,0.0,0.004376404918730259
0.009606420062482357,0.007289619650691748,-0.010974985547363758,0.005146185867488384,0.0,0.004202319774776697
0.009005693718791008,0.00686951307579875,-0.011901521123945713,0.005066800396889448,0.0,0.003989630378782749
0.0095185786485672,0.006597904954105616,-0.011646945960819721,0.005137797445058823,0.0,0.0034858991857618093
0.009730528108775616,0.006550270598381758,-0.011113066226243973,0.0053867315873503685,0.0,0.003975721076130867
0.009173030965030193,0.007013692520558834,-0.011938272044062614,0.005292294546961784,0.0,0.004180650692433119
0.009558363817632198,0.006946910638362169,-0.011593010276556015,0.005930849816650152,2.8416118880159047e-07,0.004294639453291893
0.009521739557385445,0.006297508254647255,-0.011951735243201256,0.006433633156120777,1.8553695468881415e-08,0.0040192981250584126
0.009600806050002575,0.0064090462401509285,-0.01170843280851841,0.005792584735900164,1.2114237391003257e-09,0.0035625931341201067
0.009576575830578804,0.006902636960148811,-0.011025730520486832,0.005663902033120394,7.909731203348258e-11,0.0037140147760510445
0.010067850351333618,0.006988684181123972,-0.011856051161885262,0.005297210067510605,5.16448949577919e-12,0.004115816205739975
0.00948344450443983,0.006659841630607843,-0.011511305347084999,0.005132425110787153,3.3720424998280596e-13,0.003985233139246702
0.009576047770678997,0.006358371116220951,-0.011289681307971478,0.005851712543517351,2.2017027347868805e-14,0.003783317981287837
0.009853518567979336,0.006673173513263464,-0.011761493049561977,0.006216500885784626,1.4375545660477262e-15,0.00420730235055089
0.0097687728703022,0.007009545806795359,-0.011107916943728924,0.005865604616701603,9.386203699096417e-17,0.004109823144972324
0.010666104033589363,0.007394799031317234,-0.011618977412581444,0.005539348814636469,6.1285203606303594e-18,0.0035718597937375307
0.010666104033589363,0.007394799031317234,-0.011618977412581444,0.005539348814636469,6.1285203606303594e-18,0.0035718597937375307
0.0096305962651968,0.006226862780749798,-0.011428209021687508,0.006288051605224609,2.6126843767546898e-20,0.0035144148860126734
0.009987280704081059,0.006305198185145855,-0.011734495870769024,0.005770692601799965,1.7058962332449212e-21,0.003662488888949156
0.010598096065223217,0.006929539609700441,-0.011462150141596794,0.005538132973015308,1.1138283054855901e-22,0.0035296459682285786
0.009690147824585438,0.0066578988917171955,-0.011809239163994789,0.005108233541250229,7.272503163206171e-24,0.003469676710665226
0.009690147824585438,0.0066578988917171955,-0.011809239163994789,0.005108233541250229,7.272503163206171e-24,0.003469676710665226
0.009888253174722195,0.006360998377203941,-0.01152315828949213,0.005442939233034849,4.748424466423374e-25,0.003642457537353039
0.010101049207150936,0.006535943131893873,-0.011208868585526943,0.005953405052423477,3.100382054145994e-26,0.003901295829564333
0.011117498390376568,0.0068778591230511665,-0.011171240359544754,0.005391879938542843,1.3217415263380336e-28,0.003502048784866929
0.010294703766703606,0.006763340439647436,-0.011781272478401661,0.005149340257048607,8.630027381590135e-30,0.003234676318243146
0.010066002607345581,0.006696752272546291,-0.011518117971718311,0.005461996886879206,5.634790945384176e-31,0.0034595441538840532
0.010809080675244331,0.006312365178018808,-0.01175442524254322,0.006110596004873514,3.679115704196558e-32,0.0036761260125786066
0.010064328089356422,0.006915605161339045,-0.011749624274671078,0.006093896459788084,2.4021994803801326e-33,0.0037741903215646744
0.009976344183087349,0.006631261203438044,-0.011309766210615635,0.006041213870048523,1.5684646377783226e-34,0.0033543116878718138
0.010935368947684765,0.006733053829520941,-0.011744034476578236,0.005965570919215679,1.0240953563069624e-35,0.003385143121704459
0.010086189024150372,0.006158378906548023,-0.011802581138908863,0.005870859604328871,6.6866110828361535e-37,0.003673132974654436
0.009872591122984886,0.0064092050306499004,-0.011272372677922249,0.006166297476738691,4.365879329737157e-38,0.0037133055739104748
0.010275010019540787,0.006540280766785145,-0.011646978557109833,0.006254540756344795,2.8506068153358667e-39,0.003509556408971548
0.010608889162540436,0.006307489238679409,-0.011221105232834816,0.006068830378353596,1.8612466592701518e-40,0.002984660677611828
0.010248968377709389,0.006172147113829851,-0.012011466547846794,0.005981681402772665,1.2152060282624814e-41,0.0027575611602514982
0.010742704384028912,0.006156740710139275,-0.011874291114509106,0.005807772278785706,7.931349308078465e-43,0.003097105072811246
0.010161138139665127,0.006676767021417618,-0.011340752243995667,0.0059874518774449825,5.184804318001823e-44,0.0030867564491927624
0.010546737350523472,0.0060952454805374146,-0.011654749512672424,0.006398607976734638,2.802596928649634e-45,0.0033585343044251204
0.010141213424503803,0.005968023091554642,-0.011510957963764668,0.006496389862149954,0.0,0.0034327595494687557
0.010381019674241543,0.006528336089104414,-0.01221014466136694,0.005946848541498184,0.0,0.003365833777934313
0.011257525533437729,0.006282291375100613,-0.011479354463517666,0.006278233136981726,0.0,0.0028692518826574087
0.01062012743204832,0.006103908643126488,-0.012297920882701874,0.006587039213627577,0.0,0.002708905376493931
0.0104666231200099,0.005902239587157965,-0.012351248413324356,0.006410674192011356,0.0,0.0028053487185388803
0.0104666231200099,0.005902239587157965,-0.012351248413324356,0.006410674192011356,0.0,0.0028053487185388803
0.011081558652222157,0.005906655453145504,-0.011472772806882858,0.006366208661347628,0.0,0.003079918446019292
0.010999338701367378,0.006094423122704029,-0.011853473260998726,0.006165544036775827,0.0,0.0031272328924387693
0.010354550555348396,0.006334872916340828,-0.011678710579872131,0.005771166179329157,0.0,0.002931439084932208
0.010730080306529999,0.006496010813862085,-0.012380053289234638,0.006352280732244253,0.0,0.0028129012789577246
0.010688450187444687,0.006118523422628641,-0.012152392417192459,0.006044736132025719,0.0,0.0028264084830880165
0.011214548721909523,0.0053867558017373085,-0.011937089264392853,0.005845303647220135,0.0,0.0029845237731933594
0.0102902352809906,0.005854143761098385,-0.012282229028642178,0.005494627635926008,0.0,0.003226574044674635
0.010886299423873425,0.006179549265652895,-0.012583732604980469,0.006019184365868568,0.0,0.002871597185730934
0.010980633087456226,0.005940652918070555,-0.012967833317816257,0.006080535240471363,0.0,0.0027927870396524668
0.010145874693989754,0.005408396944403648,-0.012653716839849949,0.006093402858823538,0.0,0.00265533197671175
0.010644763708114624,0.005332892294973135,-0.012199766933918,0.0056223091669380665,0.0,0.00254433392547071
0.010262807831168175,0.005684881936758757,-0.011774474754929543,0.006127445958554745,0.0,0.002558169886469841
0.01075451634824276,0.006090232636779547,-0.012607182376086712,0.006654854863882065,0.0,0.0025281463749706745
0.010769553482532501,0.005581192672252655,-0.012589856050908566,0.0064065163023769855,0.0,0.002472592517733574
0.01026047021150589,0.005659044254571199,-0.012647222727537155,0.005950593855232,0.0,0.0025260737165808678
0.010538891889154911,0.006130147725343704,-0.012991606257855892,0.006230184342712164,0.0,0.0026325066573917866
0.01080254279077053,0.005785690154880285,-0.013013041578233242,0.006416110321879387,0.0,0.002547754207625985
0.010366511531174183,0.005740474909543991,-0.012886233627796173,0.0063046785071492195,0.0,0.0026977229863405228
0.010852045379579067,0.005630101077258587,-0.012351353652775288,0.006196357309818268,0.0,0.0025657042860984802
0.01103266142308712,0.006028655916452408,-0.0130845345556736,0.006083799991756678,0.0,0.0024678220506757498
0.01016823947429657,0.005587209481745958,-0.01197833102196455,0.006315356586128473,0.0,0.0023990871850401163
0.010669054463505745,0.005834565497934818,-0.012576881796121597,0.006593775004148483,0.0,0.0023601031862199306
0.010652832686901093,0.005403940100222826,-0.012065509334206581,0.00648915022611618,-6.42633021925576e-05,0.0023187000770121813
0.010276660323143005,0.005416973028331995,-0.0126218656077981,0.006309067364782095,-7.134709449019283e-05,0.0024231981951743364
0.010795814916491508,0.005489732138812542,-0.01246576476842165,0.006304900161921978,-7.075438043102622e-05,0.0022405467461794615
0.010795814916491508,0.005489732138812542,-0.01246576476842165,0.006304900161921978,-7.075438043102622e-05,0.0022405467461794615
0.0106520876288414,0.006059287581592798,-0.012128926813602448,0.0067944698967039585,-6.969318928895518e-05,0.0022536865435540676
0.010733215138316154,0.00558930030092597,-0.013086066581308842,0.007298396434634924,-6.863247836008668e-05,0.002307435031980276
0.010803607292473316,0.005960253067314625,-0.012084399349987507,0.006693963427096605,-6.760156975360587e-05,0.002317936159670353
0.010376827791333199,0.005937843583524227,-0.012199756689369678,0.006819519679993391,-7.316268602153286e-05,0.0025387220084667206
0.010608350858092308,0.006220500450581312,-0.010562127456068993,0.006755785085260868,-7.759476284263656e-05,0.0022705961018800735
0.0105979572981596,0.005566623993217945,-0.012735899537801743,0.006227294448763132,-7.652169733773917e-05,0.001988151343539357
0.011159773916006088,0.005879458039999008,-0.012469443492591381,0.006174447946250439,-7.545417611254379e-05,0.0016742134466767311
0.011081754229962826,0.005508433096110821,-0.012323861010372639,0.006081119645386934,-8.052562770899385e-05,0.001513390219770372
0.011475170031189919,0.005982007831335068,-0.011971252039074898,0.0068918452598154545,-8.522604912286624e-05,0.0014342352515086532
0.011418976821005344,0.005466104950755835,-0.012166697531938553,0.007000589277595282,-8.446154970442876e-05,0.0014859724324196577
0.0114110317081213,0.00530955009162426,-0.01218140684068203,0.006948071997612715,-8.336854807566851e-05,0.001480208127759397
0.010674268938601017,0.005486955866217613,-0.012438292615115643,0.006351137068122625,-8.228134538512677e-05,0.0019628165755420923
0.011847425252199173,0.00615798681974411,-0.012857361696660519,0.00637968210503459,-8.122070721583441e-05,0.002358066150918603
0.010705918073654175,0.005610660649836063,-0.01177667360752821,0.0067407237365841866,-8.018690277822316e-05,0.0021442282013595104
0.011714953929185867,0.00536316679790616,-0.012008588761091232,0.007139482535421848,-7.917910988908261e-05,0.0018790562171489
0.011347752995789051,0.0055275652557611465,-0.011732034385204315,0.006740303244441748,-7.819633174221963e-05,0.00152566097676754
0.011419556103646755,0.006039034109562635,-0.012665502727031708,0.006801252253353596,-8.543471631128341e-05,0.001425011781975627
0.011352520436048508,0.005658123176544905,-0.012432556599378586,0.006939969025552273,-8.70172880240716e-05,0.0013271104544401169
0.011087292805314064,0.005801664665341377,-0.012150698341429234,0.007319962605834007,-8.614695252617821e-05,0.0011581045109778643
0.011257209815084934,0.005602477118372917,-0.012217440642416477,0.006708395201712847,-8.518599497620016e-05,0.0011748101096600294
0.01100838277488947,0.005456383805721998,-0.011603058315813541,0.006867995951324701,-0.0001759248407324776,0.001181802130304277
0.01080993376672268,0.005467904265969992,-0.012613411992788315,0.006851500365883112,-0.0001752170210238546,0.0014493116177618504
0.011284558102488518,0.005476402118802071,-0.01224169135093689,0.007106058765202761,-0.00019835433340631425,0.0015480832662433386
0.010978957638144493,0.005607587285339832,-0.013014713302254677,0.006990273483097553,-0.00019523585797287524,0.0015182587085291743
0.010874509811401367,0.005529103800654411,-0.012816231697797775,0.006312566809356213,-0.00018867821199819446,0.0014463105471804738
0.011471548117697239,0.005403058137744665,-0.012351786717772484,0.0063894386403262615,-0.0001823241909733042,0.0013581793755292892
0.010967868380248547,0.005462391767650843,-0.012179731391370296,0.006786635611206293,-0.00019812841492239386,0.0012768693268299103
0.011708701960742474,0.00546836806461215,-0.012017365545034409,0.0070987786166369915,-0.00019875759608112276,0.0011061080731451511
0.011712462641298771,0.006215604022145271,-0.013044029474258423,0.0069643850438296795,-0.0001931142178364098,0.0010629179887473583
0.011467373929917812,0.005415911786258221,-0.01244301162660122,0.006102893501520157,-0.00018739870574790984,0.0011059751268476248
0.011467373929917812,0.005415911786258221,-0.01244301162660122,0.006102893501520157,-0.00018739870574790984,0.0011059751268476248
0.011678102426230907,0.005413410719484091,-0.012849275022745132,0.006129516288638115,-0.00018198677571490407,0.0010377701837569475
0.011205576360225677,0.00528322160243988,-0.012391245923936367,0.0068390630185604095,-0.00017687729268800467,0.0011339628836140037
0.011407539248466492,0.005922304932028055,-0.012144079431891441,0.007004084996879101,-0.00019338297715876251,0.0011215087724849582
0.011188250035047531,0.00609268294647336,-0.012371459975838661,0.006379950325936079,-0.0001864268269855529,0.0010695179225876927
0.011810112744569778,0.0055747805163264275,-0.013080522418022156,0.006629458628594875,-0.0001817338925320655,0.0009870623471215367
0.011401936411857605,0.0057391938753426075,-0.012960492633283138,0.007159696891903877,-0.00017744155775289983,0.0008981196442618966
0.011687722988426685,0.005877477582544088,-0.012686763890087605,0.00702098710462451,-0.0002465269644744694,0.0008843694813549519
0.011818298138678074,0.006353784818202257,-0.012280669994652271,0.0068448674865067005,-0.0002386081323493272,0.0008425669511780143
0.012405863963067532,0.006317863240838051,-0.01245043333619833,0.007628243882209063,-0.0002269105170853436,0.0007980369846336544
0.011755448766052723,0.005814880598336458,-0.012662127614021301,0.007287431973963976,-0.00021603546338155866,0.000711803964804858
0.011625338345766068,0.005719068460166454,-0.012786763720214367,0.006811737548559904,-0.00020613771630451083,0.0006113596609793603
0.011743267998099327,0.005622013937681913,-0.013416591100394726,0.006697862409055233,-0.00019710655033122748,0.0006161946803331375
0.012202411890029907,0.005885837133973837,-0.012374252080917358,0.006899052299559116,-0.00018883364100474864,0.0005744809750467539
0.01199652161449194,0.005948615726083517,-0.012981223873794079,0.007628784514963627,-0.00018122707842849195,0.0005952976061962545
0.012871591374278069,0.005503525957465172,-0.012101272121071815,0.007438304368406534,-0.00019126562983728945,0.0005914493231102824
0.013460190035402775,0.005640669725835323,-0.012842005118727684,0.007091030012816191,-0.0002000976965064183,0.0005792105803266168
0.013501804322004318,0.005299007520079613,-0.012483739294111729,0.0073257554322481155,-0.00019395108392927796,0.0005382096278481185
0.012826384976506233,0.005889526568353176,-0.012559374794363976,0.007912199944257736,-0.00018729109433479607,0.0005051865009590983
0.013549163937568665,0.006014600861817598,-0.012899941764771938,0.007590000052005053,-0.0001810165704227984,0.0004893614677712321
0.013167619705200195,0.006001414731144905,-0.012456227093935013,0.007268417160958052,-0.0001751449890434742,0.00044363419874571264
0.013063142076134682,0.005440203472971916,-0.012820248492062092,0.007707636337727308,-0.00019600975792855024,0.00040393313975073397
0.013004285283386707,0.0053133293986320496,-0.013049588538706303,0.00799159612506628,-0.0001917628396768123,0.00040649937000125647
0.013500786386430264,0.005492428317666054,-0.013165902346372604,0.008006103336811066,-0.00018620678747538477,0.00040839429129846394
0.01340866181999445,0.006312249694019556,-0.012735648080706596,0.0079836156219244,-0.00018086766067426652,0.00038165642763487995
0.01323285885155201,0.005661792121827602,-0.013560316525399685,0.007873645052313805,-0.00017582053260412067,0.0003565804217942059
0.01366403792053461,0.00554614095017314,-0.012946173548698425,0.007140393368899822,-0.00017104644211940467,0.00033448965405113995
0.01366403792053461,0.00554614095017314,-0.012946173548698425,0.007140393368899822,-0.00017104644211940467,0.00033448965405113995
0.013166302815079689,0.00565441744402051,-0.012837658636271954,0.007532746531069279,-0.0001853086578194052,0.00029760447796434164
0.013166302815079689,0.00565441744402051,-0.012837658636271954,0.007532746531069279,-0.0001853086578194052,0.00029760447796434164
0.013114897534251213,0.006098268553614616,-0.01299396250396967,0.007792825810611248,-0.00018075082334689796,0.0002820541267283261
0.013378607109189034,0.005859820172190666,-0.012743326835334301,0.006781549658626318,-0.00017211538215633482,0.00029222905868664384
0.013888395391404629,0.005355190020054579,-0.01336370874196291,0.006588278338313103,-0.00016848088125698268,0.00028410166851244867
0.013355134986341,0.005439122207462788,-0.012615467421710491,0.006825719960033894,-0.00016739522106945515,0.0002721572818700224
0.013314884155988693,0.005804136395454407,-0.012710751965641975,0.007168879732489586,-0.00016171707829926163,0.00026090507162734866
0.013372517190873623,0.0060547576285898685,-0.012597930617630482,0.007323638070374727,-0.00015612786228302866,0.0002505298180039972
0.013628853484988213,0.005645990837365389,-0.013276796787977219,0.0070096580311656,-0.00015089304361026734,0.00024094591208267957
0.012938879430294037,0.0057136863470077515,-0.01346107292920351,0.007103682961314917,-0.00014599724090658128,0.00023206941841635853
0.013373947702348232,0.005513151176273823,-0.012689868919551373,0.007939408533275127,-0.0001659487752476707,0.0002238234010292217
0.013559411279857159,0.005764747504144907,-0.013280211947858334,0.008042036555707455,-0.0001642762217670679,0.0002161432203138247
0.013791984878480434,0.006176074966788292,-0.012658745981752872,0.008247504010796547,-0.000159639457706362,0.000208972895052284
0.013595758937299252,0.005480857565999031,-0.013411224819719791,0.008196997456252575,-0.00015506944328080863,0.00020226331253070384
0.014030936174094677,0.005716510117053986,-0.01323824841529131,0.007757482118904591,-0.00017254958220291883,0.00019597077334765345
0.012154888361692429,0.005448696669191122,-0.013988561928272247,0.008210549131035805,-0.00017087197920773178,0.00019015598809346557
0.014086687006056309,0.005890626925975084,-0.012851403094828129,0.008039770647883415,-0.00016655070066917688,7.69682228565216e-05
0.014403914101421833,0.005831634160131216,-0.013264899142086506,0.00844177883118391,-0.00017365990788675845,6.719274097122252e-05
0.013759470544755459,0.00572865130379796,-0.013347413390874863,0.008098915219306946,-0.00018002878641709685,6.433918315451592e-05
0.013910339213907719,0.005289614666253328,-0.013327549211680889,0.00800496619194746,-0.00017631976515986025,6.208994454937056e-05
0.013797995634377003,0.00566782196983695,-0.013672078028321266,0.008119330741465092,-0.00017214937543030828,6.001749716233462e-05
0.013814754784107208,0.0054329331032931805,-0.013882770203053951,0.008020115084946156,-0.0001684256858425215,5.808061541756615e-05
0.013859597966074944,0.005845663603395224,-0.013734156265854836,0.008026259019970894,-0.0002445642021484673,5.6264838349306956e-05
0.014160796999931335,0.005696023814380169,-0.013557381927967072,0.007522410713136196,-0.0002372471644775942,5.455939390230924e-05
0.013728759251534939,0.005465316120535135,-0.013964143581688404,0.007379681803286076,-0.00022570817964151502,2.9974282369948924e-05
0.014258085750043392,0.005474604666233063,-0.013543577864766121,0.00781471747905016,-0.0002521789283491671,2.594868783489801e-05
0.013728184625506401,0.005432475823909044,-0.01369529590010643,0.007514375261962414,-0.0002458012313582003,2.502056122466456e-05
0.013753071427345276,0.006040676962584257,-0.014119157567620277,0.007456008344888687,-0.0002256013685837388,2.3689313820796087e-05
0.013753071427345276,0.006040676962584257,-0.014119157567620277,0.007456008344888687,-0.0002256013685837388,2.3689313820796087e-05
0.014391480945050716,0.005642054136842489,-0.013418284244835377,0.008007102645933628,-0.00021655380260199308,3.0399696697713807e-06
0.0141852842643857,0.005638169590383768,-0.014047848992049694,0.007850742898881435,-0.0002382871462032199,1.9848828003432573e-07
0.014432416297495365,0.006033071782439947,-0.01333166379481554,0.007467139977961779,-0.00023358329781331122,1.2959866957373833e-08
0.013775676488876343,0.005787394940853119,-0.013905742205679417,0.007995900698006153,-0.00022549121058546007,8.461868428177866e-10
0.014363796450197697,0.005811908282339573,-0.013669410720467567,0.007819750346243382,-0.00021771529281977564,5.524995044803305e-11
0.013888834975659847,0.005609532352536917,-0.014241197146475315,0.00800827145576477,-0.00023652288655284792,3.607427074073244e-12
0.014380039647221565,0.005473308265209198,-0.013669167645275593,0.008078066632151604,-0.00023247164790518582,2.355392085800351e-13
0.014124487526714802,0.005410517565906048,-0.013914881274104118,0.008997821249067783,-0.0002254262362839654,1.5379026651880616e-14
0.014665249735116959,0.005512274336069822,-0.013334626331925392,0.008583431132137775,-0.00021859697881154716,-0.0004888009279966354
0.014130843803286552,0.005337228998541832,-0.0137534374371171,0.008520823903381824,-0.0002585135807748884,-0.0008051505428738892
0.01454843021929264,0.005773724988102913,-0.013469470664858818,0.008347495459020138,-0.00025105776148848236,-0.000744689954444766
0.014128509908914566,0.005742124281823635,-0.013761213049292564,0.008456314913928509,-0.00023821895592845976,-0.0007586426800116897
0.014463264495134354,0.005664350464940071,-0.013777132146060467,0.008146879263222218,-0.00022626627469435334,-0.0007543727406300604
0.014259830117225647,0.00555490842089057,-0.0137668177485466,0.008083784952759743,-0.0002154326211893931,-0.0007743789465166628
0.014523417688906193,0.005677368957549334,-0.013775428757071495,0.00867200642824173,-0.0002256777515867725,-0.0008310187258757651
0.014170356094837189,0.00570669025182724,-0.013165389187633991,0.008509829640388489,-0.00023455146583728492,-0.0008432090398855507
0.014959495514631271,0.005937742535024881,-0.013639997690916061,0.008134930394589901,-0.0002259567700093612,-0.0008504135766997933
0.014959495514631271,0.005937742535024881,-0.013639997690916061,0.008134930394589901,-0.0002259567700093612,-0.0008504135766997933
0.014305846765637398,0.00561019591987133,-0.0137358158826828,0.008430675603449345,-0.00021695657051168382,-0.0010046380339190364
0.014793721958994865,0.005832384340465069,-0.013912467285990715,0.008616762235760689,-0.00023871799930930138,-0.0011800710344687104
0.014636930078268051,0.005891389679163694,-0.013200778514146805,0.008500601164996624,-0.0002339907514397055,-0.0011723438510671258
0.01486903801560402,0.005837153177708387,-0.01378282904624939,0.008642259985208511,-0.00024167857191059738,-0.0014888469595462084
0.014547005295753479,0.005930050741881132,-0.01331381406635046,0.008785891346633434,-0.0002481472911313176,-0.0015702148666605353
0.015045012347400188,0.005523663945496082,-0.013631025329232216,0.008899221196770668,-0.00024081386800389737,-0.0015022580046206713
0.0148360226303339,0.006034837570041418,-0.013745267875492573,0.00869990885257721,-0.0002864695561584085,-0.0012875713873654604
0.01478240080177784,0.006013445556163788,-0.013558688573539257,0.008934435434639454,-0.0002714460133574903,-0.001223927829414606
0.015217875130474567,0.005537310615181923,-0.013790885917842388,0.00874664168804884,-0.00028109230333939195,-0.0011936163064092398
0.015269587747752666,0.005661962553858757,-0.013446378521621227,0.008476757444441319,-0.00028910196851938963,-0.0012981928884983063
0.015413225628435612,0.006080349907279015,-0.013441960327327251,0.009060867130756378,-0.00027583949849940836,-0.001989849144592881
0.015139770694077015,0.0059241182170808315,-0.013211329467594624,0.008887863717973232,-0.000262523943092674,-0.0023608228657394648
0.015175974927842617,0.005653506610542536,-0.013739745132625103,0.008659102953970432,-0.0002811653248500079,-0.0024651451967656612
0.015109733678400517,0.005435509141534567,-0.013617558404803276,0.00875693466514349,-0.00027842505369335413,-0.0023041090462356806
0.015400088392198086,0.005683505441993475,-0.013327032327651978,0.008679748512804508,-0.00026724510826170444,-0.0021662178914994
0.015495703555643559,0.005759307648986578,-0.013479278422892094,0.008524158038198948,-0.0002905445289798081,-0.0019833038095384836
0.01538202352821827,0.006109436973929405,-0.013042005710303783,0.008852636441588402,-0.0002814153558574617,-0.0019319585990160704
0.015834113582968712,0.0058663384988904,-0.013525610789656639,0.0086986618116498,-0.00031827029306441545,-0.001893058535642922
0.015459412708878517,0.005655769258737564,-0.01328599825501442,0.008451986126601696,-0.0003398194967303425,-0.0018787520239129663
0.015999766066670418,0.005486593581736088,-0.013669255189597607,0.008214596658945084,-0.00037803692976012826,-0.002128980588167906
0.015265986323356628,0.005651720799505711,-0.012928870506584644,0.008806467056274414,-0.00038603352732025087,-0.0020001218654215336
0.015529680997133255,0.00612701615318656,-0.013646615669131279,0.009308665059506893,-0.00038904667599126697,-0.0020899830851703882
0.015398403629660606,0.005676329601556063,-0.013345714658498764,0.009034440852701664,-0.00036806921707466245,-0.0020638194400817156
0.016022810712456703,0.005867119878530502,-0.013622035272419453,0.009817546233534813,-0.000372069887816906,-0.0022359106224030256
0.01571768894791603,0.0053449999541044235,-0.01321683544665575,0.009127660654485226,-0.0003750815230887383,-0.0025684579741209745
0.016323456540703773,0.005094056483358145,-0.013430163264274597,0.008753864094614983,-0.00045109045458957553,-0.002788715995848179
0.01627226732671261,0.00570078706368804,-0.013575693592429161,0.008971760049462318,-0.0004901085048913956,-0.0033198383171111345
0.01538922730833292,0.00594065198674798,-0.013703596778213978,0.009163206443190575,-0.00044716091360896826,-0.003164005232974887
0.01621275581419468,0.005799730308353901,-0.014133176766335964,0.008688537403941154,-0.0004070434079039842,-0.0031450160313397646
0.016196250915527344,0.006021970417350531,-0.013271569274365902,0.009110699407756329,-0.00037326879100874066,-0.002887078793719411
0.016196250915527344,0.006021970417350531,-0.013271569274365902,0.009110699407756329,-0.00037326879100874066,-0.002887078793719411
0.016736872494220734,0.005473183933645487,-0.013671072199940681,0.009615512564778328,-0.00037805462488904595,-0.002550664823502302
0.016442185267806053,0.005363513715565205,-0.013672987930476665,0.009088193997740746,-0.0003818230761680752,-0.002559469547122717
0.016324210911989212,0.005937830079346895,-0.013656689785420895,0.008788791485130787,-0.00033626079675741494,-0.0032889684662222862
0.016424667090177536,0.005672761704772711,-0.014154729433357716,0.008958953432738781,-0.0003165489761158824,-0.003364702221006155
0.016430826857686043,0.005448795855045319,-0.013479270972311497,0.009158387780189514,-0.0002990121429320425,-0.0034462150651961565
0.016001081094145775,0.005370383150875568,-0.01440400443971157,0.010013689287006855,-0.0002833185135386884,-0.0032746733631938696
0.016705414280295372,0.005660481750965118,-0.012590915895998478,0.010007021017372608,-0.0003109716053586453,-0.003252345835790038
0.01714692823588848,0.005804456304758787,-0.014966268092393875,0.008587818592786789,-0.00029893845203332603,-0.003398096887394786
0.01689869724214077,0.005533627234399319,-0.01410684734582901,0.00931969378143549,-0.0002855629427358508,-0.0035738833248615265
0.01683393493294716,0.00510657113045454,-0.014172072522342205,0.009651047177612782,-0.0002731883432716131,-0.0034694999922066927
0.016669204458594322,0.005785732995718718,-0.013959500938653946,0.00953067559748888,-0.0002801284135784954,-0.0034968159161508083
0.01732654497027397,0.005442001856863499,-0.014864894561469555,0.009393050335347652,-0.0002860479580704123,-0.003259234828874469
0.016906259581446648,0.004990759305655956,-0.014099333435297012,0.009432096965610981,-0.00027618760941550136,-0.003532248316332698
0.017582645639777184,0.004623375833034515,-0.014857958070933819,0.009193746373057365,-0.000266379676759243,-0.004063393920660019
0.017304206266999245,0.004602942615747452,-0.014364520087838173,0.00933380052447319,-0.00022561235527973622,-0.004406370222568512
0.016726071015000343,0.004727819934487343,-0.014427918940782547,0.0095901470631361,-0.00021312801982276142,-0.004065969027578831
0.01718016155064106,0.005077011417597532,-0.013728063553571701,0.00949373934417963,-0.0002412681351415813,-0.0036008080933243036
0.016935622319579124,0.0049462225288152695,-0.014554283581674099,0.00978133175522089,-0.00025233018095605075,-0.003381140064448118
0.017356369644403458,0.004824529401957989,-0.014342197217047215,0.009715632535517216,-0.00025979813653975725,-0.0036114398390054703
0.017367275431752205,0.005191437900066376,-0.015021956525743008,0.009360222145915031,-0.0002506294986233115,-0.0038124099373817444
0.01735159382224083,0.004944173619151115,-0.014196568168699741,0.010288110934197903,-0.0002411118766758591,-0.003887799335643649
0.01777057908475399,0.004707565996795893,-0.0145231569185853,0.01023402065038681,-0.00026315447757951915,-0.004340984858572483
0.01753038913011551,0.00445451308041811,-0.01409873552620411,0.009769749827682972,-0.0002558206906542182,-0.004564350936561823
0.01758425496518612,0.004373678471893072,-0.014709833078086376,0.010067330673336983,-0.00034728882019408047,-0.004640887025743723
0.0175235066562891,0.004911540541797876,-0.013942105695605278,0.009909325279295444,-0.0004094337346032262,-0.004211767110973597
0.0175235066562891,0.004911540541797876,-0.013942105695605278,0.009909325279295444,-0.0004094337346032262,-0.004211767110973597
0.017217129468917847,0.005008053500205278,-0.015051341615617275,0.009596990421414375,-0.00045174662955105305,-0.004351282957941294
0.017892584204673767,0.004690080415457487,-0.014828065410256386,0.009804077446460724,-0.0004555419145617634,-0.004132554866373539
0.017944492399692535,0.0047669969499111176,-0.014531047083437443,0.00961194559931755,-0.00042548158671706915,-0.004752429202198982
0.017944492399692535,0.0047669969499111176,-0.014531047083437443,0.00961194559931755,-0.00042548158671706915,-0.004752429202198982
0.01736241579055786,0.00438296515494585,-0.014190747402608395,0.010053967125713825,-0.0004282458685338497,-0.0048819114454090595
0.017948783934116364,0.00457775266841054,-0.014358622021973133,0.009829209186136723,-0.0004933120799250901,-0.004285028669983149
0.017948783934116364,0.00457775266841054,-0.014358622021973133,0.009829209186136723,-0.0004933120799250901,-0.004285028669983149
0.017721474170684814,0.004673703107982874,-0.014474408701062202,0.009987655095756054,-0.0005283916834741831,-0.004365928005427122
0.01796751283109188,0.004664156585931778,-0.014726818539202213,0.009556367993354797,-0.00048626959323883057,-0.004580114968121052
0.018107758834958076,0.004596059210598469,-0.01483410969376564,0.009316159412264824,-0.0004463804070837796,-0.004873205441981554
0.018232576549053192,0.004690429195761681,-0.01438263338059187,0.009757877327501774,-0.0004761476593557745,-0.005053549539297819
0.01811777800321579,0.005186886060982943,-0.014512286521494389,0.00977660994976759,-0.0004465498204808682,-0.004843608010560274
0.018146328628063202,0.005057096015661955,-0.014448831789195538,0.010691083036363125,-0.00041723044705577195,-0.004681858699768782
0.018449224531650543,0.004766394384205341,-0.014811740256845951,0.010437739081680775,-0.0004433280846569687,-0.0044454000890254974
0.017655223608016968,0.004738005809485912,-0.01447373814880848,0.009318647906184196,-0.00042079846025444567,-0.004294188693165779
0.0179446991533041,0.004786138888448477,-0.014817715622484684,0.009492064826190472,-0.00041582583799026906,-0.005231148097664118
0.01856703869998455,0.0050820219330489635,-0.01498825941234827,0.009778596460819244,-0.0003873549576383084,-0.0054013594053685665
0.019011253491044044,0.005455711856484413,-0.01459006778895855,0.009427507407963276,-0.0003570658154785633,-0.00542884785681963
0.01850752718746662,0.005298588424921036,-0.014600753784179688,0.009309398010373116,-0.0003923256299458444,-0.005263069644570351
0.018689608201384544,0.005219009704887867,-0.014804866164922714,0.009632195346057415,-0.0003694912593346089,-0.004856151062995195
0.01850680634379387,0.0049683633260428905,-0.01477899681776762,0.009576291777193546,-0.00034605513792485,-0.004865659400820732
0.018240943551063538,0.00483520096167922,-0.014851992949843407,0.00967815238982439,-0.00037208604044280946,-0.0053307428024709225
0.018575618043541908,0.004960997961461544,-0.015223375521600246,0.010410214774310589,-0.0003573802241589874,-0.005442088004201651
0.019425733014941216,0.005438003223389387,-0.014740489423274994,0.009987734258174896,-0.0003621709474828094,-0.005885923281311989
0.019425733014941216,0.005438003223389387,-0.014740489423274994,0.009987734258174896,-0.0003621709474828094,-0.005885923281311989
0.018961871042847633,0.0052384077571332455,-0.014750479720532894,0.010480006225407124,-0.00036563334288075566,-0.005653461441397667
0.018669432029128075,0.005092540755867958,-0.014677263796329498,0.01102926954627037,-0.00034931855043396354,-0.0051841819658875465
0.018382640555500984,0.004903941415250301,-0.014932389371097088,0.01028771884739399,-0.000333235104335472,-0.00495167076587677
0.019488150253891945,0.005225748289376497,-0.014416007325053215,0.009985499083995819,-0.00034881167812272906,-0.0056127021089196205
0.018916869536042213,0.0055558267049491405,-0.01510178204625845,0.010284158401191235,-0.0003338153474032879,-0.005419758148491383
0.01943299174308777,0.005149622447788715,-0.015196195803582668,0.010777496732771397,-0.0002912969794124365,-0.005721373949199915
0.019458867609500885,0.004990033805370331,-0.014461335726082325,0.010446212254464626,-0.0003244923718739301,-0.005350722931325436
0.018514379858970642,0.005804178770631552,-0.01487478893250227,0.010298795066773891,-0.00030922595760785043,-0.005600316915661097
0.01900535076856613,0.005396263208240271,-0.014277545735239983,0.010574277490377426,-0.00033488759072497487,-0.005452352110296488
0.019096614792943,0.004992544185370207,-0.015349444933235645,0.010518335737287998,-0.00032348113018088043,-0.005874149966984987
0.019208040088415146,0.005787791218608618,-0.01470901258289814,0.010415107943117619,-0.0003295184578746557,-0.005670955404639244
0.019828788936138153,0.005512977484613657,-0.015259729698300362,0.010736132971942425,-0.00033418546081520617,-0.005861140321940184
0.019827181473374367,0.005327438469976187,-0.014380410313606262,0.010578861460089684,-0.0003206080000381917,-0.005624247249215841
0.019375436007976532,0.0051379119977355,-0.01502397283911705,0.010843625292181969,-0.0003818226687144488,-0.005885504186153412
0.019494760781526566,0.005724943708628416,-0.01477890182286501,0.011067841202020645,-0.00036252266727387905,-0.005650640930980444
0.019441336393356323,0.005723044276237488,-0.015566273592412472,0.010876007378101349,-0.0003942121984437108,-0.006002508103847504
0.01961488090455532,0.0056486576795578,-0.015484033152461052,0.01102801226079464,-0.00037480061291716993,-0.006074918434023857
0.019928401336073875,0.005086049437522888,-0.015312605537474155,0.010381818749010563,-0.00035095118801109493,-0.005882796831429005
0.020110217854380608,0.005367678124457598,-0.014868916012346745,0.009724711067974567,-0.0003806621243711561,-0.0061796666122972965
0.019804682582616806,0.00556832505390048,-0.01545950211584568,0.010480738244950771,-0.00036211067344993353,-0.00654898677021265
0.01972188614308834,0.005192379001528025,-0.015048704110085964,0.010235803201794624,-0.00034262711415067315,-0.006347126327455044
0.020077375695109367,0.005444996524602175,-0.01513189822435379,0.009925167076289654,-0.0003681885136757046,-0.0061990548856556416
0.02012266218662262,0.005103873088955879,-0.015280609019100666,0.010343559086322784,-0.00035295443376526237,-0.005868375301361084
0.02000146359205246,0.004834301769733429,-0.015473485924303532,0.00993750337511301,-0.0003759745159186423,-0.006117514334619045
0.02000146359205246,0.004834301769733429,-0.015473485924303532,0.00993750337511301,-0.0003759745159186423,-0.006117514334619045
0.020580722019076347,0.004732279572635889,-0.015813753008842468,0.010557344183325768,-0.00038224150193855166,-0.006685562431812286
0.02060805633664131,0.005090361926704645,-0.01565195620059967,0.010425352491438389,-0.0003546075022313744,-0.00661173090338707
0.020263254642486572,0.005122650880366564,-0.015952588990330696,0.010464733466506004,-0.00038561629480682313,-0.00615076394751668
0.02048298716545105,0.005444647278636694,-0.01531826239079237,0.010923954658210278,-0.000367142230970785,-0.006306085269898176
0.02052261307835579,0.00534728541970253,-0.016122091561555862,0.010883319191634655,-0.0003864668542519212,-0.006701361387968063
0.020776450634002686,0.005498120561242104,-0.01578984595835209,0.010396347381174564,-0.00037657510256394744,-0.006969237234443426
0.02066212333738804,0.004952751100063324,-0.01634066365659237,0.010861392132937908,-0.0003844256279990077,-0.006207708735018969
0.020609909668564796,0.005843896884471178,-0.016670677810907364,0.010695665143430233,-0.00042484074947424233,-0.006561090238392353
0.02102474682033062,0.005563517101109028,-0.016843432560563087,0.011234251782298088,-0.0004397305310703814,-0.00721485773101449
0.020909767597913742,0.005352003965526819,-0.015780553221702576,0.010580305941402912,-0.0004631414485629648,-0.007639268878847361
0.02099543996155262,0.005000813398510218,-0.016474774107336998,0.010538366623222828,-0.0004436139133758843,-0.007602331694215536
0.021338941529393196,0.005281795281916857,-0.016020582988858223,0.010727379471063614,-0.0004747110069729388,-0.0071802507154643536
0.02116754651069641,0.005402747541666031,-0.016849461942911148,0.010849670507013798,-0.0004453716683201492,-0.007173496764153242
0.02154519595205784,0.005363659001886845,-0.01687287539243698,0.011236254125833511,-0.0004162078839726746,-0.00751072121784091
0.02136632800102234,0.005804888904094696,-0.016655856743454933,0.011293591000139713,-0.0003904170007444918,-0.007415825966745615
0.021389052271842957,0.005213486030697823,-0.01677853986620903,0.010839410126209259,-0.0003931917017325759,-0.007543518207967281
0.021319841966032982,0.004854709841310978,-0.015921656042337418,0.011210193857550621,-0.00039520973223261535,-0.006903502158820629
0.021618695929646492,0.005122538655996323,-0.016506709158420563,0.0110468789935112,-0.0003761055995710194,-0.007153294049203396
0.021682536229491234,0.005047203972935677,-0.016306689009070396,0.01097288727760315,-0.00035752399708144367,-0.007407993543893099
0.021845579147338867,0.005389401689171791,-0.016477229073643684,0.010939420200884342,-0.0003528724773786962,-0.00744694285094738
0.021294746547937393,0.005158557090908289,-0.016340985894203186,0.010840171948075294,-0.00034009735099971294,-0.007402867544442415
0.02226465381681919,0.005085621029138565,-0.01624465547502041,0.011541993357241154,-0.0003478056169115007,-0.007975618354976177
0.022259393706917763,0.005275352392345667,-0.01676829345524311,0.01158564630895853,-0.000353322277078405,-0.0078036049380898476
0.02221333235502243,0.00482892245054245,-0.01623990200459957,0.011757329106330872,-0.00036038688267581165,-0.007796847727149725
0.02221333235502243,0.00482892245054245,-0.01623990200459957,0.011757329106330872,-0.00036038688267581165,-0.007796847727149725
0.02202431485056877,0.0053857299499213696,-0.016432153061032295,0.010860161855816841,-0.00034616366610862315,-0.007776171434670687
0.02202431485056877,0.0053857299499213696,-0.016432153061032295,0.010860161855816841,-0.00034616366610862315,-0.007776171434670687
0.021879715844988823,0.005265335086733103,-0.016905618831515312,0.011439087800681591,-0.0003628157719504088,-0.007673733402043581
0.02153797820210457,0.004979050252586603,-0.017152557149529457,0.011413127183914185,-0.0003557409218046814,-0.007759943604469299
0.021715426817536354,0.004912641365081072,-0.0162894856184721,0.01131462026387453,-0.0004149241140112281,-0.008189979940652847
0.02217811718583107,0.005642249248921871,-0.016017023473978043,0.011351307854056358,-0.00044507806887850165,-0.008015505969524384
0.02184068039059639,0.0054215542040765285,-0.01586003601551056,0.010304750874638557,-0.0004092465969733894,-0.007674934808164835
0.022024651989340782,0.005400120746344328,-0.016824927181005478,0.010891824960708618,-0.0004451099957805127,-0.007771262899041176
0.022614745423197746,0.005149585194885731,-0.016338318586349487,0.0106333177536726,-0.00043328601168468595,-0.008101570419967175
0.022525206208229065,0.005275351461023092,-0.01653275080025196,0.011481152847409248,-0.00041917976341210306,-0.008048082701861858
0.022683914750814438,0.005076165311038494,-0.016603784635663033,0.011698425747454166,-0.00044257540139369667,-0.008252347819507122
0.022289356216788292,0.005459898617118597,-0.016957443207502365,0.011753462255001068,-0.0005123388837091625,-0.00837689358741045
0.021735424175858498,0.005710347555577755,-0.016677360981702805,0.01119712833315134,-0.0005597471608780324,-0.008249383419752121
0.022035259753465652,0.005155527964234352,-0.016848333179950714,0.010859621688723564,-0.0005289188702590764,-0.008226345293223858
0.022916477173566818,0.005226391367614269,-0.016590774059295654,0.011678717099130154,-0.0005525098531506956,-0.008331533521413803
0.02303590252995491,0.0050954511389136314,-0.01695573702454567,0.012027929536998272,-0.0005166991613805294,-0.008424405008554459
0.022755712270736694,0.005831347778439522,-0.016998445615172386,0.011641100980341434,-0.00047808553790673614,-0.00805855542421341
0.022342601791024208,0.0055229272693395615,-0.016639456152915955,0.012417002581059933,-0.0004910429706797004,-0.008345585316419601
0.02283400110900402,0.005347547121345997,-0.016890043392777443,0.0117414565756917,-0.00047328200889751315,-0.008629759773612022
0.023052195087075233,0.0055261095985770226,-0.016534728929400444,0.012420295737683773,-0.0005105851450935006,-0.008636713959276676
0.02307608164846897,0.005315104499459267,-0.01742892898619175,0.01155561488121748,-0.0005258832825347781,-0.008752848021686077
0.022767648100852966,0.005342524964362383,-0.017216656357049942,0.011825855821371078,-0.0005184946930967271,-0.008483031764626503
0.02226998843252659,0.005207824055105448,-0.01652955263853073,0.01233608927577734,-0.0005439521628431976,-0.00854155421257019
0.02277563326060772,0.005852432921528816,-0.01688690297305584,0.01120810303837061,-0.00050941645167768,-0.008526795543730259
0.02273184433579445,0.0053984927944839,-0.016257978975772858,0.011752876453101635,-0.0005300351767800748,-0.008444566279649734
0.02290111966431141,0.005183510482311249,-0.017185386270284653,0.011358627118170261,-0.0005011009052395821,-0.008767780847847462
0.022914044559001923,0.0054553598165512085,-0.016711656004190445,0.011930924840271473,-0.0005854298360645771,-0.009173698723316193
0.022369103506207466,0.005088570062071085,-0.016857599839568138,0.012281559407711029,-0.0005349250277504325,-0.008699999190866947
0.023050686344504356,0.0051997629925608635,-0.01708294451236725,0.011968051083385944,-0.00056797347497195,-0.00845780037343502
0.023050686344504356,0.0051997629925608635,-0.01708294451236725,0.011968051083385944,-0.00056797347497195,-0.00845780037343502
0.023058917373418808,0.005121535621583462,-0.016611777245998383,0.011453814804553986,-0.0005609061336144805,-0.00853288546204567
0.02159723825752735,0.005684841424226761,-0.017310354858636856,0.012541692703962326,-0.0005500250263139606,-0.008878967724740505
0.023616695776581764,0.005341778974980116,-0.016844220459461212,0.01314310822635889,-0.0005707567906938493,-0.00910110492259264
0.023730259388685226,0.0050156316719949245,-0.016802305355668068,0.012836642563343048,-0.0005368643323890865,-0.009150137193500996
0.023438123986124992,0.005076551344245672,-0.01707557961344719,0.013069395907223225,-0.0005803828244097531,-0.008683284744620323
0.02367696911096573,0.005178322084248066,-0.017275139689445496,0.012284348718822002,-0.0005594993126578629,-0.009189838543534279
0.02367696911096573,0.005178322084248066,-0.017275139689445496,0.012284348718822002,-0.0005594993126578629,-0.009189838543534279
0.02284873276948929,0.005145741626620293,-0.01689748652279377,0.011878136545419693,-0.0005405242554843426,-0.009331225417554379
0.02414020523428917,0.005287094973027706,-0.017195438966155052,0.012650437653064728,-0.0005021630204282701,-0.009336521849036217
0.024635493755340576,0.0053762998431921005,-0.017359944060444832,0.01252525020390749,-0.0005271481350064278,-0.009032422676682472
0.02389153465628624,0.0054733227007091045,-0.01798977516591549,0.012810345739126205,-0.000494940672069788,-0.009119251742959023
0.02368176355957985,0.005212507676333189,-0.01659364067018032,0.01221458986401558,-0.0005032979534007609,-0.008916017599403858
0.02288222499191761,0.0057742418721318245,-0.017351727932691574,0.012186238542199135,-0.0005116387619636953,-0.008948910050094128
0.02371795102953911,0.005398328881710768,-0.017466053366661072,0.012739387340843678,-0.0005052556516602635,-0.008155456744134426
0.02415996417403221,0.005393730476498604,-0.017385635524988174,0.012264497578144073,-0.0005364001845009625,-0.008123231120407581
0.024112321436405182,0.005564495921134949,-0.017876069992780685,0.01283181644976139,-0.0005332987057045102,-0.008704856038093567
0.023823382332921028,0.005406128242611885,-0.01756877638399601,0.01284621749073267,-0.0005261190817691386,-0.008663782849907875
0.023900192230939865,0.005566148553043604,-0.01814686693251133,0.012977741658687592,-0.0006456865812651813,-0.009139479137957096
0.02463717572391033,0.005546329077333212,-0.017995499074459076,0.013018704950809479,-0.0006687549757771194,-0.009174446575343609
0.024301335215568542,0.004991200286895037,-0.01722380705177784,0.013369427993893623,-0.0006441487348638475,-0.009005014784634113
0.024427298456430435,0.004310751799494028,-0.017961667850613594,0.013695755042135715,-0.0006615938618779182,-0.009085527621209621
0.02394760400056839,0.004417118616402149,-0.017708586528897285,0.01338498666882515,-0.0006727675790898502,-0.009126505814492702
0.02400112897157669,0.004328281618654728,-0.01789373718202114,0.013305685482919216,-0.0006338906241580844,-0.00897925440222025
0.024745063856244087,0.004368160851299763,-0.01789960451424122,0.013086240738630295,-0.0005883069825358689,-0.008863979019224644
0.02467849850654602,0.004872763063758612,-0.01729476824402809,0.013341408222913742,-0.0005952326464466751,-0.00904082041233778
0.02441031113266945,0.004943409934639931,-0.01792331226170063,0.012667016126215458,-0.0005305390805006027,-0.009396160952746868
0.02441031113266945,0.004943409934639931,-0.01792331226170063,0.012667016126215458,-0.0005305390805006027,-0.009396160952746868
0.024855483323335648,0.004369021859019995,-0.01745200902223587,0.012833393178880215,-0.00047482579248026013,-0.009766669012606144
0.02487264573574066,0.004458191804587841,-0.01741653122007847,0.01243547908961773,-0.0004923066007904708,-0.009689586237072945
0.025227734819054604,0.004484853707253933,-0.018086891621351242,0.01294268574565649,-0.0004689041234087199,-0.009544282220304012
0.024836290627717972,0.004034784622490406,-0.017798906192183495,0.013100765645503998,-0.0004995748749934137,-0.009403442032635212
0.024780213832855225,0.004353259690105915,-0.018027452751994133,0.013082120567560196,-0.0005160175496712327,-0.00899779237806797
0.025686077773571014,0.0044447509571909904,-0.01737704500555992,0.013286883011460304,-0.0004996074130758643,-0.009308763779699802
0.02490786276757717,0.004312045872211456,-0.01798171177506447,0.013323484919965267,-0.0005309979314915836,-0.009427888318896294
0.025270123034715652,0.004928562790155411,-0.017929207533597946,0.012756272219121456,-0.0005535779637284577,-0.00958060473203659
0.025548990815877914,0.0044860090129077435,-0.018141144886612892,0.012522866949439049,-0.0005630837404169142,-0.009391921572387218
0.02570495940744877,0.004068312700837851,-0.018119091168045998,0.012518216855823994,-0.0005560175632126629,-0.009312586858868599
0.025708064436912537,0.003912510350346565,-0.017310379073023796,0.0125219551846385,-0.0008206196362152696,-0.009370389394462109
0.025949107483029366,0.004418504890054464,-0.018171915784478188,0.013117780908942223,-0.0007836814038455486,-0.009563456289470196
0.025889543816447258,0.004595321137458086,-0.018898647278547287,0.013665860518813133,-0.000795206637121737,-0.009789342060685158
0.025984201580286026,0.005074671469628811,-0.017799051478505135,0.014049840159714222,-0.0007999182562343776,-0.009747205302119255
0.02580375038087368,0.004960189573466778,-0.018064314499497414,0.014169260859489441,-0.0007309333886951208,-0.009825394488871098
0.025873545557260513,0.004467003513127565,-0.017946308478713036,0.013910802081227303,-0.0007380226743407547,-0.009954169392585754
0.026179209351539612,0.0043063415214419365,-0.01800420880317688,0.013705470599234104,-0.0006583480280824006,-0.010449211113154888
0.026087487116456032,0.004247094504535198,-0.01856565661728382,0.013605063781142235,-0.0006744902930222452,-0.009848399087786674
0.026238925755023956,0.004889267962425947,-0.017509426921606064,0.01301737129688263,-0.0006114575662650168,-0.010063561610877514
0.026633374392986298,0.00499580567702651,-0.01770361140370369,0.013326140120625496,-0.0006349751492962241,-0.010105118155479431
0.026502959430217743,0.004878551233559847,-0.017893431708216667,0.013093957677483559,-0.0005818728823214769,-0.010032658465206623
0.027108237147331238,0.004674742929637432,-0.017549023032188416,0.013609513640403748,-0.0005329627310857177,-0.010494775138795376
0.026947541162371635,0.004605941940099001,-0.017947200685739517,0.012988836504518986,-0.0005566044128499925,-0.010239084251224995
0.02719004824757576,0.004692040383815765,-0.01766159199178219,0.013694291934370995,-0.0005205902853049338,-0.010463615879416466
0.02711518667638302,0.00483202887699008,-0.018054677173495293,0.013236605562269688,-0.0004857251769863069,-0.010238319635391235
0.027050334960222244,0.005141392815858126,-0.018125560134649277,0.013181903399527073,-0.0004353378026280552,-0.010243686847388744
0.026986103504896164,0.00522545026615262,-0.01758691295981407,0.012856830842792988,-0.00039307671249844134,-0.010555614717304707
0.026986103504896164,0.00522545026615262,-0.01758691295981407,0.012856830842792988,-0.00039307671249844134,-0.010555614717304707
0.027305124327540398,0.004998698830604553,-0.017983151599764824,0.012815234251320362,-0.00042832730105146766,-0.010541068390011787
0.02769317291676998,0.004758140072226524,-0.01808777265250683,0.01315158698707819,-0.00045858885277993977,-0.010092497803270817
0.028228258714079857,0.0047021061182022095,-0.017642637714743614,0.013073519803583622,-0.00043505968642421067,-0.010539359413087368
0.02759629860520363,0.004813333973288536,-0.01794016733765602,0.013742534443736076,-0.0004615900106728077,-0.011053536087274551
0.02570498175919056,0.00519812386482954,-0.01796111650764942,0.013125891797244549,-0.0005621272721327841,-0.011072526685893536
0.02839084342122078,0.005521289072930813,-0.019106850028038025,0.012798842042684555,-0.0006319317035377026,-0.010634807869791985
0.027677379548549652,0.005045874509960413,-0.01804930344223976,0.0134211340919137,-0.0005773248849436641,-0.010624170303344727
0.028210138902068138,0.004562760703265667,-0.018865661695599556,0.012854491360485554,-0.0005222698673605919,-0.01086085382848978
0.028679965063929558,0.0050482237711548805,-0.018709754571318626,0.013155790977180004,-0.0005445960559882224,-0.01100389938801527
0.02854868769645691,0.0053842514753341675,-0.017726095393300056,0.013287327252328396,-0.0005097963730804622,-0.01102390605956316
0.0282379612326622,0.005363315809518099,-0.018608832731842995,0.013518515042960644,-0.0005217178841121495,-0.011082966811954975
0.027290979400277138,0.005293998401612043,-0.018619749695062637,0.01397200021892786,-0.0005008471198379993,-0.010347610339522362
0.028118234127759933,0.004855458624660969,-0.018795015290379524,0.014446024782955647,-0.00046920171007514,-0.010670595802366734
0.028942670673131943,0.004575336817651987,-0.018677663058042526,0.01463680062443018,-0.0004407514934428036,-0.010696088895201683
0.028681524097919464,0.004717336036264896,-0.018343955278396606,0.01478797011077404,-0.000403198559070006,-0.010780567303299904
0.028749344870448112,0.005130270961672068,-0.019230084493756294,0.014678762294352055,-0.0004059400816913694,-0.011411050334572792
0.02859809622168541,0.0052865296602249146,-0.019986478611826897,0.014881918206810951,-0.0004078861966263503,-0.011731438338756561
0.028514958918094635,0.005694467108696699,-0.01876269280910492,0.014642680995166302,-0.000436105125118047,-0.011514313519001007
0.028952879831194878,0.005141627509146929,-0.018555620685219765,0.015021956525743008,-0.00044384098146110773,-0.011619294062256813
0.02883591502904892,0.0048883697018027306,-0.01960894837975502,0.01462931651622057,-0.00044350128155201674,-0.011472931131720543
0.028909806162118912,0.0053345635533332825,-0.01891884207725525,0.015043460763990879,-0.0005056917434558272,-0.01150284893810749
0.0289638452231884,0.005042429082095623,-0.018117211759090424,0.01480080559849739,-0.0005804430693387985,-0.011464537121355534
0.029032820835709572,0.005282929632812738,-0.01902443915605545,0.014449281617999077,-0.0005703854840248823,-0.011475646868348122
0.0291959997266531,0.005091821774840355,-0.01922592706978321,0.013723999261856079,-0.0005933616776019335,-0.011324325576424599
0.029232831671833992,0.005163226276636124,-0.018891142681241035,0.014211495406925678,-0.0006095222197473049,-0.011137943714857101
0.02902289107441902,0.005380264017730951,-0.019053947180509567,0.013794993050396442,-0.0005827519344165921,-0.010698486119508743
0.029465436935424805,0.005031378008425236,-0.018499303609132767,0.01462618913501501,-0.0007927602273412049,-0.011194075457751751
0.029385434463620186,0.005530437454581261,-0.018906520679593086,0.01440289244055748,-0.0007581009995192289,-0.011605937965214252
0.028409820050001144,0.005332310218364,-0.01913025788962841,0.014460856094956398,-0.0007647298043593764,-0.011917867697775364
0.02968238666653633,0.005004688166081905,-0.018740372732281685,0.014322273433208466,-0.0006936718709766865,-0.011564016342163086
0.030637258663773537,0.004973340779542923,-0.019183628261089325,0.014726831577718258,-0.0006908983341418207,-0.011745450086891651
0.030637258663773537,0.004973340779542923,-0.019183628261089325,0.014726831577718258,-0.0006908983341418207,-0.011745450086891651
0.030658014118671417,0.004943083040416241,-0.019359104335308075,0.014282840304076672,-0.0006487623322755098,-0.01180990133434534
0.029803389683365822,0.005192296113818884,-0.018565567210316658,0.014670322649180889,-0.0006212170119397342,-0.011704669333994389
0.02962386980652809,0.005234362557530403,-0.019360186532139778,0.015060949139297009,-0.0005996891995891929,-0.012275846675038338
0.030795518308877945,0.005352105014026165,-0.018724685534834862,0.014771589078009129,-0.0005452961777336895,-0.011828814633190632
0.030357375741004944,0.005038198083639145,-0.019096802920103073,0.015006894245743752,-0.0005560705903917551,-0.01172249112278223
0.03066173382103443,0.0048785763792693615,-0.019451681524515152,0.014823120087385178,-0.0005281267804093659,-0.012052461504936218
0.030652569606900215,0.005459308624267578,-0.018656617030501366,0.015375727787613869,-0.0004883756628260016,-0.011853707022964954
0.031486738473176956,0.005337004084140062,-0.019286692142486572,0.015000520274043083,-0.00048470866749994457,-0.011689772829413414
0.03042203187942505,0.0049902647733688354,-0.019389906898140907,0.01527342014014721,-0.0004810824175365269,-0.012229487299919128
0.030139144510030746,0.004665907472372055,-0.018518919125199318,0.014896753244102001,-0.00045270464033819735,-0.012265210971236229
0.031025057658553123,0.0045450725592672825,-0.01924232952296734,0.015200763940811157,-0.0004369491070974618,-0.012147518806159496
0.031180843710899353,0.004839902278035879,-0.01947689615190029,0.015118771232664585,-0.00040110931149683893,-0.012190006673336029
0.030476480722427368,0.004830299410969019,-0.018604250624775887,0.015067355707287788,-0.0004319881263654679,-0.012025013566017151
0.03006116859614849,0.004745098762214184,-0.018960878252983093,0.014607998542487621,-0.00040799821726977825,-0.01218764390796423
0.02996385283768177,0.0046457564458251,-0.019412145018577576,0.014975463040173054,-0.00042638936429284513,-0.012421850115060806
0.029975399374961853,0.004645178094506264,-0.018945492804050446,0.014737585559487343,-0.0004417022573761642,-0.011952582746744156
0.030740993097424507,0.0043851775117218494,-0.01915389485657215,0.014754975214600563,-0.0004420346231199801,-0.01224185898900032
0.030611153692007065,0.004306163638830185,-0.01925032027065754,0.0145604582503438,-0.0005807812558487058,-0.012365990318357944
0.030396070331335068,0.004919315222650766,-0.018876023590564728,0.014593004249036312,-0.0005762462969869375,-0.01204482838511467
0.030680185183882713,0.004848139826208353,-0.01952354796230793,0.014712302945554256,-0.0005621633608825505,-0.012144284322857857
0.03102932870388031,0.004534060601145029,-0.019644148647785187,0.014842279255390167,-0.0005910313921049237,-0.012425054796040058
0.03148454427719116,0.004533357918262482,-0.018863936886191368,0.015269520692527294,-0.0005828654393553734,-0.012445601634681225
0.029532425105571747,0.004522631876170635,-0.019397705793380737,0.01570424623787403,-0.0005711635458283126,-0.012560155242681503
0.0315622016787529,0.004591124597936869,-0.019789351150393486,0.0158004742115736,-0.0006445461185649037,-0.012479579076170921
0.03132479265332222,0.0047168005257844925,-0.019657926633954048,0.01551151741296053,-0.0006802831776440144,-0.012648879550397396
0.03132479265332222,0.0047168005257844925,-0.019657926633954048,0.01551151741296053,-0.0006802831776440144,-0.012648879550397396
0.031085288152098656,0.004461850970983505,-0.019508425146341324,0.015983454883098602,-0.0007056538015604019,-0.012645171023905277
0.031250834465026855,0.004496107343584299,-0.019812628626823425,0.015681061893701553,-0.0006906134076416492,-0.012724515050649643
0.03153262287378311,0.004566970281302929,-0.01951359212398529,0.016255849972367287,-0.0006674346514046192,-0.012847643345594406
0.03125899285078049,0.0045226262882351875,-0.019575148820877075,0.01605222001671791,-0.0007649502367712557,-0.012693263590335846
0.03173603117465973,0.004397951066493988,-0.01897733472287655,0.01560831069946289,-0.0008065663860179484,-0.012752129696309566
0.03213861212134361,0.004472529049962759,-0.019139636307954788,0.015740614384412766,-0.0008174232789315283,-0.012743980623781681
0.03209588676691055,0.004251066595315933,-0.019754191860556602,0.01600557565689087,-0.0007457205792888999,-0.012783912010490894
0.03252733498811722,0.004403587430715561,-0.02061002142727375,0.015972355380654335,-0.0007816591532900929,-0.012928877957165241
0.03277406468987465,0.0047356141731143,-0.020331284031271935,0.01665773056447506,-0.0006825502496212721,-0.013106197118759155
0.03265787288546562,0.004622378386557102,-0.020402172580361366,0.01568572223186493,-0.00069525430444628,-0.01309257373213768
0.03237953409552574,0.0043532694689929485,-0.020109200850129128,0.016447924077510834,-0.000678317213896662,-0.013435354456305504
0.032697223126888275,0.004060443490743637,-0.019502880051732063,0.01609942503273487,-0.0006536800065077841,-0.013587846420705318
0.03318311646580696,0.004219298716634512,-0.01979753002524376,0.015797916799783707,-0.0006737831281498075,-0.01328362338244915
0.033941350877285004,0.004203113727271557,-0.020158201456069946,0.015476620756089687,-0.0006209689890965819,-0.012584036216139793
0.03285965695977211,0.004296047147363424,-0.019941898062825203,0.016081809997558594,-0.0005765818641521037,-0.01265313383191824
0.032222338020801544,0.0045357090421020985,-0.020205771550536156,0.01644827611744404,-0.0005693758139386773,-0.013244528323411942
0.033611804246902466,0.004149637185037136,-0.02067803591489792,0.016777172684669495,-0.0006007867632433772,-0.013198111206293106
0.032759495079517365,0.003859708784148097,-0.02020413614809513,0.016711922362446785,-0.0006498489528894424,-0.013018820434808731
0.0335499607026577,0.004236356820911169,-0.0205133818089962,0.016335971653461456,-0.0006218607886694372,-0.013001362793147564
0.03460034728050232,0.004178666044026613,-0.020728319883346558,0.016991978511214256,-0.000862528511788696,-0.013147235848009586
0.034531835466623306,0.004015923012048006,-0.020517470315098763,0.0173653494566679,-0.0008707980159670115,-0.01293442863970995
0.033189259469509125,0.0041220602579414845,-0.019588852301239967,0.017137397080659866,-0.0007656874367967248,-0.012978559359908104
0.032936885952949524,0.004512942861765623,-0.0218055360019207,0.016691939905285835,-0.0007750465883873403,-0.012854526750743389
0.034190092235803604,0.004234802443534136,-0.020285965874791145,0.015744954347610474,-0.0007687070756219327,-0.012948933988809586
0.033112991601228714,0.004359730985015631,-0.020289067178964615,0.016840433701872826,-0.0007149996235966682,-0.013193229213356972
0.03475462645292282,0.00427365954965353,-0.021020669490098953,0.016491349786520004,-0.0006516954745166004,-0.0136235561221838
0.03523248806595802,0.004491487052291632,-0.020381292328238487,0.016997819766402245,-0.0005976427928544581,-0.013805011287331581
0.03410009667277336,0.004401073325425386,-0.019907640293240547,0.016884956508874893,-0.0005518049583770335,-0.013978688977658749
0.03410009667277336,0.004401073325425386,-0.019907640293240547,0.016884956508874893,-0.0005518049583770335,-0.013978688977658749
0.033982712775468826,0.0043287500739097595,-0.020032336935400963,0.016882067546248436,-0.00046647730050608516,-0.014238409698009491
0.03486282378435135,0.004892496392130852,-0.020839152857661247,0.01775888167321682,-0.0004117333155591041,-0.013963239267468452
0.034487284719944,0.004993617534637451,-0.021033305674791336,0.017297791317105293,-0.0004128614964429289,-0.014124381355941296
0.03453109413385391,0.004442116245627403,-0.02044583298265934,0.017044493928551674,-0.00041424838127568364,-0.013874586671590805
0.03494614362716675,0.004330358002334833,-0.020657911896705627,0.017202701419591904,-0.0004424110520631075,-0.014113610610365868
0.034705039113759995,0.00457718363031745,-0.020487554371356964,0.01751095987856388,-0.00045056824455969036,-0.014469019137322903
0.03471330553293228,0.0048766531981527805,-0.020883657038211823,0.01682581566274166,-0.0006607683026231825,-0.014494850300252438
0.035896413028240204,0.004781719297170639,-0.02099456824362278,0.017005115747451782,-0.0006997279706411064,-0.014345853589475155
0.03562597930431366,0.004603685811161995,-0.02088308520615101,0.016637129709124565,-0.0006754652713425457,-0.014401589520275593
0.03366965800523758,0.004706101957708597,-0.02025536820292473,0.016665566712617874,-0.000694266811478883,-0.014500255696475506
0.034783463925123215,0.00486760213971138,-0.020294373854994774,0.017172344028949738,-0.0008383268723264337,-0.014434791170060635
0.035936132073402405,0.00454010721296072,-0.02068302407860756,0.01679867133498192,-0.0008777746115811169,-0.014710155315697193
0.03544682264328003,0.004534535109996796,-0.020911723375320435,0.0169452466070652,-0.0007876309100538492,-0.014998032711446285
0.03661460429430008,0.005056758876889944,-0.02068009041249752,0.016819192096590996,-0.0007442321511916816,-0.015178871341049671
0.03646191582083702,0.0045148758217692375,-0.021120507270097733,0.01696912571787834,-0.0007092672167345881,-0.015015212818980217
0.03527242690324783,0.00450762826949358,-0.020839352160692215,0.016827605664730072,-0.0006402978906407952,-0.015164370648562908
0.03527645394206047,0.0042401086539030075,-0.020449887961149216,0.01691291853785515,-0.0006528670783154666,-0.01541258953511715
0.036328162997961044,0.004448654130101204,-0.02067750133574009,0.01720235124230385,-0.0006074696430005133,-0.015184102579951286
0.03583108261227608,0.0049408129416406155,-0.020935695618391037,0.01684698835015297,-0.0005511065828613937,-0.015136475674808025
0.035771843045949936,0.004953338298946619,-0.020967289805412292,0.016867361962795258,-0.0004852520360145718,-0.014764276333153248
0.036192454397678375,0.004651349503546953,-0.020991310477256775,0.01673504151403904,-0.0005128839402459562,-0.01488287653774023
0.03608914092183113,0.004992444533854723,-0.021079326048493385,0.016834909096360207,-0.0005161822773516178,-0.014979611150920391
0.036154478788375854,0.004855765029788017,-0.020710520446300507,0.017414234578609467,-0.0005099903792142868,-0.015482857823371887
0.03636425361037254,0.004864458926022053,-0.020824570208787918,0.016963809728622437,-0.000536880805157125,-0.015478934161365032
0.0358893983066082,0.004694082774221897,-0.021159369498491287,0.017169173806905746,-0.0006933154654689133,-0.015428021550178528
0.036096736788749695,0.004804049618542194,-0.021798158064484596,0.01709759421646595,-0.0008031593170017004,-0.015451506711542606
0.036096736788749695,0.004804049618542194,-0.021798158064484596,0.01709759421646595,-0.0008031593170017004,-0.015451506711542606
0.036405276507139206,0.005220239516347647,-0.02156412973999977,0.0171668641269207,-0.0008205428603105247,-0.015809345990419388
0.03688361495733261,0.004670859780162573,-0.020872309803962708,0.01714056171476841,-0.0009693810134194791,-0.015582750551402569
0.036550868302583694,0.004973570816218853,-0.02027481235563755,0.017033813521265984,-0.0010869288817048073,-0.015578527003526688
0.036662232130765915,0.005014128051698208,-0.02100958488881588,0.017686838284134865,-0.0010629985481500626,-0.015738874673843384
0.03660602867603302,0.004887645598500967,-0.021639371290802956,0.017224054783582687,-0.0010568128200247884,-0.01601385697722435
0.037313368171453476,0.005052537191659212,-0.021161934360861778,0.01726067252457142,-0.0008908769814297557,-0.01595074124634266
0.0371754914522171,0.00481784762814641,-0.021486960351467133,0.017287641763687134,-0.000885325251147151,-0.016323711723089218
0.037017468363046646,0.004738439805805683,-0.02209608443081379,0.017986532300710678,-0.000768366560805589,-0.01648865081369877
0.03708626702427864,0.005079362541437149,-0.02184300683438778,0.019012687727808952,-0.0007767715724185109,-0.016926409676671028
0.037173885852098465,0.005077489651739597,-0.02103365771472454,0.018272416666150093,-0.0007701858412474394,-0.016763007268309593
0.03745706379413605,0.004679823759943247,-0.022388866171240807,0.018575331196188927,-0.0007240542909130454,-0.01655920036137104
0.03748686611652374,0.004871500190347433,-0.02204079180955887,0.017603404819965363,-0.0006255071493797004,-0.016514960676431656
0.03697219863533974,0.0051766736432909966,-0.02142413705587387,0.017400847747921944,-0.0007033282890915871,-0.015724383294582367
0.03715460002422333,0.004935013130307198,-0.02147543802857399,0.018066558986902237,-0.0007277523400261998,-0.016336098313331604
0.03734264895319939,0.004830797668546438,-0.02224000170826912,0.018359528854489326,-0.0007024035439826548,-0.0166610237210989
0.0375395230948925,0.005129416473209858,-0.022167494520545006,0.01879757270216942,-0.000825467228423804,-0.017468489706516266
0.03879247233271599,0.0046394928358495235,-0.02186858281493187,0.018738828599452972,-0.0007513165473937988,-0.017110008746385574
0.03789972886443138,0.005084732547402382,-0.021702464669942856,0.017976820468902588,-0.0007667822064831853,-0.01666724868118763
0.03684451803565025,0.0049181608483195305,-0.02231103740632534,0.0188046395778656,-0.0006783654680475593,-0.016628989949822426
0.03803402557969093,0.004665427841246128,-0.02240598574280739,0.018833117559552193,-0.0006029915530234575,-0.017046336084604263
0.03824729099869728,0.004559578374028206,-0.02200588397681713,0.018778815865516663,-0.0006084280321374536,-0.01783604547381401
0.039366621524095535,0.005227077752351761,-0.02160455659031868,0.01860496960580349,-0.0005733462166972458,-0.017859995365142822
0.039366621524095535,0.005227077752351761,-0.02160455659031868,0.01860496960580349,-0.0005733462166972458,-0.017859995365142822
0.03760787099599838,0.004949631635099649,-0.022176260128617287,0.01778467372059822,-0.0005542469443753362,-0.016510160639882088
0.037592142820358276,0.005388814490288496,-0.022422920912504196,0.018437081947922707,-0.0004837529268115759,-0.01621703803539276
0.037592142820358276,0.005388814490288496,-0.022422920912504196,0.018437081947922707,-0.0004837529268115759,-0.01621703803539276
0.038973044604063034,0.004880698397755623,-0.021757690235972404,0.018748801201581955,-0.0005373044987209141,-0.01657242327928543
0.03874141722917557,0.005536885932087898,-0.022371947765350342,0.01937475986778736,-0.0005667132209055126,-0.01774231530725956
0.03874141722917557,0.005536885932087898,-0.022371947765350342,0.01937475986778736,-0.0005667132209055126,-0.01774231530725956
0.038597822189331055,0.005256363656371832,-0.02227061428129673,0.0192060936242342,-0.0011486163130030036,-0.017213210463523865
0.038941722363233566,0.004570204298943281,-0.0220953356474638,0.01857563480734825,-0.0011311968555673957,-0.017205554991960526
0.038941722363233566,0.004570204298943281,-0.0220953356474638,0.01857563480734825,-0.0011311968555673957,-0.017205554991960526
0.03853818401694298,0.004511861130595207,-0.022462131455540657,0.01833180896937847,-0.001155890990048647,-0.017314141616225243
0.038895949721336365,0.004447145853191614,-0.021879643201828003,0.019052773714065552,-0.0010524641256779432,-0.017530390992760658
0.03859735280275345,0.0045116860419511795,-0.02140195295214653,0.018544359132647514,-0.0009951973333954811,-0.017098261043429375
0.039996884763240814,0.004594489932060242,-0.02158997394144535,0.019029797986149788,-0.0009251630981452763,-0.017736097797751427
0.03984669968485832,0.00457157613709569,-0.022094648331403732,0.01915815658867359,-0.0008122304570861161,-0.017788058146834373
0.03793230280280113,0.004288939759135246,-0.022330228239297867,0.018424686044454575,-0.0008186085615307093,-0.017715591937303543
0.039021022617816925,0.004480171483010054,-0.021826384589076042,0.01857222430408001,-0.0008288683020509779,-0.017955666407942772
0.03893282264471054,0.004240968264639378,-0.02185855247080326,0.018522383645176888,-0.0008162381127476692,-0.017911946401000023
0.039629895240068436,0.004340108949691057,-0.022168440744280815,0.01870768330991268,-0.0007546433480456471,-0.018119987100362778
0.04036760702729225,0.004604085814207792,-0.02195948362350464,0.019204935058951378,-0.0007342743338085711,-0.017891518771648407
0.03819963335990906,0.004755030851811171,-0.021446339786052704,0.018666265532374382,-0.0007397009176202118,-0.01809442788362503
0.03793027624487877,0.004810485057532787,-0.022013099864125252,0.018509821966290474,-0.0007890004198998213,-0.018377888947725296
0.04002448916435242,0.004634406417608261,-0.022062988951802254,0.018919313326478004,-0.0008173579117283225,-0.018051141873002052
0.03979126736521721,0.004455833695828915,-0.021900970488786697,0.018739085644483566,-0.0011232711840420961,-0.017990615218877792
0.039665546268224716,0.0044879000633955,-0.02197035774588585,0.01851002499461174,-0.0010393057018518448,-0.018179351463913918
0.039310503751039505,0.004817106761038303,-0.022442493587732315,0.019175676628947258,-0.0010033714352175593,-0.018279219046235085
0.039669573307037354,0.00471117440611124,-0.022887637838721275,0.019049830734729767,-0.0008801710209809244,-0.018290147185325623
0.04006316512823105,0.004825110547244549,-0.02279779687523842,0.0190403051674366,-0.0008752613794058561,-0.01831829361617565
0.0400460846722126,0.004710969980806112,-0.022785300388932228,0.019277110695838928,-0.0007838733145035803,-0.018182002007961273
0.0399666503071785,0.004372292198240757,-0.02162136882543564,0.01910691149532795,-0.0007957026246003807,-0.018523545935750008
0.03991137072443962,0.004384131636470556,-0.022035537287592888,0.019342126324772835,-0.0008645981433801353,-0.018693959340453148
0.04033447429537773,0.0043190554715693,-0.02311793901026249,0.019228845834732056,-0.0008261193288490176,-0.018631458282470703
0.04073848947882652,0.004355323035269976,-0.023184223100543022,0.019315756857395172,-0.0009531787363812327,-0.01846431940793991
0.0404847115278244,0.004239128436893225,-0.02193274348974228,0.019651241600513458,-0.000950910965912044,-0.018244504928588867
0.04129916429519653,0.004898847546428442,-0.022329585626721382,0.020110376179218292,-0.0008822438539937139,-0.01837707683444023
0.04129916429519653,0.004898847546428442,-0.022329585626721382,0.020110376179218292,-0.0008822438539937139,-0.01837707683444023
0.040732309222221375,0.0044904048554599285,-0.023027876392006874,0.019678078591823578,-0.0008241200703196228,-0.018522990867495537
0.04107913747429848,0.004516203887760639,-0.022782817482948303,0.0195915587246418,-0.0008217761642299592,-0.018390841782093048
0.04123569652438164,0.0048352573066949844,-0.022007308900356293,0.02011052891612053,-0.0006605958915315568,-0.01859300024807453
0.0416906513273716,0.004843826871365309,-0.022229012101888657,0.01948188990354538,-0.0006758669624105096,-0.018598921597003937
0.04134395346045494,0.004964261781424284,-0.022396394982933998,0.01999744027853012,-0.0006615693564526737,-0.01883409358561039
0.04145710542798042,0.004732663277536631,-0.023166844621300697,0.01994412951171398,-0.0006391723873093724,-0.018589071929454803
0.04154079779982567,0.00427319435402751,-0.022877896204590797,0.020035069435834885,-0.0006546486401930451,-0.018417205661535263
0.0421283096075058,0.004338288679718971,-0.02225133217871189,0.02047366462647915,-0.0007217698148451746,-0.018566764891147614
0.042117636650800705,0.004085408989340067,-0.022339625284075737,0.021903175860643387,-0.0007708274642936885,-0.018521465361118317
0.04176095873117447,0.0043456838466227055,-0.022767895832657814,0.021558649837970734,-0.0007889239932410419,-0.018698040395975113
0.04237185791134834,0.004318912513554096,-0.022729508578777313,0.020586280152201653,-0.0008085461449809372,-0.018828010186553
0.04361531138420105,0.0045768185518682,-0.022301578894257545,0.020541366189718246,-0.0010705897584557533,-0.01907653920352459
0.04188878461718559,0.004508219659328461,-0.02250792272388935,0.020742755383253098,-0.0011164469178766012,-0.019094344228506088
0.04112788289785385,0.004107286222279072,-0.022699827328324318,0.0204484760761261,-0.0009855657117441297,-0.01914563775062561
0.04269987344741821,0.0037884057965129614,-0.02268206514418125,0.021029189229011536,-0.0009672890300862491,-0.018590683117508888
0.0429331436753273,0.0037473009433597326,-0.02288803644478321,0.021124744787812233,-0.0008591965306550264,-0.019814278930425644
0.04390963912010193,0.00439378060400486,-0.022745316848158836,0.020757189020514488,-0.0007862435886636376,-0.019608737900853157
0.04223877936601639,0.004635692108422518,-0.02281162515282631,0.020393017679452896,-0.0007398726302199066,-0.019008679315447807
0.041437506675720215,0.004914922174066305,-0.022832287475466728,0.02141207456588745,-0.000700599339324981,-0.019453098997473717
0.043068885803222656,0.004643080290406942,-0.023026591166853905,0.021015411242842674,-0.0007195963989943266,-0.019460368901491165
0.043118882924318314,0.004323752596974373,-0.0230657160282135,0.02005782723426819,-0.0007379800081253052,-0.019705025479197502
0.04291955381631851,0.00442222785204649,-0.023385213688015938,0.019804194569587708,-0.0007818013546057045,-0.019387036561965942
0.042559538036584854,0.004168376326560974,-0.023500625044107437,0.019986866042017937,-0.0008746239473111928,-0.019732052460312843
0.04252402484416962,0.004536228720098734,-0.0235560592263937,0.020335279405117035,-0.0009127207449637353,-0.01967219077050686
0.04310198873281479,0.004659910220652819,-0.023631442338228226,0.02038211189210415,-0.0012232684530317783,-0.020336413756012917
0.04310198873281479,0.004659910220652819,-0.023631442338228226,0.02038211189210415,-0.0012232684530317783,-0.020336413756012917
0.042507775127887726,0.004624876659363508,-0.023412657901644707,0.0220772847533226,-0.0013200975954532623,-0.02023732289671898
0.04270697757601738,0.004798350390046835,-0.023563986644148827,0.020314686000347137,-0.001277349190786481,-0.020123761147260666
0.04463387653231621,0.004765844438225031,-0.023770488798618317,0.019878102466464043,-0.0013883295468986034,-0.02044728770852089
0.0427805557847023,0.004407577682286501,-0.02347438968718052,0.020095938816666603,-0.0013438212918117642,-0.02046636864542961
0.04332895949482918,0.004311805125325918,-0.024287492036819458,0.02050495147705078,-0.0011289863614365458,-0.019577672705054283
0.04332895949482918,0.004311805125325918,-0.024287492036819458,0.02050495147705078,-0.0011289863614365458,-0.019577672705054283
0.04462366923689842,0.004821764305233955,-0.023667633533477783,0.02017267607152462,-0.0009165379451587796,-0.019591156393289566
0.04335609823465347,0.0043519726023077965,-0.024137958884239197,0.020316865295171738,-0.0009041500743478537,-0.01972871832549572
0.042409203946590424,0.004404124338179827,-0.02480373904109001,0.019955843687057495,-0.0009029358625411987,-0.020396199077367783
0.04411008581519127,0.00414736894890666,-0.024663491174578667,0.020335083827376366,-0.0009535852004773915,-0.020892804488539696
0.044324763119220734,0.003970352932810783,-0.024202728644013405,0.02044057287275791,-0.000991488341242075,-0.02045351266860962
0.04329326003789902,0.004397160839289427,-0.023624571040272713,0.02016550861299038,-0.0009983399650081992,-0.020166130736470222
0.043940264731645584,0.004449950065463781,-0.024108586832880974,0.02040361613035202,-0.0013199010863900185,-0.020322483032941818
0.04368670657277107,0.004864263813942671,-0.024778876453638077,0.020736567676067352,-0.0012766900472342968,-0.020540397614240646
0.043894991278648376,0.004900893662124872,-0.023604199290275574,0.020833497866988182,-0.0012521788012236357,-0.02011893503367901
0.04392547532916069,0.004766033496707678,-0.024347780272364616,0.02066289819777012,-0.0011875716736540198,-0.02016725018620491
0.04386746138334274,0.004277820698916912,-0.025298593565821648,0.021064553409814835,-0.0011404831893742085,-0.02093677781522274
0.043582379817962646,0.0042847865261137486,-0.024990852922201157,0.021172741428017616,-0.0010771569795906544,-0.020786451175808907
0.04428671672940254,0.004667001310735941,-0.024205807596445084,0.020735187456011772,-0.0009504220215603709,-0.020768722519278526
0.04428746551275253,0.00429933937266469,-0.024089427664875984,0.020506402477622032,-0.0009369637700729072,-0.020697910338640213
0.04410520941019058,0.0045249853283166885,-0.024156896397471428,0.020811917260289192,-0.0008314736769534647,-0.020952491089701653
0.044784244149923325,0.004645692650228739,-0.024173595011234283,0.021186113357543945,-0.0007751826196908951,-0.021153738722205162
0.04435348883271217,0.004418973810970783,-0.02519702911376953,0.020696181803941727,-0.0007878238102421165,-0.02084197849035263
0.04467257857322693,0.004323133267462254,-0.025164445862174034,0.021122833713889122,-0.000827924523036927,-0.021709362044930458
0.04475206881761551,0.004426194820553064,-0.02524762600660324,0.021498335525393486,-0.0009569565299898386,-0.020438367500901222
0.04538329318165779,0.004052790813148022,-0.024392815306782722,0.021371496841311455,-0.0011269769165664911,-0.020587215200066566
0.04488763585686684,0.004428792279213667,-0.024672692641615868,0.021183906123042107,-0.001138933701440692,-0.020840005949139595
0.04488763585686684,0.004428792279213667,-0.024672692641615868,0.021183906123042107,-0.001138933701440692,-0.020840005949139595
0.04528386518359184,0.0046590883284807205,-0.02481444925069809,0.02136032097041607,-0.001421209773980081,-0.021232809871435165
0.04524093121290207,0.004563601221889257,-0.024898774921894073,0.021474752575159073,-0.0012298915535211563,-0.02126171626150608
