davideferrari95/blind_handover_controller/data/Test 94 - [2024-02-07 -- 16-13-04]/joint_states_data.csv
shoulder_pan_joint,shoulder_lift_joint,elbow_joint,wrist_1_joint,wrist_2_joint,wrist_3_joint
0.006309282500296831,0.007420157548040152,-0.007908934727311134,0.003863748861476779,0.0,0.007351935375481844
0.006152857560664415,0.0077969967387616634,-0.006976610515266657,0.003390165278688073,0.0,0.006631089840084314
0.006152857560664415,0.0077969967387616634,-0.006976610515266657,0.003390165278688073,0.0,0.006631089840084314
0.006024042144417763,0.007989118807017803,-0.007308101747184992,0.0033221300691366196,0.0,0.006562659051269293
0.006401400081813335,0.007569187320768833,-0.00736438762396574,0.003532306058332324,0.0,0.006750165950506926
0.0057249185629189014,0.007465289440006018,-0.007253729272633791,0.004176469519734383,0.0,0.006836187560111284
0.006116129923611879,0.007622607983648777,-0.006636828649789095,0.004193225875496864,0.0,0.00622506532818079
0.006367937661707401,0.007936459966003895,-0.006757615599781275,0.0039251274429261684,0.0,0.005962091498076916
0.006190010812133551,0.007165359798818827,-0.007214770652353764,0.0033052421640604734,0.0,0.006097336765378714
0.00610278220847249,0.007344349753111601,-0.0074837421998381615,0.0033891466446220875,0.0,0.006406575907021761
0.00598845724016428,0.008339721709489822,-0.008002105168998241,0.0037357837427407503,0.0,0.006392172537744045
0.006516796536743641,0.008390368893742561,-0.008225565776228905,0.0040972582064569,0.0,0.0056903427466750145
0.006303287576884031,0.007614682428538799,-0.007725040428340435,0.004088894464075565,0.0,0.005752237513661385
0.006135167088359594,0.007467288989573717,-0.006752616260200739,0.00385663821361959,0.0,0.005846218205988407
0.00582646019756794,0.008494490757584572,-0.007321295328438282,0.0036200620234012604,0.0,0.006224519573152065
0.0058862315490841866,0.007925772108137608,-0.008273567073047161,0.0033636935986578465,0.0,0.005999213550239801
0.00593536626547575,0.0073815761134028435,-0.007571094203740358,0.003094488987699151,0.0,0.005842798855155706
0.006027535535395145,0.008092968724668026,-0.007312386762350798,0.0031014711130410433,0.0,0.005913313012570143
0.005386554170399904,0.007691490929573774,-0.007551427930593491,0.003382285824045539,0.0,0.00567439291626215
0.005289610009640455,0.007385869976133108,-0.0074646687135100365,0.0032736482098698616,0.0,0.005924907047301531
0.005476439371705055,0.006783300545066595,-0.00807233713567257,0.0031333938241004944,0.0,0.005898261442780495
0.005874251015484333,0.006634400691837072,-0.007907823659479618,0.003130207536742091,0.0,0.006251992657780647
0.005768336355686188,0.007009658496826887,-0.0077069648541510105,0.003079165006056428,0.0,0.006171080283820629
0.005486214533448219,0.007060653064399958,-0.007496756035834551,0.0027111603412777185,0.0,0.0058644963428378105
0.005486214533448219,0.007060653064399958,-0.007496756035834551,0.0027111603412777185,0.0,0.0058644963428378105
0.005680914036929607,0.006784300319850445,-0.007367788348346949,0.0026582248974591494,0.0,0.006374231539666653
0.005219278857111931,0.006619830150157213,-0.0075406781397759914,0.002343120751902461,0.0,0.006566469091922045
0.006013364996761084,0.007228282280266285,-0.007557578384876251,0.0027041248977184296,0.0,0.0064281378872692585
0.006398154888302088,0.007403949741274118,-0.007316766306757927,0.0029816804453730583,0.0,0.006080524064600468
0.005976347718387842,0.006723649334162474,-0.007582846097648144,0.0029994272626936436,0.0,0.005630464758723974
0.005698538850992918,0.006308580283075571,-0.0076364921405911446,0.0029561107512563467,0.0,0.005702747032046318
0.005729264114052057,0.0066429306752979755,-0.008032828569412231,0.002909229602664709,0.0,0.0060258591547608376
0.006182426121085882,0.007288612425327301,-0.0075762285850942135,0.002865895163267851,0.0,0.006012063939124346
0.006405706517398357,0.0070501286536455154,-0.0072907754220068455,0.0027615055441856384,0.0,0.0056760902516543865
0.00596976513043046,0.006387672387063503,-0.007485604379326105,0.003114504273980856,0.0,0.005727306008338928
0.005161667242646217,0.00712604820728302,-0.008437360636889935,0.003152320859953761,0.0,0.006255388725548983
0.0058892713859677315,0.007022818550467491,-0.007761262357234955,0.003031077329069376,0.0,0.006287894677370787
0.005664843134582043,0.006590734701603651,-0.007951201871037483,0.0028774584643542767,0.0,0.006000514142215252
0.005853989161550999,0.006150142755359411,-0.008142823353409767,0.0031874412670731544,0.0,0.006136895623058081
0.005689383950084448,0.006583993323147297,-0.007560300175100565,0.00331725156866014,0.0,0.00564796756953001
0.0054852040484547615,0.007207978051155806,-0.0074501787312328815,0.003122796304523945,0.0,0.005773977376520634
0.005148459691554308,0.006966261193156242,-0.00776759535074234,0.0030002398416399956,0.0,0.006100426893681288
0.006069984287023544,0.006534497253596783,-0.00801946222782135,0.0028002981562167406,0.0,0.00600384920835495
0.005806963425129652,0.006177662406116724,-0.00820220448076725,0.0029473649337887764,0.0,0.00605047820135951
0.005882970988750458,0.006670730654150248,-0.007767814211547375,0.002766645746305585,0.0,0.0056653800420463085
0.0057173827663064,0.006652531214058399,-0.007764160167425871,0.002602547174319625,0.0,0.005911266431212425
0.005392763298004866,0.006244674790650606,-0.008023261092603207,0.0024401089176535606,0.0,0.0059894961304962635
0.005777067504823208,0.006333793513476849,-0.0078522814437747,0.0024061426520347595,0.0,0.0061306399293243885
0.006147683132439852,0.0067033893428742886,-0.007630644366145134,0.002328893868252635,0.0,0.005765738897025585
0.006210678722709417,0.006694261450320482,-0.00839194469153881,0.002458181930705905,0.0,0.006014362443238497
0.005840401165187359,0.006358278449624777,-0.008414576761424541,0.0026653616223484278,0.0,0.006120509933680296
0.006133804097771645,0.006375463679432869,-0.007787821348756552,0.0026982210110872984,0.0,0.0058768149465322495
0.006203154567629099,0.006646355614066124,-0.007617924362421036,0.0029779188334941864,0.0,0.0057073007337749004
0.006203154567629099,0.006646355614066124,-0.007617924362421036,0.0029779188334941864,0.0,0.0057073007337749004
0.0059541924856603146,0.006221129558980465,-0.00806447584182024,0.002874708501622081,0.0,0.005827396176755428
0.006067449692636728,0.006064990535378456,-0.007790824398398399,0.002759132534265518,0.0,0.005909336730837822
0.005840474274009466,0.006435519549995661,-0.007635063491761684,0.0026037690695375204,0.0,0.005583655554801226
0.00549820251762867,0.006722721736878157,-0.008399182930588722,0.0025657687801867723,0.0,0.006662104278802872
0.005722593981772661,0.006310606840997934,-0.008518478833138943,0.002533834660425782,0.0,0.00559762679040432
0.005830142647027969,0.006527852267026901,-0.0075284396298229694,0.0024392784107476473,0.0,0.005598402116447687
0.006381425075232983,0.006276479922235012,-0.007233600132167339,0.002447265898808837,0.0,0.00563011784106493
0.006017883308231831,0.006325181573629379,-0.008037406951189041,0.0025570339057594538,0.0,0.005673373118042946
0.0055699762888252735,0.006776339840143919,-0.00743493065237999,0.0025818771682679653,0.0,0.005630919244140387
0.0057327402755618095,0.006481242831796408,-0.006937946192920208,0.0023647479247301817,0.0,0.005876531824469566
0.006243869662284851,0.006131183821707964,-0.008079263381659985,0.002403710037469864,0.0,0.00624866783618927
0.006034334190189838,0.006197969429194927,-0.007873041555285454,0.002296062186360359,0.0,0.006047034170478582
0.005951511207967997,0.006656136829406023,-0.008120793849229813,0.0023578295949846506,0.0,0.006088912952691317
0.0058296979404985905,0.006854213308542967,-0.007866053842008114,0.0026504453271627426,0.0,0.005536922253668308
0.00620137806981802,0.006464940961450338,-0.008414465934038162,0.0028401094023138285,0.0,0.00590888736769557
0.005747551564127207,0.0063101802952587605,-0.008101877756416798,0.002596829552203417,0.0,0.00596330501139164
0.0059199281968176365,0.006131700240075588,-0.007796818856149912,0.0026165831368416548,0.0,0.005642265547066927
0.006166658829897642,0.0070510124787688255,-0.007998925633728504,0.002446264959871769,0.0,0.005202690605074167
0.006089235655963421,0.0066436948254704475,-0.00824225414544344,0.0022723660804331303,0.0,0.005048914812505245
0.006275129970163107,0.006275351624935865,-0.007752531673759222,0.0022779705468565226,0.0,0.005656630266457796
0.005700835958123207,0.006294120568782091,-0.007660435047000647,0.002090110909193754,0.0,0.005600610747933388
0.006015355233103037,0.006117026321589947,-0.008304541930556297,0.002084131119772792,0.0,0.005697718821465969
0.006226734258234501,0.006590621080249548,-0.008561952970921993,0.00194544717669487,0.0,0.005342647433280945
0.006059280596673489,0.006345532368868589,-0.007899408228695393,0.001931457780301571,0.0,0.005317344330251217
0.006361804436892271,0.006057916674762964,-0.007255266886204481,0.00183671445120126,0.0,0.005189182236790657
0.006036168430000544,0.006082700565457344,-0.008903157897293568,0.0020314911380410194,0.0,0.005013741087168455
0.006003767717629671,0.0067095207050442696,-0.008440648205578327,0.0023065903224051,0.0,0.005272926762700081
0.006575950421392918,0.007000817451626062,-0.007824383676052094,0.0022339082788676023,0.0,0.005484797991812229
0.0062864311039447784,0.006264430470764637,-0.008067541755735874,0.002095193834975362,0.0,0.005599384196102619
0.0059522283263504505,0.00616802740842104,-0.008833387866616249,0.0018962894100695848,0.0,0.005413442384451628
0.0059522283263504505,0.00616802740842104,-0.008833387866616249,0.0018962894100695848,0.0,0.005413442384451628
0.006526814308017492,0.005707682576030493,-0.00799623690545559,0.0017557147657498717,0.0,0.00566627224907279
0.00603334279730916,0.006112751550972462,-0.007552434224635363,0.00177552062086761,0.0,0.005418865941464901
0.006221195682883263,0.006429637782275677,-0.008741119876503944,0.0020920594688504934,0.0,0.005847107153385878
0.006669424939900637,0.0063501521944999695,-0.008417882956564426,0.002088143490254879,0.0,0.005445003043860197
0.006529450416564941,0.0058775548823177814,-0.008204101584851742,0.002050948329269886,0.0,0.005934269167482853
0.006472670938819647,0.005601439159363508,-0.007900404743850231,0.0020758395548909903,0.0,0.0055659678764641285
0.006251385435461998,0.00579768605530262,-0.008335067890584469,0.002097969176247716,0.0,0.005940891802310944
0.006875082850456238,0.006175321061164141,-0.00819780770689249,0.0019764378666877747,0.0,0.005043718032538891
0.0065289572812616825,0.006098705809563398,-0.00873340480029583,0.0019821668975055218,0.0,0.004984081257134676
0.006247072946280241,0.0064382911659777164,-0.008090861141681671,0.0020786665845662355,0.0,0.0053284913301467896
0.006577286869287491,0.006522324867546558,-0.008091839961707592,0.0019479747861623764,0.0,0.0055370391346514225
0.0067794169299304485,0.006317474413663149,-0.008138197474181652,0.0021086162887513638,0.0,0.005375340580940247
0.0065604401752352715,0.006096082739531994,-0.00887820404022932,0.0020405647810548544,0.0,0.00488428957760334
0.006353194359689951,0.005817900877445936,-0.007784931920468807,0.002040217164903879,0.0,0.004773600958287716
0.006242324132472277,0.00622103177011013,-0.006862489506602287,0.0019067925168201327,0.0,0.005269478540867567
0.006966599263250828,0.006415541283786297,-0.0073098959401249886,0.0018243457889184356,0.0,0.005445736926048994
0.007073633372783661,0.006581016816198826,-0.008200708776712418,0.0017163511365652084,0.0,0.005672012455761433
0.006711648311465979,0.006219948176294565,-0.00801470223814249,0.00169815169647336,0.0,0.005540621001273394
0.006606796756386757,0.00621288176625967,-0.007409349083900452,0.0017203069292008877,0.0,0.005353445652872324
0.006847744341939688,0.006337365135550499,-0.007387768942862749,0.0020136102102696896,0.0,0.005088338628411293
0.007294111885130405,0.0064777471125125885,-0.007823912426829338,0.0019130618311464787,0.0,0.005592410918325186
0.007125611416995525,0.00635541183874011,-0.007262606639415026,0.0020672425162047148,0.0,0.005380286835134029
0.006682983599603176,0.006375523284077644,-0.007023702375590801,0.0019392436370253563,0.0,0.00540297944098711
0.006806479301303625,0.005779643077403307,-0.00771581195294857,0.0018197018653154373,0.0,0.005236953031271696
0.0073973992839455605,0.005807080306112766,-0.008475888520479202,0.0017765980446711183,0.0,0.004601395223289728
0.007544235326349735,0.006473653484135866,-0.007813096977770329,0.001649488345719874,0.0,0.00432148901745677
0.0069599212147295475,0.006198620889335871,-0.007507299538701773,0.0016778670251369476,0.0,0.004664110951125622
0.0069599212147295475,0.006198620889335871,-0.007507299538701773,0.0016778670251369476,0.0,0.004664110951125622
0.006325256545096636,0.00618419423699379,-0.00781380757689476,0.0021820557303726673,0.0,0.005158115644007921
0.00702056847512722,0.005693420302122831,-0.007775306701660156,0.0021144093479961157,0.0,0.004728993866592646
0.007256858516484499,0.005707432050257921,-0.007577334530651569,0.002345076762139797,0.0,0.004932074341922998
0.006916956044733524,0.006204831879585981,-0.008059349842369556,0.002038152888417244,0.0,0.004804887343198061
0.007340067531913519,0.006133870221674442,-0.007867053151130676,0.0017380835488438606,0.0,0.004420778714120388
0.007048141676932573,0.005889682099223137,-0.0078123644925653934,0.0017372767906636,0.0,0.0044882590882480145
0.007390466518700123,0.005490918178111315,-0.007248580921441317,0.0017726380610838532,0.0,0.004738790914416313
0.0067351502366364,0.00586194870993495,-0.0077525838278234005,0.002230103127658367,0.0,0.0051198783330619335
0.0071326554752886295,0.005741099826991558,-0.007795863784849644,0.0020936690270900726,0.0,0.004556031432002783
0.00675311079248786,0.005331113003194332,-0.0076339151710271835,0.0020606762263923883,0.0,0.004373537376523018
0.006586167961359024,0.0056084077805280685,-0.007397201377898455,0.0019305385649204254,0.0,0.004062297288328409
0.0067209284752607346,0.005310206674039364,-0.007677111309021711,0.0019299333216622472,0.0,0.00470832921564579
0.006934572011232376,0.005710320081561804,-0.0075875744223594666,0.0018974863924086094,0.0,0.0050280289724469185
0.007001914549618959,0.006459353491663933,-0.0073496317490935326,0.001938240951858461,0.0,0.004937014542520046
0.007435809355229139,0.005715931765735149,-0.0072665344923734665,0.0018620977643877268,0.0,0.004745461046695709
0.0073682526126503944,0.005282476544380188,-0.008136977441608906,0.0018809210741892457,0.0,0.004692697431892157
0.006561431102454662,0.005399474874138832,-0.008194719441235065,0.0020987146999686956,0.0,0.0042585148476064205
0.007040198426693678,0.005219028797000647,-0.00776970200240612,0.0020731810946017504,0.0,0.0042535304091870785
0.007145764771848917,0.006099710240960121,-0.007762253750115633,0.0018235554452985525,0.0,0.004343067295849323
0.0069884080439805984,0.005873898509889841,-0.007880821824073792,0.0018244279781356454,0.0,0.00448273029178381
0.006901289336383343,0.0057718693278729916,-0.007391097489744425,0.0016554128378629684,0.0,0.0050422498025000095
0.0069795893505215645,0.005238459911197424,-0.007710570003837347,0.0015875366516411304,0.0,0.005177789367735386
0.007285151164978743,0.005167518742382526,-0.008565067313611507,0.0014624908799305558,0.0,0.004981400910764933
0.00754485372453928,0.005614470690488815,-0.008625637739896774,0.0014612417435273528,0.0,0.004658799152821302
0.007050223648548126,0.006040927954018116,-0.008520668372511864,0.001591013977304101,0.0,0.004438177682459354
0.007393694948405027,0.005391593091189861,-0.008352048695087433,0.001968812895938754,0.0,0.004299028776586056
0.007533432450145483,0.005363401956856251,-0.008230993524193764,0.0020071459002792835,0.0,0.004377178382128477
0.007533432450145483,0.005363401956856251,-0.008230993524193764,0.0020071459002792835,0.0,0.004377178382128477
0.007538000121712685,0.005189124494791031,-0.008003076538443565,0.0018568376544862986,0.0,0.004425843246281147
0.00747287692502141,0.005908981431275606,-0.008099416270852089,0.0017741387709975243,0.0,0.0045285471715033054
0.006999015808105469,0.005875507835298777,-0.008126514032483101,0.0017244744813069701,0.0,0.0044419607147574425
0.007407051045447588,0.005614261608570814,-0.008625159971415997,0.002051030984148383,0.0,0.004245872609317303
0.007644764147698879,0.005181540735065937,-0.00783724058419466,0.002367695327848196,0.0,0.004366177134215832
0.006900887470692396,0.005573874805122614,-0.008154415525496006,0.0026436462067067623,0.0,0.00407048687338829
0.007282081060111523,0.006404331419616938,-0.008362644352018833,0.002466456964612007,0.0,0.004355962388217449
0.009126844815909863,0.005898976232856512,-0.008204148150980473,0.002402489772066474,0.0,0.004205012694001198
0.006997434422373772,0.005723763722926378,-0.00795374158769846,0.002400110475718975,0.0,0.0039464193396270275
0.006384916603565216,0.005781943444162607,-0.008244524709880352,0.0025364214088767767,0.0,0.0040790182538330555
0.007358341012150049,0.005799030885100365,-0.007625893224030733,0.002463573357090354,0.0,0.0045309169217944145
0.008014018647372723,0.006223972886800766,-0.0076793767511844635,0.0026078647933900356,0.0,0.0042566475458443165
0.007515494246035814,0.005764089059084654,-0.007963106036186218,0.002620095619931817,0.0,0.00436956575140357
0.007281066384166479,0.005854220595210791,-0.008397109806537628,0.0025066148955374956,0.0,0.004194383509457111
0.00792707223445177,0.005678656045347452,-0.00817946344614029,0.002219186630100012,0.0,0.004023571964353323
0.008166889660060406,0.006137871649116278,-0.007756946142762899,0.002167001599445939,0.0,0.003942660056054592
0.007700286339968443,0.006084680091589689,-0.008160261437296867,0.002212842693552375,0.0,0.00395870441570878
0.007766379043459892,0.005991318263113499,-0.008306484669446945,0.002546298550441861,0.0,0.004007310606539249
0.007848137058317661,0.0058586434461176395,-0.007843263447284698,0.002979519311338663,0.0,0.004020941909402609
0.007964830845594406,0.005629433318972588,-0.0074659171514213085,0.0028803313616663218,0.0,0.004193305503576994
0.007615555543452501,0.0055498406291007996,-0.00838965829461813,0.002732993336394429,0.0,0.0042558335699141026
0.007789884693920612,0.005863074213266373,-0.00866246223449707,0.0023961171973496675,0.0,0.004428099375218153
0.008240794762969017,0.006094250362366438,-0.0078053344041109085,0.002092361683025956,0.0,0.004572671838104725
0.008389001712203026,0.005592490080744028,-0.007531292270869017,0.0020063279662281275,0.0,0.004296526312828064
0.007739147171378136,0.0055220057256519794,-0.00816324818879366,0.0020140190608799458,0.0,0.004312642849981785
0.007572710979729891,0.005406980402767658,-0.008099212311208248,0.0021510126534849405,0.0,0.004331490024924278
0.007572710979729891,0.005406980402767658,-0.008099212311208248,0.0021510126534849405,0.0,0.004331490024924278
0.007877860218286514,0.00590888224542141,-0.007934602908790112,0.0021579666063189507,0.0,0.004088322166353464
0.007643845397979021,0.006269382778555155,-0.008624233305454254,0.0018776325741782784,0.0,0.003907289355993271
0.007786121219396591,0.005874103866517544,-0.008584888651967049,0.0018577363807708025,0.0,0.00391646521165967
0.00849979743361473,0.006124462001025677,-0.007996652275323868,0.0018109631491824985,0.0,0.003963957540690899
0.008542093448340893,0.005552675575017929,-0.0077870311215519905,0.001980122644454241,0.0,0.0042970869690179825
0.00812257919460535,0.006006534676998854,-0.009197809733450413,0.002099691890180111,0.0,0.004241052083671093
0.008371923118829727,0.006032364908605814,-0.00840009842067957,0.0021401126869022846,0.0,0.00407005287706852
0.008425895124673843,0.00587890762835741,-0.00838164146989584,0.002141584176570177,0.0,0.003964603412896395
0.008011256344616413,0.005511908326297998,-0.008761446923017502,0.0022540073841810226,0.0,0.003951590042561293
0.008736567571759224,0.0057856193743646145,-0.008101612329483032,0.0023780122864991426,0.0,0.004156647250056267
0.008884120732545853,0.006038120947778225,-0.007787730544805527,0.002404979197308421,0.0,0.004076810088008642
0.008202779106795788,0.0059453449212014675,-0.009087451733648777,0.0022867759689688683,0.0,0.003868684871122241
0.00837057176977396,0.005547158420085907,-0.00867345929145813,0.0021562089677900076,0.0,0.0035368616227060556
0.00881429947912693,0.005672316532582045,-0.008803882636129856,0.001945612719282508,0.0,0.0033806408755481243
0.008516054600477219,0.006050786003470421,-0.008805600926280022,0.0019233954371884465,0.0,0.003162253648042679
0.008780594915151596,0.00625976175069809,-0.008653768338263035,0.0024319151416420937,0.0,0.002891266020014882
0.008569972589612007,0.006016107276082039,-0.00791865959763527,0.0026199528947472572,0.0,0.0028322592843323946
0.00838557817041874,0.0061373175121843815,-0.008932268247008324,0.0025624632835388184,0.0,0.003268374130129814
0.008839201182126999,0.005576489493250847,-0.009043857455253601,0.002444566460326314,0.0,0.003302323864772916
0.008732984773814678,0.005909910891205072,-0.008581027388572693,0.002162135438993573,0.0,0.003307929029688239
0.008371122181415558,0.006055379286408424,-0.008655932731926441,0.002235250547528267,0.0,0.0032577014062553644
0.008230846375226974,0.006153982598334551,-0.008806874975562096,0.002565172268077731,0.0,0.002915367018431425
0.008984338492155075,0.005694083869457245,-0.008433859795331955,0.0027710830327123404,0.0,0.00281227077357471
0.008724197745323181,0.005712395068258047,-0.008069563657045364,0.002712793881073594,0.0,0.0030474597588181496
0.008548508398234844,0.005958509165793657,-0.00831556972116232,0.002631370909512043,0.0,0.003582128556445241
0.008548508398234844,0.005958509165793657,-0.00831556972116232,0.002631370909512043,0.0,0.003582128556445241
0.008507797494530678,0.006139217410236597,-0.008950711227953434,0.002406318672001362,0.0,0.0032171907369047403
0.008591615594923496,0.0060095638036727905,-0.00807826779782772,0.002319262595847249,0.0,0.0031353069934993982
0.008948929607868195,0.005927983671426773,-0.008741817437112331,0.0022056002635508776,0.0,0.0031940133776515722
0.008948929607868195,0.005927983671426773,-0.008741817437112331,0.0022056002635508776,0.0,0.0031940133776515722
0.008595572784543037,0.005916721187531948,-0.008356528356671333,0.002325070323422551,0.0,0.0031778791453689337
0.008634701371192932,0.005950423888862133,-0.008387397043406963,0.0024103198666125536,0.0,0.0035245991311967373
0.008702382445335388,0.005979135632514954,-0.008430629968643188,0.002409664448350668,0.0,0.003376349341124296
0.00831545703113079,0.005677551496773958,-0.009196242317557335,0.002452617045491934,0.0,0.003448738716542721
0.008813532069325447,0.005948459729552269,-0.008566280826926231,0.0023808181285858154,0.0,0.003623638302087784
0.008762054145336151,0.005618065129965544,-0.008283555507659912,0.0026009059511125088,0.0,0.0032475402113050222
0.008569331839680672,0.005794505123049021,-0.008793295361101627,0.002732164692133665,0.0,0.0031290012411773205
0.009138748049736023,0.005526499357074499,-0.008019440807402134,0.002589149633422494,0.0,0.003341654082760215
0.00856881681829691,0.005835054442286491,-0.008389330469071865,0.0025245966389775276,0.0,0.0033605031203478575
0.009063435718417168,0.005934609100222588,-0.009098561480641365,0.002309595700353384,0.0,0.0034446818754076958
0.009868530556559563,0.0061597665771842,-0.00861971452832222,0.0023324342910200357,0.0,0.0030686398968100548
0.009410680271685123,0.005604584701359272,-0.008227067068219185,0.002377572702243924,0.0,0.002824528608471155
0.009259936399757862,0.005641405005007982,-0.008857028558850288,0.0023835734464228153,0.0,0.002602715976536274
0.009553201496601105,0.006157442927360535,-0.007996816188097,0.0027142101898789406,0.0,0.0025124226231127977
0.009223328903317451,0.0057151298969984055,-0.008069634437561035,0.002815067069604993,0.0,0.0027561653405427933
0.008804986253380775,0.0059079681523144245,-0.009027360938489437,0.002780409762635827,0.0,0.0028643507976084948
0.009415484964847565,0.0053949966095387936,-0.008617289364337921,0.002883607754483819,0.0,0.002572036115452647
0.009443326853215694,0.005157073028385639,-0.008047844283282757,0.003046473953872919,0.0,0.002370336791500449
0.009122416377067566,0.005506567656993866,-0.007762247230857611,0.003357472363859415,0.0,0.0022926691453903913
0.009639766998589039,0.006061236374080181,-0.008705008774995804,0.0033771172165870667,0.0,0.0021748440340161324
0.009744345210492611,0.00549872312694788,-0.008435153402388096,0.00321625336073339,0.0,0.002249413402751088
0.009595359675586224,0.00537134287878871,-0.007755484897643328,0.0029767241794615984,0.0,0.0022493007127195597
0.009614236652851105,0.005287559702992439,-0.008180021308362484,0.0027099139988422394,0.0,0.002538961125537753
0.009467323310673237,0.005141621921211481,-0.008634275756776333,0.0028082660865038633,0.0,0.002516556531190872
0.009467323310673237,0.005141621921211481,-0.008634275756776333,0.0028082660865038633,0.0,0.002516556531190872
0.008881814777851105,0.005911514163017273,-0.00829528458416462,0.0029616751708090305,0.0,0.0023597965482622385
0.00922022107988596,0.005898438394069672,-0.008009321987628937,0.003144649788737297,0.0,0.0023574887309223413
0.009829199872910976,0.005826357752084732,-0.008375109173357487,0.003272764850407839,0.0,0.0022083634976297617
0.00924722384661436,0.00537527771666646,-0.008164001628756523,0.003116015810519457,0.0,0.0021524885669350624
0.009993748739361763,0.005280642304569483,-0.008261213079094887,0.003156742313876748,0.0,0.001987982541322708
0.009796605445444584,0.005208159331232309,-0.008013324812054634,0.003214674536138773,0.0,0.0019663325510919094
0.009129145182669163,0.0059642731212079525,-0.00854718778282404,0.0029249514918774366,0.0,0.0019058319739997387
0.009382405318319798,0.0059990109875798225,-0.008385633118450642,0.0027266533579677343,0.0,0.0019432267872616649
0.009904224425554276,0.005748726427555084,-0.008348910138010979,0.0028217569924890995,0.0,0.0018853453220799565
0.009762469679117203,0.0054268790408968925,-0.008358200080692768,0.00316049437969923,0.0,0.0020981901325285435
0.009829351678490639,0.005491555202752352,-0.008279516361653805,0.003287124214693904,0.0,0.0023034100886434317
0.009746897034347057,0.005990851204842329,-0.008404788561165333,0.0031840724404901266,0.0,0.0023890158627182245
0.009671161882579327,0.005809742026031017,-0.008454815484583378,0.0031245700083673,0.0,0.002190721919760108
0.010447580367326736,0.005673440173268318,-0.008341494016349316,0.0031394155230373144,0.0,0.0021067154593765736
0.00953973364084959,0.005068309139460325,-0.00816188845783472,0.0032018458005040884,0.0,0.0018990675453096628
0.01029954943805933,0.005303006153553724,-0.008408734574913979,0.0033506990876048803,0.0,0.0016884473152458668
0.009500425308942795,0.005666895769536495,-0.008274894207715988,0.0031891665421426296,0.0,0.0016726133180782199
0.009458757936954498,0.006236771587282419,-0.008111690171062946,0.003450069110840559,0.0,0.0017277911538258195
0.009648960083723068,0.00526974955573678,-0.008227754384279251,0.003223641077056527,0.0,0.0017606476321816444
0.009844410233199596,0.004951838869601488,-0.008521364070475101,0.0029825663659721613,0.0,0.0019411484245210886
0.009834052063524723,0.005201238207519054,-0.008514493703842163,0.003191713010892272,0.0,0.0019342518644407392
0.01085794996470213,0.005201178137212992,-0.007867694832384586,0.003520834492519498,0.0,0.0018923993920907378
0.010045157745480537,0.005852927453815937,-0.008884936571121216,0.003508645808324218,0.0,0.0018162612104788423
0.009313780814409256,0.0057436153292655945,-0.008178448304533958,0.0035450991708785295,0.0,0.0017899388913065195
0.009671100415289402,0.005613396875560284,-0.007614415604621172,0.003248389810323715,0.0,0.0016637459630146623
0.010115453973412514,0.005093623884022236,-0.008001977577805519,0.00316067086532712,0.0,0.0015741863753646612
0.009558122605085373,0.00520616490393877,-0.008962168358266354,0.0032226170878857374,2.782256842692732e-06,0.0015812501078471541
0.010479370132088661,0.005554921925067902,-0.008578108623623848,0.003048005048185587,1.8166147697229462e-07,0.0015996563015505672
0.010137475095689297,0.006269491743296385,-0.007720900233834982,0.0031616035848855972,1.1861197357632136e-08,0.0017103493446484208
0.010137475095689297,0.006269491743296385,-0.007720900233834982,0.0031616035848855972,1.1861197357632136e-08,0.0017103493446484208
0.00965372659265995,0.005848560482263565,-0.008012974634766579,0.003286758903414011,7.744515029273202e-10,0.0017512677004560828
0.010119481943547726,0.0055833179503679276,-0.008395723067224026,0.003534049727022648,5.056614155174444e-11,0.0019011093536391854
0.010691827163100243,0.005250058136880398,-0.008287683129310608,0.003690324490889907,3.301608118844168e-12,0.0018219401827082038
0.009931018576025963,0.005339264869689941,-0.008448337204754353,0.003714567283168435,2.1557143006431523e-13,0.0016162912361323833
0.009947838261723518,0.005381094291806221,-0.008488469757139683,0.003358524991199374,1.4075274386499744e-14,0.0015945566119626164
0.010447819717228413,0.005745907314121723,-0.008575180545449257,0.0034757533576339483,9.190148659031548e-16,0.001503261853940785
0.010054769925773144,0.00512409582734108,-0.008124304004013538,0.003318212926387787,6.000510438525022e-17,0.0015169918769970536
0.01137334480881691,0.004859473556280136,-0.008284916169941425,0.00353319407440722,3.917904575410463e-18,0.0014471904141828418
0.009952266700565815,0.004965222906321287,-0.008450857363641262,0.0037074589636176825,2.558111620517644e-19,0.0013687715400010347
0.009662892669439316,0.005069070961326361,-0.008298257365822792,0.0038264577742666006,1.6702642570585275e-20,0.0013447976671159267
0.010707869194447994,0.005535657051950693,-0.009223980829119682,0.003880821168422699,7.12059805625846e-23,0.0012416423996910453
0.010163117200136185,0.005487689282745123,-0.008966384455561638,0.003858351381495595,4.649242069493681e-24,0.0011505065485835075
0.010615719482302666,0.005087965168058872,-0.008290055207908154,0.003905094461515546,3.035622798432929e-25,0.0011205621995031834
0.010503961704671383,0.0048774066381156445,-0.007981096394360065,0.004007858224213123,1.98204460961888e-26,0.0011038414668291807
0.0100559052079916,0.0054962835274636745,-0.008729678578674793,0.0040752217173576355,1.2941335372523613e-27,0.0010741859441623092
0.010302526876330376,0.00579194026067853,-0.00877524632960558,0.004043610766530037,-0.00011934260692214593,0.0011939683463424444
0.010275429114699364,0.0054421755485236645,-0.008619413711130619,0.004008791875094175,-0.00021993873815517873,0.00115895492490381
0.010970760136842728,0.005042003933340311,-0.008991282433271408,0.004243348725140095,-0.0002163191675208509,0.0011547168251127005
0.010485460050404072,0.005156227853149176,-0.008689782582223415,0.004227691795676947,-0.00023738143499940634,0.0011679260060191154
0.010313203558325768,0.005294516682624817,-0.008591268211603165,0.004099126905202866,-0.00023661498562432826,0.0011552339419722557
0.010336005128920078,0.005243944004178047,-0.009083000011742115,0.004037806764245033,-0.0002272839192301035,0.001112119178287685
0.010469109751284122,0.0054648579098284245,-0.00911061093211174,0.003956845495849848,-0.0002181418240070343,0.0010704310843721032
0.010142520070075989,0.005273789633065462,-0.009024510160088539,0.0038126003928482533,-0.00020967313321307302,0.0010065942769870162
0.01005440391600132,0.004971936345100403,-0.008726878091692924,0.003757207188755274,-0.0002018351515289396,0.0010705325985327363
0.010433506220579147,0.005147808231413364,-0.009790549986064434,0.004175685811787844,-0.0002104461455019191,0.0011031741742044687
0.009737998247146606,0.004879595246165991,-0.008912970311939716,0.004206972662359476,-0.00021801386901643127,0.0013351811794564128
0.010230607353150845,0.005602620076388121,-0.008859517984092236,0.004298795014619827,-0.00021165948419366032,0.0013289847411215305
0.010716433636844158,0.005348962265998125,-0.009497902356088161,0.003965139854699373,-0.00020484004926402122,0.001216342207044363
0.010716433636844158,0.005348962265998125,-0.009497902356088161,0.003965139854699373,-0.00020484004926402122,0.001216342207044363
0.009907660074532032,0.005150549113750458,-0.008739794604480267,0.003669362748041749,-0.00019233537022955716,0.0009676833287812769
0.009907660074532032,0.005150549113750458,-0.008739794604480267,0.003669362748041749,-0.00019233537022955716,0.0009676833287812769
0.010236621834337711,0.005091662518680096,-0.009816627949476242,0.0036922700237482786,-0.0001866375532699749,0.0008026647847145796
0.010368339717388153,0.00468628341332078,-0.009521073661744595,0.003703352762386203,-0.00018126652867067605,0.0008069301838986576
0.011068101041018963,0.004922323860228062,-0.009239844977855682,0.00368403154425323,-0.00017619678692426533,0.0007949197315610945
0.010176494717597961,0.0053319176658988,-0.00976158119738102,0.003718468127772212,-0.00018342540715821087,0.0007795055862516165
0.010530583560466766,0.0052336654625833035,-0.009899117052555084,0.003479182021692395,-0.00018572622502688318,0.0007337466231547296
0.010032965801656246,0.005010005086660385,-0.00995016098022461,0.0035654441453516483,-0.00018110261589754373,0.00065135263139382
0.010843055322766304,0.0047173043712973595,-0.00966438464820385,0.0037201654631644487,-0.00017666193889454007,0.0006531291292048991
0.010400325059890747,0.00477958656847477,-0.00931569654494524,0.00404939241707325,-0.00017243128968402743,0.0006052125245332718
0.010409573093056679,0.005179843865334988,-0.010235491208732128,0.004114014096558094,-0.00016839806630741805,0.0005894156638532877
0.010243808850646019,0.004850485362112522,-0.00976577214896679,0.004424070008099079,-0.0001647238532314077,0.0005751272547058761
0.010435990989208221,0.004559283144772053,-0.0101197250187397,0.004761070944368839,-0.00017065538850147277,0.0005293560680001974
0.010131708346307278,0.004851856268942356,-0.01016609463840723,0.0047112214379012585,-0.00016518638585694134,0.0004884481313638389
0.011030555702745914,0.004833074286580086,-0.009862379170954227,0.0045636799186468124,-0.0001593869092175737,0.00045328764826990664
0.010424552485346794,0.004553067963570356,-0.009831634350121021,0.004472576081752777,-0.00015393758076243103,0.00046727893641218543
0.009790939278900623,0.004962466191500425,-0.009732776321470737,0.004503107629716396,-0.00014884529809933156,0.0004517982597462833
0.010421180166304111,0.004890318959951401,-0.00952429324388504,0.004872740712016821,-0.00014407896378543228,0.00042596348794177175
0.01026856154203415,0.00488996272906661,-0.009234625846147537,0.005463522858917713,-0.00013960851356387138,0.00038296141428872943
0.010520394891500473,0.004934502765536308,-0.010087643750011921,0.0055463784374296665,-0.0001606658479431644,0.0003386327007319778
0.010931475088000298,0.00502006383612752,-0.009892597794532776,0.005080592352896929,-0.00015762270777486265,0.00031396799022331834
0.011064066551625729,0.0049691530875861645,-0.0094175199046731,0.004404829815030098,-0.00015325679851230234,0.00029341722256504
0.01047767885029316,0.005218850448727608,-0.010264876298606396,0.0048532732762396336,-0.000149033687193878,0.00027544377371668816
0.01078487653285265,0.005423041991889477,-0.00959351472556591,0.005691103637218475,-0.0001450311829103157,0.00025954897864721715
0.01045632641762495,0.005038199946284294,-0.009084626100957394,0.006112763192504644,-0.00014123780420050025,0.00024538999423384666
0.010465860366821289,0.005285277031362057,-0.009636198170483112,0.005361594725400209,-0.00014890602324157953,0.00023269619850907475
0.010465860366821289,0.005285277031362057,-0.009636198170483112,0.005361594725400209,-0.00014890602324157953,0.00023269619850907475
0.010848482139408588,0.005147350952029228,-0.009694858454167843,0.00475309370085597,-0.00015582380001433194,0.0002212515246355906
0.0118770906701684,0.005878922529518604,-0.009354695677757263,0.004503272473812103,-0.00015273832832463086,0.000210880083614029
0.012326540425419807,0.005367978475987911,-0.009507772512733936,0.004642888437956572,-0.00016496625903528184,0.00020143811707384884
0.012020712718367577,0.0048995064571499825,-0.009505601599812508,0.00501250522211194,-0.00016617697838228196,0.00019280516426078975
0.012743653729557991,0.0052615078166127205,-0.009177801199257374,0.005119733512401581,-0.00021838280372321606,0.0001848825195338577
0.012394264340400696,0.005132775288075209,-0.009950241073966026,0.0052454713732004166,-0.0002590655640233308,0.00017758485046215355
0.012543830089271069,0.005336187779903412,-0.009571049362421036,0.005312774330377579,-0.0002583678287919611,0.00017084200226236135
0.011700686067342758,0.005191105417907238,-0.009294881485402584,0.005091014318168163,-0.00027557340217754245,0.00015878347039688379
0.012241072952747345,0.005076661705970764,-0.009351148270070553,0.005649898201227188,-0.0002643325715325773,0.00015337152581196278
0.012131723575294018,0.0051371934823691845,-0.008979537524282932,0.005803657695651054,-0.00025370647199451923,0.00014831562293693423
0.012679687701165676,0.005697449669241905,-0.009048524312675,0.005498993676155806,-0.00026964640710502863,0.00014358303451444954
0.012742328457534313,0.005474279634654522,-0.009436944499611855,0.005043506156653166,-0.00026774368598125875,0.00013914305600337684
0.013598261401057243,0.005825119558721781,-0.009020479395985603,0.004719983320683241,-0.00025865453062579036,0.0001349691883660853
0.013334574177861214,0.005261354614049196,-0.008957757614552975,0.004731005989015102,-0.0002497173845767975,0.00013103854143992066
0.012491649016737938,0.004979792051017284,-0.009437360800802708,0.005772528238594532,-0.00024134747218340635,0.00012733065523207188
0.012770515866577625,0.005635241977870464,-0.009064513258635998,0.005670464131981134,-0.00034338372643105686,0.00012382639397401363
0.012455361895263195,0.005782159045338631,-0.009043480269610882,0.0052357506938278675,-0.00033397990046069026,0.00012051255180267617
0.012751451693475246,0.005841660778969526,-0.009751069359481335,0.005088596139103174,-0.0003118737367913127,0.00010583746916381642
0.012441486120223999,0.005106883589178324,-0.009609540924429893,0.0055823856964707375,-0.00029171325149945915,9.228663839166984e-05
0.012859403155744076,0.005214343778789043,-0.00944126769900322,0.005537906661629677,-0.00027394984499551356,8.929093019105494e-05
0.012791624292731285,0.005208989139646292,-0.009680509567260742,0.0058651515282690525,-0.0002962788275908679,8.708313544047996e-05
0.012625937350094318,0.005900711286813021,-0.00924308504909277,0.005762205459177494,-0.0002921575214713812,8.503044227836654e-05
0.013234615325927734,0.005607417318969965,-0.009137175977230072,0.005550173111259937,-0.00027789745945483446,6.368934555212036e-05
0.012952476739883423,0.005722787696868181,-0.009521273896098137,0.005165213253349066,-0.00028584705432876945,6.098294761613943e-05
0.01315471064299345,0.005212594289332628,-0.010524329729378223,0.0052593545988202095,-0.0002925329899881035,5.955869346507825e-05
0.012441006489098072,0.005269302986562252,-0.009140253998339176,0.005621018819510937,-0.000280796957667917,5.826811320730485e-05
0.012773007154464722,0.005628975108265877,-0.009934237226843834,0.005478269886225462,-0.0002972784568555653,-3.711197496159002e-05
0.012676120735704899,0.005666969809681177,-0.00972769781947136,0.005444482900202274,-0.0002940775593742728,-4.9039786972571164e-05
0.012676120735704899,0.005666969809681177,-0.00972769781947136,0.005444482900202274,-0.0002940775593742728,-4.9039786972571164e-05
0.013379584066569805,0.0058531807735562325,-0.00910149235278368,0.0047456868924200535,-0.00028309758636169136,-6.049485091352835e-05
0.013530248776078224,0.005570581182837486,-0.009346944279968739,0.0049840426072478294,-0.000272422592388466,-7.02034158166498e-05
0.013337097130715847,0.005536957643926144,-0.009695382788777351,0.005384928081184626,-0.00028098683105781674,-8.916838123695925e-05
0.013621943071484566,0.005474156700074673,-0.010043427348136902,0.006293389480561018,-0.0002706421946641058,-0.00010642292909324169
0.01342739723622799,0.0058637042529881,-0.009479017928242683,0.00578501308336854,-0.0002556880936026573,-0.00037468294613063335
0.01319741178303957,0.005582985933870077,-0.010305478237569332,0.005514081101864576,-0.00027391701587475836,-0.0006675971089862287
0.013407093472778797,0.005278177559375763,-0.010508382692933083,0.005967696197330952,-0.0002620501909404993,-0.0006455862312577665
0.013026691041886806,0.005391690880060196,-0.011689196340739727,0.005637119524180889,-0.000286100956145674,-0.0006498274160549045
0.013439590111374855,0.005366374738514423,-0.011297225020825863,0.005337410606443882,-0.0002784093376249075,-0.0007261349237523973
0.013258571736514568,0.00582289882004261,-0.01159741636365652,0.00545621057972312,-0.0002669344830792397,-0.0008420872036367655
0.014093205332756042,0.00552057521417737,-0.010583091527223587,0.005605759099125862,-0.00028314560768194497,-0.0008561360300518572
0.013384080491960049,0.005293716210871935,-0.010556787252426147,0.0055869934149086475,-0.0002806315023917705,-0.0008618719293735921
0.01336878165602684,0.005242757964879274,-0.011318189091980457,0.00555398128926754,-0.00027063884772360325,-0.001120103639550507
0.013216323219239712,0.005632275249809027,-0.010943650268018246,0.005240858066827059,-0.00033255404559895396,-0.0011574317468330264
0.013887032866477966,0.005678156390786171,-0.010840089991688728,0.005599413998425007,-0.000364323437679559,-0.001150008523836732
0.013885865919291973,0.0063592675141990185,-0.009805785492062569,0.005710305646061897,-0.00037050049286335707,-0.0015414637746289372
0.015612727031111717,0.0056836591102182865,-0.011021803133189678,0.005750675220042467,-0.0003988482349086553,-0.001529306173324585
0.013298594392836094,0.005754218436777592,-0.011561766266822815,0.005965854041278362,-0.00040824225288815796,-0.0017681583994999528
0.013778941705822945,0.005471441894769669,-0.011515618301928043,0.006143695209175348,-0.0004099386278539896,-0.0017868460854515433
0.014419212006032467,0.005375912878662348,-0.010203192010521889,0.006094387266784906,-0.0006622280925512314,-0.0015585977816954255
0.01441984437406063,0.005542358383536339,-0.010975463315844536,0.005877143703401089,-0.0007268100162036717,-0.0015838409308344126
0.014232039451599121,0.005461143329739571,-0.010861795395612717,0.0059506832621991634,-0.0007283205050043762,-0.0018144072964787483
0.014073742553591728,0.005324030760675669,-0.010369348339736462,0.006331930868327618,-0.0006749691674485803,-0.0019323875894770026
0.014073742553591728,0.005324030760675669,-0.010369348339736462,0.006331930868327618,-0.0006749691674485803,-0.0019323875894770026
0.014219274744391441,0.00551943201571703,-0.010760906152427197,0.006292595062404871,-0.0006110440590418875,-0.0022247887682169676
0.014344741590321064,0.005172637291252613,-0.010432295501232147,0.006284017581492662,-0.0005570540088228881,-0.002146800048649311
0.014552631415426731,0.005947642959654331,-0.010545513592660427,0.006328031420707703,-0.000565395865123719,-0.0019935229793190956
0.014547443948686123,0.00559757137671113,-0.010350757278501987,0.006056181155145168,-0.0005396255874074996,-0.0019409210653975606
0.01486577745527029,0.0054013170301914215,-0.011529793031513691,0.006496611051261425,-0.00047019508201628923,-0.001834664260968566
0.014689674600958824,0.005233860109001398,-0.010583908297121525,0.006074126344174147,-0.00042320205830037594,-0.0020173953380435705
0.014689674600958824,0.005233860109001398,-0.010583908297121525,0.006074126344174147,-0.00042320205830037594,-0.0020173953380435705
0.014877945184707642,0.005334280431270599,-0.01046590507030487,0.006050553638488054,-0.000385786552214995,-0.0020561255514621735
0.014922401867806911,0.005613652057945728,-0.010812594555318356,0.006536382250487804,-0.00045157104614190757,-0.002093967981636524
0.014510530047118664,0.00522224698215723,-0.011315891519188881,0.006288923788815737,-0.00045864557614549994,-0.00223781680688262
0.014777492731809616,0.005665704607963562,-0.010979097336530685,0.006515488028526306,-0.0004573726619128138,-0.00259838136844337
0.015311161056160927,0.005450212862342596,-0.010606978088617325,0.006052728742361069,-0.0006098797312006354,-0.0034193177707493305
0.014940627850592136,0.005765055771917105,-0.011334961280226707,0.0060762520879507065,-0.0006465159240178764,-0.003810099558904767
0.01475558616220951,0.005846136249601841,-0.011738438159227371,0.006507432088255882,-0.0006761159165762365,-0.003501937258988619
0.015035758726298809,0.005476742051541805,-0.010668371804058552,0.006271254736930132,-0.000699594325851649,-0.003177623962983489
0.01479025837033987,0.005400102119892836,-0.011794831603765488,0.006065379362553358,-0.0006775798392482102,-0.0028477434534579515
0.015111710876226425,0.005991022102534771,-0.011173827573657036,0.0064820763655006886,-0.0006218818016350269,-0.0025833952240645885
0.014751434326171875,0.00563054159283638,-0.0111497538164258,0.0067412713542580605,-0.0005725684459321201,-0.002882496453821659
0.015067136846482754,0.005939814727753401,-0.010910035111010075,0.007185253780335188,-0.0005680501344613731,-0.0028891859110444784
0.014750073663890362,0.00546132680028677,-0.010739395394921303,0.00691481027752161,-0.0005379540380090475,-0.003180525964125991
0.015406892634928226,0.005237616132944822,-0.011247411370277405,0.006246860604733229,-0.0004826592339668423,-0.0033057036343961954
0.015018049627542496,0.005354950204491615,-0.011232168413698673,0.006446066312491894,-0.00043599086347967386,-0.0031461254693567753
0.015760648995637894,0.005627777427434921,-0.010898579843342304,0.0071724168956279755,-0.00047123836702667177,-0.0030830875039100647
0.015078531578183174,0.005644288845360279,-0.010913915932178497,0.007009003311395645,-0.0004378209705464542,-0.0033332197926938534
0.015078531578183174,0.005644288845360279,-0.010913915932178497,0.007009003311395645,-0.0004378209705464542,-0.0033332197926938534
0.015365000814199448,0.005652780644595623,-0.010343790054321289,0.006831536069512367,-0.0004052535514347255,-0.003229730296880007
0.015350725501775742,0.005093366838991642,-0.010975581593811512,0.006685236934572458,-0.000431223917985335,-0.0030712555162608624
0.015497855842113495,0.00530215771868825,-0.010896893218159676,0.006879371125251055,-0.0004105196276213974,-0.002871678676456213
0.015997515991330147,0.0055508678779006,-0.01076387520879507,0.006669750437140465,-0.00038584787398576736,-0.003236740827560425
0.016016406938433647,0.006103301886469126,-0.011753421276807785,0.0065690879710018635,-0.00041194475488737226,-0.003247832879424095
0.01565515249967575,0.005996417719870806,-0.011750208213925362,0.00614647101610899,-0.0003926279896404594,-0.003491532988846302
0.01515198778361082,0.0056533291935920715,-0.011155248619616032,0.0064634839072823524,-0.0003725142451003194,-0.003685769159346819
0.01494577620178461,0.00563996285200119,-0.011302866972982883,0.006907051894813776,-0.00035419504274614155,-0.0037673593033105135
0.014790022745728493,0.005997655913233757,-0.011863543651998043,0.006842837668955326,-0.0003387880860827863,-0.003807198256254196
0.015122687444090843,0.005597108043730259,-0.011976530775427818,0.006506272591650486,-0.00029807802638970315,-0.0037853410467505455
0.014878610149025917,0.006072227843105793,-0.011013909243047237,0.00631558895111084,-0.0002784263633657247,-0.0037120915949344635
0.015494076535105705,0.004103042185306549,-0.011751821264624596,0.007018597796559334,-0.00024768355069682,-0.004215576220303774
0.01537085510790348,0.0036937021650373936,-0.01128370314836502,0.006835212931036949,-0.0002753955777734518,-0.004430466331541538
0.01524306833744049,0.0044028195552527905,-0.0116403978317976,0.006494569126516581,-0.0002891035983338952,-0.004154867492616177
0.015714462846517563,0.004750794731080532,-0.011864908039569855,0.0068556820042431355,-0.0002960811252705753,-0.004048077389597893
0.01569526270031929,0.004798625595867634,-0.0117195351049304,0.007155678700655699,-0.00032189214834943414,-0.004136592149734497
0.01665710285305977,0.004632513038814068,-0.011452635750174522,0.006869802251458168,-0.0004763859324157238,-0.003885074518620968
0.01593014970421791,0.004523094277828932,-0.010982650332152843,0.006664289627224207,-0.00045327193220146,-0.0034881506580859423
0.015527104027569294,0.004196712747216225,-0.011319495737552643,0.0065943393856287,-0.0004899637424387038,-0.003474865108728409
0.0162712000310421,0.004491849336773157,-0.011434312909841537,0.0065133823081851006,-0.00045386733836494386,-0.003677641972899437
0.01578345336019993,0.0046911402605473995,-0.011274978518486023,0.006450390908867121,-0.0004189570026937872,-0.003888445906341076
0.016349343582987785,0.004665720742195845,-0.012679838575422764,0.006622952409088612,-0.00038879321073181927,-0.003759794868528843
0.015832293778657913,0.005145406350493431,-0.011328202672302723,0.006677043158560991,-0.00036266547976993024,-0.0035580149851739407
0.016140799969434738,0.004852127283811569,-0.01173221506178379,0.006617749109864235,-0.0003398288390599191,-0.003622454823926091
0.016549261286854744,0.004376573022454977,-0.01198059692978859,0.00711985444650054,-0.0003657796769402921,-0.003959542606025934
0.016887202858924866,0.004253393039107323,-0.011596289463341236,0.0067499130964279175,-0.00035165721783414483,-0.00421882513910532
0.016582494601607323,0.004834872670471668,-0.012014759704470634,0.006517777219414711,-0.0003334502980578691,-0.004089509602636099
0.016582494601607323,0.004834872670471668,-0.012014759704470634,0.006517777219414711,-0.0003334502980578691,-0.004089509602636099
0.01599275879561901,0.004838481545448303,-0.011610294692218304,0.006589930970221758,-0.0003167076501995325,-0.004235909320414066
0.016552207991480827,0.004668752662837505,-0.011855663731694221,0.006767776794731617,-0.00032850110437721014,-0.004205139819532633
0.016552207991480827,0.004668752662837505,-0.011855663731694221,0.006767776794731617,-0.00032850110437721014,-0.004205139819532633
0.01651027612388134,0.004387309774756432,-0.01179132517427206,0.006940772756934166,-0.000314484495902434,-0.004577277693897486
0.016167400404810905,0.004346163012087345,-0.011936639435589314,0.006801309995353222,-0.00030164679628796875,-0.004464950878173113
0.01672280579805374,0.004624768625944853,-0.011263659223914146,0.007315183524042368,-0.00027354637859389186,-0.004055822733789682
0.016897102817893028,0.0046134646981954575,-0.011930909939110279,0.007189191412180662,-0.000282317865639925,-0.004317397717386484
0.016131797805428505,0.004372007679194212,-0.011708577163517475,0.006743937265127897,-0.0002902415581047535,-0.004224971402436495
0.016791362315416336,0.004572527948766947,-0.011722313240170479,0.007003982085734606,-0.00029938932857476175,-0.004269525408744812
0.016787106171250343,0.004993836395442486,-0.012565414421260357,0.007056655362248421,-0.0003058218862861395,-0.0041807871311903
0.016985274851322174,0.004921908024698496,-0.011513794772326946,0.00710474606603384,-0.0003292319306638092,-0.0047662099823355675
0.017049524933099747,0.004278245382010937,-0.012053380720317364,0.007197134662419558,-0.000319672777550295,-0.0045425477437675
0.01725771836936474,0.00460552703589201,-0.012220081873238087,0.008104255422949791,-0.0005847538122907281,-0.004290768411010504
0.017165545374155045,0.00517507828772068,-0.010873652994632721,0.00827613566070795,-0.0005502483691088855,-0.004419681616127491
0.01740609109401703,0.005006228573620319,-0.01258808746933937,0.007868398912250996,-0.0005619230796582997,-0.004850396886467934
0.0174004677683115,0.0048624263145029545,-0.012662522494792938,0.007469941861927509,-0.0005332923610694706,-0.0051028490997850895
0.0169815756380558,0.004688077140599489,-0.011835739947855473,0.008079866878688335,-0.0004927900154143572,-0.004991544876247644
0.01736162230372429,0.004635476972907782,-0.0122631611302495,0.008334027603268623,-0.0004570882592815906,-0.004743470810353756
0.0173528753221035,0.004624519497156143,-0.012411793693900108,0.008210014551877975,-0.00047874890151433647,-0.004749381449073553
0.017723942175507545,0.005231323651969433,-0.012637199833989143,0.007914921268820763,-0.0004556193307507783,-0.00487794354557991
0.0171869695186615,0.005183110944926739,-0.012404372915625572,0.00830164272338152,-0.0004594116471707821,-0.004808505531400442
0.017163848504424095,0.00519594457000494,-0.01185940857976675,0.008273951709270477,-0.0004842593625653535,-0.005114485509693623
0.017428627237677574,0.004928146488964558,-0.012636630795896053,0.008069530129432678,-0.0004996307543478906,-0.005213914904743433
0.01704077422618866,0.004745967220515013,-0.012629483826458454,0.008008992299437523,-0.000495546031743288,-0.005032268352806568
0.017737876623868942,0.0051818955689668655,-0.012497900985181332,0.008082344196736813,-0.0005184682668186724,-0.004791229497641325
0.0176733136177063,0.005545379593968391,-0.012233137153089046,0.008219136856496334,-0.0004935559700243175,-0.004694072064012289
0.017182182520627975,0.005421587266027927,-0.012582923285663128,0.007816457189619541,-0.00067031045909971,-0.004677166230976582
0.017349770292639732,0.00526384124532342,-0.012542749755084515,0.007707234006375074,-0.0007003325154073536,-0.004661133978515863
0.01743522845208645,0.005118124186992645,-0.012128379195928574,0.0082276351749897,-0.000633054762147367,-0.004981683101505041
0.01743522845208645,0.005118124186992645,-0.012128379195928574,0.0082276351749897,-0.000633054762147367,-0.004981683101505041
0.017804911360144615,0.005107262171804905,-0.012921232730150223,0.008568711578845978,-0.0006128676468506455,-0.0051400791853666306
0.01767718233168125,0.004865956027060747,-0.012223136611282825,0.00792775396257639,-0.0005958052352070808,-0.00501967640593648
0.017364224418997765,0.006478621158748865,-0.01236894354224205,0.008237835019826889,-0.0005844892002642155,-0.005211220122873783
0.01795218326151371,0.0051164766773581505,-0.012202465906739235,0.008053290657699108,-0.0005724564543925226,-0.005093198735266924
0.01808573305606842,0.004021520260721445,-0.012695061042904854,0.007903399877250195,-0.0005349280545488,-0.005065427161753178
0.01817360892891884,0.005566921550780535,-0.012808225117623806,0.00793088786303997,-0.0005041758995503187,-0.005829923320561647
0.01836445927619934,0.005327317863702774,-0.012359332293272018,0.008729539811611176,-0.0005215779528953135,-0.005558873526751995
0.018104325979948044,0.005336209665983915,-0.012679718434810638,0.008530622348189354,-0.0004943866515532136,-0.0056576901115477085
0.018306413665413857,0.005578287877142429,-0.012264763936400414,0.007702088449150324,-0.0005193884717300534,-0.005953385028988123
0.018377430737018585,0.0051275319419801235,-0.012379045598208904,0.008177872747182846,-0.00048809158033691347,-0.00544621329754591
0.018404563888907433,0.005154334474354982,-0.01264362782239914,0.008829046040773392,-0.000501134607475251,-0.005377237219363451
0.018933262676000595,0.005423663184046745,-0.013045020401477814,0.007960990071296692,-0.0004823989875148982,-0.0056653376668691635
0.01828700304031372,0.005228378809988499,-0.012443876825273037,0.00851389765739441,-0.0005794313619844615,-0.005602092016488314
0.018552949652075768,0.005805703811347485,-0.012826402671635151,0.008474203757941723,-0.0005454873898997903,-0.005702747963368893
0.01809036172926426,0.005268608219921589,-0.012209179811179638,0.008262882009148598,-0.0005574921378865838,-0.005366655997931957
0.01848253235220909,0.005267146974802017,-0.013208823278546333,0.00839246716350317,-0.0005294386064633727,-0.005866410676389933
0.019059164449572563,0.005437415558844805,-0.01253039576113224,0.008223173208534718,-0.0005544936284422874,-0.0055793412029743195
0.019261203706264496,0.005070358049124479,-0.012935695238411427,0.008209723979234695,-0.000676062423735857,-0.005823630373924971
0.018817467615008354,0.005553213879466057,-0.012651987373828888,0.008323456160724163,-0.000714879366569221,-0.00591636635363102
0.01935114525258541,0.005151642486453056,-0.013072200119495392,0.00861336849629879,-0.0006451817462220788,-0.005811413750052452
0.019372135400772095,0.005348748993128538,-0.013415002264082432,0.008372035808861256,-0.0006473737303167582,-0.005851557943969965
0.019655555486679077,0.0055863456800580025,-0.013208840973675251,0.008101602084934711,-0.0006066086352802813,-0.005899331532418728
0.01947745308279991,0.005428236443549395,-0.013008114881813526,0.008848931640386581,-0.0006281399982981384,-0.0065585291013121605
0.020906848832964897,0.0059348661452531815,-0.012298673391342163,0.009220418520271778,-0.0005822004750370979,-0.00616523576900363
0.019043875858187675,0.005408328492194414,-0.012865239754319191,0.00929280836135149,-0.0005426470306701958,-0.005934593733400106
0.019115803763270378,0.005127198528498411,-0.012807575985789299,0.009068268351256847,-0.0005179791478440166,-0.006172491703182459
0.019534600898623466,0.00535269221290946,-0.01366338599473238,0.009525489993393421,-0.0004666766326408833,-0.005979948677122593
0.019969020038843155,0.005619593895971775,-0.013148347847163677,0.008890367113053799,-0.000422920857090503,-0.006343817804008722
0.020529447123408318,0.005176753271371126,-0.013470442034304142,0.008536500856280327,-0.0004583474656101316,-0.005953021347522736
0.020529447123408318,0.005176753271371126,-0.013470442034304142,0.008536500856280327,-0.0004583474656101316,-0.005953021347522736
0.020439445972442627,0.0054170540533959866,-0.013120674528181553,0.00909820944070816,-0.00042678171303123236,-0.005796004086732864
0.019654858857393265,0.005612928885966539,-0.013348711654543877,0.009110760875046253,-0.00039578473661094904,-0.006049636751413345
0.02023247443139553,0.005391930695623159,-0.013583201915025711,0.00863448902964592,-0.00042185044731013477,-0.0061986250802874565
0.02013019472360611,0.0055821845307946205,-0.013106897473335266,0.00920453853905201,-0.0004021569329779595,-0.006334795616567135
0.019920511171221733,0.005627386271953583,-0.013359418138861656,0.009039233438670635,-0.00037846187478862703,-0.0065150209702551365
0.020267626270651817,0.00580222811549902,-0.013216087594628334,0.008590100333094597,-0.0004045093955937773,-0.0061993650160729885
0.02017398551106453,0.005387574899941683,-0.013651366345584393,0.008847502060234547,-0.0003972232807427645,-0.006082450971007347
0.01995200850069523,0.00565083185210824,-0.013113354332745075,0.008857936598360538,-0.0003764499560929835,-0.006418835837393999
0.02015971578657627,0.005406285170465708,-0.014085170812904835,0.008744325488805771,-0.00039924794691614807,-0.006644742097705603
0.0205853171646595,0.005867017898708582,-0.01352647040039301,0.007914034649729729,-0.0003865807084366679,-0.006638337858021259
0.02013789303600788,0.005745287518948317,-0.013581011444330215,0.009638560004532337,-0.0003945297794416547,-0.0067977746948599815
0.020534783601760864,0.005753303878009319,-0.014576996676623821,0.00934015866369009,-0.0003721276589203626,-0.006928272545337677
0.020907778292894363,0.0056173973716795444,-0.014066286385059357,0.009281082078814507,-0.0003758818784262985,-0.007224098313599825
0.02081959880888462,0.004790178034454584,-0.014356661587953568,0.009052383713424206,-0.0003787181049119681,-0.00713105034083128
0.02040676586329937,0.004576148930937052,-0.013513084501028061,0.008839800953865051,-0.00036119535798206925,-0.007266391534358263
0.020845243707299232,0.004909354727715254,-0.013883793726563454,0.009390115737915039,-0.0003440277941990644,-0.007607039995491505
0.0206744484603405,0.005011020228266716,-0.013689499348402023,0.008850433863699436,-0.00039234181167557836,-0.007224782835692167
0.020355815067887306,0.004725238308310509,-0.014340633526444435,0.00869616586714983,-0.00037018099101260304,-0.007183278910815716
0.0209413580596447,0.004907958675175905,-0.01399887166917324,0.009249568916857243,-0.00034263660199940205,-0.007834002375602722
0.020733673125505447,0.004965672269463539,-0.01416696049273014,0.00969721470028162,-0.00037341128336265683,-0.007919752039015293
0.020553480833768845,0.005292457994073629,-0.013677856884896755,0.009088724851608276,-0.000356270611518994,-0.007161716464906931
0.020890191197395325,0.005106826778501272,-0.014824428595602512,0.009450599551200867,-0.00033467108733020723,-0.007151193916797638
0.021042566746473312,0.004811082035303116,-0.013992544263601303,0.010037316009402275,-0.00036404418642632663,-0.007860302925109863
0.020844610407948494,0.004536764230579138,-0.01374555379152298,0.009371932595968246,-0.00034716769005171955,-0.007352203596383333
0.02088331989943981,0.004509597551077604,-0.013485687784850597,0.008861909620463848,-0.0003292291657999158,-0.007170851342380047
0.020770179107785225,0.004700692370533943,-0.014668719843029976,0.00936316978186369,-0.00035451227449811995,-0.0069950297474861145
0.020773787051439285,0.004749335814267397,-0.01477790903300047,0.009467069990932941,-0.0003404602175578475,-0.006970836780965328
0.020964978262782097,0.00478382920846343,-0.013871030882000923,0.009477625600993633,-0.00037809801870025694,-0.007295066025108099
0.020964978262782097,0.00478382920846343,-0.013871030882000923,0.009477625600993633,-0.00037809801870025694,-0.007295066025108099
0.020653532817959785,0.005066562443971634,-0.014046663418412209,0.009684267453849316,-0.0003912727697752416,-0.00733971456065774
0.0212066862732172,0.004384075291454792,-0.01433754526078701,0.009387745521962643,-0.00039478181861341,-0.008037249557673931
0.021145815029740334,0.004317356739193201,-0.013832190074026585,0.009851178154349327,-0.00043094417196698487,-0.007640827912837267
0.021145815029740334,0.004317356739193201,-0.013832190074026585,0.009851178154349327,-0.00043094417196698487,-0.007640827912837267
0.021137386560440063,0.005047123413532972,-0.013692785054445267,0.009353895671665668,-0.0004090429865755141,-0.007713077124208212
0.021137386560440063,0.005047123413532972,-0.013692785054445267,0.009353895671665668,-0.0004090429865755141,-0.007713077124208212
0.021387359127402306,0.0048750280402600765,-0.014230983331799507,0.009916579350829124,-0.00038715440314263105,-0.007641255389899015
0.02116013504564762,0.004200968891382217,-0.014406309463083744,0.010068356059491634,-0.0004689238267019391,-0.007857237942516804
0.0212619137018919,0.004174265079200268,-0.013787484727799892,0.009981291368603706,-0.00042690904228948057,-0.007613667286932468
0.021201983094215393,0.004448866471648216,-0.014228839427232742,0.00999950896948576,-0.00042772028245963156,-0.007544689811766148
0.02130824886262417,0.004582598805427551,-0.014165126718580723,0.009831778705120087,-0.00042805401608347893,-0.00800411682575941
0.021916577592492104,0.004587050061672926,-0.014315659180283546,0.010469670407474041,-0.00039867585292086005,-0.007510977331548929
0.021676840260624886,0.00458778440952301,-0.013524056412279606,0.010090257041156292,-0.00037138437619432807,-0.00864061713218689
0.021436592563986778,0.004864458926022053,-0.014230730943381786,0.009544456377625465,-0.000397534720832482,-0.007700501475483179
0.020566655322909355,0.004221417475491762,-0.013600450940430164,0.010077839717268944,-0.0003803612198680639,-0.007564694155007601
0.020780783146619797,0.00394066097214818,-0.01414958480745554,0.009680667892098427,-0.00035911877057515085,-0.008017945103347301
0.021260228008031845,0.00445726839825511,-0.013801862485706806,0.009228688664734364,-0.00038496116758324206,-0.00830762181431055
0.02150680311024189,0.004712565336376429,-0.01413348875939846,0.009527761489152908,-0.00036821613321080804,-0.007819859310984612
0.02052997425198555,0.004673937801271677,-0.013323594816029072,0.00960131362080574,-0.00035048011341132224,-0.007936972193419933
0.02232024073600769,0.004951059818267822,-0.01396349910646677,0.0099099799990654,-0.0003342198906466365,-0.008024508133530617
0.02177777886390686,0.004452244844287634,-0.013674830086529255,0.009912678971886635,-0.00031527955434285104,-0.0076265642419457436
0.021304866299033165,0.003985886462032795,-0.014302040450274944,0.009653669781982899,-0.0002946204331237823,-0.007693763822317123
0.021266167983412743,0.0041869874112308025,-0.013754932209849358,0.009877422824501991,-0.0002765082463156432,-0.008149726316332817
0.021599100902676582,0.004265965893864632,-0.01405258197337389,0.01076496485620737,-0.00030555578996427357,-0.008301893249154091
0.021650979295372963,0.0043620155192911625,-0.013548371382057667,0.010224479250609875,-0.0002950217458419502,-0.008002768270671368
0.021650979295372963,0.0043620155192911625,-0.013548371382057667,0.010224479250609875,-0.0002950217458419502,-0.008002768270671368
0.02171676978468895,0.0042267185635864735,-0.014195677824318409,0.009713971987366676,-0.00028011720860376954,-0.007798883132636547
0.021691778674721718,0.004850037395954132,-0.013841332867741585,0.010348253883421421,-0.00026632266235537827,-0.007693924475461245
0.02167034149169922,0.004980505909770727,-0.014259935356676579,0.010167131200432777,-0.0002932060160674155,-0.008161252364516258
0.02247033640742302,0.004261895548552275,-0.013757556676864624,0.01024584285914898,-0.0002706441155169159,-0.00861223042011261
0.02247033640742302,0.004261895548552275,-0.013757556676864624,0.01024584285914898,-0.0002706441155169159,-0.00861223042011261
0.02233291231095791,0.0046082460321486,-0.013812344521284103,0.010180303826928139,-0.00025950404233299196,-0.008121589198708534
0.022160308435559273,0.004684676881879568,-0.014250252395868301,0.010365297086536884,-0.00024923720047809184,-0.008110317401587963
0.02240597829222679,0.004855201579630375,-0.015268830582499504,0.01042136549949646,-0.00026380192139185965,-0.008267889730632305
0.0221075639128685,0.004551588091999292,-0.014507265761494637,0.010348678566515446,-0.0002546084579080343,-0.008594565093517303
0.022039592266082764,0.00401601055637002,-0.014547757804393768,0.010645389556884766,-0.000245919480221346,-0.008279163390398026
0.022510001435875893,0.004446828737854958,-0.014284119941294193,0.010105330497026443,-0.0002710430708248168,-0.00812756922096014
0.02272750437259674,0.004750397987663746,-0.014813704416155815,0.010550384409725666,-0.0002604863257147372,-0.007871432229876518
0.02232941798865795,0.004672970622777939,-0.014692247845232487,0.010625348426401615,-0.0002465459401719272,-0.008170947432518005
0.02265304885804653,0.004778271075338125,-0.014627349562942982,0.009930738247931004,-0.0002772879379335791,-0.008381086401641369
0.022522950544953346,0.004811485297977924,-0.01445094682276249,0.010728457011282444,-0.0002992402878589928,-0.008037650026381016
0.023004071786999702,0.004783390089869499,-0.014712938107550144,0.011052181012928486,-0.0002956784737762064,-0.00758042186498642
0.022874154150485992,0.004278257023543119,-0.015023618936538696,0.010873702354729176,-0.00031811464577913284,-0.007535573095083237
0.02278772182762623,0.004395126830786467,-0.015216266736388206,0.011822715401649475,-0.00030929697095416486,-0.007486153393983841
0.022578168660402298,0.0050830841064453125,-0.014432143419981003,0.011520023457705975,-0.00048344480455853045,-0.00765295559540391
0.022599758580327034,0.005156887695193291,-0.015174292027950287,0.011411508545279503,-0.0005410848534666002,-0.007711566518992186
0.02301035262644291,0.004941951017826796,-0.015134933404624462,0.011195849627256393,-0.0005647529615089297,-0.00757936667650938
0.02301035262644291,0.004941951017826796,-0.015134933404624462,0.011195849627256393,-0.0005647529615089297,-0.00757936667650938
0.022764602676033974,0.004756519105285406,-0.016112351790070534,0.01114235632121563,-0.0005927780293859541,-0.008126363158226013
0.022867776453495026,0.004659416154026985,-0.014897311106324196,0.01132371835410595,-0.0007478760089725256,-0.007655743509531021
0.02312302030622959,0.004661217797547579,-0.015109499916434288,0.011103056371212006,-0.0008658390725031495,-0.008142531849443913
0.023695124313235283,0.004565862473100424,-0.014614924788475037,0.011217111721634865,-0.000812568876426667,-0.007922929711639881
0.023968759924173355,0.005202331114560366,-0.015486001037061214,0.010478846728801727,-0.000710508378688246,-0.008459839038550854
0.023104529827833176,0.005094266962260008,-0.01440354622900486,0.01007785927504301,-0.0007042886572889984,-0.007957342080771923
0.023065755143761635,0.004582091700285673,-0.014998783357441425,0.010882615111768246,-0.0006543979397974908,-0.008113577030599117
0.023403797298669815,0.004556615371257067,-0.014758962206542492,0.010981885716319084,-0.0005941386916674674,-0.008489524945616722
0.023228425532579422,0.00492674857378006,-0.015141386538743973,0.010632099583745003,-0.0005804552929475904,-0.008212435059249401
0.023124132305383682,0.004953485447913408,-0.015217339619994164,0.011049607768654823,-0.0005686472286470234,-0.008032663725316525
0.02470749244093895,0.0051800766959786415,-0.01631947234272957,0.011327340267598629,-0.0004925936809740961,-0.009188501164317131
0.02418079786002636,0.004921488463878632,-0.0155138298869133,0.011277744546532631,-0.00048684337525628507,-0.009314140304923058
0.023815607652068138,0.005037088878452778,-0.01543613150715828,0.011629126965999603,-0.0005183951579965651,-0.008937878534197807
0.023899095132946968,0.005052175838500261,-0.015048685483634472,0.01156887412071228,-0.0005475085927173495,-0.008984366431832314
0.023798007518053055,0.004855675157159567,-0.01554671861231327,0.011471400037407875,-0.000750080100260675,-0.008596156723797321
0.024070877581834793,0.005258048418909311,-0.014955462887883186,0.011116266250610352,-0.0007788861403241754,-0.00838471855968237
0.025255756452679634,0.005571398884057999,-0.015570729970932007,0.011912709102034569,-0.000737100257538259,-0.008671405725181103
0.02466977760195732,0.005229695700109005,-0.015116533264517784,0.01140518020838499,-0.0006521730101667345,-0.008834809064865112
0.024367544800043106,0.004783730488270521,-0.015733452513813972,0.01180506031960249,-0.0005820235819555819,-0.008783882483839989
0.024440983310341835,0.005067598540335894,-0.015117265284061432,0.01135104987770319,-0.000525329087395221,-0.009060163050889969
0.025061089545488358,0.0048955753445625305,-0.015953224152326584,0.011231724172830582,-0.0005474421777762473,-0.00947676319628954
0.02495976909995079,0.005549979861825705,-0.015755871310830116,0.011563649401068687,-0.0005122448783367872,-0.009105646051466465
0.02504521794617176,0.005393337924033403,-0.015786437317728996,0.01147790439426899,-0.0004742635355796665,-0.00904015637934208
0.025119904428720474,0.00498020276427269,-0.01570531725883484,0.012237940914928913,-0.00044107699068263173,-0.00895782746374607
0.025119904428720474,0.00498020276427269,-0.01570531725883484,0.012237940914928913,-0.00044107699068263173,-0.00895782746374607
0.02493736520409584,0.005081419367343187,-0.015784019604325294,0.011738521978259087,-0.0004401662154123187,-0.00899442844092846
0.02493736520409584,0.005081419367343187,-0.015784019604325294,0.011738521978259087,-0.0004401662154123187,-0.00899442844092846
0.025103630498051643,0.004969241097569466,-0.015640132129192352,0.0118450578302145,-0.0004164215351920575,-0.009065116755664349
0.024923525750637054,0.005183769855648279,-0.01612565480172634,0.011495961807668209,-0.00039375227061100304,-0.00931546650826931
0.025312602519989014,0.0054527330212295055,-0.015409461222589016,0.011698625050485134,-0.0003733344783540815,-0.009090551175177097
0.02533874846994877,0.005438128486275673,-0.015693338587880135,0.011511878110468388,-0.0003075006534345448,-0.009435166604816914
0.025847848504781723,0.005042051896452904,-0.015454882755875587,0.011124993674457073,-0.00027461437275633216,-0.008998110890388489
0.025714606046676636,0.004880854859948158,-0.016153601929545403,0.011387290433049202,-0.0003025523037649691,-0.0090867280960083
0.02539960853755474,0.004676027223467827,-0.015697138383984566,0.011275154538452625,-0.00029221700970083475,-0.008903050795197487
0.025472620502114296,0.0045668925158679485,-0.01606030762195587,0.011457844637334347,-0.0003176386235281825,-0.008999569341540337
0.025716593489050865,0.004646646324545145,-0.016091715544462204,0.011631395667791367,-0.0003076352004427463,-0.009150245226919651
0.025379639118909836,0.004981772508472204,-0.015943508595228195,0.01227964460849762,-0.00031996244797483087,-0.009509766474366188
0.02565670572221279,0.005044420249760151,-0.015865201130509377,0.01243809424340725,-0.0003069570811931044,-0.009491730481386185
0.025988871231675148,0.004727773368358612,-0.016548341140151024,0.012669551186263561,-0.0004552573664113879,-0.009557369165122509
0.02547391504049301,0.004887583199888468,-0.016193920746445656,0.012608272954821587,-0.0005160307628102601,-0.009901615791022778
0.025817586109042168,0.004869609605520964,-0.01660775952041149,0.012682445347309113,-0.0005458562518469989,-0.009615289978682995
0.02675437368452549,0.0048309084959328175,-0.01619154028594494,0.012553189881145954,-0.0005466996808536351,-0.009707244113087654
0.026196790859103203,0.00501600606366992,-0.0161152184009552,0.012221031822264194,-0.0005386695847846568,-0.01002404373139143
0.025743810459971428,0.0049472833052277565,-0.01663251593708992,0.012490298599004745,-0.0005031600594520569,-0.009374679997563362
0.023564739152789116,0.004766654688864946,-0.016384581103920937,0.012246576137840748,-0.0004709211061708629,-0.009389321319758892
0.026192327961325645,0.0045829289592802525,-0.016729939728975296,0.012608794495463371,-0.0005758315091952682,-0.01037704199552536
0.026551585644483566,0.004793684929609299,-0.015870314091444016,0.012220983393490314,-0.0005201015737839043,-0.00964007992297411
0.025891898199915886,0.004782700911164284,-0.01658548228442669,0.01230552513152361,-0.0004667805624194443,-0.009241622872650623
0.026783226057887077,0.004780616611242294,-0.01628139242529869,0.012460377998650074,-0.0005013817572034895,-0.009976624511182308
0.027260268107056618,0.004368096124380827,-0.016356300562620163,0.012242631055414677,-0.00046344075235538185,-0.01018010638654232
0.02691301330924034,0.0044566914439201355,-0.016773588955402374,0.012259041890501976,-0.0004932270385324955,-0.009927037172019482
0.026689279824495316,0.004511026665568352,-0.016366517171263695,0.012196487747132778,-0.00046141681377775967,-0.00986119918525219
0.025992710143327713,0.004634953569620848,-0.016900839284062386,0.012283598072826862,-0.0004753688699565828,-0.009872236289083958
0.02596205286681652,0.004787751007825136,-0.01598193682730198,0.012284377589821815,-0.00045914543443359435,-0.009915506467223167
0.026532117277383804,0.005067387595772743,-0.016525808721780777,0.01221102848649025,-0.0004324768378864974,-0.009950793348252773
0.027084525674581528,0.004878847394138575,-0.01677018031477928,0.012466836720705032,-0.0004104189283680171,-0.0097231799736619
0.027084525674581528,0.004878847394138575,-0.01677018031477928,0.012466836720705032,-0.0004104189283680171,-0.0097231799736619
0.02715703472495079,0.004815514199435711,-0.017296843230724335,0.012131324969232082,-0.0003819621342699975,-0.01054619811475277
0.02698250487446785,0.0045328643172979355,-0.017014212906360626,0.012683563865721226,-0.0003524413041304797,-0.010304207913577557
0.026538249105215073,0.00513811269775033,-0.016432031989097595,0.012261692434549332,-0.00038328804657794535,-0.009759650565683842
0.027122173458337784,0.005500768311321735,-0.01720559038221836,0.012689273804426193,-0.0003650622966233641,-0.009852353483438492
0.027187902480363846,0.0047745173797011375,-0.016755511984229088,0.012967870570719242,-0.00038441646029241383,-0.010823862627148628
0.026968052610754967,0.004532466176897287,-0.016947297379374504,0.013238952495157719,-0.00037469525705091655,-0.01034567505121231
0.027461962774395943,0.0045489235781133175,-0.017221923917531967,0.012672252021729946,-0.00040160876233130693,-0.010278905741870403
0.027164502069354057,0.0050301337614655495,-0.017150845378637314,0.012781742960214615,-0.0005133207887411118,-0.010283604264259338
0.02796243503689766,0.0050403764471411705,-0.017035774886608124,0.01285920012742281,-0.00054111861390993,-0.010553226806223392
0.028003815561532974,0.004955057054758072,-0.017019422724843025,0.013201294466853142,-0.000532980018761009,-0.010353634133934975
0.027624670416116714,0.004801174160093069,-0.017405588179826736,0.012510719709098339,-0.0005246350774541497,-0.010320666246116161
0.027952518314123154,0.00469181127846241,-0.01756395399570465,0.012965157628059387,-0.0004864608636125922,-0.010169650427997112
0.027927741408348083,0.005279064178466797,-0.018243789672851562,0.012750886380672455,-0.00045171071542426944,-0.01001817174255848
0.028071852400898933,0.004640329163521528,-0.017694907262921333,0.012998630292713642,-0.00046577019384130836,-0.01049388013780117
0.028387822210788727,0.004583592060953379,-0.0175387691706419,0.013375634327530861,-0.00045043081627227366,-0.010070977732539177
0.02799484319984913,0.004613285418599844,-0.017413286492228508,0.013446217402815819,-0.0004247517790645361,-0.009887312538921833
0.028333935886621475,0.004532919730991125,-0.01686714217066765,0.01341813150793314,-0.0004205576842650771,-0.010336477309465408
0.02871059812605381,0.004602849017828703,-0.018036693334579468,0.013137765228748322,-0.0003921484749298543,-0.010291283950209618
0.028333362191915512,0.0047163935378193855,-0.017954539507627487,0.01352131087332964,-0.0004235007509123534,-0.010542728006839752
0.02834315598011017,0.004541688598692417,-0.017979983240365982,0.013149202801287174,-0.0004005867231171578,-0.010140744969248772
0.028536975383758545,0.004916864447295666,-0.01769895665347576,0.013750865124166012,-0.00041919408249668777,-0.010725695639848709
0.02820468693971634,0.004937770776450634,-0.016146108508110046,0.01316720899194479,-0.0004064333043061197,-0.010630343109369278
0.02839224599301815,0.004735667258501053,-0.0180794857442379,0.013586990535259247,-0.00042293721344321966,-0.010190722532570362
0.0280219204723835,0.0046176486648619175,-0.01880645379424095,0.013229439966380596,-0.00041141072870232165,-0.010094583965837955
0.028663698583841324,0.004453036468476057,-0.01807069033384323,0.013890998438000679,-0.00039015329093672335,-0.010384907014667988
0.02904953435063362,0.004582365043461323,-0.018175847828388214,0.013940565288066864,-0.00047367392107844353,-0.010877376422286034
0.02900967188179493,0.004705254919826984,-0.01766449213027954,0.014621715992689133,-0.0004998083459213376,-0.010545093566179276
0.028732474893331528,0.004650120623409748,-0.01808939315378666,0.014353804290294647,-0.0005143817397765815,-0.01068815402686596
0.02716752327978611,0.004829986020922661,-0.018026793375611305,0.014066148549318314,-0.0005443901754915714,-0.010911009274423122
0.02716752327978611,0.004829986020922661,-0.018026793375611305,0.014066148549318314,-0.0005443901754915714,-0.010911009274423122
0.028070952743291855,0.004714636132121086,-0.017710784450173378,0.01305456180125475,-0.0005387358833104372,-0.010516533628106117
0.02904009073972702,0.004400864243507385,-0.01824973151087761,0.013474339619278908,-0.0008314019651152194,-0.010442172177135944
0.028386900201439857,0.004560112487524748,-0.01912624202668667,0.013511426746845245,-0.0008905112626962364,-0.01040905062109232
0.02897695265710354,0.0045668380334973335,-0.018080973997712135,0.013899466022849083,-0.0009102009935304523,-0.010322675108909607
0.029568225145339966,0.004787859972566366,-0.0184923205524683,0.015003954991698265,-0.0012399235274642706,-0.010110819712281227
0.028649304062128067,0.004949409980326891,-0.019027194008231163,0.0145960608497262,-0.0012158332392573357,-0.011493564583361149
0.02875496633350849,0.004794400651007891,-0.018710782751441002,0.014219271950423717,-0.0010901098139584064,-0.011439425870776176
0.028561698272824287,0.004296146798878908,-0.018413593992590904,0.014622025191783905,-0.0009376344969496131,-0.011277570389211178
0.029435817152261734,0.004832837730646133,-0.017612216994166374,0.01433291845023632,-0.0007930222200229764,-0.011362593621015549
0.0290969368070364,0.004982903599739075,-0.01846054010093212,0.014382420107722282,-0.0007726861513219774,-0.011533317156136036
0.028441712260246277,0.0049330564215779305,-0.01816863752901554,0.01454902719706297,-0.0007017038878984749,-0.010628081858158112
0.028810888528823853,0.004769006744027138,-0.01837635226547718,0.014655191451311111,-0.0007187153678387403,-0.01158983912318945
0.028853345662355423,0.004642994608730078,-0.019003788009285927,0.014774629846215248,-0.0007307882187888026,-0.011406518518924713
0.02918432280421257,0.0047053187154233456,-0.018446240574121475,0.014501139521598816,-0.000673616596031934,-0.011483968235552311
0.029398510232567787,0.004763552453368902,-0.018439708277583122,0.014655387960374355,-0.000630594848189503,-0.011720697395503521
0.029351158067584038,0.005137890111654997,-0.018559753894805908,0.014609702862799168,-0.000557239109184593,-0.01300293579697609
0.029012979939579964,0.004991981200873852,-0.018110431730747223,0.015016158111393452,-0.0004960148362442851,-0.011956823989748955
0.029350411146879196,0.004789336584508419,-0.01879218965768814,0.014536763541400433,-0.0005235846037976444,-0.011598276905715466
0.029149405658245087,0.004877734929323196,-0.01864187978208065,0.014966527000069618,-0.00048677800805307925,-0.011641748249530792
0.029561949893832207,0.004351034294813871,-0.01828426867723465,0.014929086901247501,-0.0005163389723747969,-0.011800126172602177
0.028262630105018616,0.004467573948204517,-0.0185491181910038,0.015342943370342255,-0.00048141807201318443,-0.01208825409412384
0.030269738286733627,0.004579854663461447,-0.01828911527991295,0.014962484128773212,-0.00044749677181243896,-0.01247570849955082
0.030416984111070633,0.004627877380698919,-0.0184209905564785,0.015265703201293945,-0.0004693921364378184,-0.012183095328509808
0.029940731823444366,0.004704832565039396,-0.01917736791074276,0.014565267600119114,-0.00044735005940310657,-0.01197514683008194
0.029798228293657303,0.004573365673422813,-0.019500289112329483,0.01506919413805008,-0.0004194802313577384,-0.011918969452381134
0.029641391709446907,0.004582498222589493,-0.018881557509303093,0.014389965683221817,-0.000450807623565197,-0.011801335960626602
0.029641391709446907,0.004582498222589493,-0.018881557509303093,0.014389965683221817,-0.000450807623565197,-0.011801335960626602
0.030116841197013855,0.0046195234172046185,-0.01922512613236904,0.01476146001368761,-0.0004587403673212975,-0.011822791770100594
0.031150218099355698,0.004702148027718067,-0.018535811454057693,0.014295736327767372,-0.00045732606668025255,-0.012119479477405548
0.03090919926762581,0.00506147276610136,-0.01854403130710125,0.014829886145889759,-0.0004283107991795987,-0.011893072165548801
0.029258770868182182,0.004754049237817526,-0.01885933056473732,0.014216944575309753,-0.0004290229408070445,-0.012102979235351086
0.02947668544948101,0.005005380138754845,-0.01834605447947979,0.014603971503674984,-0.0004290942451916635,-0.012009977363049984
0.03048984333872795,0.004783766809850931,-0.01913530007004738,0.013943598605692387,-0.0004065368848387152,-0.01209666021168232
0.030662432312965393,0.004657221958041191,-0.018006877973675728,0.015236559323966503,-0.00045974907698109746,-0.012383411638438702
0.031385522335767746,0.004817598033696413,-0.019425664097070694,0.015412719920277596,-0.00045940751442685723,-0.012513715773820877
0.031291402876377106,0.004802262410521507,-0.02040993608534336,0.014632237143814564,-0.00045721992501057684,-0.012664325535297394
0.030534813180565834,0.0047656032256782055,-0.01992504671216011,0.015036632306873798,-0.00042372889583930373,-0.012564214877784252
0.030429529026150703,0.0046494267880916595,-0.019607538357377052,0.015194381587207317,-0.00045391396270133555,-0.012163562700152397
0.03148047626018524,0.004479328636080027,-0.02000989392399788,0.015879729762673378,-0.00042710889829322696,-0.012532312422990799
0.03195340186357498,0.00462182005867362,-0.019005753099918365,0.015944451093673706,-0.000449641898740083,-0.012618224136531353
0.03163528069853783,0.004728475585579872,-0.019355012103915215,0.015786021947860718,-0.0004295738763175905,-0.012428943067789078
0.031603798270225525,0.0046064592897892,-0.020127275958657265,0.01593562215566635,-0.00044055379112251103,-0.012583630159497261
0.0315149687230587,0.004671179223805666,-0.02045428194105625,0.01533795427531004,-0.00043372108484618366,-0.0122916791588068
0.03167332336306572,0.004610755480825901,-0.01986422948539257,0.015629682689905167,-0.00047157114022411406,-0.012922931462526321
0.029940543696284294,0.004628960508853197,-0.020052839070558548,0.015320719219744205,-0.0005061571719124913,-0.0130673348903656
0.031965188682079315,0.004477391485124826,-0.019991254433989525,0.01607552170753479,-0.0005357319605536759,-0.013061015866696835
0.03205292299389839,0.00428833207115531,-0.019497517496347427,0.015793634578585625,-0.0007777953869663179,-0.012403846718370914
0.032350488007068634,0.004821155220270157,-0.02019735611975193,0.015946222469210625,-0.0008690796094015241,-0.012406976893544197
0.03223084285855293,0.005037578754127026,-0.020602643489837646,0.01548618171364069,-0.0008294926374219358,-0.012417715042829514
0.032600484788417816,0.004804109688848257,-0.020318258553743362,0.015576190315186977,-0.000781768118031323,-0.012560022994875908
0.032600484788417816,0.004804109688848257,-0.020318258553743362,0.015576190315186977,-0.000781768118031323,-0.012560022994875908
0.032180532813072205,0.004666255787014961,-0.020321790128946304,0.016014574095606804,-0.0007843490457162261,-0.012408467009663582
0.032911334186792374,0.004720661789178848,-0.020458683371543884,0.015873467549681664,-0.0007232806528918445,-0.01229950226843357
0.03252239152789116,0.004802401643246412,-0.02006489224731922,0.015675857663154602,-0.0007016686140559614,-0.01271008513867855
0.0323912650346756,0.004438573028892279,-0.0196381788700819,0.015139825642108917,-0.0007169211166910827,-0.01251149270683527
0.03259507194161415,0.004398060496896505,-0.02007758803665638,0.015724850818514824,-0.0006456074770539999,-0.01305127888917923
0.032603152096271515,0.0046332660131156445,-0.01987355388700962,0.01525115966796875,-0.0006236484041437507,-0.012760735116899014
0.033534470945596695,0.0046110148541629314,-0.020113982260227203,0.015529580414295197,-0.0006052805110812187,-0.012665647082030773
0.03324132785201073,0.00463187275454402,-0.020233089104294777,0.015369728207588196,-0.0006127473316155374,-0.013204862363636494
0.03346975892782211,0.004141314886510372,-0.019679315388202667,0.01592307910323143,-0.0005833785980939865,-0.012945911847054958
0.03354586288332939,0.0045685796067118645,-0.02012595161795616,0.015965702012181282,-0.0006522155599668622,-0.01296855416148901
0.03356315568089485,0.004811196122318506,-0.020191466435790062,0.015982475131750107,-0.0006773577770218253,-0.01222995389252901
0.033609528094530106,0.004806335549801588,-0.01988469995558262,0.01593788154423237,-0.000883727625478059,-0.012548890896141529
0.03382287174463272,0.0046189106069505215,-0.020017949864268303,0.015888893976807594,-0.001051818486303091,-0.013367178849875927
0.035125818103551865,0.00452144630253315,-0.020448701456189156,0.015620477497577667,-0.0009983772179111838,-0.013209176249802113
0.03492119908332825,0.004569575190544128,-0.0205332413315773,0.01605159416794777,-0.0009194094454869628,-0.013517865911126137
0.03270714357495308,0.004888160619884729,-0.02021646685898304,0.01585998572409153,-0.0008896632352843881,-0.013722376897931099
0.034635547548532486,0.004667161498218775,-0.020253058522939682,0.0163759533315897,-0.0008146444451995194,-0.013917583040893078
0.03484403342008591,0.004885678645223379,-0.02045889012515545,0.016400834545493126,-0.0007391146500594914,-0.014036389999091625
0.034295838326215744,0.004779119975864887,-0.01971333846449852,0.016429485753178596,-0.0006406091270036995,-0.013917812146246433
0.03537018224596977,0.004328680690377951,-0.020154040306806564,0.015932369977235794,-0.0006146316882222891,-0.013783462345600128
0.03551429882645607,0.004452488385140896,-0.020401867106556892,0.01613309606909752,-0.000594636716414243,-0.013575044460594654
0.03417525067925453,0.0044261193834245205,-0.02007790096104145,0.015816938132047653,-0.0005384137039072812,-0.013725670985877514
0.034065812826156616,0.004257402382791042,-0.019971994683146477,0.015097467228770256,-0.0005654869601130486,-0.013620342127978802
0.035501450300216675,0.004861654248088598,-0.020247669890522957,0.016070472076535225,-0.0005234245909377933,-0.014031928032636642
0.03537808358669281,0.004543345421552658,-0.019875960424542427,0.015934927389025688,-0.0005477357190102339,-0.013961262069642544
0.035209815949201584,0.004521750845015049,-0.019972367212176323,0.01653117686510086,-0.000512901518959552,-0.014120758511126041
0.035626232624053955,0.004228875041007996,-0.02033650502562523,0.016336871311068535,-0.0004962139064446092,-0.014088278636336327
0.03526926413178444,0.004368147812783718,-0.021086718887090683,0.015724701806902885,-0.0005206763162277639,-0.014296234585344791
0.03526926413178444,0.004368147812783718,-0.021086718887090683,0.015724701806902885,-0.0005206763162277639,-0.014296234585344791
0.0349201075732708,0.004419977776706219,-0.02051047794520855,0.015505789779126644,-0.0005544799496419728,-0.013793992809951305
0.03481874242424965,0.004429322201758623,-0.020258115604519844,0.015668053179979324,-0.0005835049669258296,-0.014155850745737553
0.03538666293025017,0.004808989353477955,-0.020373133942484856,0.016282567754387856,-0.0005595246329903603,-0.014203685335814953
0.03512626513838768,0.00441507063806057,-0.020579224452376366,0.016217269003391266,-0.0008101838175207376,-0.014408708550035954
0.03514630347490311,0.0041464706882834435,-0.020320670679211617,0.016492275521159172,-0.0008270643302239478,-0.014392172917723656
0.03537528216838837,0.003939902409911156,-0.020888593047857285,0.016167540103197098,-0.0007324437028728426,-0.014253250323235989
0.0355670228600502,0.0038657737895846367,-0.021137993782758713,0.01706847734749317,-0.0006458158604800701,-0.013941366225481033
0.03580446541309357,0.003945866599678993,-0.021466262638568878,0.016352025792002678,-0.0006594034493900836,-0.01409460324794054
0.03683365136384964,0.004105644766241312,-0.021955139935016632,0.01651429571211338,-0.0005925193545408547,-0.013848687522113323
0.03748949617147446,0.004481978248804808,-0.021924635395407677,0.01681029237806797,-0.0005795581382699311,-0.013698754832148552
0.035326190292835236,0.004476936534047127,-0.020994942635297775,0.016511432826519012,-0.0005136050167493522,-0.014252368360757828
0.03543033078312874,0.004328886978328228,-0.020775822922587395,0.01747061312198639,-0.0005235797143541276,-0.014123032800853252
0.036694999784231186,0.004075327888131142,-0.021470794454216957,0.017520397901535034,-0.0005563785671256483,-0.014672152698040009
0.03668107092380524,0.004058780148625374,-0.02206622064113617,0.017464177682995796,-0.0005663293413817883,-0.01496078446507454
0.03749173879623413,0.00413598632439971,-0.02145439386367798,0.017103422433137894,-0.0005571690853685141,-0.014851910062134266
0.03649479150772095,0.004520791582763195,-0.021132251247763634,0.017562201246619225,-0.0007514562457799911,-0.014483892358839512
0.035797860473394394,0.004781418014317751,-0.02213412895798683,0.01746663637459278,-0.0008332572760991752,-0.01583135686814785
0.03578060865402222,0.004247638396918774,-0.021934079006314278,0.017585642635822296,-0.0008463334525004029,-0.014127353206276894
0.036542974412441254,0.004403125029057264,-0.022045394405722618,0.01772134192287922,-0.0007597973453812301,-0.014478692784905434
0.036813005805015564,0.004168751649558544,-0.02186361327767372,0.01723923534154892,-0.0007686987519264221,-0.015050644986331463
0.03663814812898636,0.004298728425055742,-0.02179965004324913,0.017932873219251633,-0.000700626929756254,-0.01513531431555748
0.037120718508958817,0.0045468127354979515,-0.021315569058060646,0.018154900521039963,-0.0006959721795283258,-0.014479934237897396
0.03650118410587311,0.004201891832053661,-0.02125772088766098,0.017962615936994553,-0.0007128177094273269,-0.014486315660178661
0.03678534924983978,0.004348429851233959,-0.02173679508268833,0.017994757741689682,-0.0007344370824284852,-0.014539381489157677
0.03691590204834938,0.004239290487021208,-0.02239113487303257,0.017634622752666473,-0.0007520367507822812,-0.015133805572986603
0.036767568439245224,0.003989027347415686,-0.02242344245314598,0.018031032755970955,-0.0008998668054118752,-0.015149266459047794
0.0366775318980217,0.0041871452704072,-0.021503746509552002,0.01837855949997902,-0.0009139193571172655,-0.015158764086663723
0.0366775318980217,0.0041871452704072,-0.021503746509552002,0.01837855949997902,-0.0009139193571172655,-0.015158764086663723
0.03598502278327942,0.00402051629498601,-0.022208549082279205,0.01855272799730301,-0.0009111340041272342,-0.015110280364751816
0.03598502278327942,0.00402051629498601,-0.022208549082279205,0.01855272799730301,-0.0009111340041272342,-0.015110280364751816
0.03763565421104431,0.003838913980871439,-0.022275909781455994,0.018324874341487885,-0.0009394434746354818,-0.014904480427503586
0.03730132430791855,0.004193393979221582,-0.02155606634914875,0.017788365483283997,-0.0008167093619704247,-0.014919011853635311
0.037261974066495895,0.004573455546051264,-0.021608062088489532,0.01826046220958233,-0.0007593053160235286,-0.014669976197183132
0.03768513724207878,0.004071188624948263,-0.022084305062890053,0.018069852143526077,-0.0007162464316934347,-0.014849436469376087
0.037801969796419144,0.0038307213690131903,-0.022342154756188393,0.01835504360496998,-0.0006863533635623753,-0.014790530316531658
0.03780142217874527,0.0037945036310702562,-0.0220481026917696,0.018614374101161957,-0.0006599654443562031,-0.015181894414126873
0.03829222172498703,0.003833154682070017,-0.02183261327445507,0.01831124722957611,-0.0006738504162058234,-0.015067355707287788
0.038224224001169205,0.0041825491935014725,-0.022403469309210777,0.018470901995897293,-0.000632577168289572,-0.01490687858313322
0.0386032797396183,0.0042962986044585705,-0.022328225895762444,0.01847175322473049,-0.0006477777496911585,-0.015103614889085293
0.03861149773001671,0.00423934031277895,-0.02191617153584957,0.018913136795163155,-0.0006825965247116983,-0.015347929671406746
0.03840624541044235,0.004094493109732866,-0.022144651040434837,0.01925913617014885,-0.0009022249141708016,-0.01543512661010027
0.03888000175356865,0.003966822754591703,-0.02251216024160385,0.018645038828253746,-0.0009486594353802502,-0.015632929280400276
0.040118709206581116,0.003864677855744958,-0.022590283304452896,0.01867995597422123,-0.0009091775282286108,-0.015363308601081371
0.039352405816316605,0.0038416984025388956,-0.021713020280003548,0.018355142325162888,-0.000847836141474545,-0.0154773760586977
0.03800826892256737,0.0038474283646792173,-0.02193468250334263,0.017993787303566933,-0.0008287735399790108,-0.01540418341755867
0.03957371041178703,0.003999894950538874,-0.022908730432391167,0.018573865294456482,-0.0007647681632079184,-0.0156562440097332
0.039969414472579956,0.004085763823240995,-0.02361953817307949,0.018545126542448997,-0.0007012237329035997,-0.015587374567985535
0.04094431549310684,0.003899595933035016,-0.022693393751978874,0.018871765583753586,-0.0006689041038043797,-0.016223425045609474
0.04005569592118263,0.003739026840776205,-0.022167636081576347,0.018689855933189392,-0.0006412132061086595,-0.015846172347664833
0.039184488356113434,0.003727438161149621,-0.02233128994703293,0.018217192962765694,-0.000665155821479857,-0.016067463904619217
0.03925558924674988,0.0042975596152246,-0.02306518144905567,0.01869557425379753,-0.0006875437102280557,-0.015380850061774254
0.04076273739337921,0.004117427859455347,-0.023658452555537224,0.018561461940407753,-0.0007390834507532418,-0.015576988458633423
0.039791323244571686,0.004410837776958942,-0.02331489883363247,0.018755611032247543,-0.0007322842138819396,-0.015933187678456306
0.04112198203802109,0.004149292130023241,-0.022631820291280746,0.018842777237296104,-0.0006963748601265252,-0.01618337444961071
0.04073046147823334,0.004365014377981424,-0.02325664646923542,0.019092610105872154,-0.0007089116261340678,-0.016738947480916977
0.040286075323820114,0.004131038673222065,-0.024308407679200172,0.01847170852124691,-0.0007158963126130402,-0.016952719539403915
0.04097945988178253,0.003931533545255661,-0.024334996938705444,0.018900083377957344,-0.0007767959032207727,-0.016738442704081535
0.040096718817949295,0.00415967870503664,-0.024322854354977608,0.019006162881851196,-0.0008945494773797691,-0.016126887872815132
0.040096718817949295,0.00415967870503664,-0.024322854354977608,0.019006162881851196,-0.0008945494773797691,-0.016126887872815132
0.041006021201610565,0.00412134500220418,-0.023504942655563354,0.01921331323683262,-0.0009019979042932391,-0.015946250408887863
0.04073641449213028,0.004364432767033577,-0.023021647706627846,0.019844286143779755,-0.0008616652339696884,-0.01615907996892929
0.040691129863262177,0.004108448047190905,-0.02377418801188469,0.020008007064461708,-0.0011295194271951914,-0.015850761905312538
0.04074615240097046,0.0038776423316448927,-0.024109531193971634,0.019468946382403374,-0.0010228997562080622,-0.01669885590672493
0.04234651103615761,0.004194012843072414,-0.024250755086541176,0.01961451582610607,-0.0009697035420686007,-0.016550444066524506
0.041416067630052567,0.004262959118932486,-0.024180185049772263,0.01987665891647339,-0.0008676816360093653,-0.017154039815068245
0.039866991341114044,0.00409983703866601,-0.023750850930809975,0.019726481288671494,-0.0008579525165259838,-0.017031949013471603
0.041318025439977646,0.003955118358135223,-0.023676740005612373,0.020028112456202507,-0.0007571282330900431,-0.01695248857140541
0.041917238384485245,0.003974847495555878,-0.024416545405983925,0.019499795511364937,-0.0007326867198571563,-0.01723114773631096
0.042779263108968735,0.003970676567405462,-0.024904699996113777,0.019512828439474106,-0.000700283155310899,-0.01787707395851612
0.040104519575834274,0.004303960129618645,-0.024985702708363533,0.020054355263710022,-0.0007169591845013201,-0.017993519082665443
0.04202206805348396,0.004221299663186073,-0.024146363139152527,0.019893914461135864,-0.0008879395318217576,-0.017123622819781303
0.04232071340084076,0.004028364550322294,-0.024480124935507774,0.02007533609867096,-0.0009115743450820446,-0.016915123909711838
0.04149659350514412,0.004000561311841011,-0.02482726238667965,0.0203930102288723,-0.000911553914193064,-0.016701001673936844
0.04156776890158653,0.0035779334139078856,-0.02500714361667633,0.020257264375686646,-0.001019609160721302,-0.01713702268898487
0.04191845282912254,0.004101310856640339,-0.02484886161983013,0.019819311797618866,-0.0011004317784681916,-0.017376473173499107
0.041591186076402664,0.00412470567971468,-0.02515571378171444,0.020158985629677773,-0.0010930976131930947,-0.017256584018468857
0.041700009256601334,0.004126713611185551,-0.025219421833753586,0.020302021875977516,-0.0010656955419108272,-0.017622705549001694
0.042093999683856964,0.004038611892610788,-0.025445248931646347,0.02014356479048729,-0.0010017872555181384,-0.017564764246344566
0.042031433433294296,0.003936132416129112,-0.024883810430765152,0.02032873034477234,-0.0008744621300138533,-0.017846565693616867
0.042666204273700714,0.003886068006977439,-0.024841448292136192,0.02079041674733162,-0.0008710961556062102,-0.017219534143805504
0.042559538036584854,0.004229141864925623,-0.025298288092017174,0.020671481266617775,-0.0008745158556848764,-0.017611686140298843
0.04316789656877518,0.004008482675999403,-0.02544732578098774,0.02036219835281372,-0.000869997194968164,-0.018009815365076065
0.042569566518068314,0.00430600019171834,-0.025329040363430977,0.02100343070924282,-0.0008500327821820974,-0.01807812973856926
0.0427054800093174,0.004310704302042723,-0.02507440559566021,0.021385716274380684,-0.0008634874247945845,-0.01803153194487095
0.0427054800093174,0.004310704302042723,-0.02507440559566021,0.021385716274380684,-0.0008634874247945845,-0.01803153194487095
0.0436239130795002,0.003944403491914272,-0.02542530931532383,0.021119557321071625,-0.0008689772221259773,-0.018190037459135056
0.042690061032772064,0.004084860906004906,-0.025352926924824715,0.020850516855716705,-0.0009643579833209515,-0.018261520192027092
0.04320962354540825,0.004248191602528095,-0.025059685111045837,0.020900418981909752,-0.0009728091536089778,-0.018129773437976837
0.04326808452606201,0.0040486459620296955,-0.02503502182662487,0.020765386521816254,-0.0009626595419831574,-0.018354328349232674
