davideferrari95/blind_handover_controller/data/Test 45 - [2024-02-07 -- 15-02-59]/joint_states_data.csv
shoulder_pan_joint,shoulder_lift_joint,elbow_joint,wrist_1_joint,wrist_2_joint,wrist_3_joint
0.006435655523091555,-0.005215074867010117,-0.012849453836679459,0.014493505470454693,0.0,0.0027649581898003817
0.006077873986214399,-0.00552118755877018,-0.012359265238046646,0.01520124264061451,0.0,0.002985409926623106
0.006077873986214399,-0.00552118755877018,-0.012359265238046646,0.01520124264061451,0.0,0.002985409926623106
0.006463587749749422,-0.005431731231510639,-0.01257783267647028,0.01489077229052782,0.0,0.0034821562003344297
0.005949058104306459,-0.005599793046712875,-0.012927508912980556,0.01495381910353899,0.0,0.003875987371429801
0.005814760457724333,-0.005143535789102316,-0.012757597491145134,0.015160339884459972,0.0,0.003531462512910366
0.0059118797071278095,-0.005804457701742649,-0.013306749984622002,0.015246691182255745,0.0,0.003540999721735716
0.005411702208220959,-0.005927314981818199,-0.013461668975651264,0.015180349349975586,0.0,0.0032951028551906347
0.005904878489673138,-0.005807547364383936,-0.012762343510985374,0.014804120175540447,0.0,0.003211098490282893
0.005722107365727425,-0.005165441427379847,-0.012661995366215706,0.015025700442492962,0.0,0.0032103450503200293
0.005625581834465265,-0.005118902772665024,-0.012249724939465523,0.01574958674609661,0.0,0.0031700716353952885
0.005283276084810495,-0.005610364489257336,-0.013244659639894962,0.015354735776782036,0.0,0.0034439240116626024
0.005877787712961435,-0.006207815371453762,-0.012701048515737057,0.015936745330691338,0.0,0.0037520350888371468
0.005478940904140472,-0.005730289034545422,-0.012934432365000248,0.015524392016232014,0.0,0.003437791718170047
0.0045315660536289215,-0.005060694180428982,-0.012689032591879368,0.016138095408678055,0.0,0.003522878047078848
0.002796175191178918,-0.004665463697165251,-0.013126948848366737,0.015285853296518326,0.0,0.0031707554589957
0.002134310780093074,-0.004626379813998938,-0.013405825942754745,0.015189430676400661,0.0,0.003153726924210787
0.0016681380802765489,-0.00565923610702157,-0.012670769356191158,0.014758952893316746,0.0,0.003337601665407419
0.001845786813646555,-0.0048113311640918255,-0.01324490550905466,0.015382691286504269,0.0,0.003347971709445119
0.0032378225587308407,-0.0038725449703633785,-0.012903456576168537,0.015103769488632679,0.0,0.0034756502136588097
0.003593277186155319,-0.00359110115095973,-0.013191220350563526,0.015539933927357197,0.0,0.003633941523730755
0.002996053546667099,-0.003752191551029682,-0.012519517913460732,0.015067496336996555,0.0,0.0035107724834233522
0.0025140871293842793,-0.003926006145775318,-0.013416551053524017,0.014460651203989983,0.0,0.003414899343624711
0.0022157132625579834,-0.0039047852624207735,-0.013269690796732903,0.014404824003577232,0.0,0.00393724674358964
0.002376904245465994,-0.0038235695101320744,-0.013736703433096409,0.014578682370483875,0.0,0.004243562463670969
0.002368657849729061,-0.003995493054389954,-0.013133851811289787,0.014604330062866211,0.0,0.0036334549076855183
0.002572043798863888,-0.003932450897991657,-0.0138667868450284,0.015267390757799149,0.0,0.00349999126046896
0.002485044999048114,-0.00379839981906116,-0.013482466340065002,0.015025353990495205,0.0,0.0031411107629537582
0.002345817629247904,-0.003671560436487198,-0.013551270589232445,0.014866585843265057,0.0,0.0033030067570507526
0.002345817629247904,-0.003671560436487198,-0.013551270589232445,0.014866585843265057,0.0,0.0033030067570507526
0.002609170274809003,-0.003562627825886011,-0.013242929242551327,0.014812908135354519,0.0,0.0035832931753247976
0.002609170274809003,-0.003562627825886011,-0.013242929242551327,0.014812908135354519,0.0,0.0035832931753247976
0.0028761490248143673,-0.0038410744164139032,-0.012536497786641121,0.0146322725340724,0.0,0.0038880344945937395
0.002923572901636362,-0.0034502865746617317,-0.013365247286856174,0.015316394157707691,0.0,0.0036092663649469614
0.0029596155509352684,-0.0035416309256106615,-0.013224906288087368,0.015197609551250935,0.0,0.0033935101237148046
0.002744290279224515,-0.003312167478725314,-0.013726169243454933,0.015741880983114243,0.0,0.003353829961270094
0.002953518647700548,-0.003461743239313364,-0.012817510403692722,0.015393863432109356,0.0,0.0035837350878864527
0.003016905626282096,-0.0036541083827614784,-0.013484225608408451,0.01560542918741703,0.0,0.004098957870155573
0.002922038547694683,-0.0032011400908231735,-0.012752098962664604,0.014873156324028969,0.0,0.0041566528379917145
0.0026638912968337536,-0.003075850661844015,-0.01329721324145794,0.015420489013195038,0.0,0.004001874942332506
0.0029148480389267206,-0.002925302367657423,-0.013620925135910511,0.014983215369284153,0.0,0.0039048383478075266
0.002728345338255167,-0.003435950493440032,-0.013234912417829037,0.015122399665415287,0.0,0.003984782379120588
0.0025900250766426325,-0.0033177612349390984,-0.013815576210618019,0.014903913252055645,0.0,0.00398262171074748
0.0027188744861632586,-0.003194316988810897,-0.01295431423932314,0.015317482873797417,0.0,0.0038904547691345215
0.0027837329544126987,-0.003128127194941044,-0.013276690617203712,0.015472748316824436,0.0,0.003754296572878957
0.002883623354136944,-0.0031829210929572582,-0.012790891341865063,0.015289555303752422,0.0,0.0034257604274898767
0.0028561046347022057,-0.003500304650515318,-0.013623194769024849,0.015299166552722454,0.0,0.0035210824571549892
0.0031759548000991344,-0.0033086847979575396,-0.012864983640611172,0.015310164541006088,0.0,0.0037989330012351274
0.00336835696361959,-0.0030722275841981173,-0.01341309305280447,0.015373451635241508,0.0,0.00429581431671977
0.0033519845455884933,-0.0028475485742092133,-0.013210874982178211,0.015187735669314861,0.0,0.004474359564483166
0.0031844519544392824,-0.0028870932292193174,-0.01298388373106718,0.015874749049544334,0.0,0.0042210971005260944
0.0034945851657539606,-0.003303958335891366,-0.01286670845001936,0.015227244235575199,0.0,0.003954453859478235
0.0037251415196806192,-0.0036749551072716713,-0.013104243203997612,0.01538730226457119,0.0,0.003820293117314577
0.0037340729031711817,-0.0038357230369001627,-0.013248656876385212,0.01509812567383051,0.0,0.004203322343528271
0.003777597565203905,-0.0034138441551476717,-0.012922091409564018,0.015664108097553253,0.0,0.004172938875854015
0.003777597565203905,-0.0034138441551476717,-0.012922091409564018,0.015664108097553253,0.0,0.004172938875854015
0.0037766636814922094,-0.003656751709058881,-0.01297166757285595,0.015204467810690403,0.0,0.004002267029136419
0.003821608144789934,-0.0033957497216761112,-0.012387965805828571,0.015141715295612812,0.0,0.0038753370754420757
0.004127111751586199,-0.0032148880418390036,-0.012568086385726929,0.015255555510520935,0.0,0.004221322014927864
0.0034978599287569523,-0.003188294591382146,-0.01287253201007843,0.014807510189712048,0.0,0.00408235052600503
0.0034974482841789722,-0.003322783624753356,-0.012788154184818268,0.015018930658698082,0.0,0.004200080409646034
0.003823596052825451,-0.0034941600169986486,-0.012660552747547626,0.015152822248637676,0.0,0.0044659641571342945
0.004096053075045347,-0.0036647284869104624,-0.012634573504328728,0.014969930052757263,0.0,0.004313325509428978
0.004148273263126612,-0.0038023306988179684,-0.01223860401660204,0.014873256906867027,0.0,0.004449035041034222
0.004158306401222944,-0.0038636887911707163,-0.012833996675908566,0.014870642684400082,0.0,0.004127757158130407
0.003531077178195119,-0.0038528870791196823,-0.012439897283911705,0.014896227978169918,0.0,0.004284136462956667
0.004145544487982988,-0.0034307155292481184,-0.01238636951893568,0.015286044217646122,0.0,0.004210200626403093
0.004169492516666651,-0.003477520775049925,-0.012123425491154194,0.015461118891835213,0.0,0.004377447068691254
0.004430823493748903,-0.0032831893768161535,-0.012077194638550282,0.015401763841509819,0.0,0.004894529469311237
0.0041512721218168736,-0.0035560086835175753,-0.01219005323946476,0.015758905559778214,0.0,0.004920803476125002
0.004017180763185024,-0.004261603578925133,-0.011757519096136093,0.015294636599719524,0.0,0.004564320202916861
0.004334747325628996,-0.004150287713855505,-0.012448356486856937,0.01535014808177948,0.0,0.004490271210670471
0.00461164303123951,-0.003481802763417363,-0.011859437450766563,0.014876481145620346,0.0,0.0046966723166406155
0.004523781128227711,-0.0034773710649460554,-0.012086030095815659,0.015766706317663193,0.0,0.0047554862685501575
0.004360036458820105,-0.003703190479427576,-0.012061513029038906,0.015345757827162743,0.0,0.0047388700768351555
0.0041206274181604385,-0.003823433071374893,-0.012111203745007515,0.015288490802049637,0.0,0.004795800428837538
0.004447345621883869,-0.00340492045506835,-0.012439560145139694,0.015117840841412544,0.0,0.0051911636255681515
0.004337271209806204,-0.003417475149035454,-0.011482814326882362,0.01540537178516388,0.0,0.005110236816108227
0.004280162509530783,-0.0035566380247473717,-0.011877930723130703,0.015204353258013725,0.0,0.004831717349588871
0.004921785555779934,-0.003736513201147318,-0.011828781105577946,0.01525810081511736,0.0,0.0048241992481052876
0.004538869019597769,-0.004245452582836151,-0.01257588341832161,0.015329927206039429,0.0,0.004860587418079376
0.004523235373198986,-0.004064339678734541,-0.012383590452373028,0.015449483878910542,0.0,0.005039612762629986
0.004523235373198986,-0.004064339678734541,-0.012383590452373028,0.015449483878910542,0.0,0.005039612762629986
0.004248657263815403,-0.0034297630190849304,-0.01241311151534319,0.015267624519765377,0.0,0.005328304599970579
0.004248657263815403,-0.0034297630190849304,-0.01241311151534319,0.015267624519765377,0.0,0.005328304599970579
0.004623861983418465,-0.0036441299598664045,-0.012181100435554981,0.01520698145031929,0.0,0.005157001316547394
0.004549727775156498,-0.0036196105647832155,-0.01202250737696886,0.015167422592639923,0.0,0.005149827804416418
0.004606419708579779,-0.003598366864025593,-0.012364559806883335,0.014386160299181938,0.0,0.005085183773189783
0.005023544188588858,-0.003601738018915057,-0.012268566526472569,0.015436561778187752,0.0,0.00575674045830965
0.004478125832974911,-0.0034988559782505035,-0.011738857254385948,0.014482795260846615,0.0,0.0055734566412866116
0.0045082406140863895,-0.0035811983980238438,-0.012098927050828934,0.015533169731497765,0.0,0.005479218438267708
0.004780758172273636,-0.0038439712952822447,-0.012087098322808743,0.015411429107189178,0.0,0.005344814620912075
0.005099054425954819,-0.003690567333251238,-0.01233092974871397,0.015618545934557915,0.0,0.005484814755618572
0.004977202508598566,-0.003565162653103471,-0.012590755708515644,0.01511269062757492,0.0,0.005259375087916851
0.004767748527228832,-0.003631185507401824,-0.012212899513542652,0.015269079245626926,0.0,0.005294580943882465
0.004964927677065134,-0.003803807310760021,-0.012239052914083004,0.015130387619137764,0.0,0.005470734555274248
0.00510545214638114,-0.003833283670246601,-0.012337853200733662,0.016174159944057465,0.0,0.005310923792421818
0.004956217482686043,-0.0038193075451999903,-0.012762620113790035,0.015435622073709965,0.0,0.005257828626781702
0.004751469008624554,-0.003963018301874399,-0.012828690931200981,0.015292643569409847,0.0,0.005154130514711142
0.0047338493168354034,-0.003770307172089815,-0.01286865584552288,0.015440765768289566,0.0,0.005789291579276323
0.005030738655477762,-0.0034946321975439787,-0.012865403667092323,0.014733203686773777,0.0,0.005364892538636923
0.005010174121707678,-0.003618949092924595,-0.01218555960804224,0.014970628544688225,0.0,0.005314200185239315
0.005182797554880381,-0.003693657461553812,-0.012261156924068928,0.015149407088756561,0.0,0.005619429517537355
0.005097045097500086,-0.004003460053354502,-0.012086079455912113,0.015760520473122597,0.0,0.0052904910407960415
0.005292938556522131,-0.004009383264929056,-0.012825929559767246,0.014907579869031906,0.0,0.005632965825498104
0.005083406809717417,-0.004388106986880302,-0.011909532360732555,0.015832459554076195,0.0,0.005237060133367777
0.005309611093252897,-0.004182851407676935,-0.012386471033096313,0.015067960135638714,0.0,0.004931763745844364
0.005309611093252897,-0.004182851407676935,-0.012386471033096313,0.015067960135638714,0.0,0.004931763745844364
0.005197763908654451,-0.004191813059151173,-0.012115482240915298,0.015540976077318192,0.0,0.004784615244716406
0.005197763908654451,-0.004191813059151173,-0.012115482240915298,0.015540976077318192,0.0,0.004784615244716406
0.005958932917565107,-0.004292696714401245,-0.012385562062263489,0.015957655385136604,0.0,0.005077173002064228
0.0054702237248420715,-0.004048463422805071,-0.01194482296705246,0.015288307331502438,0.0,0.005474230274558067
0.005365208722651005,-0.004365567117929459,-0.011450019665062428,0.015584862791001797,0.0,0.005268000066280365
0.005290501285344362,-0.004151302855461836,-0.012578235939145088,0.015642307698726654,0.0,0.005239694379270077
0.005627576261758804,-0.003897601505741477,-0.01265608798712492,0.01564795710146427,0.0,0.005462421104311943
0.005965487100183964,-0.0036950942594558,-0.012111187912523746,0.015046296641230583,0.0,0.005359292030334473
0.005346326623111963,-0.0037818164564669132,-0.012409218586981297,0.015344562940299511,0.0,0.0051085264421999454
0.0056043327786028385,-0.004361203406006098,-0.011822277680039406,0.015107756480574608,0.0,0.004762493073940277
0.005625587422400713,-0.00416566664353013,-0.012452634982764721,0.015456185676157475,0.0,0.004987216088920832
0.005168214440345764,-0.004353731404989958,-0.012119503691792488,0.014834403991699219,0.0,0.005002206657081842
0.005488243885338306,-0.004223130643367767,-0.012473388575017452,0.015350580215454102,0.0,0.005382471717894077
0.005553566385060549,-0.0039613936096429825,-0.0119395786896348,0.015119425021111965,0.0,0.005256242118775845
0.006004145834594965,-0.004093808121979237,-0.011752423830330372,0.015372461639344692,0.0,0.005402973387390375
0.005549765657633543,-0.004226731602102518,-0.012540999799966812,0.0149849783629179,0.0,0.005474643316119909
0.005376956891268492,-0.004217125009745359,-0.011953635141253471,0.015163872390985489,0.0,0.005150231532752514
0.005228698719292879,-0.004084794782102108,-0.012349767610430717,0.014878966845571995,0.0,0.005286779720336199
0.004559841472655535,-0.0038581343833357096,-0.011952140368521214,0.015233910642564297,0.0,0.005367157980799675
0.004357623402029276,-0.003823543433099985,-0.01198751013725996,0.014780202880501747,0.0,0.006051489617675543
0.004584855400025845,-0.0043618762865662575,-0.012247435748577118,0.01495266892015934,0.0,0.005591990426182747
0.004682623315602541,-0.004125792533159256,-0.011852962896227837,0.015150459483265877,0.0,0.005292186513543129
0.004667939618229866,-0.004003735259175301,-0.012287052348256111,0.0151295717805624,0.0,0.0051726847887039185
0.004921630956232548,-0.003972493577748537,-0.012130824849009514,0.015008730813860893,0.0,0.004838285502046347
0.005025352351367474,-0.004324571695178747,-0.012383664026856422,0.014781680889427662,0.0,0.005311556160449982
0.005025352351367474,-0.004324571695178747,-0.012383664026856422,0.014781680889427662,0.0,0.005311556160449982
0.004430627916008234,-0.004117594100534916,-0.011668764986097813,0.014914040453732014,0.0,0.005349965300410986
0.0045860689133405685,-0.003694061189889908,-0.011967969126999378,0.014522561803460121,0.0,0.005203794687986374
0.004641734529286623,-0.0035357498563826084,-0.012268888764083385,0.015043235383927822,0.0,0.00546156894415617
0.004641734529286623,-0.0035357498563826084,-0.012268888764083385,0.015043235383927822,0.0,0.00546156894415617
0.0046317907981574535,-0.004058497492223978,-0.012074897065758705,0.01476352009922266,0.0,0.005328213796019554
0.005039629992097616,-0.004214080050587654,-0.01196821965277195,0.015200454741716385,0.0,0.0052753956988453865
0.005090232938528061,-0.004356035031378269,-0.012462113052606583,0.014825870282948017,0.0,0.004952915012836456
0.004494219087064266,-0.004237246233969927,-0.011774998158216476,0.014930829405784607,0.0,0.004675031173974276
0.004466683138161898,-0.003596942638978362,-0.01232436578720808,0.014656499028205872,0.0,0.004241802264004946
0.005007154308259487,-0.003589613363146782,-0.012577141635119915,0.015186761505901814,0.0,0.004374977201223373
0.005029509775340557,-0.004159281961619854,-0.012383935041725636,0.015082689933478832,0.0,0.0050117545761168
0.005345202516764402,-0.004162344615906477,-0.012446368113160133,0.015542775392532349,0.0,0.0053757233545184135
0.005495121702551842,-0.004052225034683943,-0.012079712003469467,0.015426075085997581,0.0,0.005089872051030397
0.005058102775365114,-0.0036478638648986816,-0.012398146092891693,0.016104262322187424,0.0,0.004719795659184456
0.005423556547611952,-0.003450737800449133,-0.011879575438797474,0.015575330704450607,0.0,0.004802708048373461
0.005106856115162373,-0.0027639216277748346,-0.01263971347361803,0.015486566349864006,0.0,0.0046666753478348255
0.005060045979917049,-0.0028047922533005476,-0.012408561073243618,0.015205941163003445,0.0,0.004927674774080515
0.005322555545717478,-0.003209566231817007,-0.012233077548444271,0.01507183350622654,0.0,0.0054596965201199055
0.005126217845827341,-0.003462032414972782,-0.012000437825918198,0.015225048176944256,0.0,0.005115015897899866
0.005228989291936159,-0.003295442322269082,-0.011385256424546242,0.015106622129678726,0.0,0.004740373231470585
0.005388747435063124,-0.003259330755099654,-0.01197426300495863,0.015432395972311497,0.0,0.004761952906847
0.005190384108573198,-0.0031519513577222824,-0.011598821729421616,0.015103781595826149,0.0,0.004836163949221373
0.005432001315057278,-0.003519086167216301,-0.012078837491571903,0.015082249417901039,0.0,0.005049313418567181
0.005315283313393593,-0.0031896033324301243,-0.01221640408039093,0.014589658938348293,0.0,0.005343106109648943
0.005062689073383808,-0.00361603288911283,-0.012014204636216164,0.015526065602898598,0.0,0.005297981668263674
0.0053711095824837685,-0.0034617965575307608,-0.012226784601807594,0.015525782480835915,0.0,0.005245097912847996
0.005588258616626263,-0.002794307889416814,-0.01212968211621046,0.016508828848600388,0.0,0.0051957108080387115
0.005723439622670412,-0.0026103074196726084,-0.012215388007462025,0.015793727710843086,0.0,0.0050722090527415276
0.005582628306001425,-0.0032960271928459406,-0.011865254491567612,0.015212357975542545,0.0,0.005074258428066969
0.005439848639070988,-0.003180067054927349,-0.01230178214609623,0.015514376573264599,0.0,0.005399942863732576
0.005845806561410427,-0.0030809559393674135,-0.011946776881814003,0.015133850276470184,0.0,0.005350262857973576
0.005532543174922466,-0.0028145532123744488,-0.012754675932228565,0.015688449144363403,0.0,0.0051546236500144005
0.005973938852548599,-0.0029590341728180647,-0.011829227209091187,0.014729490503668785,0.0,0.005064980126917362
0.005973938852548599,-0.0029590341728180647,-0.011829227209091187,0.014729490503668785,0.0,0.005064980126917362
0.00554644176736474,-0.0029940030071884394,-0.012323577888309956,0.01575593277812004,0.0,0.0051093981601297855
0.005729224998503923,-0.0025905428919941187,-0.0122590446844697,0.01653551496565342,0.0,0.00557188643142581
0.00534330029040575,-0.0025987662374973297,-0.012440340593457222,0.01562945358455181,0.0,0.005387184675782919
0.0052449749782681465,-0.0027196891605854034,-0.012601682916283607,0.015575037337839603,0.0,0.005077233538031578
0.0055606733076274395,-0.0027782940305769444,-0.012062403373420238,0.01500705722719431,0.0,0.005143350921571255
0.005971304140985012,-0.002615751698613167,-0.013201581314206123,0.015700776129961014,0.0,0.005134275648742914
0.00544991297647357,-0.0028268222231417894,-0.012166835367679596,0.015256303362548351,0.0,0.0049056559801101685
0.005329849198460579,-0.0025287074968218803,-0.012453211471438408,0.015614179894328117,0.0,0.005361952353268862
0.005173312500119209,-0.0025206273421645164,-0.012611761689186096,0.015005112625658512,0.0,0.005222983658313751
0.005787902977317572,-0.002831515623256564,-0.012579691596329212,0.014598295092582703,0.0,0.005363497417420149
0.0059144217520952225,-0.0029465591069310904,-0.012962493114173412,0.014938772656023502,0.0,0.005531895440071821
0.006019024644047022,-0.0028864683117717505,-0.012421924620866776,0.015570009127259254,0.0,0.005420991685241461
0.005570047535002232,-0.002724480116739869,-0.01273477915674448,0.015606465749442577,0.0,0.005721968598663807
0.005695735104382038,-0.0027952869422733784,-0.012373398058116436,0.015655482187867165,0.0,0.005199725739657879
0.005542893894016743,-0.0030984925106167793,-0.013286732137203217,0.015560879372060299,0.0,0.005181994289159775
0.0059805624186992645,-0.003116397885605693,-0.01301501039415598,0.015018247067928314,0.0,0.005167022813111544
0.006067585200071335,-0.002953797811642289,-0.013270232826471329,0.014943106099963188,0.0,0.005799826234579086
0.005738826468586922,-0.002813388127833605,-0.012907718308269978,0.014939929358661175,0.0,0.005571712739765644
0.005663655698299408,-0.0028091087006032467,-0.013290038332343102,0.015323350206017494,0.0,0.005333346780389547
0.0055995238944888115,-0.002840655855834484,-0.012590085156261921,0.015088950283825397,0.0,0.005308025516569614
0.006416568532586098,-0.002944064559414983,-0.012354584410786629,0.0153371412307024,0.0,0.005440775770694017
0.005838138051331043,-0.0028544715605676174,-0.013058632612228394,0.015370489098131657,0.0,0.005443810019642115
0.005573568865656853,-0.0027919404674321413,-0.013632960617542267,0.015565861947834492,0.0,0.005835925228893757
0.0059789810329675674,-0.0028399238362908363,-0.012883434072136879,0.01585238054394722,0.0,0.006161700468510389
0.0059789810329675674,-0.0028399238362908363,-0.012883434072136879,0.01585238054394722,0.0,0.006161700468510389
0.006755143869668245,-0.003171606222167611,-0.013595977798104286,0.01496425922960043,0.0,0.006140008568763733
0.006410956382751465,-0.0029699315782636404,-0.012926880270242691,0.01508999802172184,0.0,0.0062604499980807304
0.005636546760797501,-0.003045889316126704,-0.013143308460712433,0.015119031071662903,0.0,0.005503862164914608
0.006374339107424021,-0.002910579787567258,-0.012769450433552265,0.015094073489308357,0.0,0.00587054155766964
0.006286025512963533,-0.002926040207967162,-0.0126748476177454,0.014992893673479557,0.0,0.0057212552055716515
0.006742794532328844,-0.0027712576556950808,-0.01296875812113285,0.014780579134821892,0.0,0.006624517031013966
0.006495608948171139,-0.002914252458140254,-0.012559132650494576,0.014796847477555275,0.0,0.0056535243056714535
0.006055149715393782,-0.003048205515369773,-0.013345214538276196,0.014570923522114754,0.0,0.005262758582830429
0.005889733787626028,-0.0029801656492054462,-0.012862427160143852,0.014688918367028236,0.0,0.005105288699269295
0.006275928113609552,-0.0032077159266918898,-0.013339260593056679,0.014838261529803276,0.0,0.005714913364499807
0.006287663243710995,-0.0029220329597592354,-0.012383798137307167,0.015108444727957249,0.0,0.005761336535215378
0.006195849739015102,-0.0030506199691444635,-0.011525789275765419,0.01496246550232172,0.0,0.005708826705813408
0.005951309576630592,-0.00302890851162374,-0.014056519605219364,0.01537991315126419,0.0,0.005616685375571251
0.006149774882942438,-0.0028893251437693834,-0.014010351151227951,0.015016867779195309,0.0,0.006122276186943054
0.006121430080384016,-0.0027336920611560345,-0.01289884839206934,0.015177360735833645,0.0,0.00641343928873539
0.006479070987552404,-0.002989059081301093,-0.013094271533191204,0.01516488753259182,0.0,0.006355459336191416
0.006479070987552404,-0.002989059081301093,-0.013094271533191204,0.01516488753259182,0.0,0.006355459336191416
0.006258037872612476,-0.0029282323084771633,-0.012801828794181347,0.014602444134652615,0.0,0.006046879570931196
0.005971784703433514,-0.0031206710264086723,-0.013435623608529568,0.014861628413200378,0.0,0.0063600181601941586
0.006150053348392248,-0.0028341789729893208,-0.012704006396234035,0.014256546273827553,0.0,0.00638194615021348
0.006444582715630531,-0.0030387751758098602,-0.012770066037774086,0.01469668559730053,0.0,0.0059126438573002815
0.006444582715630531,-0.0030387751758098602,-0.012770066037774086,0.01469668559730053,0.0,0.0059126438573002815
0.00621999055147171,-0.0030576058197766542,-0.013121644034981728,0.015588040463626385,0.0,0.00606854073703289
0.006474414840340614,-0.0029622684232890606,-0.012718381360173225,0.015257207676768303,0.0,0.006320844404399395
0.0064061409793794155,-0.002916463417932391,-0.012986261397600174,0.014790167100727558,0.0,0.005923197604715824
0.0064061409793794155,-0.002916463417932391,-0.012986261397600174,0.014790167100727558,0.0,0.005923197604715824
0.006683471612632275,-0.0028570713475346565,-0.012231896631419659,0.015071873553097248,0.0,0.006068502552807331
0.006286229006946087,-0.0027542111929506063,-0.013098143972456455,0.015367125160992146,0.0,0.006479810923337936
0.006533219013363123,-0.002835522871464491,-0.013135251589119434,0.015469865873456001,0.0,0.0064506083726882935
0.0064121815375983715,-0.0028450931422412395,-0.013136894442141056,0.015259973704814911,0.0,0.005794885102659464
0.006313006859272718,-0.002946526510640979,-0.012478789314627647,0.015346165746450424,0.0,0.005815764423459768
0.006265724543482065,-0.0028171613812446594,-0.012786665000021458,0.01483512856066227,0.0,0.005787624046206474
0.006164794322103262,-0.0028582029044628143,-0.012872102670371532,0.014793039299547672,0.0,0.005728080868721008
0.006829498801380396,-0.002874354599043727,-0.013076103292405605,0.01479571033269167,0.0,0.005392102990299463
0.0069207437336444855,-0.0031846885103732347,-0.013127468526363373,0.014542092569172382,0.0,0.006205423269420862
0.007298378739506006,-0.003157718339934945,-0.013040322810411453,0.015143719501793385,0.0,0.005952231585979462
0.006489650812000036,-0.002988480031490326,-0.013276474550366402,0.015755390748381615,0.0,0.006070583127439022
0.0064806449227035046,-0.0029158624820411205,-0.012178636156022549,0.015022245235741138,0.0,0.006133821327239275
0.00677746906876564,-0.0025733376387506723,-0.012591446749866009,0.0141336964443326,0.0,0.005732325837016106
0.006692524068057537,-0.002582506276667118,-0.012431152164936066,0.015017814002931118,0.0,0.006343385204672813
0.006407764740288258,-0.0027182179037481546,-0.01265263557434082,0.015193498693406582,0.0,0.006009652279317379
0.006139046046882868,-0.002869844203814864,-0.012870395556092262,0.015414207242429256,0.0,0.006110468879342079
0.006698880344629288,-0.003192515578120947,-0.012169631198048592,0.014986841939389706,0.0,0.006548536941409111
0.007362529635429382,-0.0031334192026406527,-0.012784438207745552,0.015614323318004608,0.0,0.006712655071169138
0.006931839045137167,-0.0028208361472934484,-0.0121082104742527,0.01510634832084179,0.0,0.006381062790751457
0.0062049999833106995,-0.0030039374250918627,-0.01286784652620554,0.015367900021374226,0.0,0.006209274288266897
0.00652045663446188,-0.003082381561398506,-0.012433077208697796,0.014655055478215218,0.0,0.006283706985414028
0.007051849737763405,-0.0028639223892241716,-0.012948096729815006,0.014582572504878044,0.0,0.00633541913703084
0.006735983304679394,-0.0028896040748804808,-0.013281261548399925,0.01500343345105648,0.0,0.00629175640642643
0.007442213129252195,-0.0028640928212553263,-0.013038667850196362,0.015252453275024891,0.0,0.006917138118296862
0.006967489141970873,-0.0028598373755812645,-0.012537537142634392,0.015665313228964806,0.0,0.0068589081056416035
0.006784291472285986,-0.002762561896815896,-0.012706642039120197,0.015158530324697495,0.0,0.006764789577573538
0.006784291472285986,-0.002762561896815896,-0.012706642039120197,0.015158530324697495,0.0,0.006764789577573538
0.006668880581855774,-0.0028042772319167852,-0.012370140291750431,0.014806856401264668,0.0,0.00655808299779892
0.007507236208766699,-0.002856128616258502,-0.012735026888549328,0.015002796426415443,0.0,0.006928605493158102
0.007507236208766699,-0.002856128616258502,-0.012735026888549328,0.015002796426415443,0.0,0.006928605493158102
0.007043308112770319,-0.002706322353333235,-0.013209962286055088,0.014700109139084816,0.0,0.006536895874887705
0.0073866453021764755,-0.0030546309426426888,-0.013000094331800938,0.01481922809034586,0.0,0.006553370971232653
0.00746317021548748,-0.0030384438578039408,-0.013354580849409103,0.014893687330186367,0.0,0.0065727634355425835
0.007578899152576923,-0.0028919659089297056,-0.012587171979248524,0.014829397201538086,0.0,0.0066105942241847515
0.007609715685248375,-0.0026385632809251547,-0.012225668877363205,0.014979690313339233,0.0,0.00653534010052681
0.007009634282439947,-0.0028777511324733496,-0.013362199068069458,0.01425352692604065,0.0,0.006865360774099827
0.006804413627833128,-0.0030413775239139795,-0.012335286475718021,0.014663816429674625,0.0,0.006585706956684589
0.007179472595453262,-0.0034545790404081345,-0.012745482847094536,0.014418346807360649,0.0,0.006302230060100555
0.006997528485953808,-0.003256575670093298,-0.012385214678943157,0.015040754340589046,0.0,0.006209471262991428
0.007392615545541048,-0.0028561914805322886,-0.012867318466305733,0.014552289620041847,0.0,0.006235079374164343
0.007226215675473213,-0.002946652937680483,-0.012461086735129356,0.015032775700092316,0.0,0.006848055403679609
0.007602933794260025,-0.003100990317761898,-0.012472654692828655,0.01466736663132906,0.0,0.006704152096062899
0.007466370705515146,-0.003190185409039259,-0.013252034783363342,0.014918942004442215,0.0,0.007161961868405342
0.007013726979494095,-0.0033146028872579336,-0.012707634828984737,0.01475327555090189,0.0,0.0067348903976380825
0.00701358076184988,-0.002983751241117716,-0.012943832203745842,0.01519477367401123,0.0,0.007115443702787161
0.007455064449459314,-0.002978019881993532,-0.012467499822378159,0.014570442028343678,0.0,0.0068406653590500355
0.007682258728891611,-0.0029543645214289427,-0.013235890306532383,0.014951944351196289,0.0,0.006785218138247728
0.007567049469798803,-0.0029304451309144497,-0.012952132150530815,0.01459595002233982,0.0,0.0067582200281322
0.007216881029307842,-0.002898274688050151,-0.013833310455083847,0.014581376686692238,0.0,0.007503014523535967
0.007782172877341509,-0.0027968173380941153,-0.013439787551760674,0.014925685711205006,0.0,0.0075264861807227135
0.007635831832885742,-0.002871081465855241,-0.013156971894204617,0.01439573708921671,0.0,0.006842200644314289
0.007635831832885742,-0.002871081465855241,-0.013156971894204617,0.01439573708921671,0.0,0.006842200644314289
0.007290762849152088,-0.0027327395509928465,-0.012849647551774979,0.014882762916386127,0.0,0.006982624996453524
0.007246045395731926,-0.002958172233775258,-0.013222717680037022,0.014866890385746956,0.0,0.007309712003916502
0.008071806281805038,-0.0026665646582841873,-0.012368910014629364,0.014954911544919014,0.0,0.00676630437374115
0.007784240413457155,-0.002496071858331561,-0.01323163602501154,0.014723053202033043,0.0,0.006868980824947357
0.007712299469858408,-0.002644893480464816,-0.012986995279788971,0.014784024097025394,0.0,0.006922796368598938
0.007882987149059772,-0.0025783260352909565,-0.013640424236655235,0.014506764709949493,0.0,0.007274751551449299
0.007847343571484089,-0.002635249402374029,-0.013300654478371143,0.014994390308856964,0.0,0.007274475879967213
0.007804278749972582,-0.0026800939813256264,-0.013157523237168789,0.0150489192456007,0.0,0.0066308858804404736
0.006922454107552767,-0.002722787903621793,-0.012778926640748978,0.015535092912614346,0.0,0.006405143067240715
0.007293403148651123,-0.002388747874647379,-0.012743517756462097,0.015598556958138943,0.0,0.006614215672016144
0.008087903261184692,-0.0023273311089724302,-0.013212459161877632,0.015443955548107624,0.0,0.007159074302762747
0.007652671076357365,-0.0024930688086897135,-0.013019589707255363,0.01564955525100231,0.0,0.006874626036733389
0.008009602315723896,-0.0026598989497870207,-0.012961048632860184,0.014703644439578056,0.0,0.007134267594665289
0.007970545440912247,-0.0028092621359974146,-0.012835832312703133,0.014766259118914604,0.0,0.00770610524341464
0.007562838029116392,-0.0027665323577821255,-0.013196071609854698,0.014240887947380543,0.0,0.0071392967365682125
0.00747382128611207,-0.0023970562033355236,-0.012664800509810448,0.015211573801934719,0.0,0.006900341250002384
0.007366606499999762,-0.0024418674875050783,-0.01302636880427599,0.01420533750206232,0.0,0.0067456671968102455
0.007855560630559921,-0.0026324030477553606,-0.012935246340930462,0.013924931176006794,0.0,0.007068556267768145
0.007855560630559921,-0.0026324030477553606,-0.012935246340930462,0.013924931176006794,0.0,0.007068556267768145
0.007285491097718477,-0.0026864511892199516,-0.012910716235637665,0.013834825716912746,0.0,0.007063483353704214
0.0074467966333031654,-0.0027158246375620365,-0.01274438388645649,0.01452931109815836,0.0,0.007329101674258709
0.008771762251853943,-0.0023742832709103823,-0.012775708921253681,0.015254072844982147,0.0,0.007078460417687893
0.008771762251853943,-0.0023742832709103823,-0.012775708921253681,0.015254072844982147,0.0,0.007078460417687893
0.007144962903112173,-0.0026288165245205164,-0.013044828549027443,0.015248565003275871,0.0,0.007782733533531427
0.007558765821158886,-0.0028350830543786287,-0.012565001845359802,0.014892264269292355,0.0,0.00748580414801836
0.008150436915457249,-0.0029083359986543655,-0.01306166872382164,0.015573265962302685,0.0,0.007346246391534805
0.007952074520289898,-0.0028542354702949524,-0.012800504453480244,0.015275456011295319,0.0,0.007440576329827309
0.007484898902475834,-0.0024843907449394464,-0.012763040140271187,0.01536278985440731,0.0,0.007700582500547171
0.00814966019243002,-0.0023898992221802473,-0.012793714180588722,0.014170859009027481,0.0,0.007487909402698278
0.00790282804518938,-0.0022476359736174345,-0.012618772685527802,0.014532935805618763,0.0,0.0074577732011675835
0.007549676578491926,-0.001968321856111288,-0.012970802374184132,0.013800056651234627,0.0,0.007657976821064949
0.007738560903817415,-0.0016562502132728696,-0.012394233606755733,0.014229578897356987,0.0,0.007647584192454815
0.007865075953304768,-0.0015407728496938944,-0.01291892770677805,0.014044374227523804,0.0,0.007585383951663971
0.007974988780915737,-0.0018643202492967248,-0.012536943890154362,0.014520897530019283,0.0,0.007848386652767658
0.00816368218511343,-0.00187822082079947,-0.012830018997192383,0.014329150319099426,0.0,0.007866846397519112
0.007815757766366005,-0.0020731824915856123,-0.01264134980738163,0.015075210481882095,0.0,0.007396344095468521
0.007966269738972187,-0.0020265772473067045,-0.013062329962849617,0.014676964841783047,0.0,0.007313253823667765
0.008395534940063953,-0.0019736343529075384,-0.013089209794998169,0.014884614385664463,0.0,0.007953435182571411
0.008061964996159077,-0.0017731997650116682,-0.01270224992185831,0.01428305171430111,0.0,0.008413659408688545
0.007635731715708971,-0.0016818448202684522,-0.012921663001179695,0.014798027463257313,0.0,0.007788871880620718
0.008150242269039154,-0.00173759029712528,-0.01210818812251091,0.014506179839372635,0.0,0.007030772510915995
0.008137241937220097,-0.0018278268398717046,-0.01320067048072815,0.015005743131041527,0.0,0.0070792753249406815
0.007649828679859638,-0.0018429838819429278,-0.01223855558782816,0.014394686557352543,0.0,0.007453307043761015
0.007488444913178682,-0.0017360212514176965,-0.012821421958506107,0.014598534442484379,0.0,0.008074295707046986
0.008253837935626507,-0.0018913490930572152,-0.012357481755316257,0.014131519943475723,0.0,0.007766304537653923
0.008324136957526207,-0.0017143298173323274,-0.012207688763737679,0.01458021905273199,0.0,0.007598344702273607
0.007891186513006687,-0.0016746228793635964,-0.01242123544216156,0.014439566060900688,0.0,0.007951123639941216
0.007891186513006687,-0.0016746228793635964,-0.01242123544216156,0.014439566060900688,0.0,0.007951123639941216
0.008031179197132587,-0.0015856068348512053,-0.012509990483522415,0.014516674913465977,0.0,0.007665181066840887
0.007726351730525494,-0.0017525278963148594,-0.01244516670703888,0.01469077356159687,0.0,0.008080080151557922
0.008215964771807194,-0.0017798165790736675,-0.01251203939318657,0.015112009830772877,0.0,0.007833793759346008
0.008832964114844799,-0.0016510701971128583,-0.012188831344246864,0.014685512520372868,0.0,0.00814494676887989
0.008832964114844799,-0.0016510701971128583,-0.012188831344246864,0.014685512520372868,0.0,0.00814494676887989
0.008766459301114082,-0.0016397935105487704,-0.012756635434925556,0.014739258214831352,0.0,0.007948779501020908
0.008784778416156769,-0.0016274575609713793,-0.011602883227169514,0.014354538172483444,0.0,0.008016097359359264
0.008745351806282997,-0.001724835718050599,-0.012272534891963005,0.014874899759888649,0.0,0.00800871942192316
0.008936838246881962,-0.001759675214998424,-0.012055196799337864,0.014548877254128456,0.0,0.007591987494379282
0.008499852381646633,-0.0019307973561808467,-0.01255118940025568,0.014589864760637283,0.0,0.0081942705437541
0.008541081100702286,-0.0019237779779359698,-0.012653409503400326,0.014329415746033192,0.0,0.008442869409918785
0.00968701858073473,-0.0020239928271621466,-0.01198851503431797,0.01467329915612936,0.0,0.007985003292560577
0.008609750308096409,-0.001984385075047612,-0.012473087757825851,0.014608753845095634,0.0,0.008078468032181263
0.008654434233903885,-0.0019736187532544136,-0.012550514191389084,0.015103453770279884,0.0,0.00817739125341177
0.009182842448353767,-0.0017572799697518349,-0.012350410223007202,0.015156438574194908,0.0,0.00837724655866623
0.009038570336997509,-0.0017298382008448243,-0.012164341285824776,0.015057627111673355,0.0,0.009078123606741428
0.008940109983086586,-0.001732121454551816,-0.012815025635063648,0.014969374984502792,0.0,0.008685976266860962
0.009056231006979942,-0.0016404142370447516,-0.012820163741707802,0.015009117312729359,0.0,0.007491005584597588
0.0093102240934968,-0.0018429628107696772,-0.012077812105417252,0.014881020411849022,0.0,0.007345219608396292
0.00811611395329237,-0.0017277144361287355,-0.012592409737408161,0.014563076198101044,0.0,0.007511970587074757
0.00811611395329237,-0.0017277144361287355,-0.012592409737408161,0.014563076198101044,0.0,0.007511970587074757
0.008403775282204151,-0.0019825163763016462,-0.012289904057979584,0.014405894093215466,0.0,0.008130152709782124
0.009459596127271652,-0.0017964707221835852,-0.01271310169249773,0.015681682154536247,0.0,0.008367279544472694
0.00952854473143816,-0.0017801219364628196,-0.01244676485657692,0.013629349879920483,0.0,0.008360080420970917
0.00934927724301815,-0.0018457126570865512,-0.012289795093238354,0.01486664917320013,0.0,0.008553802035748959
0.00868814904242754,-0.0017933208728209138,-0.012682134285569191,0.014701363630592823,0.0,0.00852960254997015
0.00868814904242754,-0.0017933208728209138,-0.012682134285569191,0.014701363630592823,0.0,0.00852960254997015
0.009148010984063148,-0.0018027100013568997,-0.010943455621600151,0.014577341265976429,2.4710532215976855e-06,0.008512957021594048
0.008934855461120605,-0.001905996585264802,-0.013348685577511787,0.014528168365359306,1.6134211477947247e-07,0.008387075737118721
0.009261414408683777,-0.0018981978064402938,-0.012822614051401615,0.014670810662209988,1.0534487060454012e-08,0.008760807104408741
0.009396998211741447,-0.001969201024621725,-0.013011106289923191,0.014957204461097717,6.878266844978498e-10,0.00844477117061615
0.009649359621107578,-0.0019408616935834289,-0.01291086059063673,0.01470740232616663,4.491016586394281e-11,0.008470985107123852
0.008839080110192299,-0.0017143033910542727,-0.013643892481923103,0.014960099942982197,2.932313029543887e-12,0.009067637845873833
0.008990420959889889,-0.001727861468680203,-0.013172345235943794,0.014334841631352901,1.9145909900888936e-13,0.00828992947936058
0.008882991969585419,-0.0017233731923624873,-0.012894241139292717,0.014560935087502003,1.2500910341064174e-14,0.008710847236216068
0.008840914815664291,-0.0017329257680103183,-0.013270357623696327,0.014325141906738281,8.162200591551162e-16,0.00861394964158535
0.009462998248636723,-0.0016350739169865847,-0.01276893075555563,0.014702487736940384,5.329334104266025e-17,0.008531062863767147
0.01007336936891079,-0.0017127516912296414,-0.012916535139083862,0.014697404578328133,3.479674626637526e-18,0.008363365195691586
0.008962077088654041,-0.0017151182983070612,-0.012778107076883316,0.015030523762106895,2.271978989890012e-19,0.008685133419930935
0.009944986552000046,-0.0017885752022266388,-0.01322818174958229,0.01444612443447113,1.4834398611584575e-20,0.008705339394509792
0.009417898952960968,-0.0017447008285671473,-0.012923943810164928,0.014413214288651943,9.685802316339704e-22,0.008508275263011456
0.009206630289554596,-0.001829060260206461,-0.013343803584575653,0.014329181052744389,6.324136949532187e-23,0.009111297316849232
0.00922735221683979,-0.0016859652241691947,-0.013039526529610157,0.014970475807785988,4.129209577984338e-24,0.008809252642095089
0.009632227942347527,-0.0016872655833140016,-0.01311672292649746,0.01514025591313839,2.6960788224173724e-25,0.008896100334823132
0.00903560034930706,-0.0017665388295426965,-0.012958039529621601,0.015512948855757713,1.7603469618605766e-26,0.009155822917819023
0.009569000452756882,-0.0018053799867630005,-0.013034067116677761,0.014690464362502098,1.1493807389287139e-27,0.008852808736264706
0.010022257454693317,-0.0018839744152501225,-0.01343660056591034,0.014886011369526386,7.50463519549142e-29,0.008558179251849651
0.009482857771217823,-0.0017450472805649042,-0.012289781123399734,0.014517749659717083,4.899990084962001e-30,0.008813205175101757
0.009482857771217823,-0.0017450472805649042,-0.012289781123399734,0.014517749659717083,4.899990084962001e-30,0.008813205175101757
0.010595463216304779,-0.001781150116585195,-0.012814801186323166,0.014230363070964813,2.0889429459186612e-32,0.00917100440710783
0.009773105382919312,-0.001907502068206668,-0.013058584183454514,0.014678836800158024,1.3639304115274196e-33,0.008844196796417236
0.009396957233548164,-0.001779537065885961,-0.01308697834610939,0.01456847321242094,8.905490674503806e-35,0.008629940450191498
0.009762166999280453,-0.001955310581251979,-0.01324206218123436,0.014903637580573559,5.814649100091234e-36,0.00878104567527771
0.009956690482795238,-0.0017583512235432863,-0.012926032766699791,0.014517029747366905,3.796550260821713e-37,0.009053372777998447
0.010092576034367085,-0.0016857411246746778,-0.012513969093561172,0.014526146464049816,2.4788762441733294e-38,0.009458091109991074
0.010196879506111145,-0.0017108166357502341,-0.013078829273581505,0.014282219111919403,1.6185291535629145e-39,0.009364301338791847
0.009721776470541954,-0.001576665905304253,-0.012562510557472706,0.014844323508441448,1.0567892368705608e-40,0.00902754720300436
0.010081419721245766,-0.001668802578933537,-0.012928362935781479,0.014537029899656773,-0.0001311407540924847,0.009108636528253555
0.010656583122909069,-0.0017693464178591967,-0.0126615259796381,0.01529364101588726,-0.00014435042976401746,0.009444793686270714
0.009999907575547695,-0.0018623553914949298,-0.01311320997774601,0.014712010510265827,-0.0001409663527738303,0.009219532832503319
0.01050341036170721,-0.001850173925049603,-0.012964358553290367,0.014829614199697971,-0.00013675627997145057,0.009272566065192223
0.01095661986619234,-0.0018286478007212281,-0.01321537233889103,0.014453994110226631,-0.00014575326349586248,0.009276468306779861
0.0110095776617527,-0.001686756731942296,-0.012655824422836304,0.014932004734873772,-0.00015382663696072996,0.009654639288783073
0.010379479266703129,-0.0016666073352098465,-0.012608766555786133,0.014289428479969501,-0.000150342530105263,0.009138433262705803
0.010340186767280102,-0.0017002068925648928,-0.013124046847224236,0.01444205455482006,-0.0001463205844629556,0.009441283531486988
0.010086625814437866,-0.001839882810600102,-0.01246044784784317,0.014294244349002838,-0.00014246364298742265,0.009064191952347755
0.010414049960672855,-0.0018845244776457548,-0.013200485147535801,0.014564077369868755,-0.00015888827329035848,0.009563234634697437
0.01030586939305067,-0.0021260108333081007,-0.012802017852663994,0.015006554313004017,-0.00015767822333145887,0.009476030245423317
0.01030586939305067,-0.0021260108333081007,-0.012802017852663994,0.015006554313004017,-0.00015767822333145887,0.009476030245423317
0.011311916634440422,-0.0018160688923671842,-0.012755285017192364,0.015107924118638039,-0.0001503406383562833,0.008914495818316936
0.010383473709225655,-0.0017907090950757265,-0.013336041942238808,0.014647480100393295,-0.00014683719200547785,0.009512631222605705
0.009874721989035606,-0.001795938122086227,-0.013124273158609867,0.014709707349538803,-0.00016262179997283965,0.009484187699854374
0.009874721989035606,-0.001795938122086227,-0.013124273158609867,0.014709707349538803,-0.00016262179997283965,0.009484187699854374
0.009874721989035606,-0.001795938122086227,-0.013124273158609867,0.014709707349538803,-0.00016262179997283965,0.009484187699854374
0.010828611440956593,-0.0018460560822859406,-0.012827903963625431,0.014087818562984467,-0.00015350215835496783,0.009507871232926846
0.011282048188149929,-0.0019019570900127292,-0.013377947732806206,0.014545957557857037,-0.00015029801579657942,0.00996235478669405
0.011282048188149929,-0.0019019570900127292,-0.013377947732806206,0.014545957557857037,-0.00015029801579657942,0.00996235478669405
0.010332684963941574,-0.0018817412201315165,-0.012544019147753716,0.014885961078107357,-0.0001472246367484331,0.009973354637622833
0.010727492161095142,-0.0018341090762987733,-0.012996859848499298,0.014804704114794731,-0.00019858175073750317,0.009754370898008347
0.010406292043626308,-0.0016416938742622733,-0.013247599825263023,0.01538789365440607,-0.00019913993310183287,0.009768154472112656
0.010834204033017159,-0.0017070821486413479,-0.01322488859295845,0.014612161554396152,-0.00019077204342465848,0.009829833172261715
0.01082480326294899,-0.0015833743382245302,-0.013368400745093822,0.015154913999140263,-0.00018301639647688717,0.009672514162957668
0.010047628544270992,-0.0017814051825553179,-0.01290648989379406,0.01475205272436142,-0.00017586295143701136,0.009870557114481926
0.01141741406172514,-0.0016377574065700173,-0.012782424688339233,0.015139385126531124,-0.0001692477526376024,0.010069056414067745
0.010726997628808022,-0.0016738426638767123,-0.013235371559858322,0.014887209981679916,-0.00016311195213347673,0.009815393015742302
0.010740747675299644,-0.001561653451062739,-0.013288346119225025,0.014874567277729511,-0.00017283098713960499,0.010218113660812378
0.010985962115228176,-0.0015707042766734958,-0.013462438248097897,0.014636985957622528,-0.00018145387002732605,0.009826667606830597
0.010490460321307182,-0.0016703263390809298,-0.012616334483027458,0.014896045438945293,-0.00017646656488068402,0.009245636872947216
0.011016911827027798,-0.0015817978419363499,-0.013643821701407433,0.014579840004444122,-0.0001709412463242188,0.0097768260166049
0.010677417740225792,-0.0018158997409045696,-0.012911408208310604,0.014950329437851906,-0.0001792469556676224,0.010078364051878452
0.010446853004395962,-0.001662478200159967,-0.013628143817186356,0.014338640496134758,-0.0001866418751887977,0.009868713095784187
0.0111025869846344,-0.0014166452456265688,-0.013284136541187763,0.01486560981720686,-0.0001820776960812509,0.01018145028501749
0.010843326337635517,-0.0012900972506031394,-0.013010871596634388,0.014612406492233276,-0.00017701546312309802,0.009850705973803997
0.010772357694804668,-0.0013413060223683715,-0.013139822520315647,0.015163898468017578,-0.00017218066204804927,0.010077155195176601
0.010793358087539673,-0.0012959839077666402,-0.01333380676805973,0.014766688458621502,-0.0001676001847954467,0.010121379978954792
0.010807679034769535,-0.0014424783876165748,-0.013808736577630043,0.014607084915041924,-0.0001632567582419142,0.01010892167687416
0.011534924618899822,-0.0013568613212555647,-0.013935687951743603,0.014101576991379261,-0.0001759823499014601,0.009852148592472076
0.011255603283643723,-0.0015252126613631845,-0.013671943917870522,0.014860903844237328,-0.00017700095486361533,0.010230770334601402
0.01091714296489954,-0.0014395519392564893,-0.013120004907250404,0.014585896395146847,-0.0001730948715703562,0.011221114546060562
0.011719277128577232,-0.001352254068478942,-0.013743051327764988,0.0147697227075696,-0.00016905319353099912,0.010741484351456165
0.011043830774724483,-0.0013243121793493629,-0.012956814840435982,0.014387264847755432,-0.00016517619951628149,0.009880373254418373
0.011216932907700539,-0.0012828741455450654,-0.013689681887626648,0.014518365263938904,-0.0001614717475604266,0.009603812359273434
0.011464572511613369,-0.0012365540023893118,-0.01341557502746582,0.014684208668768406,-0.00015792979684192687,0.009538831189274788
0.011464572511613369,-0.0012365540023893118,-0.01341557502746582,0.014684208668768406,-0.00015792979684192687,0.009538831189274788
0.01104106567800045,-0.0014079719549044967,-0.013663655146956444,0.014990988187491894,-0.00015453989908564836,0.009880289435386658
0.011516889557242393,-0.0014473233604803681,-0.01350065041333437,0.014009064063429832,-0.00016132454038597643,0.010452735237777233
0.011233723722398281,-0.0013710269704461098,-0.013790342025458813,0.014303747564554214,-0.00015386073209811002,0.010025331750512123
0.011192578822374344,-0.0012810903135687113,-0.014138615690171719,0.01461641862988472,-0.00014878770161885768,0.009914526715874672
0.010882914997637272,-0.0012184972874820232,-0.013472096994519234,0.014081507921218872,-0.0001440259802620858,0.010300824418663979
0.011794165708124638,-0.0011837536003440619,-0.013835642486810684,0.014204206876456738,-0.00013955908070784062,0.010013231076300144
0.011330130510032177,-0.0011698881862685084,-0.013837849721312523,0.013950548134744167,-0.00014864280819892883,0.010009407065808773
0.011241045780479908,-0.0011397621128708124,-0.014198528602719307,0.014374298974871635,-0.0001567885046824813,0.010507437400519848
0.011403369717299938,-0.0013580255908891559,-0.014217742718756199,0.013960815034806728,-0.00015315557538997382,0.010408446192741394
0.011048409156501293,-0.0012831788044422865,-0.014310804195702076,0.014085981994867325,-0.0001489831047365442,0.010142146609723568
0.01148337684571743,-0.0012180121848359704,-0.014524035155773163,0.013385357335209846,-0.0001449860428692773,0.010854756459593773
0.011734516359865665,-0.001155087724328041,-0.014477485790848732,0.014024585485458374,-0.00016162695828825235,0.011234212666749954
0.011104956269264221,-0.0012254591565579176,-0.013981382362544537,0.013656952418386936,-0.00016032760322559625,0.010473932139575481
0.012263384647667408,-0.0012069764779880643,-0.014473426155745983,0.014744947664439678,-0.0001565277052577585,0.010821898467838764
0.01146324910223484,-0.0011875866912305355,-0.014098542742431164,0.01432300079613924,-0.00015274436736945063,0.010978172533214092
0.011336767114698887,-0.001269824686460197,-0.013967678882181644,0.014817742630839348,-0.00014912945334799588,0.010364889167249203
0.011782207526266575,-0.0012432454386726022,-0.014374488964676857,0.014020858332514763,-0.00014568092592526227,0.010582235641777515
0.011820247396826744,-0.0014739627949893475,-0.014584175311028957,0.014551912434399128,-0.00015238775813486427,0.010544873774051666
0.011887520551681519,-0.0013569158036261797,-0.01424899697303772,0.013502592220902443,-0.00015845728921703994,0.01110772229731083
0.011808797717094421,-0.0012725862907245755,-0.014083418063819408,0.01436363160610199,-0.00015564743080176413,0.011176097206771374
0.012624714523553848,-0.0011826558038592339,-0.014189369976520538,0.01360547635704279,-0.00015239318599924445,0.010866804979741573
0.011789577081799507,-0.0010933311423286796,-0.013247553259134293,0.013873158022761345,-0.00014923680282663554,0.010775013826787472
0.011464140377938747,-0.0010954299941658974,-0.01387200877070427,0.013565072789788246,-0.0001723920286167413,0.010280951857566833
0.012098057195544243,-0.0010774706024676561,-0.01378345862030983,0.014200854115188122,-0.00019027783127967268,0.010785219259560108
0.012098057195544243,-0.0010774706024676561,-0.01378345862030983,0.014200854115188122,-0.00019027783127967268,0.010785219259560108
0.012468651868402958,-0.001222241553477943,-0.0141407810151577,0.014041162095963955,-0.0001841370394686237,0.0110358577221632
0.012123550288379192,-0.0012077712453901768,-0.013636433519423008,0.0145373260602355,-0.0001770006347214803,0.010715248994529247
0.011942638084292412,-0.0011700631584972143,-0.01435026340186596,0.014455441385507584,-0.00019984030222985893,0.010641227476298809
0.012432402931153774,-0.0012749754823744297,-0.014158623293042183,0.013939394615590572,-0.00018996756989508867,0.011114300228655338
0.012111715972423553,-0.0012092744000256062,-0.013681730255484581,0.014123523607850075,-0.00018352793995290995,0.010752138681709766
0.012814706191420555,-0.0010981503874063492,-0.014404287561774254,0.014061844907701015,-0.00019199895905330777,0.010578731074929237
0.0124001270160079,-0.00108110043220222,-0.013514434918761253,0.014543840661644936,-0.00019950290152337402,0.010901120491325855
0.012373262085020542,-0.0010860805632546544,-0.014170131646096706,0.01452671643346548,-0.00019423916819505394,0.011622410267591476
0.0121347326785326,-0.0010696579702198505,-0.01357346959412098,0.014813362620770931,-0.00018848547188099474,0.011214058846235275
0.0126595264300704,-0.0010944035602733493,-0.014238491654396057,0.014487051405012608,-0.00019584415713325143,0.011142218485474586
0.012826924212276936,-0.0010570504236966372,-0.013557637110352516,0.014744916930794716,-0.00020238423894625157,0.011116549372673035
0.012493361718952656,-0.000747885147575289,-0.013811042532324791,0.014703772030770779,-0.00019761624571401626,0.01100264210253954
0.013246667571365833,-0.000636442331597209,-0.013652650639414787,0.01470138318836689,-0.0001923867966979742,0.01116908434778452
0.012872359715402126,-0.0005574468523263931,-0.014320675283670425,0.014219135046005249,-0.00018738277140073478,0.011142558418214321
0.013206560164690018,-0.000590889307204634,-0.013617107644677162,0.014300546608865261,-0.00018262965022586286,0.011245633475482464
0.012576033361256123,-0.0005359828355722129,-0.01399066112935543,0.014077618718147278,-0.00021266374096740037,0.011483832262456417
0.012627014890313148,-0.0005405702977441251,-0.014000189490616322,0.014308367855846882,-0.00023436003539245576,0.011211691424250603
0.013017208315432072,-0.0005213728873059154,-0.01435235608369112,0.013993832282721996,-0.0002247949014417827,0.011501206085085869
0.012747797183692455,-0.00048183067701756954,-0.014047016389667988,0.014435704797506332,-0.00021423066209536046,0.011624311096966267
0.012680473737418652,-0.00044759403681382537,-0.014040142297744751,0.013985109515488148,-0.00020450135343708098,0.011458760127425194
0.012535475194454193,-0.0004178975650575012,-0.013908696360886097,0.014174694195389748,-0.00019561038061510772,0.011675887741148472
0.013248386792838573,-0.0004470809071790427,-0.014076040126383305,0.014043280854821205,-0.0001874595182016492,0.011780847795307636
0.013234899379312992,-0.0004216375818941742,-0.01398046687245369,0.01421366073191166,-0.00021350523456931114,0.011736119166016579
0.013652912341058254,-0.00039831874892115593,-0.014235987327992916,0.014469063840806484,-0.00020748823590110987,0.011386726051568985
0.01308250892907381,-0.0003780841361731291,-0.013829046860337257,0.0144176185131073,-0.00019994702597614378,0.011643965728580952
0.01276241336017847,-0.00027102144667878747,-0.013509456068277359,0.014445851556956768,-0.00019281628192402422,0.01165066659450531
0.013071315363049507,-0.00025455301511101425,-0.013679953292012215,0.014443169347941875,-0.00021308175928425044,0.011505157686769962
0.013075638562440872,-0.00024090877559501678,-0.013695023022592068,0.014672896824777126,-0.00020968832541257143,0.01199618261307478
0.013233711011707783,-0.00022866461949888617,-0.013994789682328701,0.015011309646070004,-0.0002031673793680966,0.011989209800958633
0.013707500882446766,-0.000260514352703467,-0.013749160803854465,0.014420194551348686,-0.00019683442951645702,0.011919696815311909
0.013361254706978798,-0.00024907401530072093,-0.014011550694704056,0.014607989229261875,-0.00019087173859588802,0.013202355243265629
0.013361254706978798,-0.00024907401530072093,-0.014011550694704056,0.014607989229261875,-0.00019087173859588802,0.013202355243265629
0.013598699122667313,-0.00022804285981692374,-0.01378040574491024,0.014980891719460487,-0.00017996603855863214,0.011695300228893757
0.013217921368777752,-0.00021880217536818236,-0.013321020640432835,0.014446173794567585,-0.00017496736836619675,0.011846206150949001
0.013821958564221859,-0.00024390473845414817,-0.014166085980832577,0.014458048157393932,-0.0001702390582067892,0.012042730115354061
0.012699408456683159,-0.00023611387587152421,-0.013449610210955143,0.013914552517235279,-0.00016575967310927808,0.012170862406492233
0.014334803447127342,-0.00022760129650123417,-0.013951809145510197,0.014514231123030186,-0.00018154361168853939,0.012359967455267906
0.01488910336047411,-0.0002196653513237834,-0.013190255500376225,0.014216494746506214,-0.00017977018433157355,0.012673594988882542
0.015351424925029278,-0.00021226394164841622,-0.013831086456775665,0.014628357253968716,-0.00017556670354679227,0.012075655162334442
0.014173795469105244,-0.00020534536452032626,-0.01348643284291029,0.014196882024407387,-0.00017139886040240526,0.012483242899179459
0.01467171497642994,-0.00021752486645709723,-0.014282403513789177,0.014527803286910057,-0.00016741406579967588,0.01195389311760664
0.01446144375950098,-0.0002201869647251442,-0.01385325938463211,0.014138882979750633,-0.0001636095839785412,0.011907709762454033
0.014991327188909054,-0.00021377425582613796,-0.014049345627427101,0.01427620928734541,-0.00015997437003534287,0.012173714116215706
0.014660641551017761,-0.0002076117234537378,-0.013782226480543613,0.01396162249147892,-0.00015649716078769416,0.012063578702509403
0.0150671461597085,-0.00020179292187094688,-0.013658754527568817,0.014455359429121017,-0.00015341088874265552,0.012495690956711769
0.014785771258175373,-0.00019629145390354097,-0.01350420992821455,0.015263575129210949,-0.00014887109864503145,0.01262536458671093
0.015169349499046803,-0.0001913915475597605,-0.013693174347281456,0.014846310950815678,-0.00014413705503102392,0.01265405211597681
0.015037921257317066,-0.0001961702510016039,-0.013979654759168625,0.013699331320822239,-0.0001396653678966686,0.012782996520400047
0.01536195445805788,-0.0001881443167803809,-0.013654598966240883,0.013891019858419895,-0.0001354607957182452,0.012473886832594872
0.014783415012061596,-0.00018059578724205494,-0.013993526808917522,0.013906173408031464,-0.00013150197628419846,0.01236257329583168
0.015126780606806278,-0.00017362738435622305,-0.013336622156202793,0.014197533950209618,-0.0001277679402846843,0.012455296702682972
0.014978012070059776,-0.00016717672406230122,-0.013827524147927761,0.014488168060779572,-0.00012424017768353224,0.013104245066642761
0.014930371195077896,-0.00016118843632284552,-0.013496051542460918,0.014830152504146099,-0.00012090191739844158,0.012658420950174332
0.015177903696894646,-0.00018547708168625832,-0.014087584801018238,0.014987264759838581,-0.00013518914056476206,0.012875567190349102
0.015238713473081589,-0.00018047804769594222,-0.013863978907465935,0.014936220832169056,-0.00013728548947256058,0.012490449473261833
0.01513793133199215,-0.0001746567286318168,-0.014276173897087574,0.01433893758803606,-0.0001452279248042032,0.012251358479261398
0.015210634097456932,-0.00016918474284466356,-0.013724186457693577,0.014512692578136921,-0.0001520917285233736,0.012424636632204056
0.015210634097456932,-0.00016918474284466356,-0.013724186457693577,0.014512692578136921,-0.0001520917285233736,0.012424636632204056
0.015000803396105766,-0.00015920809528324753,-0.014008015394210815,0.014523078687489033,-0.00016587635036557913,0.012309147976338863
0.015317914076149464,-0.00015464874741155654,-0.014317627064883709,0.014547846280038357,-0.00016312611114699394,0.012533058412373066
0.015094868838787079,-0.00016778637655079365,-0.014462021179497242,0.014583703130483627,-0.00028828211361542344,0.01314966008067131
0.015094868838787079,-0.00016778637655079365,-0.014462021179497242,0.014583703130483627,-0.00028828211361542344,0.01314966008067131
0.015364470891654491,-0.00016611028695479035,-0.013975967653095722,0.014890529215335846,-0.0002966054016724229,0.013113106600940228
0.015786029398441315,-0.00016187889559660107,-0.014711198396980762,0.014322389848530293,-0.00028265625587664545,0.013163360767066479
0.015254037454724312,-0.00015782394621055573,-0.014010571874678135,0.014170655980706215,-0.00026869107387028635,0.013007513247430325
0.015429716557264328,-0.0001539668592158705,-0.014321315102279186,0.013561900705099106,-0.0002559583226684481,0.012720298953354359
0.015307202003896236,-0.00015029391215648502,-0.013768300414085388,0.01389312744140625,-0.0002823153045028448,0.012739148922264576
0.01593702845275402,-0.00014679205196443945,-0.014424310065805912,0.013978606089949608,-0.00027257256442680955,0.012905729934573174
0.015460989437997341,-0.00014344956434797496,-0.01415179017931223,0.014233751222491264,-0.0002937892859335989,0.01319229044020176
0.01529879029840231,-0.00014061930414754897,-0.015002425760030746,0.014407987706363201,-0.00028654831112362444,0.013663985766470432
0.01563563011586666,-7.595946954097599e-05,-0.014300416223704815,0.014309057034552097,-0.0002760292263701558,0.013410684652626514
0.015571738593280315,-7.212583295768127e-05,-0.014477628283202648,0.014046075753867626,-0.00036844858550466597,0.013446687720716
0.015749452635645866,-6.933666008990258e-05,-0.013741152361035347,0.014114181511104107,-0.0003475268022157252,0.01331059169024229
0.015486571006476879,-6.676468183286488e-05,-0.014640454202890396,0.014487210661172867,-0.00032305470085702837,0.013431665487587452
0.015363587997853756,-6.437669799197465e-05,-0.013606787659227848,0.01414548046886921,-0.0003307202714495361,0.013200721703469753
0.014941859059035778,-6.215369648998603e-05,-0.01422776561230421,0.014146390371024609,-0.0003369770711287856,0.013432011008262634
0.015504362992942333,-6.0079200920881703e-05,-0.013859780505299568,0.014292580075562,-0.000318834645440802,0.013608314096927643
0.015195328742265701,-5.813861935166642e-05,-0.01428370550274849,0.014402580447494984,-0.000347883760696277,0.01401059702038765
0.016022488474845886,-5.631950625684112e-05,-0.014124088920652866,0.014688760973513126,-0.00033256938331760466,0.01300040539354086
0.015483202412724495,-5.46107767149806e-05,-0.014643201604485512,0.014848466962575912,-0.00035517182550393045,0.013403981924057007
0.01572740077972412,-5.300269549479708e-05,-0.01396188884973526,0.014196865260601044,-0.00034358794800937176,0.013910505920648575
0.015215201303362846,-5.148664422449656e-05,-0.014577016234397888,0.01435414794832468,-0.00040399099816568196,0.013828447088599205
0.015352794900536537,-5.005482307751663e-05,-0.014095117338001728,0.014376241713762283,-0.0004376806318759918,0.014012498781085014
0.01548585295677185,-4.870054908678867e-05,-0.014345414936542511,0.014747810550034046,-0.0004557782085612416,0.013390665873885155
0.015615406446158886,-4.741760130855255e-05,-0.014228114858269691,0.015276502817869186,-0.0004551860620267689,0.013608044944703579
0.01566859520971775,-4.620050094672479e-05,-0.014905511401593685,0.015139499679207802,-0.0004791301616933197,0.013826007023453712
0.015723131597042084,-4.394469942781143e-05,-0.01482321135699749,0.014172740280628204,-0.000729716382920742,0.01403034571558237
0.015314877964556217,-4.289740900276229e-05,-0.014303900301456451,0.014622162096202374,-0.0007092476007528603,0.014194332994520664
0.015314877964556217,-4.289740900276229e-05,-0.014303900301456451,0.014622162096202374,-0.0007092476007528603,0.014194332994520664
0.015899868682026863,-4.18988274759613e-05,-0.014763149432837963,0.01447439193725586,-0.0007078665075823665,0.013964950107038021
0.015757083892822266,-4.094577161595225e-05,-0.014309316873550415,0.014662443660199642,-0.0006576687446795404,0.014287303201854229
0.016723059117794037,-4.003505819127895e-05,-0.015081727877259254,0.01376686617732048,-0.000637956487480551,0.013691257685422897
0.015572930686175823,-3.916398054570891e-05,-0.014259347692131996,0.013945011422038078,-0.0006202396471053362,0.01363446656614542
0.015588134527206421,-3.833001392195001e-05,-0.014626453630626202,0.01445566862821579,-0.0006102144252508879,0.013784120790660381
0.015841880813241005,-3.753080090973526e-05,-0.01414741761982441,0.014927413314580917,-0.0005699033499695361,0.013975835405290127
0.015664976090192795,-3.676425330922939e-05,-0.014838134869933128,0.014533794485032558,-0.0005820011720061302,0.01402828935533762
0.016007935628294945,-3.6028392059961334e-05,-0.014241726137697697,0.014468289911746979,-0.000545957125723362,0.014090552926063538
0.015548030845820904,-3.532143819029443e-05,-0.014966700226068497,0.014032342471182346,-0.0004971371963620186,0.01381344348192215
0.016033004969358444,-3.4641667298274115e-05,-0.014119860716164112,0.014374610036611557,-0.0005206888890825212,0.013957155868411064
0.01583191193640232,-3.3987569622695446e-05,-0.014305378310382366,0.015577849932014942,-0.0004891436547040939,0.014065136201679707
0.016473684459924698,-3.3357715437887236e-05,-0.014124076813459396,0.013515781611204147,-0.0004544193216133863,0.014291660860180855
0.0161915086209774,-3.2750780519563705e-05,-0.014833105728030205,0.013197504915297031,-0.0004532760358415544,0.01414197962731123
0.01603902317583561,-3.216554250684567e-05,-0.014284712262451649,0.013576317578554153,-0.000451831758255139,0.01442031841725111
0.016272008419036865,-3.1600866350345314e-05,-0.014556552283465862,0.013987925834953785,-0.000426804821472615,0.014461955986917019
0.01612158864736557,-3.105562427663244e-05,-0.013949915766716003,0.01403797697275877,-0.00040155855822376907,0.014523361809551716
0.017186230048537254,-3.052892134292051e-05,-0.014901310205459595,0.014199296943843365,-0.00036885080044157803,0.014506618492305279
0.015159093774855137,-3.00197716569528e-05,-0.014390388503670692,0.014085177332162857,-0.0003409000637475401,0.01450508926063776
0.01617523469030857,-2.952733302663546e-05,-0.01442834921181202,0.014381741173565388,-0.0003168773837387562,0.014281912706792355
0.016393227502703667,-2.9050799639662728e-05,-0.014076375402510166,0.014205346815288067,-0.0002960197743959725,0.01450318843126297
0.0168625358492136,-2.8589389330591075e-05,-0.014676141552627087,0.014498918317258358,-0.000318639213219285,0.014526407234370708
0.01665734127163887,-1.4632497368438635e-05,-0.014263089746236801,0.014130261726677418,-0.0003129469696432352,0.014931072480976582
0.016670726239681244,-1.3862131709174719e-05,-0.015100443735718727,0.014231037348508835,-0.00029658901621587574,0.015028205700218678
0.016901865601539612,-1.3644656974065583e-05,-0.014313261955976486,0.013752302154898643,-0.00028119454509578645,0.01512154284864664
0.017162613570690155,-1.324301956628915e-05,-0.014224912039935589,0.013983232900500298,-0.0002969111956190318,0.014905628748238087
0.016955699771642685,-1.3050981578999199e-05,-0.014836025424301624,0.014232317917048931,-0.00032147447927854955,0.014717104844748974
0.016804402694106102,-1.2864436939707957e-05,-0.014708337374031544,0.013639473356306553,-0.00031010014936327934,0.015573571436107159
0.016804402694106102,-1.2864436939707957e-05,-0.014708337374031544,0.013639473356306553,-0.00031010014936327934,0.015573571436107159
0.016833364963531494,-1.2683156455750577e-05,-0.015280173160135746,0.01447087898850441,-0.0002974482486024499,0.01456111017614603
0.016641890630126,-1.250690002052579e-05,-0.014095963910222054,0.013944562524557114,-0.0002856557839550078,0.01487630046904087
0.017114905640482903,-1.2335486644587945e-05,-0.015274012461304665,0.014507737942039967,-0.0002754409797489643,0.01520394068211317
0.016939153894782066,-1.2168698958703317e-05,-0.014886069111526012,0.013949651271104813,-0.00027732911985367537,0.015539117157459259
0.017680872231721878,-1.4000199826114113e-06,-0.015081118792295456,0.014035716652870178,-0.0002623876789584756,0.015266944654285908
0.017760561779141426,-1.8783055111271096e-08,-0.014553378336131573,0.01350270677357912,-0.0002480018010828644,0.015432928688824177
0.01736045442521572,-2.5199867192959857e-10,-0.015315829776227474,0.01415420975536108,-0.0002757374895736575,0.015274250879883766
0.017914151772856712,-3.3808838974941358e-12,-0.015128961764276028,0.01387903280556202,-0.0002676399308256805,0.015456419438123703
0.017972838133573532,-4.535887182348375e-14,-0.015603459440171719,0.014728779904544353,-0.00028676720103248954,0.015494795516133308
0.017870644107460976,-6.08547168125267e-16,-0.015409421175718307,0.014482320286333561,-0.00028374840621836483,0.015207192860543728
0.017945878207683563,-8.164436427659669e-18,-0.014960046857595444,0.014540795236825943,-0.00027213661815039814,0.015634074807167053
0.0176064595580101,-1.095363423888259e-19,-0.01526837982237339,0.014244865626096725,-0.00029563947464339435,0.015704412013292313
0.018383072689175606,-1.4695697628862409e-21,-0.01556364819407463,0.01439207885414362,-0.00028656661743298173,0.015644576400518417
0.018006226047873497,-1.971615522092617e-23,-0.016073834151029587,0.014055919833481312,-0.00040311398333869874,0.015298591926693916
0.017740530893206596,-2.6451736282034605e-25,-0.015352770686149597,0.014882602728903294,-0.00037852299283258617,0.015321951359510422
0.018153777346014977,-3.548837923184473e-27,-0.015324046835303307,0.014742011204361916,-0.00034969625994563103,0.01528184488415718
0.018230704590678215,-4.761219309305055e-29,-0.015059659257531166,0.015048224478960037,-0.0003244990366511047,0.015610476955771446
0.01814248226583004,-6.387783474261033e-31,-0.016210267320275307,0.014403015375137329,-0.0003026619378942996,0.015298805199563503
0.01860269531607628,-8.570026788010322e-33,-0.015107081271708012,0.014459711499512196,-0.0003111604892183095,0.015643451362848282
0.01840006746351719,-1.1497785751881268e-34,-0.015078015625476837,0.013443170115351677,-0.00031820868025533855,0.015583078376948833
0.018699610605835915,-1.5425746401634428e-36,-0.01493077538907528,0.01379329338669777,-0.00030206478550098836,0.015677494928240776
0.017866499722003937,-2.0695608863797504e-38,-0.015240732580423355,0.013566679321229458,-0.00028616050258278847,0.01537284068763256
0.017727268859744072,-2.7765748161671223e-40,-0.015315738506615162,0.014346987009048462,-0.0002717617608141154,0.015888389199972153
0.018370039761066437,-3.724651318175364e-42,-0.01536926906555891,0.014570382423698902,-0.0002905683941207826,0.01588364690542221
0.018118638545274734,-5.044674471569341e-44,-0.015282009728252888,0.015349674038589,-0.00028731671045534313,0.015970753505825996
0.01814030483365059,-0.0,-0.015347848646342754,0.01500952523201704,-0.00027540759765543044,0.016286158934235573
0.018199386075139046,0.0,-0.015124443918466568,0.014568354934453964,-0.0002846666902769357,0.01615714840590954
0.018443645909428596,0.0,-0.015327172353863716,0.014243430458009243,-0.0002779811038635671,0.015835212543606758
0.019154734909534454,0.0,-0.015040776692330837,0.013508090749382973,-0.00026791641721501946,0.01613040268421173
0.019154734909534454,0.0,-0.015040776692330837,0.013508090749382973,-0.00026791641721501946,0.01613040268421173
0.018972543999552727,0.0,-0.015546666458249092,0.013758453540503979,-0.0002529352204874158,0.016404910013079643
0.018599286675453186,0.0,-0.014837763272225857,0.013618544675409794,-0.00023925550340209156,0.01681607775390148
0.018643232062458992,0.0,-0.015486231073737144,0.014142588712275028,-0.00026648957282304764,0.0176707711070776
0.01832970231771469,0.0,-0.014807656407356262,0.013859807513654232,-0.0002590882941149175,0.016414906829595566
0.01878177560865879,0.0,-0.015332925133407116,0.014197632670402527,-0.00026772008277475834,0.016448698937892914
0.01865404285490513,0.0,-0.014741439372301102,0.013915272429585457,-0.0002748043043538928,0.015986528247594833
0.018613755702972412,0.0,-0.015271519310772419,0.014137443155050278,-0.0002644920605234802,0.01602785848081112
0.01943570002913475,0.0,-0.014630872756242752,0.014084978960454464,-0.0002539106353651732,0.01607927866280079
0.019127484411001205,0.0,-0.01501813530921936,0.014532315544784069,-0.000269858370302245,0.016435889527201653
0.018118269741535187,0.0,-0.014213340356945992,0.014376072213053703,-0.0002679462486412376,0.016588469967246056
0.01919439248740673,0.0,-0.014785504899919033,0.014782317914068699,-0.0003793242503888905,0.01693590357899666
0.019257979467511177,0.0,-0.014873569831252098,0.015039474703371525,-0.00042393538751639426,0.01691569946706295
0.018591780215501785,0.0,-0.015378827229142189,0.014278090558946133,-0.0004271760117262602,0.01658361591398716
0.019435368478298187,0.0,-0.0150221548974514,0.01354969386011362,-0.000446844584075734,0.016979269683361053
0.019597191363573074,0.0,-0.015383334830403328,0.01437617652118206,-0.00043154426384717226,0.017156051471829414
0.018801478669047356,0.0,-0.015258613973855972,0.014253205619752407,-0.00045479420805349946,0.01732971891760826
0.019588768482208252,5.050104664405808e-05,-0.01535866130143404,0.014714599587023258,-0.0004342474276199937,0.017230363562703133
0.019658898934721947,0.0002001889079110697,-0.015475093387067318,0.014557505957782269,-0.00041092062019743025,0.016771823167800903
0.01948210597038269,0.00019361660815775394,-0.015142122283577919,0.014652974903583527,-0.000530674122273922,0.016706623136997223
0.019985537976026535,0.00017829971329774708,-0.014877550303936005,0.014597916044294834,-0.0005669943639077246,0.017068570479750633
0.019710198044776917,0.00020532638882286847,-0.01563956029713154,0.013981051743030548,-0.0005558469565585256,0.0174848809838295
0.019710198044776917,0.00020532638882286847,-0.01563956029713154,0.013981051743030548,-0.0005558469565585256,0.0174848809838295
0.020194165408611298,0.00019122842059005052,-0.015563988126814365,0.013987531885504723,-0.0005399057408794761,0.017523890361189842
0.020194165408611298,0.00019122842059005052,-0.015563988126814365,0.013987531885504723,-0.0005399057408794761,0.017523890361189842
0.020216166973114014,0.00021422385179903358,-0.014899486675858498,0.014336598105728626,-0.0006341980188153684,0.017369594424962997
0.020189514383673668,0.00020832690643146634,-0.01546309981495142,0.013912511058151722,-0.0006810792838223279,0.01725192368030548
0.020388850942254066,0.00022932057618163526,-0.014640619046986103,0.014535646885633469,-0.0006998484022915363,0.017449380829930305
0.01974531263113022,0.00022332282969728112,-0.01521345041692257,0.014254485256969929,-0.0007079950300976634,0.01720481552183628
0.020202936604619026,0.00031933776335790753,-0.014840186573565006,0.014384904876351357,-0.0006692582392133772,0.01736595295369625
0.020246075466275215,0.00034576773759908974,-0.015311597846448421,0.014166966080665588,-0.0007750155054964125,0.017400043085217476
0.020262304693460464,0.00032164258300326765,-0.015062532387673855,0.014446151442825794,-0.0006734612979926169,0.017338821664452553
0.020786603912711143,0.00033944385359063745,-0.015389939770102501,0.014461291022598743,-0.0006949057569727302,0.018406998366117477
0.02064662240445614,0.000337496108841151,-0.015144751407206059,0.014612855389714241,-0.0006218935595825315,0.01777530275285244
0.020321371033787727,0.0003178934857714921,-0.015565515495836735,0.014172063209116459,-0.0005579928401857615,0.01685946434736252
0.02039150893688202,0.0003481910680420697,-0.015686307102441788,0.014781911857426167,-0.0005839004297740757,0.017155256122350693
0.020472949370741844,0.00033178337616845965,-0.01508853118866682,0.014080580323934555,-0.0005954904481768608,0.017728082835674286
0.020927295088768005,0.0003446470363996923,-0.01545930840075016,0.01465551182627678,-0.0005664308555424213,0.018003422766923904
0.02077139914035797,0.00034286026493646204,-0.015202014707028866,0.01447421032935381,-0.00050661078421399,0.017648255452513695
0.020778311416506767,0.0003298711380921304,-0.015606707893311977,0.015073386952280998,-0.0005208053044043481,0.017733613029122353
0.02102375030517578,0.0004010894917882979,-0.01517079770565033,0.014649108983576298,-0.0004935390898026526,0.017523683607578278
0.020759016275405884,0.0004402869089972228,-0.015988292172551155,0.014938054606318474,-0.0005088180769234896,0.017570555210113525
0.020759016275405884,0.0004402869089972228,-0.015988292172551155,0.014938054606318474,-0.0005088180769234896,0.017570555210113525
0.020545894280076027,0.00046979833859950304,-0.015208596363663673,0.015245511196553707,-0.0004867349925916642,0.017582200467586517
0.020870864391326904,0.000444227596744895,-0.015602841041982174,0.015308764763176441,-0.0005087247118353844,0.017799939960241318
0.021936865523457527,0.00044499756768345833,-0.015570874325931072,0.015075591392815113,-0.0005431802710518241,0.018844163045287132
0.021936865523457527,0.00044499756768345833,-0.015570874325931072,0.015075591392815113,-0.0005431802710518241,0.018844163045287132
0.021060027182102203,0.0006608759867958724,-0.016081202775239944,0.015154179185628891,-0.0005422724643722177,0.018290458247065544
0.02144603431224823,0.0006568537792190909,-0.016058340668678284,0.014851775951683521,-0.0005026813014410436,0.017920689657330513
0.0213577039539814,0.0006805434240959585,-0.0153057761490345,0.01506104413419962,-0.0005167549243196845,0.01758870854973793
0.021276256069540977,0.0006475450354628265,-0.015551579184830189,0.014657065272331238,-0.0004936985205858946,0.01815154030919075
0.021815558895468712,0.000769062084145844,-0.015027067624032497,0.014995027333498001,-0.000519806460943073,0.018426138907670975
0.02184171788394451,0.0007945754332467914,-0.015803063288331032,0.01452278345823288,-0.0005478379316627979,0.018866730853915215
0.021673671901226044,0.0008048777235671878,-0.015290138311684132,0.014683352783322334,-0.000539899745490402,0.01868743635714054
0.021968401968479156,0.0008074819925241172,-0.01620711386203766,0.01473674364387989,-0.0005562868900597095,0.018176641315221786
0.022260745987296104,0.0007360627059824765,-0.015594333410263062,0.015301461331546307,-0.0005242434563115239,0.018727770075201988
0.022308507934212685,0.0007702184375375509,-0.015479626134037971,0.014638079330325127,-0.00047912466106936336,0.018807219341397285
0.023153923451900482,0.0007886698585934937,-0.015507061034440994,0.014971558004617691,-0.00047562207328155637,0.019196638837456703
0.02117740921676159,0.0008029208402149379,-0.016013439744710922,0.01505201868712902,-0.0004722891317214817,0.018819935619831085
0.02151678130030632,0.0008139333804138005,-0.015948722139000893,0.01504681445658207,-0.000441306532593444,0.019395949319005013
0.022123388946056366,0.000896874931640923,-0.016215255483984947,0.015378640033304691,-0.0004125299456063658,0.017726322636008263
0.02297750487923622,0.0009184351074509323,-0.01615804433822632,0.01515346858650446,-0.0004140822566114366,0.017244763672351837
0.02279580943286419,0.0010007268283516169,-0.015592524781823158,0.014971409924328327,-0.00041499926010146737,0.017997179180383682
0.022305574268102646,0.0009222213411703706,-0.016166359186172485,0.01479320228099823,-0.000393910362618044,0.018517624586820602
0.022207438945770264,0.0011748716933652759,-0.014970168471336365,0.014028934761881828,-0.000373570917872712,0.018894080072641373
0.022324299439787865,0.0011283205822110176,-0.017088521271944046,0.013797120191156864,-0.00034420753945596516,0.018614977598190308
0.022811371833086014,0.001104386174120009,-0.015415234491229057,0.013891823589801788,-0.00031783338636159897,0.01873634196817875
0.02268037758767605,0.0012699173530563712,-0.015427929349243641,0.014337501488626003,-0.0002967278123833239,0.018878847360610962
0.022346923127770424,0.0012462708400562406,-0.016154680401086807,0.01498583797365427,-0.00027835395303554833,0.01866828091442585
0.022672105580568314,0.0012011440703645349,-0.016367124393582344,0.015435891225934029,-0.0002621318562887609,0.018729180097579956
0.0232503954321146,0.001378325978294015,-0.015856830403208733,0.015259119682013988,-0.0002938120742328465,0.01909605972468853
0.022747790440917015,0.0013466943055391312,-0.015477132052183151,0.014886898919939995,-0.0002814990875776857,0.0189039446413517
0.02251504175364971,0.0015070020454004407,-0.016316547989845276,0.01518737431615591,-0.000300665880786255,0.018791690468788147
0.02251504175364971,0.0015070020454004407,-0.016316547989845276,0.01518737431615591,-0.000300665880786255,0.018791690468788147
0.022617967799305916,0.0016089648706838489,-0.01586146280169487,0.014934632927179337,-0.0002968483604490757,0.01872527413070202
0.02302379347383976,0.0016499734483659267,-0.015227681025862694,0.014944964088499546,-0.00031057687010616064,0.01837361976504326
0.022960830479860306,0.0016357722925022244,-0.01616956852376461,0.015162715688347816,-0.00034487174707464874,0.018751006573438644
0.02277696318924427,0.001779964892193675,-0.015785524621605873,0.014603887684643269,-0.0003626378602348268,0.01882624439895153
0.022855408489704132,0.0018081361195072532,-0.01585981994867325,0.014904017560184002,-0.00039678937173448503,0.01924043335020542
0.023176122456789017,0.0020106371957808733,-0.016115397214889526,0.01393799763172865,-0.0003772198688238859,0.01926455646753311
0.02328556589782238,0.0019853278063237667,-0.01598178781569004,0.014854303561151028,-0.0003530762915033847,0.019033629447221756
0.023341495543718338,0.0020520403049886227,-0.016202058643102646,0.01359629537910223,-0.0003791871131397784,0.019104428589344025
0.023007312789559364,0.002003998262807727,-0.015707354992628098,0.014129837974905968,-0.0003891566884703934,0.01890752650797367
0.022957775741815567,0.002029601950198412,-0.01601160131394863,0.014439265243709087,-0.0003918007714673877,0.01876017451286316
0.023336566984653473,0.002049739006906748,-0.015473677776753902,0.015342580154538155,-0.0005053562927059829,0.019143560901284218
0.02334102801978588,0.0020298236049711704,-0.016161244362592697,0.014611505903303623,-0.0004941283259540796,0.01993686892092228
0.023026680573821068,0.0020372814033180475,-0.015493945218622684,0.014757005497813225,-0.000530920980963856,0.0185804795473814
0.023266330361366272,0.002260457491502166,-0.015889625996351242,0.014515049755573273,-0.0004884674563072622,0.0187575314193964
0.02302449569106102,0.0024132654070854187,-0.015543843619525433,0.015180724672973156,-0.000512666825670749,0.01898794062435627
0.023539725691080093,0.0022875878494232893,-0.015455350279808044,0.014451632276177406,-0.0004821938637178391,0.019500160589814186
0.023951642215251923,0.00223292107693851,-0.015467979945242405,0.014823406003415585,-0.0005037449882365763,0.019436532631516457
0.023424362763762474,0.0021737299393862486,-0.015440591610968113,0.014466354623436928,-0.00047787895891815424,0.019257789477705956
0.02287779375910759,0.0022118326742202044,-0.016093777492642403,0.014715906232595444,-0.0005100205889903009,0.0196682196110487
0.022858131676912308,0.0021256785839796066,-0.01577576994895935,0.014288484118878841,-0.00047774871927686036,0.0200144425034523
0.023313026875257492,0.0023028587456792593,-0.016106830909848213,0.015069695189595222,-0.0005135359824635088,0.02002362534403801
0.023586152121424675,0.002657943405210972,-0.015540845692157745,0.015124103985726833,-0.0004737827111966908,0.01986282505095005
0.023144613951444626,0.002519779372960329,-0.01594565622508526,0.015321267768740654,-0.0004891563439741731,0.0196598581969738
0.023121532052755356,0.0025804219767451286,-0.015361040830612183,0.015702050179243088,-0.00046925348578952253,0.01984304189682007
0.02340329810976982,0.0024596434086561203,-0.01565834879875183,0.015544009394943714,-0.0004680745769292116,0.01985030062496662
0.023527607321739197,0.0023835250176489353,-0.015542658045887947,0.015055404044687748,-0.000465702818473801,0.01994023472070694
0.023527607321739197,0.0023835250176489353,-0.015542658045887947,0.015055404044687748,-0.000465702818473801,0.01994023472070694
0.02344479225575924,0.0028172368183732033,-0.016305815428495407,0.01507417019456625,-0.0004655836964957416,0.019360844045877457
0.02280518040060997,0.002580180997028947,-0.015521533787250519,0.015216834843158722,-0.0004929262795485556,0.0197965819388628
0.02276507019996643,0.0027036459650844336,-0.01595643162727356,0.015522638335824013,-0.0005275961011648178,0.020224986597895622
0.022926760837435722,0.00281364843249321,-0.015570119023323059,0.01509470958262682,-0.000504454190377146,0.019778218120336533
0.022261478006839752,0.0032006327528506517,-0.01613624580204487,0.015304246917366982,-0.0005303736543282866,0.019673354923725128
0.02373940870165825,0.0031674751080572605,-0.01595243252813816,0.014475185424089432,-0.0006331981276161969,0.0196601003408432
0.02356761135160923,0.0035346427466720343,-0.016293104737997055,0.01423304621130228,-0.0007641525007784367,0.019807128235697746
0.023127688094973564,0.003196953795850277,-0.015796614810824394,0.014372868463397026,-0.0007587747531943023,0.0199569184333086
0.022958219051361084,0.003226266009733081,-0.01631484553217888,0.015296654775738716,-0.0007736519328318536,0.021417787298560143
0.02342047169804573,0.0033098910935223103,-0.015892159193754196,0.015063051134347916,-0.00074188900180161,0.02016245573759079
0.023676477372646332,0.0035944844130426645,-0.015301208943128586,0.015412486158311367,-0.0008321693749167025,0.019398774951696396
0.02363489381968975,0.003723354544490576,-0.016150569543242455,0.014621205627918243,-0.0007257751422002912,0.019868336617946625
0.02366597019135952,0.003792904317378998,-0.01597416214644909,0.015022313222289085,-0.0007420777692459524,0.020659862086176872
0.023754766210913658,0.003521419595927,-0.016242139041423798,0.014332707971334457,-0.0006590305711142719,0.0208194088190794
0.023443469777703285,0.003489481285214424,-0.01587730459868908,0.014442146755754948,-0.0006784484721720219,0.02129751816391945
0.02372126840054989,0.003967949189245701,-0.01629158854484558,0.014215592294931412,-0.0006177985924296081,0.02147066779434681
0.023589231073856354,0.004218774382025003,-0.015913495793938637,0.01513946894556284,-0.0005629177903756499,0.02077545039355755
0.023745521903038025,0.004067785572260618,-0.016005076467990875,0.01484314538538456,-0.0005803797976113856,0.019789282232522964
0.023670516908168793,0.003842679550871253,-0.016462350264191628,0.015123804099857807,-0.0005450809840112925,0.0203457772731781
0.02348550781607628,0.003969383891671896,-0.016573462635278702,0.014856506139039993,-0.0005086775636300445,0.02151079848408699
0.023465396836400032,0.003985582385212183,-0.016480393707752228,0.014550806023180485,-0.00042868492892012,0.021641509607434273
0.024127082899212837,0.0038735533598810434,-0.016089683398604393,0.01427076943218708,-0.0003894616093020886,0.02076992392539978
0.024333495646715164,0.004242712631821632,-0.01701361872255802,0.01470887754112482,-0.00042485567973926663,0.020743852481245995
0.024093957617878914,0.004191887099295855,-0.015951653942465782,0.014262187294661999,-0.0004300495784264058,0.02070016600191593
0.023993954062461853,0.004071900155395269,-0.016072245314717293,0.015232029370963573,-0.00043038668809458613,0.021332085132598877
0.023555170744657516,0.004492532461881638,-0.01640518195927143,0.014735120348632336,-0.0004327897622715682,0.021642476320266724
0.02400152198970318,0.004133009817451239,-0.016207393258810043,0.014789307489991188,-0.000432756933150813,0.021500546485185623
0.024201316758990288,0.0042394413612782955,-0.016920261085033417,0.014147003181278706,-0.00040981770143844187,0.020540138706564903
0.02434082329273224,0.004266279749572277,-0.016256392002105713,0.014978116378188133,-0.0004747041966766119,0.020495377480983734
0.02434082329273224,0.004266279749572277,-0.016256392002105713,0.014978116378188133,-0.0004747041966766119,0.020495377480983734
0.023741144686937332,0.004758014343678951,-0.016167430207133293,0.014370528981089592,-0.0004541848029475659,0.022610602900385857
0.023741144686937332,0.004758014343678951,-0.016167430207133293,0.014370528981089592,-0.0004541848029475659,0.022610602900385857
0.024092962965369225,0.00495382584631443,-0.016477661207318306,0.014713379554450512,-0.0004211323393974453,0.021294787526130676
0.02461632713675499,0.00438221450895071,-0.01626676134765148,0.014534145593643188,-0.00039079037378542125,0.020497426390647888
0.02522524818778038,0.004198927897959948,-0.01652754843235016,0.014881420880556107,-0.0004168790183030069,0.02103009819984436
0.02549300156533718,0.00414983369410038,-0.015941938385367393,0.014221523888409138,-0.0003977149317506701,0.021588504314422607
0.024553803727030754,0.004484553821384907,-0.01674298755824566,0.014191515743732452,-0.0003745288122445345,0.021808220073580742
0.02393706887960434,0.004667277913540602,-0.016122562810778618,0.014199594035744667,-0.0003535327559802681,0.021725961938500404
0.024623297154903412,0.004746641032397747,-0.016332358121871948,0.014544830657541752,-0.00037926630466245115,0.022074269130825996
0.025425992906093597,0.0047636134549975395,-0.01664375700056553,0.014212251640856266,-0.00036304141394793987,0.021945010870695114
0.024572549387812614,0.005015904549509287,-0.016507219523191452,0.01445664744824171,-0.0003457903803791851,0.02157507836818695
0.02550029754638672,0.004505571909248829,-0.016826624050736427,0.014282853342592716,-0.0003300376993138343,0.02187941037118435
0.025888215750455856,0.004517885856330395,-0.015960365533828735,0.014689111150801182,-0.0003115536237601191,0.021723005920648575
0.025843534618616104,0.004661263898015022,-0.016118237748742104,0.014880568720400333,-0.0002916371449828148,0.021227851510047913
0.02547227218747139,0.0051919883117079735,-0.016014762222766876,0.01526215486228466,-0.0003142365312669426,0.021733185276389122
0.02465580776333809,0.005135783925652504,-0.016701003536581993,0.015148271806538105,-0.00030886742752045393,0.02185278758406639
0.025515830144286156,0.0047454494051635265,-0.016107862815260887,0.014293265528976917,-0.00027790587046183646,0.021572565659880638
0.025515830144286156,0.0047454494051635265,-0.016107862815260887,0.014293265528976917,-0.00027790587046183646,0.021572565659880638
0.02616276778280735,0.004830055870115757,-0.016599077731370926,0.014918913133442402,-0.00030532863456755877,0.021237652748823166
0.02600581757724285,0.0048856474459171295,-0.01615476980805397,0.015448752790689468,-0.00029376393649727106,0.02155422605574131
0.026128504425287247,0.00522778881713748,-0.016349636018276215,0.015209264121949673,-0.0002808404096867889,0.022414568811655045
0.026128504425287247,0.00522778881713748,-0.016349636018276215,0.015209264121949673,-0.0002808404096867889,0.022414568811655045
0.026309506967663765,0.004866028670221567,-0.016465554013848305,0.014842359349131584,-0.00035300268791615963,0.022197222337126732
0.026309506967663765,0.004866028670221567,-0.016465554013848305,0.014842359349131584,-0.00035300268791615963,0.022197222337126732
0.026125917211174965,0.0048627592623233795,-0.01621287688612938,0.015261230058968067,-0.00037891167448833585,0.02134208381175995
0.02595641277730465,0.00446578674018383,-0.016491472721099854,0.014987805858254433,-0.00039253910654224455,0.021841078996658325
0.025921108201146126,0.0045709554105997086,-0.015946943312883377,0.014729929156601429,-0.00036619824822992086,0.021844925358891487
0.026384130120277405,0.005182929337024689,-0.01641226001083851,0.01553836464881897,-0.0003961200127378106,0.02184572070837021
0.02640746906399727,0.0033704498782753944,-0.015349349938333035,0.015188077464699745,-0.00037594191962853074,0.022302377969026566
0.026541870087385178,0.002510639140382409,-0.016285978257656097,0.015486474148929119,-0.0004021815548185259,0.022837568074464798
0.026512259617447853,0.0018620939226821065,-0.01566576398909092,0.014932279475033283,-0.00038382821367122233,0.023518845438957214
0.026606108993291855,0.0013278113910928369,-0.015692491084337234,0.014801842160522938,-0.00044110306771472096,0.022571446374058723
0.026606108993291855,0.0013278113910928369,-0.015692491084337234,0.014801842160522938,-0.00044110306771472096,0.022571446374058723
0.02682872861623764,0.0022629420273005962,-0.015831902623176575,0.015293982811272144,-0.0004720675351563841,0.021964602172374725
0.026668671518564224,0.003323243698105216,-0.016309982165694237,0.01503074448555708,-0.00044283358147367835,0.021736815571784973
0.02679610811173916,0.0031844463665038347,-0.016085218638181686,0.015093847177922726,-0.00040982183418236673,0.022110939025878906
0.026769572868943214,0.002481072209775448,-0.016789734363555908,0.01471824198961258,-0.0004399595782160759,0.023374557495117188
0.026482192799448967,0.00206464109942317,-0.016008686274290085,0.015061390586197376,-0.00045845998101867735,0.023532334715127945
0.02666598930954933,0.001607252866961062,-0.016524190083146095,0.01514412835240364,-0.0004440374032128602,0.023293206468224525
0.025947267189621925,0.0016464398941025138,-0.016369812190532684,0.0151600930839777,-0.00046688260044902563,0.02259485237300396
0.026268500834703445,0.0019794325344264507,-0.016848212108016014,0.015246352180838585,-0.0005106605240143836,0.022924022749066353
0.026691634207963943,0.002629742259159684,-0.01719229482114315,0.015287506394088268,-0.0005064465221948922,0.02375158481299877
0.02763991802930832,0.0026288062799721956,-0.017042821273207664,0.015334906056523323,-0.0005376979825086892,0.023524604737758636
0.027103805914521217,0.0026465586852282286,-0.017656391486525536,0.014957361854612827,-0.0005523421568796039,0.023118210956454277
0.02646457590162754,0.0021928923670202494,-0.016932010650634766,0.015291777439415455,-0.000530273886397481,0.02299189381301403
0.026577703654766083,0.0017899005906656384,-0.01749499700963497,0.014748870395123959,-0.0007144794217310846,0.022986670956015587
0.028102630749344826,0.0017811651341617107,-0.017725350335240364,0.01565886288881302,-0.0006920691812410951,0.02322271093726158
0.027617091313004494,0.0019495812011882663,-0.016851719468832016,0.014402938075363636,-0.0006615397869609296,0.023631487041711807
0.027617091313004494,0.0019495812011882663,-0.016851719468832016,0.014402938075363636,-0.0006615397869609296,0.023631487041711807
0.027593689039349556,0.0020069091115146875,-0.01744970679283142,0.014429409056901932,-0.0006644987151958048,0.022741403430700302
0.028042150661349297,0.0025235561188310385,-0.017560051754117012,0.015343055129051208,-0.0006365190492942929,0.023030351847410202
0.027872925624251366,0.0024235143791884184,-0.017497802153229713,0.015336447395384312,-0.0006213100859895349,0.023256273940205574
0.027281804010272026,0.0023802262730896473,-0.016414156183600426,0.015941806137561798,-0.0005725195514969528,0.023199204355478287
0.027069242671132088,0.0024353195913136005,-0.01735125109553337,0.015768777579069138,-0.0006040030275471509,0.023039983585476875
0.02807703986763954,0.0023834086023271084,-0.01681658998131752,0.015706336125731468,-0.0005488409660756588,0.023265700787305832
0.02824842371046543,0.002820241264998913,-0.017384253442287445,0.01548165176063776,-0.0004985188134014606,0.023671429604291916
0.02775617688894272,0.0031031842809170485,-0.01723388396203518,0.015683455392718315,-0.0005121311405673623,0.02316342480480671
0.02752009965479374,0.003258384997025132,-0.016628112643957138,0.015419135801494122,-0.0004895792808383703,0.023438600823283195
0.027683470398187637,0.003107026917859912,-0.017152421176433563,0.014935847371816635,-0.0005031110486015677,0.023586131632328033
0.027805767953395844,0.0028208859730511904,-0.015817774459719658,0.015010296367108822,-0.00048420822713524103,0.023193607106804848
0.027819624170660973,0.003028028178960085,-0.01684407703578472,0.01513980608433485,-0.0004714860115200281,0.023504484444856644
0.02797619253396988,0.0034553464502096176,-0.017005663365125656,0.015252123586833477,-0.00044259996502660215,0.02365025505423546
0.02810651622712612,0.0033126750495284796,-0.016562949866056442,0.014731570146977901,-0.00040397432167083025,0.02337375469505787
0.028211228549480438,0.0030908191110938787,-0.01723782904446125,0.015492817386984825,-0.00043960343464277685,0.023644594475626945
0.028362730517983437,0.0034082895144820213,-0.016705133020877838,0.015215974301099777,-0.0004438433388713747,0.023806864395737648
0.027982205152511597,0.003787329886108637,-0.017302388325333595,0.015555898658931255,-0.0004741187149193138,0.023989733308553696
0.028083786368370056,0.003965386189520359,-0.016793549060821533,0.014941796660423279,-0.00047326271305792034,0.02405574917793274
0.028567425906658173,0.0035298801958560944,-0.016889577731490135,0.014924261718988419,-0.000597307865973562,0.023656463250517845
0.028232593089342117,0.0033261794596910477,-0.01725400798022747,0.014444135129451752,-0.0006426633335649967,0.023860137909650803
0.028275851160287857,0.0032649775967001915,-0.01688889041543007,0.014824477955698967,-0.0005870488239452243,0.024285051971673965
0.028437916189432144,0.003426704555749893,-0.017218666151165962,0.014905105344951153,-0.0005948898033238947,0.02463439851999283
0.028437916189432144,0.003426704555749893,-0.017218666151165962,0.014905105344951153,-0.0005948898033238947,0.02463439851999283
0.028343534097075462,0.003397067543119192,-0.017242368310689926,0.015131473541259766,-0.0005711214616894722,0.023477988317608833
0.028343534097075462,0.003397067543119192,-0.017242368310689926,0.015131473541259766,-0.0005711214616894722,0.023477988317608833
0.029085563495755196,0.004183084238320589,-0.016728416085243225,0.014335337094962597,-0.0005762921064160764,0.024509746581315994
0.028598004952073097,0.004177119117230177,-0.017261166125535965,0.014543568715453148,-0.0006054340046830475,0.024911262094974518
0.028963344171643257,0.003544970415532589,-0.01685195602476597,0.014615963213145733,-0.0006232912419363856,0.025091836228966713
0.029105300083756447,0.0035483604297041893,-0.017207330092787743,0.015156330540776253,-0.0006483710603788495,0.024451274424791336
0.029005922377109528,0.003720849985256791,-0.017161360010504723,0.014826517552137375,-0.0006135007133707404,0.0239639300853014
0.02830669656395912,0.004134361166507006,-0.01685190014541149,0.015598403289914131,-0.00071111717261374,0.023988185450434685
0.029538819566369057,0.004228733945637941,-0.017275219783186913,0.015824906527996063,-0.0006573772407136858,0.024767564609646797
0.029777731746435165,0.0040597631596028805,-0.01673744060099125,0.015520686283707619,-0.0006829883204773068,0.02458750084042549
0.02960095927119255,0.0038556379731744528,-0.01710340566933155,0.015612054616212845,-0.0006125818472355604,0.02505195327103138
0.029429398477077484,0.003725673072040081,-0.017020082101225853,0.015565532259643078,-0.0006355816731229424,0.025476332753896713
0.028087008744478226,0.004034638870507479,-0.017013641074299812,0.016301412135362625,-0.0006432978552766144,0.025803018361330032
0.02883872017264366,0.004100037273019552,-0.01708066463470459,0.016167204827070236,-0.0006081078900024295,0.025089582428336143
0.029865751042962074,0.004327139817178249,-0.016429752111434937,0.01662406325340271,-0.0005939528346061707,0.024214817211031914
0.029293114319443703,0.004001724999397993,-0.017135489732027054,0.016154831275343895,-0.0005310789565555751,0.0240623839199543
0.029381604865193367,0.003855349961668253,-0.01670941337943077,0.01583133637905121,-0.000563495559617877,0.023928627371788025
0.030375231057405472,0.00423212768509984,-0.017047539353370667,0.01481827162206173,-0.000515440187882632,0.024764563888311386
0.02960788644850254,0.004221644718199968,-0.017029155045747757,0.014512251131236553,-0.0005436858045868576,0.02511267177760601
0.029279809445142746,0.004476530011743307,-0.016932178288698196,0.014548083767294884,-0.0005397979402914643,0.025145459920167923
0.02932749316096306,0.004116520751267672,-0.017404381185770035,0.014913646504282951,-0.0005320506170392036,0.025172675028443336
0.029781024903059006,0.004156199283897877,-0.016924308612942696,0.015371665358543396,-0.0005390526494011283,0.02509816363453865
0.030487461015582085,0.00412911968305707,-0.017002927139401436,0.01533187460154295,-0.0005678028101101518,0.025066664442420006
0.030477117747068405,0.004395748022943735,-0.017668837681412697,0.015623070299625397,-0.0005566072068177164,0.024792706593871117
0.03008994273841381,0.005012037232518196,-0.017130358144640923,0.015209294855594635,-0.0005802065716125071,0.024885021150112152
