davideferrari95/blind_handover_controller/data/Test 85 - [2024-02-07 -- 16-08-02]/joint_states_data.csv
shoulder_pan_joint,shoulder_lift_joint,elbow_joint,wrist_1_joint,wrist_2_joint,wrist_3_joint
0.0026760147884488106,0.0038076143246144056,-0.006420737598091364,0.0024239597842097282,-0.0002599526196718216,0.0027553339023143053
0.0026760147884488106,0.0038076143246144056,-0.006420737598091364,0.0024239597842097282,-0.0002599526196718216,0.0027553339023143053
0.0028448787052184343,0.0039629158563911915,-0.005882000084966421,0.002579717431217432,-0.0002510223421268165,0.0028342262376099825
0.0024875872768461704,0.003911202307790518,-0.005922586657106876,0.002436497714370489,-0.00024283412494696677,0.002924747997894883
0.0024875872768461704,0.003911202307790518,-0.005922586657106876,0.002436497714370489,-0.00024283412494696677,0.002924747997894883
0.002596890553832054,0.003576971124857664,-0.006612706463783979,0.002342335879802704,-0.0003128861135337502,0.002959290985018015
0.002748518018051982,0.003557059448212385,-0.00731263542547822,0.002365266904234886,-0.0002978643460664898,0.002958343829959631
0.00248854816891253,0.0037157158367335796,-0.006197434850037098,0.002404347527772188,-0.0002797135093715042,0.0027912138029932976
0.0026040852535516024,0.003606541082262993,-0.006007782183587551,0.0028456225991249084,-0.00024879418197087944,0.0024902101140469313
0.0024427692405879498,0.0035026944242417812,-0.005943134892731905,0.0029740475583821535,-0.00023575525847263634,0.002400184515863657
0.002531431382521987,0.0037758650723844767,-0.006463916506618261,0.0026580248959362507,-0.00022401536989491433,0.002329242415726185
0.002671309281140566,0.004014624748378992,-0.005742891691625118,0.0023663118481636047,-0.0002133889647666365,0.0024352632462978363
0.0024052271619439125,0.004031275399029255,-0.005700637586414814,0.002038300037384033,-0.00020372658036649227,0.0024775697384029627
0.0024821117985993624,0.003910910803824663,-0.005914968904107809,0.0020409245043992996,-0.00022867598454467952,0.002530269790440798
0.002624710090458393,0.003870034823194146,-0.00581077067181468,0.0021105739288032055,-0.00022382974566426128,0.0027617146261036396
0.0024659689515829086,0.00404743617400527,-0.00631105899810791,0.0021406204905360937,-0.00021521052985917777,0.002786221681162715
0.0025652304757386446,0.003860204014927149,-0.006509246304631233,0.0021459260024130344,-0.00020697966101579368,0.002546504372730851
0.0027707857079803944,0.003527507884427905,-0.0061176433227956295,0.00207497738301754,-0.00019933932344429195,0.002513101091608405
0.002447431907057762,0.003629920305684209,-0.006234744563698769,0.0021775898057967424,-0.00019224158313591033,0.002535846782848239
0.002505086362361908,0.004160241689532995,-0.005774058401584625,0.0021492023952305317,-0.0001856328744906932,0.0024647756945341825
0.0023770697880536318,0.004444536752998829,-0.006069950759410858,0.002162371063604951,-0.00019412564870435745,0.0025869219098240137
0.002284372691065073,0.004190933424979448,-0.006159547716379166,0.0022120352368801832,-0.0002016420039581135,0.002846629824489355
0.0023901304230093956,0.003962614107877016,-0.006129277870059013,0.0021707923151552677,-0.00019625741697382182,0.002780330367386341
0.0025118400808423758,0.004380953498184681,-0.006073955446481705,0.0022363532334566116,-0.00019038448226638138,0.0026493603363633156
0.0024132912512868643,0.004161401651799679,-0.006321911700069904,0.002250154735520482,-0.00018480324069969356,0.0027330995071679354
0.0025063464418053627,0.00436959695070982,-0.005637599620968103,0.00240339245647192,-0.00017953691713046283,0.0028705678414553404
0.0025789118371903896,0.0041819061152637005,-0.0058954451233148575,0.002442947356030345,-0.00017456186469644308,0.0029484769329428673
0.002435065107420087,0.0042098518460989,-0.005626599304378033,0.0023887325078248978,-0.00016985480033326894,0.002863058354705572
0.0024199611507356167,0.004087955690920353,-0.005858895368874073,0.002428151201456785,-0.0001874390000011772,0.002735179616138339
0.0026179146952927113,0.004398663528263569,-0.005955289117991924,0.0022013618145138025,-0.00018408423056825995,0.0025572441518306732
0.0025154659524559975,0.004177636932581663,-0.006001532543450594,0.0021686588879674673,-0.00017958629177883267,0.002469804836437106
0.002833012258633971,0.00428788224235177,-0.005129770375788212,0.002307846676558256,-0.00017522179405204952,0.0026759274769574404
0.0026511054020375013,0.004224843345582485,-0.005313098896294832,0.0023079998791217804,-0.0001710592769086361,0.0028489797841757536
0.002520377282053232,0.004519292619079351,-0.005303355865180492,0.002424171892926097,-0.00016735157987568527,0.002928647678345442
0.002636963501572609,0.0042777759954333305,-0.006044347304850817,0.0022638330701738596,-0.0001471488067181781,0.002773140324279666
0.002636963501572609,0.0042777759954333305,-0.006044347304850817,0.0022638330701738596,-0.0001471488067181781,0.002773140324279666
0.0027969921939074993,0.004194763954728842,-0.0061522056348621845,0.002197143156081438,-0.00014155631652101874,0.002641119761392474
0.0029276064597070217,0.004233298823237419,-0.005865040235221386,0.0022393257822841406,-0.0001371777179883793,0.002337419893592596
0.0027979996521025896,0.0044425539672374725,-0.0051697492599487305,0.002266807947307825,-0.00013311518705449998,0.002203910378739238
0.0029826536774635315,0.004479602444916964,-0.005504423286765814,0.0026337981689721346,-0.00012929023068863899,0.002293739467859268
0.0025336795952171087,0.004432575311511755,-0.006495795212686062,0.0024027058389037848,-0.00014650043158326298,0.0027775713242590427
0.002679615281522274,0.004315381404012442,-0.005913454573601484,0.0021562629844993353,-0.00014282164920587093,0.002771922154352069
0.0028899055905640125,0.004163410514593124,-0.005268947687000036,0.0021216226741671562,-0.0001391539553878829,0.002472513820976019
0.002785119926556945,0.0044263806194067,-0.005285321269184351,0.0021274469327181578,-0.0001356587599730119,0.002329941838979721
0.0027015332598239183,0.004678505472838879,-0.005621087271720171,0.0021276839543133974,-0.00013233399658929557,0.002475170651450753
0.002782562980428338,0.004213598556816578,-0.0057359072379767895,0.002275922568514943,-0.0001451287098461762,0.002655596937984228
0.002848615637049079,0.004413464106619358,-0.0063376715406775475,0.002130064880475402,-0.00014681265747640282,0.002862807596102357
0.0028378325514495373,0.004440234508365393,-0.005590491928160191,0.0020901139359921217,-0.00014379264030139893,0.002887620823457837
0.0028680486138910055,0.0042124162428081036,-0.005289729218930006,0.0021569703239947557,-0.00014060473768040538,0.002692658454179764
0.0029088372830301523,0.0044012777507305145,-0.004999055527150631,0.0021401296835392714,-0.0001375366118736565,0.002623623237013817
0.0030660564079880714,0.004644922912120819,-0.005308452993631363,0.0024849805049598217,-0.00014885977725498378,0.002552165649831295
0.0031294161453843117,0.004421846009790897,-0.005755040794610977,0.0023062480613589287,-0.00015028426423668861,0.002445031888782978
0.003398472210392356,0.004480583127588034,-0.0055056605488061905,0.0023465710692107677,-0.00014750171976629645,0.002282198518514633
0.0032569877803325653,0.004200153984129429,-0.0055270567536354065,0.0023281367029994726,-0.00014455932250712067,0.0024364779237657785
0.0030351108871400356,0.004322117660194635,-0.005187178496271372,0.002308322349563241,-0.0001417154271621257,0.002667382126674056
0.002976583782583475,0.0045055607333779335,-0.005149433389306068,0.0025267736054956913,-0.00013912172289565206,0.002653521951287985
0.0031844479963183403,0.0042248619720339775,-0.005307162646204233,0.0026555792428553104,-0.00019236332445871085,0.0026334200520068407
0.0035773981362581253,0.004492038860917091,-0.00560152530670166,0.0025845582131296396,-0.0001881866919575259,0.0023393493611365557
0.003458160674199462,0.004676418844610453,-0.0054921177215874195,0.0025757874827831984,-0.00018087435455527157,0.002185039920732379
0.0034999309573322535,0.004323079250752926,-0.005559067707508802,0.002354484051465988,-0.00017389943241141737,0.0022580064833164215
0.003281977726146579,0.004422341473400593,-0.005153625272214413,0.0024374406784772873,-0.00018382891721557826,0.002287482377141714
0.003573813010007143,0.004489457700401545,-0.004875245038419962,0.0023918943479657173,-0.00019259157124906778,0.002526315627619624
0.0032426738180220127,0.0045552183873951435,-0.005305254831910133,0.0023680049926042557,-0.00018692552112042904,0.002669266890734434
0.0032426738180220127,0.0045552183873951435,-0.005305254831910133,0.0023680049926042557,-0.00018692552112042904,0.002669266890734434
0.003237671684473753,0.004642483778297901,-0.005446796305477619,0.0025964744854718447,-0.00018073400133289397,0.00258538662455976
0.003267094027251005,0.004346962086856365,-0.005614652298390865,0.0024040963035076857,-0.00017488432058598846,0.002520043170079589
0.003207860514521599,0.0044685541652143,-0.005283564794808626,0.0023119370453059673,-0.00016939782653935254,0.0022412987891584635
0.0035280773881822824,0.004902477376163006,-0.0049461484886705875,0.0021644665393978357,-0.00016424540081061423,0.0021266427356749773
0.0032847183756530285,0.00494194682687521,-0.005127516109496355,0.0021297878120094538,-0.00017243318143300712,0.002080377424135804
0.002861934481188655,0.004357300233095884,-0.005058520007878542,0.0021743958350270987,-0.00017974703223444521,0.0022423528134822845
0.002934392774477601,0.00431964872404933,-0.005323215387761593,0.002138302428647876,-0.0001755379344103858,0.0025570669677108526
0.0030854425858706236,0.00451375637203455,-0.00555306626483798,0.0021166678052395582,-0.0001708298223093152,0.00246039847843349
0.0032682842575013638,0.004529137630015612,-0.005447831470519304,0.0019499682821333408,-0.00016204507846850902,0.0023961560800671577
0.0028476715087890625,0.004334584344178438,-0.005495985504239798,0.002194196218624711,-0.00015798132517375052,0.00230876705609262
0.0026730531826615334,0.004061310552060604,-0.005702348425984383,0.002335134195163846,-0.0001649347977945581,0.002276376588270068
0.0030431963969022036,0.0041342987678945065,-0.005990014877170324,0.0025191749446094036,-0.0001711957884253934,0.0021537726279348135
0.003145557828247547,0.004537719301879406,-0.005535042379051447,0.002220014575868845,-0.00016786943888291717,0.0021238054614514112
0.003444725414738059,0.00427095964550972,-0.00574810616672039,0.002071743831038475,-0.00016408682859037071,0.001998982857912779
0.003257244825363159,0.0044585540890693665,-0.006020645145326853,0.001905574812553823,-0.00016043357027228922,0.00198915577493608
0.003188658505678177,0.004439488053321838,-0.0060759037733078,0.0020328552927821875,-0.0001569366140756756,0.0021568352822214365
0.0032148784957826138,0.004303561057895422,-0.0056254006922245026,0.0020834568422287703,-0.00015358874225057662,0.002108683343976736
0.003438703017309308,0.004319935105741024,-0.005610346328467131,0.002117917640134692,-0.00015038091805763543,0.002075070980936289
0.003219378413632512,0.003974149934947491,-0.006404981017112732,0.0021096887066960335,-0.0001620336843188852,0.002044644905254245
0.00310391653329134,0.0036707452964037657,-0.006371400319039822,0.0020416188053786755,-0.00016123299428727478,0.001947751734405756
0.0033963241148740053,0.0034685619175434113,-0.006312975659966469,0.0021680493373423815,-0.00015597122546751052,0.0019147986313328147
0.0037437123246490955,0.003795652650296688,-0.005610515363514423,0.0021924518514424562,-0.00015076645649969578,0.0017050206661224365
0.0038958678487688303,0.003959018271416426,-0.005681042559444904,0.002401285571977496,-0.00014587963232770562,0.0017299652099609375
0.0033571089152246714,0.003901416203007102,-0.005688067525625229,0.0025663529522717,-0.00014129868941381574,0.001751419622451067
0.003312645247206092,0.004351490642875433,-0.0063612619414925575,0.0023600501008331776,-0.00013699659029953182,0.0018447487382218242
0.0035228203050792217,0.004138213116675615,-0.00660229567438364,0.0023194849491119385,-0.00013294894597493112,0.0018365834839642048
0.003560516983270645,0.003899696981534362,-0.005706158000975847,0.002328012604266405,-0.00012913323007524014,0.001839308300986886
0.0035547076258808374,0.003775559365749359,-0.005676064174622297,0.0022794839460402727,-0.00012553101987577975,0.0017130334163084626
0.0035547076258808374,0.003775559365749359,-0.005676064174622297,0.0022794839460402727,-0.00012553101987577975,0.0017130334163084626
0.0036549922078847885,0.003777135396376252,-0.005661169067025185,0.0025899026077240705,-0.00013411720283329487,0.0016590062296018004
0.003791466820985079,0.0038129249587655067,-0.006425846833735704,0.0026257254648953676,-0.00014186478802002966,0.001623084070160985
0.0038000764325261116,0.003784923581406474,-0.006691837217658758,0.0025424205232411623,-0.00013895044685341418,0.001527091022580862
0.0038842339999973774,0.004125414881855249,-0.006168416701257229,0.0025188173167407513,-0.00013551156735047698,0.0016275837551802397
0.003626856952905655,0.004282402340322733,-0.0057495045475661755,0.0025235668290406466,-0.0001321970921708271,0.0017037270590662956
0.003628297010436654,0.004048158414661884,-0.00604273471981287,0.0024689033161848783,-0.00012903813330922276,0.0017528778407722712
0.003475750098004937,0.0034010442905128,-0.00611704308539629,0.002562612993642688,-0.00012315227650105953,0.0018524504266679287
0.003641400020569563,0.0035196365788578987,-0.006046542432159185,0.002443633507937193,-0.00012040625733789057,0.001715768943540752
0.003826693631708622,0.004285736475139856,-0.006007740274071693,0.002295870566740632,-0.00011777994222939014,0.0017764911754056811
0.0043020392768085,0.004192356951534748,-0.005895769223570824,0.002510014222934842,-0.00011526567686814815,0.0017222745809704065
0.0042097619734704494,0.004020842723548412,-0.006454006303101778,0.0025485889054834843,-0.00011285673099337146,0.001569995773024857
0.0035040038637816906,0.0039427694864571095,-0.005844564642757177,0.0026663364842534065,-0.0001265537430299446,0.0015795507933944464
0.003473137505352497,0.004307774361222982,-0.005845990963280201,0.0026851659640669823,-0.00012622930807992816,0.0015375189250335097
0.0041220230050385,0.00417931005358696,-0.005646389443427324,0.002515294821932912,-0.00012389221228659153,0.001640010392293334
0.00416869530454278,0.003954656887799501,-0.006069720257073641,0.0022483214270323515,-0.00012150775728514418,0.0016505857929587364
0.003985048737376928,0.0038714769762009382,-0.005827637389302254,0.0021839244291186333,-0.00011921222176169977,0.001498706522397697
0.003829797264188528,0.0035584168508648872,-0.005789763294160366,0.0021987012587487698,-0.00011699533934006467,0.00149336492177099
0.004173982888460159,0.003478031838312745,-0.005768429022282362,0.00245880289003253,-0.00011486204311950132,0.0014613058883696795
0.004544446710497141,0.004132326692342758,-0.005860626697540283,0.002533233491703868,-0.0001128054573200643,0.0015260479412972927
0.004146595951169729,0.004167959559708834,-0.00602044677361846,0.002768176607787609,-0.00011082458513556048,0.0015874389791861176
0.004307702649384737,0.0039033666253089905,-0.005904874764382839,0.0028160768561065197,-0.00010890551493503153,0.0017690819222480059
0.004282044246792793,0.003748876042664051,-0.006138876546174288,0.002511189319193363,-0.00010705473687266931,0.001804327592253685
0.00410228269174695,0.003349395003169775,-0.005522498395293951,0.0024067063350230455,-0.00011930821347050369,0.0017916008364409208
0.004139435011893511,0.0035744640044867992,-0.005914689507335424,0.002144954400137067,-0.00011826175614260137,0.001607422367669642
0.004139435011893511,0.0035744640044867992,-0.005914689507335424,0.002144954400137067,-0.00011826175614260137,0.001607422367669642
0.004105607513338327,0.0038668306078761816,-0.005689843092113733,0.002225640695542097,-0.00011641280434560031,0.0015051171649247408
0.004543979186564684,0.003481039311736822,-0.0060695139691233635,0.0022681476548314095,-0.00011456461652414873,0.0012861777795478702
0.004133399110287428,0.00361840333789587,-0.006643732078373432,0.002209354192018509,-0.00011277049634372815,0.0012989959213882685
0.004216495901346207,0.004338533617556095,-0.0057700807228684425,0.0025535558816045523,-0.00011103083670604974,0.0012952012475579977
0.0045519121922552586,0.004203061573207378,-0.005898758769035339,0.0026398312766104937,-0.00010934523743344471,0.0015059992438182235
0.004269727505743504,0.00352723547257483,-0.006022550165653229,0.0025674726348370314,-0.00010770950029836968,0.0017458968795835972
0.004508208949118853,0.003518977900967002,-0.006098632700741291,0.0024672728031873703,-0.00010611909965518862,0.001749666640534997
0.005028067156672478,0.003786245593801141,-0.006597669329494238,0.0024002224672585726,-0.00010458031465532258,0.0016293450025841594
0.003925775643438101,0.003975545987486839,-0.0051770564168691635,0.0026962566189467907,-0.00010151781316380948,0.0010625041322782636
0.00396424625068903,0.0039260489866137505,-0.005860252771526575,0.0026601071003824472,-9.92970381048508e-05,0.00114060181658715
0.004062518011778593,0.004342376720160246,-0.007157428655773401,0.0025329224299639463,-9.715439955471084e-05,0.0012818592367693782
0.004432703834027052,0.004324380308389664,-0.006652466021478176,0.0024231772404164076,-9.510125528322533e-05,0.0018264203099533916
0.00459630973637104,0.004084116313606501,-0.005823592655360699,0.0024007263127714396,-9.313291229773313e-05,0.0017295914003625512
0.004620138090103865,0.0039254468865692616,-0.005355155561119318,0.00236039818264544,-9.124447387875989e-05,0.001515161246061325
0.004606336820870638,0.003847318235784769,-0.005960588343441486,0.0025360919535160065,-8.943107241066173e-05,0.0013631818583235145
0.00476332800462842,0.003862442448735237,-0.006479119416326284,0.0026724019553512335,-8.768840780248865e-05,0.001242778031155467
0.004782692063599825,0.0039718905463814735,-0.006526121869683266,0.0025259186513721943,-8.60123400343582e-05,0.0011823935201391578
0.004759836941957474,0.0040669189766049385,-0.006086842622607946,0.0024930888321250677,-8.439907833235338e-05,0.0010115568293258548
0.004411179106682539,0.004063841421157122,-0.006006348878145218,0.002586504677310586,-8.284521754831076e-05,0.0009705294505693018
0.004464480560272932,0.003905799239873886,-0.006057445891201496,0.0025452401023358107,-8.134770905598998e-05,0.001068938639946282
0.005079110153019428,0.003782161045819521,-0.006666841916739941,0.002915724879130721,-7.990317681105807e-05,0.0012455665273591876
0.004967181943356991,0.0037800646387040615,-0.006559254601597786,0.0026453679893165827,-7.850916881579906e-05,0.0012542158365249634
0.004524556919932365,0.003844863036647439,-0.006361151114106178,0.0025174752809107304,-7.716297841398045e-05,0.0011916995281353593
0.00447296816855669,0.003889590734615922,-0.005812615621834993,0.002488028258085251,-7.586213178001344e-05,0.0011347589315846562
0.00459467526525259,0.003449496114626527,-0.006513838190585375,0.002534466562792659,-7.460434426320717e-05,0.0010055737802758813
0.00459467526525259,0.003449496114626527,-0.006513838190585375,0.002534466562792659,-7.460434426320717e-05,0.0010055737802758813
0.004669646732509136,0.0035432786680758,-0.006588493473827839,0.0027574992273002863,-7.338779687415808e-05,0.0009617217001505196
0.004785110242664814,0.0037307129241526127,-0.006194329354912043,0.0029119146056473255,-7.221009582281113e-05,0.0009504282497800887
0.005060958210378885,0.0037517249584198,-0.006013492587953806,0.002859810134395957,-7.106968405423686e-05,0.0009594846051186323
0.0049920701421797276,0.003671431913971901,-0.006181688047945499,0.002801171038299799,-6.996467709541321e-05,0.001052225474268198
0.004815057385712862,0.0036382332909852266,-0.0071752918884158134,0.0026273555122315884,-6.88936488586478e-05,0.0011287707602605224
0.004641254432499409,0.0036653466522693634,-0.006791882682591677,0.00269537465646863,-6.785478035453707e-05,0.0011352135334163904
0.005019134841859341,0.0033719539642333984,-0.006146965082734823,0.0025810347869992256,-6.684676191071048e-05,0.0011232156539335847
0.004985687788575888,0.0032682442106306553,-0.006554585415869951,0.0029403590597212315,-6.586828385479748e-05,0.0011306835804134607
0.004911838565021753,0.003341753501445055,-0.006776926573365927,0.0029047050047665834,-6.491813837783411e-05,0.0009753059130162001
0.005205163266509771,0.003563479520380497,-0.006563630420714617,0.0027237592730671167,-6.309761374723166e-05,0.0008352576405741274
0.004756453447043896,0.0036120289005339146,-0.006101205945014954,0.002636951394379139,-6.222506635822356e-05,0.0008159889257512987
0.0048436676152050495,0.003676770953461528,-0.006199920549988747,0.002758608665317297,-6.137642048997805e-05,0.0007370011298917234
0.00529673183336854,0.0036983047612011433,-0.007395507302135229,0.0027761952951550484,-6.055050835129805e-05,0.0006871244986541569
0.005229517817497253,0.003833838040009141,-0.0068135508336126804,0.0027351591270416975,-5.974664236418903e-05,0.0007358753937296569
0.005359334405511618,0.003591344691812992,-0.006418757140636444,0.0026189119089394808,-5.896379298064858e-05,0.000755318789742887
0.005209258757531643,0.0035764924250543118,-0.0066206613555550575,0.00277415057644248,-6.832306098658592e-05,0.0009788413299247622
0.00490089226514101,0.003730224212631583,-0.006800138857215643,0.0029526250436902046,-6.885053153382614e-05,0.00113031012006104
0.005286274012178183,0.0037816741969436407,-0.007400856353342533,0.002914681565016508,-6.807388854213059e-05,0.001033359789289534
0.0052361683920025826,0.0037360545247793198,-0.007471196819096804,0.002857653424143791,-6.723234400851652e-05,0.0010015518637374043
0.004984147381037474,0.00371799455024302,-0.006620704662054777,0.0028547905385494232,-6.640597712248564e-05,0.000892257783561945
0.005324329249560833,0.003791696624830365,-0.006456253584474325,0.002806271892040968,-6.559931352967396e-05,0.0008170235669240355
0.005238802637904882,0.0038498351350426674,-0.007382523268461227,0.0029598569963127375,-6.481195305241272e-05,0.0007043504738248885
0.0050933170132339,0.003853724803775549,-0.007111324463039637,0.0031402253080159426,-6.404335726983845e-05,0.0007223790162242949
0.005089942831546068,0.004025325179100037,-0.006686950568109751,0.003019094467163086,-6.329268944682553e-05,0.0006949777598492801
0.00506539735943079,0.00407594395801425,-0.006417302880436182,0.003212321549654007,-6.255943299038336e-05,0.0006676042103208601
0.005717556457966566,0.0039021894335746765,-0.006995426956564188,0.003294566413387656,-6.184302037581801e-05,0.0006697124917991459
0.005717556457966566,0.0039021894335746765,-0.006995426956564188,0.003294566413387656,-6.184302037581801e-05,0.0006697124917991459
0.005320888943970203,0.0036785791162401438,-0.00708191841840744,0.0030354845803231,-6.045824193279259e-05,0.0006099744932726026
0.005320888943970203,0.0036785791162401438,-0.00708191841840744,0.0030354845803231,-6.045824193279259e-05,0.0006099744932726026
0.005448814481496811,0.0042288354597985744,-0.006606642622500658,0.002850576303899288,-5.9788853832287714e-05,0.0006362901767715812
0.005171188153326511,0.004139273893088102,-0.00697571225464344,0.0028955978341400623,-7.701518370595295e-06,0.0005808168789371848
0.005420737434178591,0.004304900765419006,-0.007279246114194393,0.0029118710663169622,-5.028541636420414e-07,0.0006004498573020101
0.005122643895447254,0.0042582349851727486,-0.006961607839912176,0.0033024828881025314,-3.283278005028478e-08,0.0005575400427915156
0.00577233312651515,0.004100427497178316,-0.006775162182748318,0.0032093720510601997,-2.1437460695494792e-09,0.0005127910990267992
0.0054093473590910435,0.004384479019790888,-0.00644670519977808,0.00308545446023345,-1.3997129844067757e-10,0.0004742049495689571
0.005021102726459503,0.004247016739100218,-0.007210598327219486,0.003079323098063469,-9.139126087853722e-12,0.000499565270729363
0.0058132647536695,0.003986609634011984,-0.007239978294819593,0.0032415136229246855,-5.967196138254027e-13,0.0004707112384494394
0.0055889529176056385,0.004134370479732752,-0.0067584821954369545,0.003420172957703471,-3.8961523352205873e-14,0.0004506606492213905
0.0053239064291119576,0.0041237687692046165,-0.006709474138915539,0.0033931643702089787,-2.543909085323654e-15,0.00041909434366971254
0.005602573044598103,0.004520696122199297,-0.006826744880527258,0.003154147882014513,-1.0845083947482716e-17,0.00041485606925562024
0.0053907171823084354,0.004365517292171717,-0.007157756015658379,0.002921532839536667,-7.081063607135825e-19,0.00039296862087212503
0.0057852063328027725,0.004039660096168518,-0.006570376921445131,0.003076060675084591,-4.623428452402261e-20,0.0003668046265374869
0.005704349838197231,0.0038577518425881863,-0.00704329926520586,0.003251978661864996,-3.0187685844277818e-21,0.00034349478664807975
0.005967276636511087,0.004275914281606674,-0.006976560689508915,0.003538975026458502,-1.97104028472053e-22,0.0003694878541864455
0.005612590350210667,0.0041963523253798485,-0.006786024197936058,0.0038066499400883913,-1.2869483907523734e-23,0.0003550237452145666
0.005786048248410225,0.0039949421770870686,-0.007093127816915512,0.0038915732875466347,-8.402853671257854e-25,0.00033647206146270037
0.006469741929322481,0.003922160714864731,-0.007009696215391159,0.0038998564705252647,-5.486462268268423e-26,0.00031943299109116197
0.006134889088571072,0.004208193626254797,-0.007322291377931833,0.0034878153819590807,-3.5822682151591464e-27,0.0003040151786990464
0.006248881109058857,0.004054210614413023,-0.00718421395868063,0.003544471925124526,-2.3389651210017655e-28,0.0002900162944570184
0.0063543980941176414,0.004285732284188271,-0.006719374563544989,0.0037128867115825415,-1.5271771332210728e-29,0.000277250335784629
0.006277013570070267,0.004144166596233845,-0.006793685257434845,0.003771383548155427,-9.971376274070505e-31,0.000298438681056723
0.006409068126231432,0.004018914420157671,-0.007227414287626743,0.004205561708658934,-6.510595950200199e-32,0.0002908895257860422
0.006187670398503542,0.004321490880101919,-0.006838672328740358,0.0037240043748170137,-4.25095381253207e-33,0.00027987599605694413
0.006110374350100756,0.004352657124400139,-0.006713128183037043,0.0035432269796729088,-2.775569455144412e-34,0.0002694206777960062
0.006087742280215025,0.004602788481861353,-0.006955244578421116,0.0036482615396380424,-1.812248534307404e-35,0.0002597026468720287
0.006640473380684853,0.004068857990205288,-0.0069652427919209,0.004017519298940897,-1.1832687995439125e-36,0.0002506605233065784
0.006790175102651119,0.003308114828541875,-0.00737762451171875,0.004199193790555,-7.725899895549332e-38,0.00024222678621299565
0.00649552047252655,0.003493774915114045,-0.006881253328174353,0.003863402409479022,-5.0444600729043e-39,0.00023434188915416598
0.00649552047252655,0.003493774915114045,-0.006881253328174353,0.003863402409479022,-5.0444600729043e-39,0.00023434188915416598
0.006123851053416729,0.0038037141785025597,-0.006654494907706976,0.003523076418787241,-3.293667962487623e-40,0.00022695426014252007
0.006591842509806156,0.004320475272834301,-0.006774825509637594,0.0036256597377359867,-2.1505727531992968e-41,0.00022001877368893474
0.00629867659881711,0.004009411670267582,-0.007067739497870207,0.004200631286948919,-2.8847114663221873e-05,0.00020734530698973686
0.00629867659881711,0.004009411670267582,-0.007067739497870207,0.004200631286948919,-2.8847114663221873e-05,0.00020734530698973686
0.006238450296223164,0.004025076981633902,-0.0066572618670761585,0.004152975976467133,-5.433931073639542e-05,0.0002015410573221743
0.006508735008537769,0.003593113739043474,-0.0072543504647910595,0.0035966162104159594,-5.535766467801295e-05,0.00019605291890911758
0.006484529003500938,0.0035594082437455654,-0.00771294254809618,0.0035678136628121138,-5.4793756135040894e-05,0.00017014237528201193
0.0068596843630075455,0.003973562736064196,-0.006714999210089445,0.003728636307641864,-5.414171755546704e-05,0.00016289122868329287
0.006317160092294216,0.004053691867738962,-0.006942459847778082,0.003819224191829562,-5.287001476972364e-05,0.00015469687059521675
0.006072492804378271,0.0038414616137742996,-0.007370770443230867,0.0038666599430143833,-5.225610948400572e-05,0.0001509886933490634
0.00658948952332139,0.0038392699789255857,-0.007047335617244244,0.003949803300201893,-5.165623952052556e-05,0.00014745436783414334
0.00678741792216897,0.004135237541049719,-0.006867360323667526,0.003968450240790844,-5.107000833959319e-05,0.0001440819469280541
0.006872622296214104,0.004045113455504179,-0.007441973779350519,0.003933608997613192,-5.049693209002726e-05,0.0001408606331096962
0.006680360063910484,0.00382802402600646,-0.006921987049281597,0.003841675817966461,-4.993659968022257e-05,0.00013777984713669866
0.007532209623605013,0.003770026843994856,-0.007161322049796581,0.0037557745818048716,-1.4575426575902384e-05,0.00013483090151567012
0.006898451596498489,0.004281485453248024,-0.0069871991872787476,0.003940841183066368,-9.51671211169014e-07,0.0001320057490374893
0.007011376786977053,0.00407425919547677,-0.006522346753627062,0.004170748870819807,-6.2137324619016e-08,0.00012929666263516992
0.006877512205392122,0.003947441466152668,-0.006679827813059092,0.0040899585001170635,-4.0571235260244976e-09,5.558996053878218e-05
0.007022516336292028,0.003975029103457928,-0.007628896273672581,0.0039559630677104,-2.6490118432143106e-10,4.4478565541794524e-05
0.007385134696960449,0.003998450469225645,-0.0071215322241187096,0.003893079236149788,-1.7296154092294458e-11,4.278478445485234e-05
0.007268510293215513,0.0040166559629142284,-0.0071504912339150906,0.003898471826687455,-1.12931528278154e-12,4.1750823584152386e-05
0.007076561916619539,0.003997997846454382,-0.007003880571573973,0.004126963671296835,-7.373622383250594e-14,2.5673543859738857e-05
0.0067435665987432,0.003985709510743618,-0.007651848252862692,0.004441494587808847,-4.8144484513163496e-15,2.029282222792972e-05
0.007515604142099619,0.003998209722340107,-0.006982638034969568,0.004255454055964947,-3.1434909390978263e-16,1.9538467313395813e-05
0.007648158818483353,0.003994249273091555,-0.006590594071894884,0.0039896052330732346,-2.0524748166855795e-17,1.910319406306371e-05
0.007648158818483353,0.003994249273091555,-0.006590594071894884,0.0039896052330732346,-2.0524748166855795e-17,1.910319406306371e-05
0.006807564292103052,0.004000124521553516,-0.006833537947386503,0.0038871646393090487,-1.3401193429026463e-18,9.50454796111444e-06
0.0063374219462275505,0.004364434629678726,-0.007576905656605959,0.00427910266444087,-8.750021855867057e-20,6.205791009961104e-07
0.006847068667411804,0.004310100805014372,-0.007119862362742424,0.004197954665869474,-5.713138985376644e-21,4.051938162774604e-08
0.007253133226186037,0.004030042327940464,-0.006843076553195715,0.003920321818441153,-3.7302712901714734e-22,2.645625718500355e-09
0.00710268784314394,0.003848353633657098,-0.006682190578430891,0.003852919675409794,-2.435600787349546e-23,1.727404608242722e-10
0.007168101612478495,0.004132586531341076,-0.007480202242732048,0.0037945774383842945,-1.5902733763049951e-24,1.1278718410612232e-11
0.006998901255428791,0.0042612492106854916,-0.006905458867549896,0.004145679529756308,-1.038334838490213e-25,7.364197142714635e-13
0.00733972666785121,0.0040778471156954765,-0.006606990937143564,0.0041665625758469105,-6.779583864150105e-27,4.8082946722512523e-14
0.007376356516033411,0.003933361731469631,-0.006811561994254589,0.004381644073873758,-4.426583865716358e-28,-0.0002125848113792017
0.007239445112645626,0.003940942231565714,-0.007543595507740974,0.0042716884054243565,-2.890243067541925e-29,-0.000837656669318676
0.00812201201915741,0.0039977384731173515,-0.007309803273528814,0.00405197823420167,-1.2321558821689287e-31,-0.0007675207452848554
0.007785305380821228,0.004199562128633261,-0.007096118293702602,0.003914802335202694,-8.045098030707121e-33,-0.0006724767736159265
0.007546271197497845,0.004106646869331598,-0.007406139280647039,0.0041640568524599075,-5.252874667511938e-34,-0.000597911945078522
0.007704725489020348,0.003789772279560566,-0.008267533965408802,0.004743088502436876,-3.4297521503917994e-35,-0.0006214192253537476
0.007760107982903719,0.003583368146792054,-0.007871330715715885,0.004460211843252182,-2.2393829244455247e-36,-0.0006302449037320912
0.007627443410456181,0.0036674088332802057,-0.00772514333948493,0.004373556934297085,-1.462156968734321e-37,-0.0005863954429514706
0.007420722860842943,0.004247343633323908,-0.007910976186394691,0.004471407737582922,-9.546840446570723e-39,-0.0006493836990557611
0.00806154403835535,0.004136860370635986,-0.008195123635232449,0.0042876796796917915,-6.233409971840727e-40,-0.0007060060743242502
0.008205953054130077,0.003969727549701929,-0.008030298165977001,0.004454218316823244,-4.0699312597849987e-41,-0.0014623772585764527
0.00827737431973219,0.0039518955163657665,-0.007578569930046797,0.004186724778264761,-9.491467790212482e-05,-0.001451867981813848
0.008358664810657501,0.0039594233967363834,-0.008137227036058903,0.004406705964356661,-0.00010187803854933009,-0.001365666394121945
0.008039319887757301,0.003938901703804731,-0.008787333033978939,0.0046670869924128056,-0.00010020440822700039,-0.001219927566125989
0.008226968348026276,0.003881510579958558,-0.008071298711001873,0.004649085458368063,-9.805974696064368e-05,-0.0011162548325955868
0.008177638053894043,0.0038479501381516457,-0.007690879516303539,0.004214598797261715,-9.597092866897583e-05,-0.0010752580128610134
0.008376048877835274,0.0033650854602456093,-0.008155847899615765,0.0044479588977992535,-0.00010320999717805535,-0.0010485841194167733
0.008608202449977398,0.003336213529109955,-0.006778140086680651,0.004188466351479292,-0.00010983031097566709,-0.000966785300988704
0.007879980839788914,0.0036193605046719313,-0.00803874060511589,0.004348460119217634,-0.00010819919407367706,-0.0010776869021356106
0.007974955253303051,0.0037977343890815973,-0.008729295805096626,0.004227574449032545,-0.00010611034667817876,-0.0015789336757734418
0.007974955253303051,0.0037977343890815973,-0.008729295805096626,0.004227574449032545,-0.00010611034667817876,-0.0015789336757734418
0.008929233998060226,0.0035269875079393387,-0.008011097088456154,0.0045708646066486835,-0.00010210020991507918,-0.002212272025644779
0.008929233998060226,0.0035269875079393387,-0.008011097088456154,0.0045708646066486835,-0.00010210020991507918,-0.002212272025644779
0.008024564012885094,0.0034830558579415083,-0.0076064481399953365,0.004697189666330814,-0.00010020551417255774,-0.0020483587868511677
0.00799720548093319,0.0036470370832830667,-0.008558233268558979,0.00444146478548646,-9.837997640715912e-05,-0.0017157109687104821
0.008366517722606659,0.0036861347034573555,-0.008565549738705158,0.004033166449517012,-9.661971853347495e-05,-0.0014692152617499232
0.008652112446725368,0.0035319540183991194,-0.007897267118096352,0.00425409059971571,-9.492121171206236e-05,-0.0014601257862523198
0.008420047350227833,0.0035098623484373093,-0.007739885710179806,0.004545942880213261,-0.00010482114885235205,-0.001370065612718463
0.00862895604223013,0.0036191586405038834,-0.008574928157031536,0.004883093293756247,-0.00010671878408174962,-0.001411366742104292
0.00872904434800148,0.003526432439684868,-0.008379397913813591,0.004873333033174276,-0.00010517716873437166,-0.0014016375644132495
0.008404686115682125,0.0035618981346488,-0.008231396786868572,0.004698215983808041,-0.00010346541967010126,-0.0016123978421092033
0.008868730627000332,0.003650611499324441,-0.008362792432308197,0.004583385307341814,-0.0001125904600485228,-0.0018199810292571783
0.008773565292358398,0.003918367438018322,-0.008153892122209072,0.005108477547764778,-0.00011424229887779802,-0.0019762448500841856
0.008717737160623074,0.003734814003109932,-0.007824218831956387,0.0052176122553646564,-0.0001126791539718397,-0.0020849083084613085
0.008739706128835678,0.0032205991446971893,-0.008484325371682644,0.004778960719704628,-0.00010927421681117266,-0.0031403349712491035
0.00923673715442419,0.0035959742963314056,-0.008198712952435017,0.004533341620117426,-0.0001076405678759329,-0.0033355411142110825
0.008608628995716572,0.0042022294364869595,-0.007968544028699398,0.00483278464525938,-0.00010605515853967518,-0.002848976291716099
0.008957465179264545,0.004297909326851368,-0.008463487029075623,0.0049644531682133675,-0.00010467188258189708,-0.0027105542831122875
0.009363298304378986,0.00402801763266325,-0.008411591872572899,0.005644029937684536,-0.00015849874762352556,-0.0026266598142683506
0.00898872409015894,0.0036298257764428854,-0.008234761655330658,0.005539026577025652,-0.00015673508460167795,-0.0027392234187573195
0.009366923943161964,0.0035114760976284742,-0.0082485880702734,0.005358499474823475,-0.0001516965712653473,-0.002685421146452427
0.009393963031470776,0.003640409093350172,-0.008950658142566681,0.005151283461600542,-0.00014676444698125124,-0.002977305091917515
0.009029246866703033,0.0037159707862883806,-0.008355285972356796,0.005292962305247784,-0.00014212944370228797,-0.0030119779985398054
0.00909430906176567,0.0037125779781490564,-0.008182257413864136,0.005454254802316427,-0.00013777753338217735,-0.002709542401134968
0.009440343827009201,0.004246976692229509,-0.008773398585617542,0.0055494485422968864,-0.00015862176951486617,-0.0026801328640431166
0.009201527573168278,0.004224651493132114,-0.008730624802410603,0.005737472325563431,-0.0001556748611619696,-0.0027149906381964684
0.0090072276070714,0.004027532413601875,-0.008154008537530899,0.0054727401584386826,-0.0001514159666839987,-0.0028212624602019787
0.009396784007549286,0.0039917766116559505,-0.00807272456586361,0.005136552266776562,-0.00014729227405041456,-0.002869103802368045
0.009439187124371529,0.004026421811431646,-0.008729692548513412,0.004938219673931599,-0.0001433817233191803,-0.0029587522149086
0.009851653128862381,0.003997818101197481,-0.008235055953264236,0.005110275465995073,-0.00013967287668492645,-0.0032006283290684223
0.00984200369566679,0.0035166258458048105,-0.007810142822563648,0.005572872702032328,-0.00015297014033421874,-0.0034086431842297316
0.00984200369566679,0.0035166258458048105,-0.007810142822563648,0.005572872702032328,-0.00015297014033421874,-0.0034086431842297316
0.009010388515889645,0.004262392409145832,-0.0085018090903759,0.0056177363730967045,-0.00015119226009119302,-0.0030527825001627207
0.009010388515889645,0.004262392409145832,-0.0085018090903759,0.0056177363730967045,-0.00015119226009119302,-0.0030527825001627207
0.009683387354016304,0.004206008743494749,-0.008046089671552181,0.0053060599602758884,-0.00014767087122891098,-0.0029715781565755606
0.010095220059156418,0.0038866084069013596,-0.007990289479494095,0.005306195467710495,-0.00014429040311370045,-0.003054959001019597
0.00969750713557005,0.0036718319170176983,-0.009271781891584396,0.005337017588317394,-0.00014105933951213956,-0.003407479031011462
0.009914770722389221,0.0038294822443276644,-0.008679709397256374,0.005600507836788893,-0.00013797005522064865,-0.0036479171831160784
0.01002425979822874,0.003846460022032261,-0.008302566595375538,0.005575948394834995,-0.00015176861779764295,-0.003469231305643916
0.009480861946940422,0.003586338832974434,-0.009134992957115173,0.0055231377482414246,-0.00015089807857293636,-0.0030366932041943073
0.010062620975077152,0.0035451450385153294,-0.008778524585068226,0.005309524945914745,-0.00014794799790252,-0.003232298418879509
0.009902711026370525,0.0037876409478485584,-0.00899981614202261,0.005737935192883015,-0.00014211787492968142,-0.003449980868026614
0.01009785383939743,0.0040649231523275375,-0.008882236666977406,0.006506210658699274,-0.00013936689356341958,-0.003661877941340208
0.010438208468258381,0.004092071671038866,-0.008957729674875736,0.005800621118396521,-0.00016829551896080375,-0.0038312573451548815
0.009992157109081745,0.004260349553078413,-0.008590017445385456,0.00533934636041522,-0.0001666637690505013,-0.0039094239473342896
0.010503268800675869,0.0035950802266597748,-0.009483059868216515,0.0055612437427043915,-0.0001610010367585346,-0.003956867381930351
0.010127807967364788,0.003373559098690748,-0.009333985857665539,0.005648540798574686,-0.00015545774658676237,-0.003562560072168708
0.010429845191538334,0.0034868724178522825,-0.008576065301895142,0.0057413335889577866,-0.0001502673258073628,-0.0035299009177833796
0.010240158997476101,0.003832501359283924,-0.00945583451539278,0.005465125199407339,-0.00014541133714374155,-0.004166926257312298
0.010252105072140694,0.0044194431975483894,-0.009308870881795883,0.00559400487691164,-0.0001671319332672283,-0.0045334696769714355
0.010120168328285217,0.0041491324082016945,-0.009414469823241234,0.005276761017739773,-0.00016377570864278823,-0.004139136988669634
0.010387333109974861,0.0035172440111637115,-0.009611315093934536,0.005594735033810139,-0.00015906340559013188,-0.003899955889210105
0.01010789256542921,0.0033351737074553967,-0.009435957297682762,0.0057882219552993774,-0.000154518784256652,-0.0034974205773323774
0.009921145625412464,0.0033292481675744057,-0.008942404761910439,0.005741704721003771,-0.00016876855806913227,-0.0038444180972874165
0.010419730097055435,0.003395135048776865,-0.009104414843022823,0.0054208217188715935,-0.00017008977010846138,-0.004151348024606705
0.0100819431245327,0.0035835010930895805,-0.010004737414419651,0.005564284976571798,-0.0001659919071244076,-0.004100642167031765
0.0100819431245327,0.0035835010930895805,-0.010004737414419651,0.005564284976571798,-0.0001659919071244076,-0.004100642167031765
0.010033964179456234,0.003340932074934244,-0.009834707714617252,0.005274730268865824,-0.00016175501514226198,-0.0043870434165000916
0.010678466409444809,0.0035894582979381084,-0.009583845734596252,0.005939927417784929,-0.0001577073271619156,-0.00419627083465457
0.00988547969609499,0.004172122571617365,-0.009949322789907455,0.00627895025536418,-0.00017294268764089793,-0.003769165836274624
0.01012774370610714,0.0041880239732563496,-0.009577780961990356,0.005949589889496565,-0.00017145455058198422,-0.0035017593763768673
0.010570655576884747,0.0035861264914274216,-0.009601153433322906,0.005660846829414368,-0.00016763393068686128,-0.004112211987376213
0.009919501841068268,0.0035144032444804907,-0.010232965461909771,0.005727642681449652,-0.00016383077309001237,-0.004133895039558411
0.010720375925302505,0.0037884630728513002,-0.010196933522820473,0.006279353518038988,-0.00016018643509596586,-0.004193832166492939
0.010259266942739487,0.0034834977705031633,-0.009312016889452934,0.006168092601001263,-0.0002019728417508304,-0.004109809175133705
0.009778504259884357,0.0035491264425218105,-0.0097233010455966,0.005392231047153473,-0.00020747915550600737,-0.0038891115691512823
0.010120268911123276,0.004246814642101526,-0.010282007046043873,0.005577822681516409,-0.00019086954125668854,-0.0038014373276382685
0.010999816469848156,0.004067189991474152,-0.010055615566670895,0.00615681754425168,-0.0001831057306844741,-0.004638658836483955
0.010421364568173885,0.003923491574823856,-0.009688286110758781,0.006254302337765694,-0.00017594532982911915,-0.004930858965963125
0.010709024965763092,0.003868412459269166,-0.009778574109077454,0.006044681183993816,-0.00016932355356402695,-0.004447398707270622
0.01032000221312046,0.0038643472362309694,-0.01040145754814148,0.005432879086583853,-0.00018732540775090456,-0.004473329056054354
0.010557628236711025,0.003389223711565137,-0.00970365945249796,0.005825538653880358,-0.00018841135897673666,-0.00446934811770916
0.0102383429184556,0.003498209174722433,-0.010266688652336597,0.00675049377605319,-0.00018253993766847998,-0.004587442614138126
0.010496281087398529,0.0037187908310443163,-0.009951680898666382,0.00644889660179615,-0.0001766021450748667,-0.004707507789134979
0.010715475305914879,0.004415867384523153,-0.009616371244192123,0.006260873284190893,-0.00017101067351177335,-0.004599962383508682
0.010860346257686615,0.004751869942992926,-0.010341089218854904,0.005986548960208893,-0.00017931328329723328,-0.004835117142647505
0.011096811853349209,0.00434354692697525,-0.010427147150039673,0.0063670482486486435,-0.00018670885765459388,-0.004807780031114817
0.011134786531329155,0.004003127105534077,-0.009731307625770569,0.006998194381594658,-0.00018214112787973136,-0.004809951409697533
0.011133557185530663,0.003898141672834754,-0.010311785154044628,0.006929711438715458,-0.00017707525694277138,-0.004730011336505413
0.01105887908488512,0.003953668754547834,-0.009851709008216858,0.006283782888203859,-0.00017223769100382924,-0.004964172374457121
0.01071130856871605,0.003997605759650469,-0.009819773025810719,0.006076738238334656,-0.0001884477533167228,-0.004983867518603802
0.01094169169664383,0.003532323520630598,-0.010197564959526062,0.006208119913935661,-0.00018643130897544324,-0.004799364134669304
0.011262841522693634,0.004061007872223854,-0.010145819745957851,0.0065903617069125175,-0.00018190828268416226,-0.0046049789525568485
0.011170289479196072,0.004213701467961073,-0.009413852356374264,0.006588117219507694,-0.00017743711941875517,-0.004614545963704586
0.011697795242071152,0.004293808247894049,-0.010562075302004814,0.006291650701314211,-0.00017317004676442593,-0.004754395689815283
0.013175911270081997,0.003907166887074709,-0.010207029990851879,0.0061391545459628105,-0.00016910272825043648,-0.005061674863100052
0.013862880878150463,0.0036185027565807104,-0.009827401489019394,0.006496069487184286,-0.00016533506277482957,-0.004990460351109505
0.013862880878150463,0.0036185027565807104,-0.009827401489019394,0.006496069487184286,-0.00016533506277482957,-0.004990460351109505
0.013202582485973835,0.003552547190338373,-0.010207949206233025,0.007209114730358124,-0.00018287214334122837,-0.005024875048547983
0.012880251742899418,0.0034690399188548326,-0.01002756878733635,0.006720714271068573,-0.00017725299403537065,-0.005043101962655783
0.0127304308116436,0.00358341122046113,-0.009537521749734879,0.006406217347830534,-0.00017063456471078098,-0.005376988090574741
0.012894590385258198,0.003984060604125261,-0.010236917063593864,0.006279618479311466,-0.00016440657782368362,-0.005061614792793989
0.013220937922596931,0.004588104784488678,-0.009481431916356087,0.007017877418547869,-0.00015861117572057992,-0.005188019014894962
0.012365216389298439,0.0041694073006510735,-0.010610965080559254,0.006850712466984987,-0.00017979017866309732,-0.005257743410766125
0.0129976412281394,0.003383663948625326,-0.009554554708302021,0.006586604751646519,-0.00017211287922691554,-0.0055914828553795815
0.013466939330101013,0.003415132872760296,-0.009989593178033829,0.006871057208627462,-0.00016681116539984941,-0.0055056726559996605
0.013458875007927418,0.0036660016048699617,-0.010432588867843151,0.0069267526268959045,-0.00016181333921849728,-0.005326217506080866
0.013645105995237827,0.0037113120779395103,-0.009776515886187553,0.006495831999927759,-0.00015710516890976578,-0.005350311752408743
0.012799873016774654,0.004177663940936327,-0.010177784599363804,0.006409452762454748,-0.00017474923515692353,-0.0055167777463793755
0.013650055974721909,0.004119321703910828,-0.010355672799050808,0.0062675997614860535,-0.00017299067985732108,-0.005242960061877966
0.013873275369405746,0.003884953912347555,-0.009921894408762455,0.006921609863638878,-0.000168560552992858,-0.0056326198391616344
0.013714605942368507,0.0041239443235099316,-0.010441524907946587,0.006776788271963596,-0.00016418063023593277,-0.005438380874693394
0.014325092546641827,0.004231570288538933,-0.011109109036624432,0.006856774445623159,-0.00016001123003661633,-0.0056972443126142025
0.0138022406026721,0.0035675878170877695,-0.01006307452917099,0.006731465458869934,-0.00016699996194802225,-0.0055186026729643345
0.014081886038184166,0.0035307917278259993,-0.010088073089718819,0.006899117026478052,-0.00017328900867141783,-0.00579754076898098
0.015291835181415081,0.0036843232810497284,-0.010107877664268017,0.006843584589660168,-0.00016987383423838764,-0.005954749416559935
0.013781385496258736,0.0038436956238001585,-0.010502960532903671,0.007047547493129969,-0.0001660010893829167,-0.006064278073608875
0.013089869171380997,0.0038978003431111574,-0.010299530811607838,0.0068817222490906715,-0.00018837022071238607,-0.005855500232428312
0.01404307596385479,0.004373976960778236,-0.010516280308365822,0.006921753287315369,-0.0002046239678747952,-0.005988841410726309
0.01384581346064806,0.0041546993888914585,-0.009796001017093658,0.0072132982313632965,-0.000197274872334674,-0.0060449084267020226
0.014292359352111816,0.0034696452785283327,-0.01006197091192007,0.007107867393642664,-0.00018908966740127653,-0.005894393194466829
0.013965519145131111,0.003498885314911604,-0.009913519024848938,0.006764259655028582,-0.00018146958609577268,-0.006015761289745569
0.014499819837510586,0.0036746261175721884,-0.00935019738972187,0.006787363905459642,-0.0002069518668577075,-0.005496724974364042
0.014082401059567928,0.0038072147872298956,-0.010199777781963348,0.007269390858709812,-0.00020135434169787914,-0.00595993222668767
0.014754189178347588,0.0033693257719278336,-0.010273000225424767,0.007015138398855925,-0.00019424855418037623,-0.0064055719412863255
0.014754189178347588,0.0033693257719278336,-0.010273000225424767,0.007015138398855925,-0.00019424855418037623,-0.0064055719412863255
0.013977166265249252,0.003394918981939554,-0.01087416522204876,0.00674440385773778,-0.00021063660096842796,-0.006336878519505262
0.01459180936217308,0.003649621969088912,-0.010428574867546558,0.006742029916495085,-0.0002108914195559919,-0.00624427106231451
0.014309418387711048,0.004267723299562931,-0.009656433016061783,0.006907951552420855,-0.00020452187163755298,-0.005759578663855791
0.014629350043833256,0.003604058874770999,-0.009862998500466347,0.007222652900964022,-0.00021200206538196653,-0.005786808207631111
0.01422941219061613,0.003356205066666007,-0.010939015075564384,0.007298843469470739,-0.00021858004038222134,-0.006032884586602449
0.015062985941767693,0.003313143039122224,-0.010063126683235168,0.007004366256296635,-0.00021296512568369508,-0.006145273335278034
0.014758649282157421,0.003679676214233041,-0.010123888961970806,0.008002451620995998,-0.0002820485970005393,-0.005619907286018133
0.014321273192763329,0.0038287085480988026,-0.009840796701610088,0.008167168125510216,-0.00027647585375234485,-0.005814794450998306
0.014903844334185123,0.0038757731672376394,-0.009930620901286602,0.007656307425349951,-0.00026119296671822667,-0.006446024402976036
0.014667803421616554,0.003488346002995968,-0.010431899689137936,0.007517429068684578,-0.0002833131584338844,-0.007026311010122299
0.01497320830821991,0.003578528296202421,-0.009760777465999126,0.007986413314938545,-0.0002800270158331841,-0.006856181658804417
0.014397531747817993,0.003704866161569953,-0.009760749526321888,0.007773629389703274,-0.0002669284294825047,-0.006129513960331678
0.014893431216478348,0.003317288588732481,-0.01046338677406311,0.008048214949667454,-0.0002543976006563753,-0.006393187213689089
0.014816364273428917,0.003535341704264283,-0.009494950994849205,0.007974520325660706,-0.0002780306967906654,-0.006561296992003918
0.01509095635265112,0.0033180182799696922,-0.00972584169358015,0.008051463402807713,-0.00027088558999821544,-0.006747014354914427
0.014749797992408276,0.0032882336527109146,-0.010138261131942272,0.007972129620611668,-0.00026001769583672285,-0.006394342519342899
0.01513515505939722,0.0033622593618929386,-0.009695550426840782,0.00845762062817812,-0.000249729142524302,-0.006590472534298897
0.01488911546766758,0.0034983467776328325,-0.010294927284121513,0.00854363851249218,-0.0002402071258984506,-0.006571080535650253
0.01492599118500948,0.003491588169708848,-0.009832712821662426,0.00818233285099268,-0.00023138397955335677,-0.006585977505892515
0.01540375780314207,0.0036253645084798336,-0.009532277472317219,0.008336128666996956,-0.00022318545961752534,-0.006595767568796873
0.015207203105092049,0.0037099618930369616,-0.010316615924239159,0.008596840314567089,-0.00021554890554398298,-0.006551862228661776
0.014916164800524712,0.0037166818510740995,-0.010495040565729141,0.0083609065040946,-0.0002084165607811883,-0.006448434665799141
0.015154878608882427,0.0037322882562875748,-0.009993228130042553,0.007907286286354065,-0.00020174217934254557,-0.006181657314300537
0.015326053835451603,0.0037862956523895264,-0.010648306459188461,0.007586401887238026,-0.0002197145950049162,-0.006593370344489813
0.0150857362896204,0.0036107013002038,-0.010233866050839424,0.008313859812915325,-0.00021644232037942857,-0.006954368203878403
0.015543587505817413,0.0035160742700099945,-0.010036577470600605,0.008043083362281322,-0.00021033677330706269,-0.007183902896940708
0.015329371206462383,0.003617661539465189,-0.01045454852283001,0.008060458116233349,-0.00020438017963897437,-0.006917341146618128
0.015488612465560436,0.004116808995604515,-0.010254129767417908,0.00824323296546936,-0.00019873928977176547,-0.006732892245054245
0.01517422217875719,0.0042421855032444,-0.009925086982548237,0.008225278928875923,-0.00019340039580129087,-0.007057450711727142
0.01517422217875719,0.0042421855032444,-0.009925086982548237,0.008225278928875923,-0.00019340039580129087,-0.007057450711727142
0.015743842348456383,0.004032754339277744,-0.011777302250266075,0.008434444665908813,-0.00018863531295210123,-0.0074478210881352425
0.01537777204066515,0.0038018219638615847,-0.010440221056342125,0.00833852868527174,-0.00018191724666394293,-0.007567531894892454
0.015725597739219666,0.0037760816048830748,-0.010351079516112804,0.008428368717432022,-0.0001749049115460366,-0.006994821131229401
0.015612956136465073,0.003831851063296199,-0.010368612594902515,0.008257600478827953,-0.00016836379654705524,-0.006731731351464987
0.015568728558719158,0.0040600476786494255,-0.010868311859667301,0.008958897553384304,-0.000156641224748455,-0.00636568758636713
0.015579991973936558,0.00401576841250062,-0.010930974967777729,0.008226159028708935,-0.00017377700714860111,-0.005800633691251278
0.015617908909916878,0.0038310550153255463,-0.010204069316387177,0.008218239061534405,-0.00017521984409540892,-0.005721468944102526
0.015173744410276413,0.003777679754421115,-0.01136576198041439,0.008780334144830704,-0.00019116190378554165,-0.00561900669708848
0.01578979380428791,0.004247502889484167,-0.011865153908729553,0.008807646110653877,-0.0001920095382956788,-0.005680746398866177
0.015748240053653717,0.00413585314527154,-0.011987773701548576,0.00834037084132433,-0.00018675322644412518,-0.00575738400220871
0.016347097232937813,0.0040183295495808125,-0.011616013012826443,0.00808440800756216,-0.0001941229566000402,-0.005636047571897507
0.015936514362692833,0.0035077764187008142,-0.01106298714876175,0.00882540550082922,-0.00020065656281076372,-0.005776496138423681
0.016022756695747375,0.004008897580206394,-0.011871607042849064,0.009179518558084965,-0.0001959750516107306,-0.006293958984315395
0.015662701800465584,0.004131858237087727,-0.012057885527610779,0.008624538779258728,-0.00030561737366952,-0.006351724732667208
0.015680212527513504,0.004382328130304813,-0.012173515744507313,0.008511497639119625,-0.00030167141812853515,-0.006411947309970856
0.01604563184082508,0.004236826207488775,-0.012115933001041412,0.008796587586402893,-0.00028372753877192736,-0.0062734205275774
0.01616140827536583,0.00397529499605298,-0.012841431424021721,0.008923357352614403,-0.0002669573586899787,-0.006895494181662798
0.0160432867705822,0.0039044730365276337,-0.012889918871223927,0.008462763391435146,-0.0002989210479427129,-0.00704532815143466
0.016001706942915916,0.0043409946374595165,-0.012403632514178753,0.009334706701338291,-0.00028613832546398044,-0.006946436129510403
0.0158435869961977,0.0041967094875872135,-0.012988901697099209,0.008515560999512672,-0.00031413050601258874,-0.006664440035820007
0.015383408404886723,0.0039963326416909695,-0.012560972012579441,0.007934248074889183,-0.0003229122667107731,-0.006350259762257338
0.01631850376725197,0.003947910852730274,-0.01245953980833292,0.008163854479789734,-0.0003279440279584378,-0.006548631936311722
0.01612973026931286,0.0038534156046807766,-0.011837962083518505,0.008947836235165596,-0.0003148898540530354,-0.006674810778349638
0.01654701493680477,0.0037595184985548258,-0.012113132514059544,0.008455987088382244,-0.0004069106944371015,-0.0069262320175766945
0.016204124316573143,0.003665846772491932,-0.012724404223263264,0.00854785181581974,-0.0003876764967571944,-0.006931554060429335
0.015914645045995712,0.003953282721340656,-0.011894595809280872,0.00908789224922657,-0.00041039532516151667,-0.0072320145554840565
0.016412584111094475,0.003877401351928711,-0.012558490969240665,0.0084106819704175,-0.00039660598849877715,-0.0068400041200220585
0.016412584111094475,0.003877401351928711,-0.012558490969240665,0.0084106819704175,-0.00039660598849877715,-0.0068400041200220585
0.01585198938846588,0.003479828592389822,-0.012480519711971283,0.008469885215163231,-0.00040044134948402643,-0.006689600646495819
0.01599350944161415,0.0034853429533541203,-0.013267677277326584,0.009189139120280743,-0.00040244002593681216,-0.007056252099573612
0.016031857579946518,0.003709857352077961,-0.012310615740716457,0.0091440724208951,-0.0003799647092819214,-0.007362996228039265
0.016432538628578186,0.0038551753386855125,-0.012046334333717823,0.00890439935028553,-0.00039619230665266514,-0.007702962029725313
0.014636129140853882,0.003821018850430846,-0.011893955990672112,0.009174632839858532,-0.0004135684866923839,-0.007098151836544275
0.016950607299804688,0.0035491774324327707,-0.013071377761662006,0.009233502671122551,-0.00041947615682147443,-0.007399910595268011
0.016702482476830482,0.0036041077692061663,-0.012462212704122066,0.008414709009230137,-0.00045299279736354947,-0.007150523830205202
0.01674114540219307,0.003665996715426445,-0.012363482266664505,0.009311031550168991,-0.0004264526069164276,-0.007187217008322477
0.016170797869563103,0.0038699207361787558,-0.012390644289553165,0.00916874036192894,-0.00045273269643075764,-0.007412370294332504
0.01617015153169632,0.0038317199796438217,-0.012575174681842327,0.008668162859976292,-0.00042964782915078104,-0.007723662536591291
0.016372568905353546,0.003539601806551218,-0.012867922894656658,0.008918780833482742,-0.0004306537739466876,-0.007736682891845703
0.016829831525683403,0.0035858196206390858,-0.012101957574486732,0.008994026109576225,-0.0004306518821977079,-0.00761162955313921
0.017410894855856895,0.00397681538015604,-0.012734153307974339,0.009431489743292332,-0.0004079330828972161,-0.007511141709983349
0.01676974631845951,0.003998231142759323,-0.012110798619687557,0.009724795818328857,-0.0003861546574626118,-0.0076136174611747265
0.017208898440003395,0.0038454513996839523,-0.012609000317752361,0.010367553681135178,-0.00043130951235070825,-0.007604585960507393
0.017156271263957024,0.004222298972308636,-0.012065446004271507,0.009716888889670372,-0.00046237307833507657,-0.00767943961545825
0.017452245578169823,0.0040351939387619495,-0.012235305272042751,0.00958413165062666,-0.0004433729045558721,-0.008006438612937927
0.017569739371538162,0.003916117362678051,-0.012540752068161964,0.010080518200993538,-0.00044404849177226424,-0.007963900454342365
0.01703437976539135,0.004379509016871452,-0.012002437375485897,0.009942609816789627,-0.000443204800831154,-0.007975086569786072
0.017580321058630943,0.004453758243471384,-0.012776688672602177,0.01008464116603136,-0.0004672800423577428,-0.008015282452106476
0.01730666495859623,0.004335819277912378,-0.012215829454362392,0.009830261580646038,-0.0004455003945622593,-0.007964715361595154
0.017496582120656967,0.004268149845302105,-0.012583992443978786,0.00942368432879448,-0.0005669581587426364,-0.008162133395671844
0.017569605261087418,0.003972610458731651,-0.012497923336923122,0.009991945698857307,-0.0005238332669250667,-0.008189131505787373
0.017224058508872986,0.003780846484005451,-0.012601923197507858,0.009775691665709019,-0.000551414443179965,-0.008122005499899387
0.018245503306388855,0.00376351410523057,-0.012587903998792171,0.009435109794139862,-0.0005103243747726083,-0.007733668200671673
0.018340161070227623,0.003844965249300003,-0.012119539082050323,0.009081237018108368,-0.0005239153979346156,-0.00773987453430891
0.018039939925074577,0.003915974870324135,-0.01236641127616167,0.009296723641455173,-0.0005000013043172657,-0.007788436952978373
0.018840884789824486,0.004328782204538584,-0.012118103913962841,0.008871869184076786,-0.0004642891581170261,-0.008219136856496334
0.01884399726986885,0.00398433580994606,-0.012594950385391712,0.00893371645361185,-0.000432469678344205,-0.008374798111617565
0.01884399726986885,0.00398433580994606,-0.012594950385391712,0.00893371645361185,-0.000432469678344205,-0.008374798111617565
0.018431847915053368,0.003333953907713294,-0.012061390094459057,0.00923838745802641,-0.00045845680870115757,-0.007993032224476337
0.018890295177698135,0.0030620156321674585,-0.01219051145017147,0.009644870646297932,-0.00043429963989183307,-0.008215323090553284
0.01870727725327015,0.0037262020632624626,-0.011858714744448662,0.011321119964122772,-0.00038585884612984955,-0.008652661927044392
0.018890662118792534,0.0038621826097369194,-0.012583260424435139,0.010427204892039299,-0.0003559925826266408,-0.008263587020337582
0.01897404156625271,0.003566299332305789,-0.012167364358901978,0.009932881221175194,-0.0003299181698821485,-0.008316575549542904
0.01916237361729145,0.003391587408259511,-0.01254945807158947,0.009384901262819767,-0.0003604723606258631,-0.008383966982364655
0.018954455852508545,0.0036703557707369328,-0.012032676488161087,0.01043947134166956,-0.000344702071743086,-0.008399873971939087
0.018954791128635406,0.0035736176650971174,-0.011972365900874138,0.010178676806390285,-0.0003747809096239507,-0.008003043942153454
0.01926906779408455,0.0034930764231830835,-0.012814225628972054,0.0100410683080554,-0.0003568579559214413,-0.008453226648271084
0.019434841349720955,0.0035937956999987364,-0.012091001495718956,0.00978338997811079,-0.0003735251957550645,-0.009021886624395847
0.019203297793865204,0.0032996998634189367,-0.012627280317246914,0.009796191938221455,-0.00036572100361809134,-0.008203110657632351
0.01931062899529934,0.003218204015865922,-0.01185954362154007,0.010542279109358788,-0.0003487340873107314,-0.008205238729715347
0.01969870924949646,0.003203129395842552,-0.01227516494691372,0.009800980798900127,-0.0003924008342437446,-0.008240616880357265
0.019950781017541885,0.003491241717711091,-0.012303750962018967,0.009981685318052769,-0.00037966715171933174,-0.008626510389149189
0.01985025405883789,0.003698432818055153,-0.012506715953350067,0.00977103691548109,-0.0004119803779758513,-0.008251568302512169
0.020085694268345833,0.00355155230499804,-0.013381252996623516,0.009372396394610405,-0.0004384252242743969,-0.008185221813619137
0.01931915618479252,0.0034753114450722933,-0.012676368467509747,0.009204783476889133,-0.00042433844646438956,-0.008657299913465977
0.019062958657741547,0.0036398591473698616,-0.01313477661460638,0.009988873265683651,-0.0004477103357203305,-0.008423250168561935
0.020228780806064606,0.0033606828656047583,-0.0123236533254385,0.009958460927009583,-0.0004278848646208644,-0.008440094068646431
0.020425116643309593,0.0035834636073559523,-0.013115232810378075,0.01049430575221777,-0.00040429411455988884,-0.00864056684076786
0.020227698609232903,0.0033663460053503513,-0.013123846612870693,0.010661985725164413,-0.0005092429928481579,-0.0089672626927495
0.01997991092503071,0.0033402210101485252,-0.013552259653806686,0.010069251991808414,-0.00047499663196504116,-0.008518832735717297
0.02038145251572132,0.003368134843185544,-0.013090367428958416,0.01027675997465849,-0.00043075656867586076,-0.008466164581477642
0.02046659216284752,0.003467496484518051,-0.012763804756104946,0.010468275286257267,-0.00039316064794547856,-0.008702722378075123
0.020565811544656754,0.003462942549958825,-0.013185550458729267,0.010035554878413677,-0.0003615468740463257,-0.008390814997255802
0.02099551633000374,0.0035997158847749233,-0.013283456675708294,0.01077309250831604,-0.0003346370067447424,-0.008779468014836311
0.02064860239624977,0.003662028582766652,-0.013972547836601734,0.010998428799211979,-0.0003572604910004884,-0.00901634618639946
0.02064860239624977,0.003662028582766652,-0.013972547836601734,0.010998428799211979,-0.0003572604910004884,-0.00901634618639946
0.020325342193245888,0.003717659739777446,-0.013179841451346874,0.010931561700999737,-0.00034846729249693453,-0.009185506030917168
0.01999014988541603,0.003751256735995412,-0.01332488376647234,0.010548594407737255,-0.0003282135003246367,-0.008919775485992432
0.020324071869254112,0.0033928256016224623,-0.013226651586592197,0.010385256260633469,-0.0003094559069722891,-0.009343856014311314
0.020894140005111694,0.0037497428711503744,-0.013867895118892193,0.01068340428173542,-0.00031768184271641076,-0.008930739015340805
0.02091689594089985,0.003935760818421841,-0.014429864473640919,0.010252499021589756,-0.0003076504508499056,-0.00915445201098919
0.021481329575181007,0.0035135599318891764,-0.014003096148371696,0.01063580997288227,-0.0002936651580967009,-0.009380343370139599
0.021072812378406525,0.0035386085510253906,-0.014332829043269157,0.011025605723261833,-0.0002806060074362904,-0.009461857378482819
0.020946450531482697,0.0037619725335389376,-0.013697758316993713,0.01071025338023901,-0.00030189461540430784,-0.00922868400812149
0.021270038560032845,0.003942051902413368,-0.014483080245554447,0.011144213378429413,-0.00029412246658466756,-0.008903625421226025
0.021484214812517166,0.004006868228316307,-0.01366429403424263,0.011110827326774597,-0.0002828644646797329,-0.008926543407142162
0.021351022645831108,0.003587824758142233,-0.014396436512470245,0.010484766215085983,-0.0002721883647609502,-0.008982907049357891
0.021462537348270416,0.0035178186371922493,-0.014218762516975403,0.010933402925729752,-0.0002622728352434933,-0.009491732344031334
0.021755194291472435,0.0035750719252973795,-0.014546177349984646,0.010540405288338661,-0.0002530534693505615,-0.00920956488698721
0.021706458181142807,0.004194844979792833,-0.01377265527844429,0.010728534311056137,-0.00022640341194346547,-0.009419226087629795
0.02166328765451908,0.004044352099299431,-0.013707839883863926,0.011033565737307072,-0.000199876245460473,-0.008908354677259922
0.022081809118390083,0.003912417218089104,-0.014235948212444782,0.010770262219011784,-0.00019034164142794907,-0.00875432975590229
0.021824777126312256,0.003880783449858427,-0.014395664446055889,0.011307982727885246,-0.00018254874157719314,-0.00904654711484909
0.02163521572947502,0.003846013220027089,-0.01378430612385273,0.011494397185742855,-0.00017542598652653396,-0.009480917826294899
0.021855752915143967,0.004226613324135542,-0.013993758708238602,0.011320607736706734,-0.00020032071915920824,-0.009188348427414894
0.022193484008312225,0.00426951888948679,-0.013949534855782986,0.012150769121944904,-0.0001951330341398716,-0.009344208985567093
0.02217257395386696,0.0036088747438043356,-0.014230338856577873,0.01152542233467102,-0.0002177419955842197,-0.009409090504050255
0.02225649729371071,0.004198477603495121,-0.013887163251638412,0.011471063829958439,-0.0002123222511727363,-0.009718445129692554
0.02225649729371071,0.004198477603495121,-0.013887163251638412,0.011471063829958439,-0.0002123222511727363,-0.009718445129692554
0.02192310243844986,0.004178935196250677,-0.014161591418087482,0.011202207766473293,-0.00020552011847030371,-0.00954329501837492
0.022143803536891937,0.0036851356271654367,-0.014115160331130028,0.011296515353024006,-0.0002129789936589077,-0.009378562681376934
0.022477824240922928,0.003505583154037595,-0.014292323030531406,0.011711210012435913,-0.00021955578995402902,-0.009042996913194656
0.02272515557706356,0.004049151670187712,-0.014115044847130775,0.011738423258066177,-0.00021442575962282717,-0.009202321991324425
0.022271670401096344,0.004219057038426399,-0.014139222912490368,0.011820257641375065,-0.0003334069042466581,-0.00934036448597908
0.022145334631204605,0.003931974060833454,-0.014356948435306549,0.012222299352288246,-0.00034961619530804455,-0.009547651745378971
0.02265598438680172,0.00408933125436306,-0.014016357250511646,0.011925566010177135,-0.0003555684816092253,-0.009822665713727474
0.02272692136466503,0.004200704395771027,-0.013976861722767353,0.012040181085467339,-0.00037654503830708563,-0.00995299406349659
0.02302713133394718,0.004096162039786577,-0.013848314993083477,0.011403068900108337,-0.00036755509790964425,-0.010432297363877296
0.023465877398848534,0.003991805016994476,-0.014372375793755054,0.011981382966041565,-0.00039112273952923715,-0.009844399057328701
0.022689392790198326,0.0038788695819675922,-0.014495394192636013,0.010948209092020988,-0.0005086549208499491,-0.008903084322810173
0.022533273324370384,0.004080359824001789,-0.014380959793925285,0.01163311954587698,-0.0005885082064196467,-0.009290936402976513
0.022214680910110474,0.004053686745464802,-0.01498604565858841,0.011039367876946926,-0.0006106162327341735,-0.00921047292649746
0.023971213027834892,0.003977151121944189,-0.014594899490475655,0.011718565598130226,-0.0005761642241850495,-0.009832560084760189
0.023281652480363846,0.0042427596636116505,-0.01502896286547184,0.011602506041526794,-0.0005845664418302476,-0.00962638296186924
0.02294025383889675,0.004004223737865686,-0.01495178509503603,0.011420329101383686,-0.0005566080217249691,-0.009759003296494484
0.02405182458460331,0.003871249733492732,-0.014950325712561607,0.01219441182911396,-0.0006009383359923959,-0.010340618900954723
0.023753318935632706,0.004247811622917652,-0.015110015869140625,0.011861390434205532,-0.0005999779677949846,-0.010053333826363087
0.024075182154774666,0.004286064300686121,-0.015137125737965107,0.011792968958616257,-0.0006256098276935518,-0.010092421434819698
0.023800566792488098,0.0040930998511612415,-0.015351536683738232,0.01190628856420517,-0.0005720097105950117,-0.010434279218316078
0.022881129756569862,0.003993380814790726,-0.014941534027457237,0.011765806004405022,-0.0005979973939247429,-0.010642391629517078
0.02309231273829937,0.0044128019362688065,-0.014708412811160088,0.012261038646101952,-0.0005509430193342268,-0.009698165580630302
0.023790158331394196,0.004096547607332468,-0.014872859232127666,0.011884805746376514,-0.0005741915083490312,-0.009755951352417469
0.0245704036206007,0.00379284773953259,-0.01539728231728077,0.01228172518312931,-0.000535842205863446,-0.010240313597023487
0.02423960529267788,0.003982395865023136,-0.014870443381369114,0.012083452194929123,-0.0005389018915593624,-0.01051836647093296
0.024184921756386757,0.004072030074894428,-0.015490529127418995,0.012359099462628365,-0.0005594348767772317,-0.010460225865244865
0.02402563765645027,0.004347332287579775,-0.015056973323225975,0.012363712303340435,-0.000527170835994184,-0.010331302881240845
0.023778297007083893,0.004195553716272116,-0.015159087255597115,0.011803088709712029,-0.000550742435734719,-0.010493004694581032
0.023778297007083893,0.004195553716272116,-0.015159087255597115,0.011803088709712029,-0.000550742435734719,-0.010493004694581032
0.024358896538615227,0.004423218313604593,-0.014857959933578968,0.012452380731701851,-0.0005508271278813481,-0.010649808682501316
0.024563994258642197,0.004229164216667414,-0.01547363493591547,0.011989029124379158,-0.000542410823982209,-0.010135340504348278
0.024345701560378075,0.003977304790169001,-0.014738836325705051,0.012472745962440968,-0.0006212959415279329,-0.010578193701803684
0.02431226521730423,0.003929434344172478,-0.015348539687693119,0.011989764869213104,-0.0006376897799782455,-0.010294562205672264
0.024241166189312935,0.004010344855487347,-0.015092859044671059,0.011859456077218056,-0.0006170477136038244,-0.010330677963793278
0.02445181831717491,0.004420438781380653,-0.015455218032002449,0.01233627088367939,-0.0006366157904267311,-0.010225980542600155
0.024715695530176163,0.004397211130708456,-0.015209358185529709,0.011828405782580376,-0.0006287564756348729,-0.010411147028207779
0.025105386972427368,0.004360892344266176,-0.015786003321409225,0.011928221210837364,-0.0006701886304654181,-0.010094959288835526
0.024596450850367546,0.0040507554076612,-0.015723632648587227,0.012218227609992027,-0.0006748606683686376,-0.010444370098412037
0.02493375539779663,0.00400212686508894,-0.01577347330749035,0.011894707567989826,-0.0006483655888587236,-0.010839708149433136
0.024649325758218765,0.004536796826869249,-0.015132339671254158,0.011567137204110622,-0.0006653738673776388,-0.010333318263292313
0.02486148290336132,0.004763762000948191,-0.015941109508275986,0.012432846240699291,-0.0006762375705875456,-0.010379293002188206
0.025074992328882217,0.004318644292652607,-0.015232482925057411,0.01222913432866335,-0.0006368742906488478,-0.010696477256715298
0.02566036395728588,0.0043198904022574425,-0.016122736036777496,0.012578482739627361,-0.0006378624821081758,-0.010111931711435318
0.025123530998826027,0.004668097011744976,-0.01546004693955183,0.012579644098877907,-0.0006063277833163738,-0.009895638562738895
0.025122910737991333,0.004216964356601238,-0.0158841535449028,0.012419807724654675,-0.0005373802268877625,-0.010199695825576782
0.02532872185111046,0.004430194851011038,-0.015744483098387718,0.012661409564316273,-0.0005691813421435654,-0.010144021362066269
0.02553027682006359,0.0041508362628519535,-0.01622014120221138,0.012702057138085365,-0.0005201272433623672,-0.010860210284590721
0.024770380929112434,0.004410354420542717,-0.01656584069132805,0.012897460721433163,-0.0004747290804516524,-0.011219102889299393
0.025567984208464622,0.004319712519645691,-0.016105450689792633,0.012563833966851234,-0.0005039145471528172,-0.010461490601301193
0.025577042251825333,0.004825842101126909,-0.016586950048804283,0.0127564063295722,-0.00047065169201232493,-0.010568920522928238
0.025600291788578033,0.00483405077829957,-0.01629381813108921,0.012777609750628471,-0.0004381835460662842,-0.010390921495854855
0.024095114320516586,0.004415287170559168,-0.016560954973101616,0.013347132131457329,-0.00045275589218363166,-0.010477861389517784
0.025621186941862106,0.004011218901723623,-0.01596820168197155,0.013369581662118435,-0.0004386055807117373,-0.01079487893730402
0.026382289826869965,0.0043496303260326385,-0.016601834446191788,0.01361927855759859,-0.00041592586785554886,-0.011159096844494343
0.026329904794692993,0.004218324553221464,-0.01719948835670948,0.013114205561578274,-0.00037491830880753696,-0.011045323684811592
0.02605552040040493,0.0043662856332957745,-0.01690654084086418,0.013071277178823948,-0.0003791684575844556,-0.01109352707862854
0.026038773357868195,0.004969932604581118,-0.017296472564339638,0.013317483477294445,-0.00038284019683487713,-0.010875679552555084
0.02488335222005844,0.004911713767796755,-0.01632743515074253,0.013285827822983265,-0.00041112295002676547,-0.011382062919437885
0.025615878403186798,0.00427972013130784,-0.01691143773496151,0.013304311782121658,-0.00042001018300652504,-0.011177292093634605
0.025615878403186798,0.00427972013130784,-0.01691143773496151,0.013304311782121658,-0.00042001018300652504,-0.011177292093634605
0.02648089826107025,0.0040934267453849316,-0.01679082401096821,0.012301338836550713,-0.00042107136687263846,-0.010928669013082981
0.026281533762812614,0.004131194204092026,-0.01685938984155655,0.012556168250739574,-0.0005796775221824646,-0.011199858039617538
0.025829294696450233,0.004430897533893585,-0.017306793481111526,0.012544674798846245,-0.000566828646697104,-0.011053411290049553
0.027054810896515846,0.004730650689452887,-0.01668718457221985,0.013064506463706493,-0.0006008222699165344,-0.011052136309444904
0.026840271428227425,0.004837795160710812,-0.017198951914906502,0.0132339121773839,-0.0005902170669287443,-0.011467792093753815
0.025997303426265717,0.0045734578743577,-0.0167703777551651,0.01362706907093525,-0.0005955596570856869,-0.011359956115484238
0.02602558024227619,0.004170598462224007,-0.015780407935380936,0.014004242606461048,-0.0006879745051264763,-0.011227929033339024
0.025816915556788445,0.004502949304878712,-0.01767275296151638,0.013787354342639446,-0.0007892803987488151,-0.01113887783139944
0.026520676910877228,0.004198445938527584,-0.017994331195950508,0.013198175467550755,-0.0007555707707069814,-0.011194833554327488
0.026604045182466507,0.003946230746805668,-0.01697431318461895,0.0140178631991148,-0.0007679638219997287,-0.010891728103160858
0.026785073801875114,0.003958372864872217,-0.017009470611810684,0.01392392348498106,-0.0006994063733145595,-0.010825048200786114
0.02689145877957344,0.003982291556894779,-0.01745431311428547,0.014020324684679508,-0.0007121535600163043,-0.011107108555734158
0.02723892405629158,0.003957340028136969,-0.01717030443251133,0.013233352452516556,-0.0006765410653315485,-0.010907000862061977
0.026984000578522682,0.0038576768711209297,-0.017340287566184998,0.013540850952267647,-0.0007016350282356143,-0.011134619824588299
0.026920432224869728,0.0040654391050338745,-0.017282361164689064,0.013262311927974224,-0.0006274484330788255,-0.011494725942611694
0.027594732120633125,0.004180614836513996,-0.01766889914870262,0.014071187004446983,-0.0005624697078019381,-0.011646313592791557
0.02737085334956646,0.004100560676306486,-0.01791190169751644,0.013522683642804623,-0.0005881388788111508,-0.011548315174877644
0.027102090418338776,0.004085211083292961,-0.017032425850629807,0.013907666318118572,-0.0005800668732263148,-0.011233754456043243
0.026975853368639946,0.004038143903017044,-0.0178971067070961,0.013627247884869576,-0.0005686248186975718,-0.011404993943870068
0.02675987407565117,0.004172106273472309,-0.017842665314674377,0.013729606755077839,-0.0005290700937621295,-0.011332547292113304
0.027288058772683144,0.004024067893624306,-0.017716078087687492,0.013560044579207897,-0.00048681467887945473,-0.01156036090105772
0.027164625003933907,0.0038067277055233717,-0.017620081081986427,0.01393906306475401,-0.0004401151672936976,-0.011694560758769512
0.02732238918542862,0.003715452505275607,-0.017054086551070213,0.013826308771967888,-0.0004753533867187798,-0.011597225442528725
0.027959847822785378,0.003912009298801422,-0.017851315438747406,0.014442731626331806,-0.0005048224120400846,-0.011640860699117184
0.027660774067044258,0.003935758490115404,-0.017951728776097298,0.013858776539564133,-0.0005086246528662741,-0.011145508848130703
0.027286479249596596,0.004803954157978296,-0.017658187076449394,0.013445599004626274,-0.0005045837024226785,-0.011728866025805473
0.027286479249596596,0.004803954157978296,-0.017658187076449394,0.013445599004626274,-0.0005045837024226785,-0.011728866025805473
0.027715178206562996,0.003667853306978941,-0.018010081723332405,0.013863771222531796,-0.0007254527881741524,-0.01225040853023529
0.02754621021449566,0.00294024427421391,-0.01741640456020832,0.013400166295468807,-0.0007887607789598405,-0.0118862334638834
0.028006626293063164,0.0041820937767624855,-0.01764518953859806,0.013160807080566883,-0.0008044266724027693,-0.011884021572768688
0.028640585020184517,0.00468590809032321,-0.017693176865577698,0.013297808356583118,-0.0007462742505595088,-0.011977371759712696
0.02856992557644844,0.0042079780250787735,-0.017628513276576996,0.013945461250841618,-0.0008582472219131887,-0.012194204144179821
0.027331579476594925,0.003837673692032695,-0.01851097121834755,0.013464150950312614,-0.0007748379721306264,-0.012262537144124508
0.028605876490473747,0.0041550686582922935,-0.017745524644851685,0.013255159370601177,-0.0007487162365578115,-0.01216915063560009
0.028520867228507996,0.004495867528021336,-0.01782781258225441,0.013582673855125904,-0.0007138945511542261,-0.012012518011033535
0.02879173494875431,0.004178196657449007,-0.017374668270349503,0.013477344065904617,-0.0007232701755128801,-0.012372475117444992
0.02929062396287918,0.003936191089451313,-0.01788007654249668,0.014447346329689026,-0.0006671404116787016,-0.012489521875977516
0.029441002756357193,0.004269706550985575,-0.018312694504857063,0.013804638758301735,-0.0006077758735045791,-0.012426885776221752
0.02900245413184166,0.004150677472352982,-0.017927829176187515,0.01409758161753416,-0.0006157156894914806,-0.012108035385608673
0.02812773548066616,0.004032426979392767,-0.018114905804395676,0.014110036194324493,-0.000644349493086338,-0.012126032263040543
0.02842540480196476,0.004010794684290886,-0.018479011952877045,0.01453784666955471,-0.0006472826353274286,-0.012545479461550713
0.029228530824184418,0.004380283411592245,-0.01798049733042717,0.014515593647956848,-0.0006299102678894997,-0.01215102057904005
0.029318692162632942,0.00410062400624156,-0.01834137737751007,0.015308666974306107,-0.0007302324520424008,-0.01201604399830103
0.029379524290561676,0.004151788540184498,-0.017739271745085716,0.013610637746751308,-0.000673377129714936,-0.012282630428671837
0.029050340875983238,0.004120251163840294,-0.01820083148777485,0.01378191914409399,-0.0005885636783204973,-0.012657005339860916
0.02919595316052437,0.0043451059609651566,-0.018626559525728226,0.013599617406725883,-0.0006169754778966308,-0.012399038299918175
0.02950281836092472,0.004120402503758669,-0.018154960125684738,0.014504645951092243,-0.0005592997185885906,-0.012499186210334301
0.02807597443461418,0.004404610954225063,-0.018816368654370308,0.014742785133421421,-0.0005689767422154546,-0.012884167954325676
0.02968830242753029,0.004285035189241171,-0.0186702199280262,0.014667196199297905,-0.0005393419414758682,-0.01254454255104065
0.03004954382777214,0.004487218335270882,-0.017739659175276756,0.01540418341755867,-0.0005593063542619348,-0.012870696373283863
0.029926564544439316,0.004226808436214924,-0.018834169954061508,0.015904279425740242,-0.0005268003442324698,-0.01278874184936285
0.029760219156742096,0.004246775526553392,-0.019017504528164864,0.015553328208625317,-0.0004913787706755102,-0.012667804956436157
0.029862260445952415,0.004143878351897001,-0.0191956777125597,0.015238825231790543,-0.00043947796802967787,-0.012564042583107948
0.030096016824245453,0.004402917809784412,-0.019143370911478996,0.014861149713397026,-0.000434264016803354,-0.012550845742225647
0.03023473732173443,0.004597507882863283,-0.018789291381835938,0.015216495841741562,-0.0004337521968409419,-0.013001120649278164
0.030815865844488144,0.004733111709356308,-0.018725760281085968,0.01507286075502634,-0.0004661103885155171,-0.013120661489665508
0.030815865844488144,0.004733111709356308,-0.018725760281085968,0.01507286075502634,-0.0004661103885155171,-0.013120661489665508
0.03051803447306156,0.004466366954147816,-0.018886616453528404,0.014954108744859695,-0.0004961344529874623,-0.013476185500621796
0.03051452338695526,0.0042796665802598,-0.018539732322096825,0.014676417224109173,-0.0007729900535196066,-0.013043111190199852
0.03127516806125641,0.004180011339485645,-0.01931455172598362,0.01473941933363676,-0.0008199589792639017,-0.013181596994400024
0.030714379623532295,0.003966040909290314,-0.019877271726727486,0.014963208697736263,-0.0007284294697456062,-0.01242922991514206
0.030871495604515076,0.004627625457942486,-0.019106566905975342,0.015682518482208252,-0.0007151123136281967,-0.012648167088627815
0.03118889406323433,0.0043315039947628975,-0.019114524126052856,0.015415818430483341,-0.0006887964555062354,-0.01237335056066513
0.031208666041493416,0.003954518120735884,-0.01909550279378891,0.01547046098858118,-0.0006797315436415374,-0.01290097925812006
0.03170941770076752,0.0037983302026987076,-0.019415725022554398,0.01511438749730587,-0.0006872340454719961,-0.012810374610126019
0.031880393624305725,0.004267998039722443,-0.019745467230677605,0.015256945043802261,-0.0006337325903587043,-0.01336328312754631
0.031085869297385216,0.00438667181879282,-0.019269324839115143,0.014983689412474632,-0.0006501804455183446,-0.013258657418191433
0.03169349208474159,0.004310620483011007,-0.019279399886727333,0.015473210252821445,-0.000599418708588928,-0.013108523562550545
0.032924383878707886,0.00442654499784112,-0.019537124782800674,0.014782213605940342,-0.0005857784417457879,-0.012757604941725731
0.0335250087082386,0.004102150443941355,-0.019253145903348923,0.015234997496008873,-0.000573489349335432,-0.01305887009948492
0.03048246167600155,0.004338507540524006,-0.019152693450450897,0.014746952801942825,-0.0005766790709458292,-0.013293001800775528
0.031728070229291916,0.004738476127386093,-0.01970386505126953,0.015227416530251503,-0.0005261476617306471,-0.013387206010520458
0.03275104984641075,0.004532399587333202,-0.01943286880850792,0.015034700743854046,-0.0005409359000623226,-0.01343931071460247
0.031818632036447525,0.00444056885316968,-0.019419971853494644,0.015569630078971386,-0.0005521504208445549,-0.013179942034184933
0.03250505030155182,0.004652942530810833,-0.019829075783491135,0.015526860021054745,-0.0005431624595075846,-0.013481469824910164
0.03351536765694618,0.004805187229067087,-0.019284721463918686,0.015795918181538582,-0.0005550381611101329,-0.013104707933962345
0.03324897959828377,0.004709754139184952,-0.019232667982578278,0.0159229077398777,-0.0005306336097419262,-0.013261420652270317
0.0319812037050724,0.004431742709130049,-0.02003341168165207,0.01568121463060379,-0.0005933656357228756,-0.013317402452230453
0.03257875517010689,0.004329225979745388,-0.019872240722179413,0.016133228316903114,-0.0006305216811597347,-0.013929525390267372
0.033403296023607254,0.004430967848747969,-0.01897187903523445,0.015906378626823425,-0.0006403421284630895,-0.013679764233529568
0.03299637511372566,0.004482649732381105,-0.019570432603359222,0.01634662039577961,-0.000642511120531708,-0.013797535561025143
0.03314299136400223,0.00434289313852787,-0.01971982978284359,0.016271116212010384,-0.0006255959160625935,-0.01369407121092081
0.03314299136400223,0.00434289313852787,-0.01971982978284359,0.016271116212010384,-0.0006255959160625935,-0.01369407121092081
0.03324897214770317,0.0045049977488815784,-0.01905912719666958,0.016765380278229713,-0.0007217454258352518,-0.013876551762223244
0.03270267695188522,0.00418439693748951,-0.01942865364253521,0.017066115513443947,-0.0007621459080837667,-0.01349406037479639
0.03318118304014206,0.00393057381734252,-0.019146088510751724,0.01649240218102932,-0.000696372298989445,-0.013462371192872524
0.033446166664361954,0.004149918910115957,-0.018811192363500595,0.016375049948692322,-0.0007141134119592607,-0.013846979476511478
0.03335452452301979,0.004521968774497509,-0.01944315992295742,0.015683595091104507,-0.0006470514927059412,-0.013759580440819263
0.0329398550093174,0.004269137047231197,-0.019520962610840797,0.016191277652978897,-0.0005870942259207368,-0.01368032582104206
0.03331715613603592,0.004588938783854246,-0.01897123083472252,0.015757227316498756,-0.0006082563777454197,-0.013570974580943584
0.03392897918820381,0.004188489634543657,-0.01946392096579075,0.016468066722154617,-0.0005298813921399415,-0.013064143247902393
0.033420972526073456,0.003878174349665642,-0.01893066242337227,0.016776757314801216,-0.0004756175621878356,-0.013392448425292969
0.032418329268693924,0.0038526051212102175,-0.01965843141078949,0.016426729038357735,-0.0005100267007946968,-0.013757745735347271
0.03339119255542755,0.004252016078680754,-0.019611656665802002,0.015549770556390285,-0.0005282869096845388,-0.014121145009994507
0.0344739630818367,0.0045018442906439304,-0.019141998142004013,0.01598462648689747,-0.0005041274707764387,-0.014042281545698643
0.03503108769655228,0.0041493624448776245,-0.019322460517287254,0.01586652547121048,-0.0005255548167042434,-0.014222081750631332
0.03369981795549393,0.004464822355657816,-0.020076105371117592,0.016491012647747993,-0.0004971888847649097,-0.013897018507122993
0.03344392031431198,0.004154147580265999,-0.01968461461365223,0.01581083983182907,-0.00060536980163306,-0.013946627266705036
0.034468989819288254,0.004000404383987188,-0.020082194358110428,0.01568150706589222,-0.0006005541072227061,-0.013702820055186749
0.03398166969418526,0.003910715226083994,-0.020024625584483147,0.015353811904788017,-0.0006221336661837995,-0.013799705542623997
0.03443392738699913,0.00439516082406044,-0.01975143700838089,0.015966210514307022,-0.0005760529893450439,-0.01403940748423338
0.034973397850990295,0.0045026736333966255,-0.019503673538565636,0.015728648751974106,-0.0005985177704133093,-0.014361726120114326
0.03512280434370041,0.004662870429456234,-0.02005734294652939,0.015828099101781845,-0.0005612329114228487,-0.014128154143691063
0.03418956696987152,0.00481301499530673,-0.01987007074058056,0.016340218484401703,-0.0006555183208547533,-0.014511901885271072
0.034214455634355545,0.004227632191032171,-0.02064257115125656,0.016452783718705177,-0.000690106360707432,-0.014235549606382847
0.03462614491581917,0.004387496039271355,-0.020547952502965927,0.017186395823955536,-0.0006187293329276145,-0.014217638410627842
0.03523619845509529,0.004184129647910595,-0.021394820883870125,0.017193960025906563,-0.0006351129850372672,-0.013758650049567223
0.03526818007230759,0.00421431427821517,-0.020514266565442085,0.01748490519821644,-0.0005867343861609697,-0.013777815736830235
0.03435026854276657,0.004092707298696041,-0.020195387303829193,0.017711283639073372,-0.0005936264060437679,-0.0137227987870574
0.03404908999800682,0.004429322201758623,-0.020342011004686356,0.017191404476761818,-0.0005645172204822302,-0.014302685856819153
0.03443525731563568,0.004537569358944893,-0.020262155681848526,0.01740935631096363,-0.0005245108623057604,-0.014191655442118645
0.03443525731563568,0.004537569358944893,-0.020262155681848526,0.01740935631096363,-0.0005245108623057604,-0.014191655442118645
0.034914854913949966,0.004247158300131559,-0.02016287110745907,0.01743711531162262,-0.0004974448238499463,-0.014189600013196468
0.034586574882268906,0.0036121883895248175,-0.02085421048104763,0.01729580946266651,-0.0005184634937904775,-0.014381085522472858
0.034554336220026016,0.0034888286609202623,-0.020838920027017593,0.01734098047018051,-0.0004918871563859284,-0.014253373257815838
0.03392943739891052,0.004147148225456476,-0.02051381766796112,0.017269520089030266,-0.0005373930325731635,-0.01439797505736351
0.03392943739891052,0.004147148225456476,-0.02051381766796112,0.017269520089030266,-0.0005373930325731635,-0.01439797505736351
0.03521853685379028,0.0037957564927637577,-0.02111772447824478,0.016854211688041687,-0.0006782269338145852,-0.014299305155873299
0.034886620938777924,0.004279175773262978,-0.020687174052000046,0.01691645197570324,-0.0007147958385758102,-0.014529770240187645
0.03498727083206177,0.004155509639531374,-0.020919039845466614,0.01669551618397236,-0.000729913532268256,-0.01448796410113573
0.0353560633957386,0.0038835573941469193,-0.02079884335398674,0.01708931103348732,-0.000747484911698848,-0.013787182979285717
0.03572755679488182,0.003815167583525181,-0.020981576293706894,0.016395945101976395,-0.0008537124376744032,-0.013349585235118866
0.035806331783533096,0.0034267548471689224,-0.02101590856909752,0.016850002110004425,-0.0007682984578423202,-0.01399978343397379
0.035622935742139816,0.003913785330951214,-0.02118750289082527,0.016870036721229553,-0.0007812152034603059,-0.014186694286763668
0.03579452633857727,0.004220845177769661,-0.021324843168258667,0.01698172651231289,-0.0007880771299824119,-0.014163489453494549
0.03598663955926895,0.004311219323426485,-0.02077796682715416,0.017441943287849426,-0.0007615427020937204,-0.014057639986276627
0.03604934737086296,0.004016386345028877,-0.020795540884137154,0.01683441922068596,-0.0007290412904694676,-0.014349354431033134
0.03601344674825668,0.003578970907256007,-0.021229160949587822,0.017021149396896362,-0.0006903827306814492,-0.01438737753778696
0.035843681544065475,0.0034890002571046352,-0.021201565861701965,0.016948463395237923,-0.000698427960742265,-0.014144614338874817
0.035843681544065475,0.0034890002571046352,-0.021201565861701965,0.016948463395237923,-0.000698427960742265,-0.014144614338874817
0.03709954395890236,0.0038309704978019,-0.02136211097240448,0.01740625500679016,-0.000658628938253969,-0.015277530997991562
0.036850668489933014,0.004081960767507553,-0.021521760150790215,0.017090603709220886,-0.0006064633489586413,-0.014622148126363754
0.035419631749391556,0.004023897927254438,-0.021383754909038544,0.017877500504255295,-0.0006272949976846576,-0.014018049463629723
0.036736298352479935,0.004429908003658056,-0.02102997899055481,0.017720608040690422,-0.0006343257846310735,-0.014332657679915428
0.03648727759718895,0.004649769514799118,-0.02136288955807686,0.017348533496260643,-0.0006612945580855012,-0.014539948664605618
0.037518080323934555,0.004347063601016998,-0.021393969655036926,0.017539530992507935,-0.0006379744736477733,-0.014526419341564178
0.037518080323934555,0.004347063601016998,-0.021393969655036926,0.017539530992507935,-0.0006379744736477733,-0.014526419341564178
0.03736959770321846,0.003947381395846605,-0.021131770685315132,0.017108723521232605,-0.000573709374293685,-0.01461069192737341
0.036325108259916306,0.004324060864746571,-0.020998312160372734,0.017384786158800125,-0.0005989666096866131,-0.014489280059933662
0.03565376251935959,0.0042211636900901794,-0.0212395079433918,0.017296116799116135,-0.0006196790491230786,-0.014524929225444794
0.03678572550415993,0.004308963660150766,-0.02151687629520893,0.0168809462338686,-0.0006876816041767597,-0.014284571632742882
0.03737618774175644,0.004619027022272348,-0.021212836727499962,0.017473628744482994,-0.0006915851845405996,-0.014434436336159706
0.0375901535153389,0.004388425499200821,-0.021532947197556496,0.01798495650291443,-0.000665518338792026,-0.014660874381661415
0.03769291937351227,0.004065860062837601,-0.02125643752515316,0.018214568495750427,-0.0006650250870734453,-0.014729279093444347
0.037189457565546036,0.004301819019019604,-0.021276162937283516,0.017953142523765564,-0.0006511385436169803,-0.014881117269396782
0.03727444261312485,0.004135427996516228,-0.021636202931404114,0.01845153048634529,-0.0007666536839678884,-0.014977499842643738
0.036990098655223846,0.004268602468073368,-0.02204832248389721,0.018356744199991226,-0.0007901286007836461,-0.015080541372299194
0.03757480904459953,0.004567342810332775,-0.021959571167826653,0.018189802765846252,-0.0007520494982600212,-0.01563137397170067
0.03783991187810898,0.004701484460383654,-0.02143169939517975,0.018031422048807144,-0.0007644759025424719,-0.015245933085680008
0.037482813000679016,0.004717897158116102,-0.021414631977677345,0.017781449481844902,-0.0006965133361518383,-0.01531897485256195
0.03703470528125763,0.004433237016201019,-0.021612051874399185,0.017890486866235733,-0.0007367635844275355,-0.015190362930297852
0.03760746121406555,0.004310574848204851,-0.022153515368700027,0.018334193155169487,-0.0007428807439282537,-0.015157950110733509
0.03889113664627075,0.004445517901331186,-0.02187676914036274,0.017785830423235893,-0.0006790561601519585,-0.014644544571638107
0.03701929375529289,0.004568825475871563,-0.021896645426750183,0.018162313848733902,-0.0006982352351769805,-0.014938468113541603
0.03664436563849449,0.004934936296194792,-0.022531263530254364,0.01769821159541607,-0.0006777211674489081,-0.01522414293140173
0.038168832659721375,0.0045847599394619465,-0.022900301963090897,0.017281275242567062,-0.000655691372230649,-0.01513905543833971
0.03773150593042374,0.004285117611289024,-0.022580428048968315,0.01750299520790577,-0.0006313400226645172,-0.015049285255372524
0.038990654051303864,0.004472952801734209,-0.02254096418619156,0.01745503582060337,-0.0006369007751345634,-0.015343772247433662
0.03888441249728203,0.00418675784021616,-0.022118251770734787,0.01860535703599453,-0.0006652915617451072,-0.015142867341637611
0.03719931095838547,0.004351880867034197,-0.022575609385967255,0.01885327696800232,-0.0006448494968935847,-0.01524564903229475
0.03720323368906975,0.004632322117686272,-0.023169048130512238,0.018210016191005707,-0.0006657096673734486,-0.015117858536541462
0.03857436031103134,0.004502095747739077,-0.022965354844927788,0.018628019839525223,-0.0006192001164890826,-0.015006653033196926
0.03857436031103134,0.004502095747739077,-0.022965354844927788,0.018628019839525223,-0.0006192001164890826,-0.015006653033196926
0.038247525691986084,0.0041728452779352665,-0.02302761748433113,0.01879056543111801,-0.0007434416329488158,-0.015514329075813293
0.03769058361649513,0.00446802843362093,-0.023200634866952896,0.01890418864786625,-0.0007480093627236784,-0.01544995978474617
0.03769058361649513,0.00446802843362093,-0.023200634866952896,0.01890418864786625,-0.0007480093627236784,-0.01544995978474617
0.03835948184132576,0.004746104124933481,-0.02320234663784504,0.018748240545392036,-0.0006915426929481328,-0.015171085484325886
0.03811853379011154,0.0047217258252203465,-0.022898675873875618,0.018628472462296486,-0.0007073782617226243,-0.015381607227027416
0.037915293127298355,0.005120932590216398,-0.02284400351345539,0.01842496357858181,-0.0007094550528563559,-0.014660167507827282
0.03798534721136093,0.005049438681453466,-0.023334775120019913,0.018776966258883476,-0.0006768421735614538,-0.015008563175797462
0.03864390403032303,0.004449293948709965,-0.023383652791380882,0.019471073523163795,-0.0006980885518714786,-0.01572997495532036
0.03844624385237694,0.0050059109926223755,-0.022863727062940598,0.019171476364135742,-0.0007120668306015432,-0.015563310123980045
0.03842480480670929,0.004924047272652388,-0.023027125746011734,0.01893249899148941,-0.0006579178152605891,-0.01576339639723301
0.03849530965089798,0.004946738015860319,-0.02326904982328415,0.019041433930397034,-0.0006984625943005085,-0.015576745383441448
0.03750831261277199,0.005202245432883501,-0.023546280339360237,0.018775640055537224,-0.0007096920162439346,-0.015956353396177292
0.039117030799388885,0.005401564296334982,-0.023109054192900658,0.01918674260377884,-0.0007317676790989935,-0.015845349058508873
0.03923725336790085,0.0050491513684391975,-0.0231239702552557,0.01919380947947502,-0.0007499221828766167,-0.01557132788002491
0.0389658585190773,0.004997248761355877,-0.023036515340209007,0.018834372982382774,-0.0008249966194853187,-0.0157437976449728
0.03884455934166908,0.005216582212597132,-0.023503419011831284,0.0191891398280859,-0.0009148144745267928,-0.015899259597063065
0.03872375562787056,0.0046800775453448296,-0.02351728267967701,0.01926051452755928,-0.0009177635656669736,-0.016264984384179115
0.039388738572597504,0.0045340415090322495,-0.02353057824075222,0.01883532665669918,-0.0008861853275448084,-0.016075139865279198
0.039391178637742996,0.0044816466979682446,-0.023447781801223755,0.019192606210708618,-0.0008356643375009298,-0.016068952158093452
0.039138313382864,0.004532307386398315,-0.023261547088623047,0.019083743914961815,-0.0008266239310614765,-0.015441998839378357
0.0390578955411911,0.004845892544835806,-0.023069776594638824,0.018775958567857742,-0.0008296885644085705,-0.015312657691538334
0.038607317954301834,0.004689991939812899,-0.023478295654058456,0.01911611296236515,-0.0008389882859773934,-0.015246997587382793
0.040139149874448776,0.004295408725738525,-0.023308323696255684,0.019063493236899376,-0.0008464761194773018,-0.015900712460279465
0.040520697832107544,0.004354342818260193,-0.02344059944152832,0.018605846911668777,-0.0008885098504833877,-0.01628969982266426
0.03829871863126755,0.0040560378693044186,-0.023456629365682602,0.018926216289401054,-0.000953138223849237,-0.01646803691983223
0.03829871863126755,0.0040560378693044186,-0.023456629365682602,0.018926216289401054,-0.000953138223849237,-0.01646803691983223
0.039129845798015594,0.004620308056473732,-0.023194195702672005,0.018584003672003746,-0.0008516249945387244,-0.015894975513219833
0.03947506844997406,0.004516810644418001,-0.023240158334374428,0.019061652943491936,-0.0008533177897334099,-0.015860913321375847
0.04117504879832268,0.004272226244211197,-0.02369384467601776,0.01880567893385887,-0.0008135569514706731,-0.01602293737232685
0.03975696489214897,0.004818824119865894,-0.023291567340493202,0.01848931424319744,-0.0008010076126083732,-0.01581384614109993
0.03843687102198601,0.005023614037781954,-0.023178135976195335,0.019112365320324898,-0.0007531640585511923,-0.01581147499382496
0.03843687102198601,0.005023614037781954,-0.023178135976195335,0.019112365320324898,-0.0007531640585511923,-0.01581147499382496
0.040123339742422104,0.004685990512371063,-0.023229023441672325,0.018847724422812462,-0.0007670684135518968,-0.015990693122148514
