davideferrari95/blind_handover_controller/data/Test 127 - [2024-02-07 -- 16-36-51]/joint_states_data.csv
shoulder_pan_joint,shoulder_lift_joint,elbow_joint,wrist_1_joint,wrist_2_joint,wrist_3_joint
0.0054178256541490555,0.0071580009534955025,-0.011194637045264244,0.00892782211303711,0.0,0.005040554795414209
0.0054251085966825485,0.006926606874912977,-0.011938800103962421,0.009248653426766396,0.0,0.004957482218742371
0.005579002201557159,0.00632868055254221,-0.011522199027240276,0.009202244691550732,0.0,0.005085965618491173
0.005579002201557159,0.00632868055254221,-0.011522199027240276,0.009202244691550732,0.0,0.005085965618491173
0.005116831976920366,0.006459840573370457,-0.011632128618657589,0.009290811605751514,0.0,0.005172835662961006
0.0052702645771205425,0.00686133187264204,-0.01183928083628416,0.009485128335654736,0.0,0.004947514273226261
0.005554533097893,0.006645606830716133,-0.011324654333293438,0.008875645697116852,0.0,0.004994882270693779
0.005470145959407091,0.006395639386028051,-0.011004610918462276,0.009214989840984344,1.5476980763651227e-07,0.005010344088077545
0.005468105897307396,0.0069038886576890945,-0.011020691134035587,0.008749271742999554,1.0105362768797477e-08,0.0049184756353497505
0.005107443314045668,0.006438807584345341,-0.011095660738646984,0.00951468851417303,6.598079305142335e-10,0.004822735209017992
0.005843811668455601,0.006108904257416725,-0.01042319368571043,0.009816024452447891,4.308074730285938e-11,0.004886506125330925
0.005382018629461527,0.006252063903957605,-0.010948780924081802,0.00888056866824627,2.8128649583181176e-12,0.00551952188834548
0.004982827231287956,0.006753093097358942,-0.01090238243341446,0.009397216141223907,1.8365997199627782e-13,0.005367499776184559
0.005251657217741013,0.006779946852475405,-0.010877303779125214,0.00891011394560337,1.1991682603504361e-14,0.0052765849977731705
0.00502396933734417,0.006334606558084488,-0.011344343423843384,0.008431842550635338,7.82971157239188e-16,0.0056662666611373425
0.004916078876703978,0.006340763531625271,-0.010385019704699516,0.008348831906914711,5.112242206862708e-17,0.004799628630280495
0.005509224720299244,0.006101652979850769,-0.009889784269034863,0.008659419603645802,3.337928750075286e-18,0.004605789668858051
0.0051105148158967495,0.005577821750193834,-0.010762859135866165,0.00870975200086832,2.179428853078751e-19,0.005036939401179552
0.0053263395093381405,0.003963509574532509,-0.010387645103037357,0.008832183666527271,1.4230112477959045e-20,0.005139872431755066
0.005536324344575405,0.003081997623667121,-0.010324910283088684,0.008862212300300598,9.29124766546828e-22,0.005038863513618708
0.005120851565152407,0.003025894518941641,-0.010835018940269947,0.009274836629629135,6.066520221435971e-23,0.0051811011508107185
0.005412525963038206,0.004288643132895231,-0.010350559838116169,0.008447532542049885,3.961004317038135e-24,0.00522006256505847
0.0051909335888922215,0.004755022004246712,-0.01086340844631195,0.008802732452750206,2.5862526211163716e-25,0.005634346976876259
0.005820742808282375,0.004243658389896154,-0.011094849556684494,0.008994660340249538,1.6886381189064267e-26,0.0053408523090183735
0.006074856501072645,0.00381471193395555,-0.010254903696477413,0.008441816084086895,1.1025600338296991e-27,0.004987524822354317
0.006074856501072645,0.00381471193395555,-0.010254903696477413,0.008441816084086895,1.1025600338296991e-27,0.004987524822354317
0.004646047484129667,0.0038232365623116493,-0.011169450357556343,0.008818333968520164,7.198927520593973e-29,0.005050378385931253
0.004338991362601519,0.003952887374907732,-0.011618420481681824,0.008945402689278126,4.700385877977685e-30,0.0051010544411838055
0.0054098982363939285,0.003805603366345167,-0.011677361093461514,0.008742216974496841,3.069016151056223e-31,0.005564563907682896
0.0053736548870801926,0.0036408312153071165,-0.011421702802181244,0.008643683046102524,2.0038483221154604e-32,0.0053689549677073956
0.005318771582096815,0.0035699536092579365,-0.01158435270190239,0.008383111096918583,8.542719801693106e-35,0.004924139007925987
0.004994615446776152,0.0038727347273379564,-0.011213078163564205,0.008000233210623264,5.577785625217397e-36,0.004937798250466585
0.005427706521004438,0.0037906095385551453,-0.011267322115600109,0.008204100653529167,3.6418953392351802e-37,0.005222303327172995
0.005194641184061766,0.003506673499941826,-0.011707279831171036,0.007906192913651466,2.377897275535619e-38,0.005616684909909964
0.005432212259620428,0.0035592098720371723,-0.010653815232217312,0.007890686392784119,1.5525966595179676e-39,0.0053211357444524765
0.005548537243157625,0.0033037373796105385,-0.01052114274352789,0.008013409562408924,1.0137413480465024e-40,0.005052182823419571
0.005001075565814972,0.003531946334987879,-0.011328496970236301,0.008927597664296627,6.618332647006111e-42,0.004915500059723854
0.0048471782356500626,0.0037694128695875406,-0.010894900187849998,0.00816979818046093,4.3159992701204366e-43,0.004843026865273714
0.004910116083920002,0.003907219972461462,-0.010899649932980537,0.007687004283070564,2.802596928649634e-44,0.00475833285599947
0.005191695410758257,0.003473971737548709,-0.011875541880726814,0.008578118868172169,1.401298464324817e-45,0.00500692892819643
0.005602614022791386,0.0035820915363729,-0.010494708083570004,0.009113767184317112,0.0,0.00514591159299016
0.005331228952854872,0.004091260023415089,-0.010885260067880154,0.008181328885257244,0.0,0.005236294120550156
0.004885573405772448,0.00420908210799098,-0.010694213211536407,0.007616342511028051,0.0,0.005079544615000486
0.004774502012878656,0.0035272620152682066,-0.010726015083491802,0.007851173169910908,0.0,0.004933653399348259
0.005221463739871979,0.0035671580117195845,-0.011281663551926613,0.00791922491043806,0.0,0.0051621487364172935
0.005290109198540449,0.003296231385320425,-0.011658817529678345,0.007735062390565872,0.0,0.005131471436470747
0.005783430300652981,0.003432368626818061,-0.011679266579449177,0.007488072384148836,0.0,0.00505207572132349
0.0053750029765069485,0.004195515066385269,-0.01139234472066164,0.007650686893612146,0.0,0.005128032993525267
0.00484452536329627,0.004141862504184246,-0.01059779804199934,0.007570818066596985,0.0,0.005218381993472576
0.004648599773645401,0.003984277136623859,-0.011041760444641113,0.007246827241033316,0.0,0.00503260362893343
0.004686404950916767,0.0038834265433251858,-0.010624634101986885,0.006815945263952017,0.0,0.005111014470458031
0.004686404950916767,0.0038834265433251858,-0.010624634101986885,0.006815945263952017,0.0,0.005111014470458031
0.005292841698974371,0.0037627138663083315,-0.01091241929680109,0.0071583944372832775,0.0,0.005026647821068764
0.0055116163566708565,0.0037273222114890814,-0.011561998166143894,0.007322879042476416,0.0,0.0054285768419504166
0.0050454712472856045,0.003757764585316181,-0.010535240173339844,0.0072217355482280254,0.0,0.005306413397192955
0.0051720901392400265,0.003759080544114113,-0.01068539172410965,0.007290869485586882,0.0,0.005064951255917549
0.005109963472932577,0.0037626526318490505,-0.010988225229084492,0.008030151017010212,0.0,0.005198695696890354
0.005262789316475391,0.004168168641626835,-0.011076172813773155,0.007783943321555853,0.0,0.005342697259038687
0.005113787017762661,0.004436354618519545,-0.010835050605237484,0.0075606475584208965,0.0,0.005519305355846882
0.0057188645005226135,0.004160833079367876,-0.010924096219241619,0.008142092265188694,0.0,0.0053704408928751945
0.005399578250944614,0.003918916452676058,-0.01000619400292635,0.008039666339755058,0.0,0.0052621434442698956
0.004751259461045265,0.003843952203169465,-0.01118815504014492,0.007771368138492107,0.0,0.005033707711845636
0.004912141244858503,0.004104927647858858,-0.011399789713323116,0.007653052918612957,0.0,0.004880737978965044
0.005531901028007269,0.004026320762932301,-0.011297162622213364,0.008101939223706722,0.0,0.0051033939234912395
0.0052038514986634254,0.004354509525001049,-0.010467088781297207,0.008252354338765144,0.0,0.00537113705649972
0.005198695231229067,0.004176471382379532,-0.011533970944583416,0.007900790311396122,0.0,0.005564401857554913
0.00520287174731493,0.004475015681236982,-0.010887658223509789,0.00802550558000803,0.0,0.005225870758295059
0.0049934652633965015,0.00414021173492074,-0.010547470301389694,0.00783955492079258,0.0,0.004937364719808102
0.005365205463021994,0.003981894813477993,-0.011113042011857033,0.007650424260646105,0.0,0.005102549679577351
0.0054259831085801125,0.003969084471464157,-0.010146772488951683,0.007571305148303509,0.0,0.005213640630245209
0.005519427824765444,0.004356558434665203,-0.010668926872313023,0.008116376586258411,0.0,0.004997332580387592
0.00542246550321579,0.004215355031192303,-0.010976849123835564,0.00815266091376543,0.0,0.00487773260101676
0.00541329849511385,0.0042867776937782764,-0.010264595970511436,0.007719574496150017,0.0,0.004816672299057245
0.005123713985085487,0.004145616199821234,-0.010820080526173115,0.007506095338612795,0.0,0.004832146223634481
0.005381853319704533,0.004351103212684393,-0.010569246485829353,0.008225732482969761,0.0,0.005088325589895248
0.005381853319704533,0.004351103212684393,-0.010569246485829353,0.008225732482969761,0.0,0.005088325589895248
0.005280276294797659,0.00411064550280571,-0.010584607720375061,0.007614030037075281,0.0,0.0050878082402050495
0.005725878290832043,0.004004710353910923,-0.010817816480994225,0.007947256788611412,0.0,0.005222346633672714
0.005298038478940725,0.004345211666077375,-0.011014455929398537,0.0078059472143650055,0.0,0.005387736950069666
0.005822040140628815,0.0043241893872618675,-0.010537521913647652,0.007738693151623011,0.0,0.0054651061072945595
0.005396157968789339,0.004550490528345108,-0.010720628313720226,0.00781497173011303,0.0,0.005698685068637133
0.005336712580174208,0.004301233682781458,-0.010603389702737331,0.007591739762574434,0.0,0.005319060757756233
0.00563777843490243,0.004333633929491043,-0.01119732391089201,0.007535033393651247,0.0,0.005070355720818043
0.005330488085746765,0.004078323487192392,-0.010831611230969429,0.007657837122678757,0.0,0.004907403141260147
0.005410701502114534,0.004085734952241182,-0.011259345337748528,0.007077062502503395,0.0,0.00567743880674243
0.005390332546085119,0.004404005128890276,-0.010760904289782047,0.007449794560670853,0.0,0.005572943482547998
0.005199889186769724,0.004874111618846655,-0.010227433405816555,0.007681052666157484,0.0,0.005662835668772459
0.005725749768316746,0.004692233633249998,-0.010670583695173264,0.007697159890085459,0.0,0.005307788960635662
0.0055414894595742226,0.004360647406429052,-0.010155913420021534,0.007067912723869085,0.0,0.005582635756582022
0.005677537061274052,0.004407834727317095,-0.010474182665348053,0.007221809588372707,0.0,0.005587494000792503
0.0053978185169398785,0.004090679343789816,-0.01015003677457571,0.007536664605140686,0.0,0.0057829334400594234
0.005342385731637478,0.003977559041231871,-0.010332430712878704,0.007667461410164833,0.0,0.0055098757147789
0.005444140173494816,0.004391347523778677,-0.010335988365113735,0.007096639834344387,0.0,0.005259097088128328
0.005501644220203161,0.004627096001058817,-0.010194813832640648,0.007363153155893087,0.0,0.00501883402466774
0.005527709610760212,0.004609511233866215,-0.010342737659811974,0.0077585019171237946,0.0,0.004844566807150841
0.005370874423533678,0.004572931211441755,-0.01031286921352148,0.007576991803944111,0.0,0.00534583767876029
0.00577675411477685,0.004261442925781012,-0.010146948508918285,0.006973207462579012,0.0,0.005319125484675169
0.005487444344907999,0.004485228098928928,-0.00992483552545309,0.007059485651552677,0.0,0.005754176527261734
0.0058635082095861435,0.0047045545652508736,-0.010832958854734898,0.00799291767179966,0.0,0.005318483337759972
0.005406428128480911,0.004300464875996113,-0.01041918620467186,0.007685021497309208,0.0,0.0051969182677567005
0.005738718900829554,0.00429586973041296,-0.010721037164330482,0.007357574999332428,0.0,0.005610503256320953
0.005918730981647968,0.00431398767977953,-0.01116945967078209,0.00736856646835804,0.0,0.0056769466027617455
0.005769481882452965,0.004362276289612055,-0.011006702668964863,0.007696264423429966,0.0,0.005932943429797888
0.006123286671936512,0.004497128538787365,-0.011499586515128613,0.007613658905029297,0.0,0.005980176385492086
0.005501947365701199,0.004123183898627758,-0.011507244780659676,0.00695553794503212,0.0,0.005274483934044838
0.005905411206185818,0.004236089065670967,-0.010470620356500149,0.0074086119420826435,0.0,0.005249902606010437
0.005905411206185818,0.004236089065670967,-0.010470620356500149,0.0074086119420826435,0.0,0.005249902606010437
0.005810870788991451,0.004277323372662067,-0.011169389821588993,0.007846296764910221,0.0,0.00555062061175704
0.0057646287605166435,0.0043603586964309216,-0.011603257618844509,0.0076888143084943295,0.0,0.005589877255260944
0.00566864712163806,0.004189056344330311,-0.010329603217542171,0.006852111779153347,0.0,0.005851862486451864
0.006014315877109766,0.00436291703954339,-0.010934521444141865,0.0066988361068069935,0.0,0.0058565824292600155
0.005884401500225067,0.003946160431951284,-0.010899248532950878,0.0077010709792375565,0.0,0.004957607947289944
0.00583167839795351,0.004389467183500528,-0.011054678820073605,0.0073219407349824905,0.0,0.005225373897701502
0.005826093256473541,0.004145496059209108,-0.010785993188619614,0.006809581071138382,0.0,0.005477330647408962
0.005939573515206575,0.004501146264374256,-0.011196417734026909,0.007310381159186363,0.0,0.005897242110222578
0.00586274079978466,0.004148280713707209,-0.01076565682888031,0.007455811835825443,0.0,0.005304332822561264
0.0060887946747243404,0.004112368915230036,-0.010414781980216503,0.0070723299868404865,0.0,0.00521093187853694
0.0064262947998940945,0.004034058190882206,-0.011082759127020836,0.00679647084325552,0.0,0.005468158517032862
0.005968851037323475,0.003931836690753698,-0.010904904454946518,0.00678229471668601,0.0,0.005953483283519745
0.005786293186247349,0.004258098546415567,-0.011069473810493946,0.007335519418120384,0.0,0.006054116878658533
0.00564939808100462,0.004042664542794228,-0.011186446063220501,0.006970452610403299,0.0,0.005841443315148354
0.0061582596972584724,0.004364461172372103,-0.010226608254015446,0.006319116801023483,0.0,0.005278542637825012
0.006450647953897715,0.004380410071462393,-0.011020416393876076,0.006577643565833569,0.0,0.0056678736582398415
0.00595773383975029,0.004554667044430971,-0.011361293494701385,0.006810871884226799,0.0,0.005477389320731163
0.005779383238404989,0.004137406125664711,-0.010293987579643726,0.007115235552191734,0.0,0.005977556109428406
0.005777768790721893,0.00389080005697906,-0.011295635253190994,0.006707855500280857,0.0,0.005884529557079077
0.006298391614109278,0.00414866441860795,-0.010307727381587029,0.006993558723479509,0.0,0.006294505205005407
0.006179661024361849,0.0040597738698124886,-0.010632338933646679,0.006997265387326479,0.0,0.005815097596496344
0.006354977376759052,0.0043275440111756325,-0.011087136343121529,0.007049489300698042,0.0,0.005652179941534996
0.006048532202839851,0.004540897905826569,-0.010440519079566002,0.007000403944402933,0.0,0.0062515935860574245
0.006012903060764074,0.004277101252228022,-0.011100636795163155,0.0070852236822247505,0.0,0.00582107063382864
0.007065137382596731,0.004423990845680237,-0.01120950561016798,0.007675261702388525,0.0,0.005885189864784479
0.006499261129647493,0.004297592677175999,-0.010412546806037426,0.00778673542663455,0.0,0.005490429233759642
0.006290445104241371,0.004208294674754143,-0.010936357080936432,0.0070851449854671955,0.0,0.005841974169015884
0.006290445104241371,0.004208294674754143,-0.010936357080936432,0.0070851449854671955,0.0,0.005841974169015884
0.006286250427365303,0.003969635348767042,-0.010629909113049507,0.0066766031086444855,0.0,0.006237866822630167
0.006146627012640238,0.004287584684789181,-0.01067616418004036,0.00682638306170702,0.0,0.006261843256652355
0.006820932496339083,0.0045608882792294025,-0.011600390076637268,0.0072142439894378185,0.0,0.005937048699706793
0.006723863072693348,0.004852954298257828,-0.010954014025628567,0.006934619974344969,0.0,0.0057892207987606525
0.00681019714102149,0.004391477908939123,-0.011616428382694721,0.006774120964109898,0.0,0.00611076271161437
0.006355731748044491,0.004508828278630972,-0.010201290249824524,0.007738871034234762,0.0,0.006481756456196308
0.006709744222462177,0.004115693736821413,-0.011325174942612648,0.007470700889825821,0.0,0.006385739427059889
0.006315196864306927,0.004406535532325506,-0.011532398872077465,0.006609512027353048,0.0,0.005499361548572779
0.006149724591523409,0.004694852512329817,-0.011865356005728245,0.006898354738950729,0.0,0.005111209116876125
0.006310018710792065,0.004274699836969376,-0.011213262565433979,0.00729478569701314,0.0,0.006014104001224041
0.006781195290386677,0.004274443257600069,-0.010676703415811062,0.007103979121893644,0.0,0.006774078588932753
0.0064094471745193005,0.004248862154781818,-0.010996447876095772,0.007061483804136515,0.0,0.006023322232067585
0.006005024537444115,0.004349255468696356,-0.010973590426146984,0.007150091230869293,0.0,0.005707640666514635
0.006027309689670801,0.004445458296686411,-0.011069899424910545,0.0075383600778877735,0.0,0.005526438821107149
0.006490577477961779,0.004667213652282953,-0.01150880940258503,0.007551189512014389,0.0,0.005999185144901276
0.006533788982778788,0.0044521307572722435,-0.011332620866596699,0.0073098004795610905,0.0,0.0062606679275631905
0.006657019257545471,0.0040504541248083115,-0.01201793272048235,0.007319541182368994,0.0,0.006164447870105505
0.006485538091510534,0.00411637220531702,-0.01177157647907734,0.007513986900448799,0.0,0.006246439181268215
0.006171069107949734,0.004606328904628754,-0.010577560402452946,0.007085396442562342,0.0,0.006554159801453352
0.006653897929936647,0.004770142491906881,-0.011724534444510937,0.0070268139243125916,0.0,0.006308257579803467
0.006591291632503271,0.004850937984883785,-0.011081667616963387,0.006838466040790081,0.0,0.0061064292676746845
0.00657125748693943,0.004346303641796112,-0.011373741552233696,0.007325447630137205,0.0,0.006450500804930925
0.006420564372092485,0.004022634122520685,-0.011358742602169514,0.007604736369103193,0.0,0.0065131825394928455
0.006106566172093153,0.0042450507171452045,-0.010561470873653889,0.007097271271049976,0.0,0.00592018011957407
0.006106566172093153,0.0042450507171452045,-0.010561470873653889,0.007097271271049976,0.0,0.00592018011957407
0.006663198117166758,0.004523115698248148,-0.01110334787517786,0.00669993506744504,0.0,0.005939482245594263
0.006997940596193075,0.004522245842963457,-0.010707898065447807,0.0067618293687701225,0.0,0.00589880021288991
0.006716129835695028,0.004300655797123909,-0.01077663991600275,0.007187344133853912,0.0,0.005876538343727589
0.00666381698101759,0.004558051470667124,-0.01149633340537548,0.006843540817499161,0.0,0.006285096053034067
0.00648726848885417,0.004347205627709627,-0.011139525100588799,0.007065746001899242,0.0,0.006442773621529341
0.006642598193138838,0.0044180420227348804,-0.010652651078999043,0.0070519582368433475,0.0,0.006593966390937567
0.006305479910224676,0.0045605916529893875,-0.010125823318958282,0.007070212159305811,0.0,0.00646124966442585
0.00621860520914197,0.004419757053256035,-0.010456296615302563,0.006366831250488758,0.0,0.00618949718773365
0.006661136634647846,0.00460157310590148,-0.011272224597632885,0.006208883132785559,0.0,0.006478592287749052
0.0066220322623848915,0.004579861182719469,-0.010709059424698353,0.007323731202632189,0.0,0.00645066425204277
0.006861492991447449,0.004893706180155277,-0.010845772922039032,0.007524661719799042,0.0,0.006079413928091526
0.006800319999456406,0.004126845393329859,-0.010421736165881157,0.007076616398990154,0.0,0.006039094179868698
0.007589574903249741,0.003313804045319557,-0.01102371048182249,0.006856376770883799,0.0,0.005913708359003067
0.006946308072656393,0.0030169179663062096,-0.01083656307309866,0.007643409073352814,0.0,0.006140181329101324
0.006716569885611534,0.0034023569896817207,-0.01037675328552723,0.007152821868658066,0.0,0.006773615721613169
0.006550700403749943,0.004034547600895166,-0.011163030751049519,0.006764580029994249,0.0,0.006475523114204407
0.006893262267112732,0.004225518554449081,-0.010850143618881702,0.006795740220695734,0.0,0.0060125188902020454
0.0073530483059585094,0.003942070994526148,-0.010356738232076168,0.007312004454433918,0.0,0.006114431656897068
0.006973205599933863,0.004179592244327068,-0.010691906325519085,0.007321943063288927,0.0,0.006711164489388466
0.006412276066839695,0.0035483308602124453,-0.010921785607933998,0.0069811986759305,0.0,0.006547978613525629
0.00667104497551918,0.0033033303916454315,-0.010436207056045532,0.006705336272716522,0.0,0.006379698868840933
0.007115708664059639,0.003283099737018347,-0.01084211003035307,0.007195355370640755,0.0,0.0063118962571024895
0.007059155032038689,0.0035572401247918606,-0.010694128461182117,0.007553130853921175,0.0,0.005987546872347593
0.006979743484407663,0.003752963151782751,-0.011278670281171799,0.007347756531089544,0.0,0.006269954144954681
0.006798880640417337,0.003839369397610426,-0.01078234426677227,0.007386482786387205,0.0,0.006357183679938316
0.007566392887383699,0.0033472476061433554,-0.010076415725052357,0.0075585138984024525,0.0,0.006356941536068916
0.007566392887383699,0.0033472476061433554,-0.010076415725052357,0.0075585138984024525,0.0,0.006356941536068916
0.007571553345769644,0.0035385433584451675,-0.010721025988459587,0.007714145351201296,0.0,0.006624253466725349
0.006880142260342836,0.0034673879854381084,-0.010195967741310596,0.006835294421762228,0.0,0.006816723383963108
0.006753505673259497,0.0034187405835837126,-0.010657538659870625,0.006430399138480425,0.0,0.007135444320738316
0.0069755385629832745,0.003096932778134942,-0.011193126440048218,0.006669951602816582,0.0,0.006508435122668743
0.007271871902048588,0.0031326182652264833,-0.010622266680002213,0.006852760910987854,0.0,0.006263273768126965
0.007279815152287483,0.0032569568138569593,-0.010940365493297577,0.007271672133356333,0.0,0.006308560259640217
0.008084716275334358,0.0034389300271868706,-0.010360151529312134,0.006746105849742889,0.0,0.006689400877803564
0.007416639011353254,0.0032370034605264664,-0.011197570711374283,0.0066071851179003716,0.0,0.00701376236975193
0.006712491158396006,0.0034850656520575285,-0.010917063802480698,0.007226397283375263,5.725843266191077e-07,0.006612431723624468
0.006509541068226099,0.003201431594789028,-0.010924417525529861,0.007517061661928892,3.7385667894795915e-08,0.006573113612830639
0.007172189187258482,0.0032852543517947197,-0.01113598607480526,0.007138669025152922,2.441016722087852e-09,0.006800427101552486
0.0075798858888447285,0.0032404118683189154,-0.010522608645260334,0.007355032488703728,1.5938096675771618e-10,0.006952221971005201
0.008149441331624985,0.003503505140542984,-0.010691864416003227,0.007688030134886503,1.0406437864207696e-11,0.0072227539494633675
0.007001786958426237,0.003402567468583584,-0.010500283911824226,0.007634094450622797,6.794660862598223e-13,0.007009192369878292
0.006981913466006517,0.004031211603432894,-0.01075684279203415,0.006997283082455397,4.436428234868596e-14,0.007463294547051191
0.007496403995901346,0.004146580118685961,-0.011526545509696007,0.006683239713311195,2.8966707792842843e-15,0.006851422134786844
0.007325883023440838,0.0035495958290994167,-0.011055677197873592,0.006898451596498489,1.89131908914714e-16,0.007015726529061794
0.0071223643608391285,0.0035864096134901047,-0.010511726140975952,0.007163772359490395,1.2348962821191899e-17,0.006847555283457041
0.006989079527556896,0.004271055571734905,-0.01095606293529272,0.00710821570828557,8.062989549770093e-19,0.007190882693976164
0.007816033437848091,0.004125586710870266,-0.010576777160167694,0.006763555109500885,5.2645561119116526e-20,0.007359097711741924
0.00844652485102415,0.0038620675913989544,-0.011096803471446037,0.006973559502512217,3.4373789238260835e-21,0.007363518700003624
0.00787767767906189,0.0038463673554360867,-0.011162905022501945,0.007385574281215668,2.244362791677589e-22,0.007090239319950342
0.008254374377429485,0.0039652567356824875,-0.010723338462412357,0.007492865435779095,1.4654085279220873e-23,0.006910490337759256
0.007925063371658325,0.00402483157813549,-0.011072027496993542,0.007498385850340128,9.568070253598496e-25,0.006810709834098816
0.007827864959836006,0.003927499521523714,-0.010592620819807053,0.007258322089910507,6.247266226059602e-26,0.006835348904132843
0.007397254928946495,0.003909178078174591,-0.01069672778248787,0.0071816397830843925,4.079018318297091e-27,0.007069580256938934
0.007503423374146223,0.003931873012334108,-0.011237028986215591,0.007394611369818449,2.663307131076131e-28,0.007011250592768192
0.0075495620258152485,0.003479930805042386,-0.01125757023692131,0.006714262533932924,1.7389492301770782e-29,0.0071113151498138905
0.007590366993099451,0.003549931338056922,-0.010627401061356068,0.006700902245938778,1.1354096173010552e-30,0.007321017794311047
0.007655180525034666,0.0037757570389658213,-0.010790135711431503,0.007085502613335848,7.413413815198117e-32,0.007335764355957508
0.007655180525034666,0.0037757570389658213,-0.010790135711431503,0.007085502613335848,7.413413815198117e-32,0.007335764355957508
0.007767355069518089,0.0039048625621944666,-0.010613948106765747,0.007308844476938248,4.840429331980907e-33,0.007756502367556095
0.008303605951368809,0.003882520366460085,-0.011166837997734547,0.007204033900052309,3.1604545450186973e-34,0.007628118619322777
0.00774156441912055,0.003811831586062908,-0.010760788805782795,0.006997008807957172,2.0635510603041254e-35,0.007570913527160883
0.008066910319030285,0.004305989947170019,-0.011163180693984032,0.007418707478791475,8.797242457750984e-38,0.007613662630319595
0.00814652256667614,0.004096504300832748,-0.011042378842830658,0.007414314430207014,5.7439714507136765e-39,0.007931475527584553
0.007826362736523151,0.0038625462912023067,-0.011325297877192497,0.0074209291487932205,3.750407183949654e-40,0.007650877349078655
0.007477353326976299,0.00376753113232553,-0.011438993737101555,0.007585037965327501,2.448769066407618e-41,0.007115642074495554
0.007779392879456282,0.0037581613287329674,-0.010699302889406681,0.007146656047552824,1.5988815477946163e-42,0.007004244718700647
0.00892143789678812,0.0039403969421982765,-0.011377046816051006,0.0073248944245278835,1.0369608636003646e-43,0.007347915321588516
0.008105969987809658,0.003954107873141766,-0.01076611876487732,0.006765308789908886,7.006492321624085e-45,0.00725672859698534
0.007622608449310064,0.003901760559529066,-0.010785429738461971,0.00704627949744463,0.0,0.007581070065498352
0.00794992782175541,0.003772143041715026,-0.011447479948401451,0.007073128595948219,0.0,0.00718323327600956
0.008061983622610569,0.0037349353078752756,-0.011539516970515251,0.006842710077762604,0.0,0.007133993785828352
0.007643152493983507,0.004240166395902634,-0.011371447704732418,0.0069017475470900536,0.0,0.007273383438587189
0.008230146020650864,0.004158682655543089,-0.010902317240834236,0.007202574051916599,0.0,0.008806534111499786
0.008353308774530888,0.004006925038993359,-0.010700452141463757,0.007733695209026337,0.0,0.008098769001662731
0.008119710721075535,0.0034816123079508543,-0.011339319869875908,0.00743483891710639,0.0,0.006838988047093153
0.008088978938758373,0.0035134574864059687,-0.011084319092333317,0.0070522562600672245,0.0,0.00711577944457531
0.00843896809965372,0.004219204653054476,-0.010990571230649948,0.0069928583689033985,-9.648901141190436e-06,0.007629273924976587
0.00854035746306181,0.0045720357447862625,-0.011139074340462685,0.007332125678658485,-9.892307571135461e-05,0.0086913937702775
0.00779686588793993,0.0041680228896439075,-0.010388186201453209,0.007363725453615189,-0.00010250752529827878,0.008105551823973656
0.008054208941757679,0.00396145973354578,-0.01109408587217331,0.006647536531090736,-0.00010059725900646299,0.007526183966547251
0.008847881108522415,0.0034346356987953186,-0.011179707013070583,0.007020709570497274,-9.842195140663534e-05,0.007392321713268757
0.008556639775633812,0.0036170107778161764,-0.011218913830816746,0.00756399892270565,-9.63169222814031e-05,0.008057971484959126
0.008556639775633812,0.0036170107778161764,-0.011218913830816746,0.00756399892270565,-9.63169222814031e-05,0.008057971484959126
0.007976340129971504,0.004168409388512373,-0.011663481593132019,0.007283016107976437,-9.429858619114384e-05,0.008140435442328453
0.008593288250267506,0.004256671294569969,-0.01166197843849659,0.007046849466860294,-0.0001084121540770866,0.00794446375221014
0.008474301546812057,0.0044351015239953995,-0.011083769612014294,0.00691619236022234,-0.00010844814096344635,0.008107398636639118
0.00837028119713068,0.004202085081487894,-0.011497669853270054,0.007733102422207594,-0.00010645472502801567,0.00798502005636692
0.008317330852150917,0.004034835379570723,-0.010756698437035084,0.007678912952542305,-0.00010440588812343776,0.007587122265249491
0.008868980221450329,0.003611668711528182,-0.011714898981153965,0.007068511098623276,-0.00010051951539935544,0.007525111548602581
0.008533256128430367,0.00429775845259428,-0.011086114682257175,0.0074656056240201,-9.868256893241778e-05,0.007653274107724428
0.008656200021505356,0.004138206131756306,-0.011836206540465355,0.007390117738395929,-9.691154264146462e-05,0.007982412353157997
0.008783888071775436,0.003919736482203007,-0.011297175660729408,0.007271386682987213,-9.520289313513786e-05,0.00816208403557539
0.008469365537166595,0.0038256279658526182,-0.01158515177667141,0.007595931179821491,-0.00010122921958100051,0.008597743697464466
0.008513132110238075,0.0039900196716189384,-0.011839793063700199,0.00792378094047308,-0.00010677008685888723,0.008448665961623192
0.008891219273209572,0.003892255946993828,-0.011347421444952488,0.00801014993339777,-0.00010545679106144235,0.008194263093173504
0.008612620644271374,0.0037037546280771494,-0.012086904607713223,0.007767966482788324,-0.0001037510228343308,0.008477763272821903
0.008357582613825798,0.0036939256824553013,-0.01201414130628109,0.007009712979197502,-0.00010207215382251889,0.009050770662724972
0.008776422590017319,0.0037517747841775417,-0.012058570049703121,0.007121584378182888,-0.00010044484224636108,0.008237848989665508
0.008554897271096706,0.0038641898427158594,-0.011492022313177586,0.007260630838572979,-9.886850602924824e-05,0.007913995534181595
0.008851862512528896,0.004375747870653868,-0.011211482807993889,0.007208838127553463,-9.734096965985373e-05,0.008169141598045826
0.008752748370170593,0.004060207400470972,-0.011409904807806015,0.007306959480047226,-9.58598029683344e-05,0.008693162351846695
0.008920523338019848,0.004315780941396952,-0.011475818231701851,0.007169704418629408,-9.442299779038876e-05,0.00869849231094122
0.009295040741562843,0.004192071966826916,-0.012126961722970009,0.007049977779388428,-9.302874968852848e-05,0.008770759217441082
0.008782163262367249,0.003998202737420797,-0.011665096506476402,0.007338338531553745,-0.00010306108015356585,0.008777571842074394
0.009216347709298134,0.0038662441074848175,-0.011246351525187492,0.008036978542804718,-0.00010315719555364922,0.00869524385780096
0.00928820576518774,0.0038555217906832695,-0.011530431918799877,0.007815645076334476,-0.00010180127719650045,0.008770417422056198
0.009055204689502716,0.004265608731657267,-0.0111711909994483,0.007171999663114548,-0.00010038851178251207,0.008673310279846191
0.009086347185075283,0.004338496830314398,-0.011519759893417358,0.006756118033081293,-9.90085318335332e-05,0.008315276354551315
0.009870067238807678,0.0040289657190442085,-0.012348401360213757,0.00740393903106451,-9.766558650881052e-05,0.00815938226878643
0.009870067238807678,0.0040289657190442085,-0.012348401360213757,0.00740393903106451,-9.766558650881052e-05,0.00815938226878643
0.009762877598404884,0.0039152707904577255,-0.011496256105601788,0.007425938732922077,-0.00012280129885766655,0.008303316310048103
0.009762877598404884,0.0039152707904577255,-0.011496256105601788,0.007425938732922077,-0.00012280129885766655,0.008303316310048103
0.009169075638055801,0.0037944060750305653,-0.011245246045291424,0.007026821840554476,-0.00012831739149987698,0.008816909976303577
0.009565252810716629,0.0037662533577531576,-0.011638954281806946,0.007347734645009041,-0.00012533270637504756,0.008648070506751537
0.009508303366601467,0.004722401034086943,-0.011079332791268826,0.00752386124804616,-0.00011875714699272066,0.008452169597148895
0.009203068912029266,0.004402569495141506,-0.012284730561077595,0.007208322174847126,-0.00011570355854928493,0.008415364660322666
0.009832227602601051,0.00450080307200551,-0.011440437287092209,0.008071993477642536,-0.00012952557881362736,0.008429784327745438
0.009419170208275318,0.004208269063383341,-0.011740632355213165,0.008405397646129131,-0.0001316722627962008,0.008852031081914902
0.008990442380309105,0.004355562850832939,-0.011658054776489735,0.007638875860720873,-0.00012887618504464626,0.008704151026904583
0.010135263204574585,0.004459645599126816,-0.011338786222040653,0.007247829344123602,-0.0001258941920241341,0.008612574078142643
0.009654450230300426,0.004207352641969919,-0.01218466367572546,0.007846465334296227,-0.00012302715913392603,0.008579084649682045
0.009160683490335941,0.004401401150971651,-0.011348795145750046,0.007714719045907259,-0.00012028682249365374,0.008796975947916508
0.0095736188814044,0.00426736194640398,-0.011617538519203663,0.007237497717142105,-0.00011766556417569518,0.009383635595440865
0.009874927811324596,0.004495883826166391,-0.011715419590473175,0.007268525660037994,-0.00012939187581650913,0.008939371444284916
0.009679069742560387,0.004213159438222647,-0.011219297535717487,0.00814539473503828,-0.0001312200620304793,0.008777519688010216
0.009956572204828262,0.004283387213945389,-0.011822900734841824,0.008111913688480854,-0.00012883218005299568,0.009158793836832047
0.010210433974862099,0.004552111029624939,-0.011482366360723972,0.007665534969419241,-0.0001262691366719082,0.009433817118406296
0.009409767575562,0.004280003719031811,-0.01134577952325344,0.007820830680429935,-0.00012378933024592698,0.009163111448287964
0.009934783913195133,0.004503294825553894,-0.011581916362047195,0.008420837111771107,-0.00012140392936998978,0.00924812164157629
0.01036347821354866,0.004595851060003042,-0.011294953525066376,0.007797381840646267,-0.00011910853936569765,0.00940965861082077
0.009773817844688892,0.004257504362612963,-0.01209542527794838,0.007090467028319836,-0.00011689840903272852,0.00953560322523117
0.010100829415023327,0.0040491377003490925,-0.011292558163404465,0.0072692278772592545,-0.00011476896179374307,0.009238000959157944
0.010808653198182583,0.004230329766869545,-0.011749387718737125,0.008037906140089035,-0.00012670947762671858,0.009306831285357475
0.009925046935677528,0.0045095509849488735,-0.011833044700324535,0.007907667197287083,-0.0001264158054254949,0.00911374855786562
0.009978625923395157,0.004580581095069647,-0.011298236437141895,0.007680784445255995,-0.0001243583974428475,0.009405061602592468
0.010319250635802746,0.0047668092884123325,-0.011938987299799919,0.007665164303034544,-0.0001222551945829764,0.009013949893414974
0.010276176035404205,0.004460233263671398,-0.012149042449891567,0.007797861937433481,-0.00012021443399135023,0.009454749524593353
0.010276176035404205,0.004460233263671398,-0.012149042449891567,0.007797861937433481,-0.00012021443399135023,0.009454749524593353
0.010028503835201263,0.0035438979975879192,-0.011617313139140606,0.007747272029519081,-0.00011824016110040247,0.008757318370044231
0.010516979731619358,0.0030880195554345846,-0.011526349000632763,0.007132307160645723,-0.00011632991663645953,0.008907816372811794
0.009669019840657711,0.003422277979552746,-0.011077987030148506,0.007322962861508131,-0.0001144802154158242,0.009807437658309937
0.0108023127540946,0.00426721153780818,-0.011526523157954216,0.008048220537602901,-0.00014331593411043286,0.008816234767436981
0.009938125498592854,0.00403771223500371,-0.01215742714703083,0.007978186011314392,-0.00013944033707957715,0.009302319958806038
0.010199020616710186,0.003452047472819686,-0.011815080419182777,0.008199029602110386,-0.00013528490671887994,0.009722650982439518
0.010042336769402027,0.003520484082400799,-0.011522791348397732,0.008447952568531036,-0.00015079439617693424,0.009751478210091591
0.009565225802361965,0.0037236378993839025,-0.012088590301573277,0.008326414972543716,-0.00015269184950739145,0.009609418921172619
0.009609203785657883,0.0038056231569498777,-0.011080685071647167,0.008038047701120377,-0.00014888412260916084,0.009820190258324146
0.00984044000506401,0.0037740259431302547,-0.010991872288286686,0.008244458585977554,-0.0001628118916414678,0.010418747551739216
0.010423646308481693,0.0037395828403532505,-0.011608493514358997,0.007956082932651043,-0.00016424211207777262,0.009968418627977371
0.009999023750424385,0.0037590970750898123,-0.01106774341315031,0.007646483834832907,-0.00016043006326071918,0.009569775313138962
0.009776370599865913,0.0033427400048822165,-0.011955035850405693,0.007646047044545412,-0.00017732603009790182,0.009380065836012363
0.010039485059678555,0.003367281286045909,-0.011600775644183159,0.008031240664422512,-0.0001743927859934047,0.009474262595176697
0.010856442153453827,0.003431386314332485,-0.01163896918296814,0.008154710754752159,-0.00017048121662810445,0.009833410382270813
0.01007640641182661,0.0034094953443855047,-0.01177065446972847,0.008173622190952301,-0.00032703857868909836,0.009857664816081524
0.010155847296118736,0.0035262638702988625,-0.011419244110584259,0.008154835551977158,-0.0003151852579321712,0.010190115310251713
0.010434105060994625,0.0036809525918215513,-0.01188563834875822,0.008519871160387993,-0.00029522142722271383,0.009886523708701134
0.010008051060140133,0.003806198015809059,-0.011861276812851429,0.007900837808847427,-0.00027708077686838806,0.009946584701538086
0.010501946322619915,0.0034407551866024733,-0.012115972116589546,0.008008306846022606,-0.0002864262496586889,0.010812563821673393
0.01084056030958891,0.003593520959839225,-0.011984949931502342,0.008223632350564003,-0.0002942817809525877,0.010418358258903027
0.010063979774713516,0.003850736189633608,-0.01125511433929205,0.007889242842793465,-0.00028052469133399427,0.009960678406059742
0.01205956470221281,0.003932629711925983,-0.011848771944642067,0.0075963628478348255,-0.00026676335255615413,0.010029664263129234
0.009986771270632744,0.003935547079890966,-0.01127525232732296,0.007476042024791241,-0.00025420889141969383,0.010137733072042465
0.009986771270632744,0.003935547079890966,-0.01127525232732296,0.007476042024791241,-0.00025420889141969383,0.010137733072042465
0.009759871289134026,0.0035469927825033665,-0.01190455723553896,0.007790674455463886,-0.00028047358500771224,0.009943872690200806
0.010728559456765652,0.0034717870876193047,-0.012162436731159687,0.00760343112051487,-0.00027087031048722565,0.010199069045484066
0.010872557759284973,0.0036515987012535334,-0.011498436331748962,0.007374415174126625,-0.0002598561404738575,0.010390982031822205
0.010276325047016144,0.0038188472390174866,-0.012411068193614483,0.007655431050807238,-0.0002827992429956794,0.010093891993165016
0.010696904733777046,0.003908609505742788,-0.011332417838275433,0.008221895433962345,-0.00027419583057053387,0.010550981387495995
0.012588602490723133,0.0034717493690550327,-0.012114005163311958,0.007997065782546997,-0.00028347462648525834,0.010427404195070267
0.012098929844796658,0.003555420320481062,-0.010359936393797398,0.008340662345290184,-0.00026779790641739964,0.010610426776111126
0.012133513577282429,0.003663004143163562,-0.013178632594645023,0.00817714910954237,-0.000277460552752018,0.010307633318006992
0.013203754089772701,0.004185641184449196,-0.012361764907836914,0.008086222223937511,-0.0002855577622540295,0.010516003705561161
0.011790272779762745,0.0041306293569505215,-0.012346024625003338,0.008043043315410614,-0.00030616490403190255,0.010659392923116684
0.011981676332652569,0.003642150666564703,-0.012159441597759724,0.008988962508738041,-0.0003021058510057628,0.010228756815195084
0.011969588696956635,0.0035075724590569735,-0.01269103866070509,0.008671514689922333,-0.00031942667555995286,0.010602752678096294
0.012301412411034107,0.004237213172018528,-0.012411946430802345,0.007991522550582886,-0.00031507862149737775,0.010932225733995438
0.012557282112538815,0.004164406098425388,-0.012136556208133698,0.007561272941529751,-0.0003024705802090466,0.01034926064312458
0.012243827804923058,0.0038467796985059977,-0.012795602902770042,0.008181039243936539,-0.0002903128042817116,0.010808128863573074
0.012538567185401917,0.003700435161590576,-0.012311550788581371,0.007950079627335072,-0.00036777358036488295,0.010358840227127075
0.012434051372110844,0.003784332424402237,-0.012595772743225098,0.0075609092600643635,-0.00036732424632646143,0.010433374904096127
0.012270720675587654,0.0039346907287836075,-0.012695695273578167,0.0077588376589119434,-0.00034138039336539805,0.010764109902083874
0.012309052981436253,0.003928760066628456,-0.01251951139420271,0.007735394407063723,-0.0003174113226123154,0.010162974707782269
0.012203067541122437,0.003786566900089383,-0.012553100474178791,0.008119679056107998,-0.0002964927116408944,0.010509146377444267
0.01238021906465292,0.0040802257135510445,-0.012297514826059341,0.007781206164509058,-0.0003262509417254478,0.010408843867480755
0.011922404170036316,0.004265706054866314,-0.012908237986266613,0.008575576357543468,-0.0003138554748147726,0.010519452393054962
0.012533549219369888,0.003536403179168701,-0.012039902620017529,0.008485142141580582,-0.0002970157365780324,0.010140432976186275
0.012400800362229347,0.0035019968636333942,-0.012677139602601528,0.00848373956978321,-0.0003044402110390365,0.01041237823665142
0.012222044169902802,0.0031248927116394043,-0.012159392237663269,0.008426183834671974,-0.00031062786001712084,0.010321705602109432
0.012257215566933155,0.0033456815872341394,-0.0126173822209239,0.008630906231701374,-0.00029734958661720157,0.010787651874125004
0.012609136290848255,0.0035994118079543114,-0.012946438044309616,0.008179147727787495,-0.0003140054177492857,0.010789349675178528
0.012575269676744938,0.0035694425459951162,-0.01186350267380476,0.008153350092470646,-0.00030991501989774406,0.011306658387184143
0.012220404110848904,0.0033659380860626698,-0.012649152427911758,0.008416583761572838,-0.0002977151016239077,0.011110723949968815
0.012220404110848904,0.0033659380860626698,-0.012649152427911758,0.008416583761572838,-0.0002977151016239077,0.011110723949968815
0.012432067655026913,0.0037229484878480434,-0.012797826901078224,0.008097105659544468,-0.00029389859992079437,0.010520095005631447
0.012432067655026913,0.0037229484878480434,-0.012797826901078224,0.008097105659544468,-0.00029389859992079437,0.010520095005631447
0.012987036257982254,0.003292487468570471,-0.012465866282582283,0.008703983388841152,-0.0002944503503385931,0.011005817912518978
0.012987036257982254,0.003292487468570471,-0.012465866282582283,0.008703983388841152,-0.0002944503503385931,0.011005817912518978
0.01289663091301918,0.0035060334485024214,-0.012013695202767849,0.008610576391220093,-0.00027996371500194073,0.011005195789039135
0.012691556476056576,0.003747271839529276,-0.013002591207623482,0.008761711418628693,-0.0002878661034628749,0.010961192660033703
0.0129535598680377,0.0034202388487756252,-0.011841900646686554,0.009313139133155346,-0.00029450844158418477,0.011297098360955715
0.012724361382424831,0.0033025373704731464,-0.012537906877696514,0.008829828351736069,-0.0003023403696715832,0.011334948241710663
0.012955183163285255,0.003378364723175764,-0.012182042002677917,0.009084537625312805,-0.00030785813578404486,0.011193078011274338
0.012771457433700562,0.003634148044511676,-0.012601956725120544,0.008944111876189709,-0.00029638977139256895,0.01168147660791874
0.013051179237663746,0.0035605926532298326,-0.01289972010999918,0.008571303449571133,-0.0003761354892048985,0.011609981767833233
0.012637834995985031,0.0035983656998723745,-0.01235260721296072,0.008555462583899498,-0.0003948256780859083,0.011762211099267006
0.013049539178609848,0.003338213311508298,-0.01263038907200098,0.008717136457562447,-0.00039846045547164977,0.011699664406478405
0.013136513531208038,0.0036162480246275663,-0.011791127733886242,0.008453689515590668,-0.00037306579179130495,0.011394782923161983
0.012998942285776138,0.0038693726528435946,-0.012553992681205273,0.008137911558151245,-0.0003490754752419889,0.01173274777829647
0.012811175547540188,0.0039267223328351974,-0.012283683754503727,0.008844477124512196,-0.0003787267196457833,0.01138222124427557
0.012837539426982403,0.003937429748475552,-0.012636608444154263,0.00847136415541172,-0.00036037241807207465,0.011612621136009693
0.01296679675579071,0.003920498304069042,-0.012692033313214779,0.008442433550953865,-0.0003410712815821171,0.011979698203504086
0.012655084952712059,0.0038062098901718855,-0.012478476390242577,0.008528458885848522,-0.00036357290809974074,0.011695567518472672
0.01301236916333437,0.003787955967709422,-0.012831658124923706,0.00883104931563139,-0.0003513117553666234,0.011957688257098198
0.013070116750895977,0.003785834414884448,-0.012176615186035633,0.008817633613944054,-0.0003353059000801295,0.011480983346700668
0.01325453631579876,0.0033856541849672794,-0.01251926552504301,0.008817175403237343,-0.0003801505081355572,0.01153817493468523
0.0128346998244524,0.0035634173545986414,-0.012072576209902763,0.008822575211524963,-0.00035914574982598424,0.011813029646873474
0.012976310215890408,0.0037370973732322454,-0.012689033523201942,0.008885771967470646,-0.00033314916072413325,0.011513922363519669
0.01319587230682373,0.0038162260316312313,-0.01292678527534008,0.008570661768317223,-0.00036379555240273476,0.011759299784898758
0.012991988100111485,0.003832415444776416,-0.012906392104923725,0.008735086768865585,-0.00034768125624395907,0.011839345097541809
0.014129554852843285,0.0033694757148623466,-0.012561383657157421,0.009055504575371742,-0.00037423049798235297,0.011968801729381084
0.013490593992173672,0.0033034817315638065,-0.012435304000973701,0.009105122648179531,-0.00035935587948188186,0.012286596931517124
0.013490593992173672,0.0033034817315638065,-0.012435304000973701,0.009105122648179531,-0.00035935587948188186,0.012286596931517124
0.013286687433719635,0.0033066272735595703,-0.01253512129187584,0.00865112990140915,-0.0003403560840524733,0.012256056070327759
0.01386343128979206,0.0032616700045764446,-0.012502141296863556,0.009250524453818798,-0.00035027609555982053,0.011992297135293484
0.01297143753618002,0.0034366592299193144,-0.01232595182955265,0.00866234302520752,-0.00037415942642837763,0.012086769565939903
0.013199184089899063,0.0037285785656422377,-0.013053531758487225,0.008987302891910076,-0.0003812161448877305,0.012258056551218033
0.013012008741497993,0.003413871629163623,-0.012663395144045353,0.00910239852964878,-0.0003880420990753919,0.012190821580588818
0.013576718047261238,0.0035455040633678436,-0.012232697568833828,0.00866097491234541,-0.0003913629916496575,0.012333197519183159
0.013390373438596725,0.003671967191621661,-0.01310810912400484,0.009423939511179924,-0.00036682779318653047,0.011954078450798988
0.013629916124045849,0.00379648944362998,-0.012425554916262627,0.009143907576799393,-0.00039688320248387754,0.011948042549192905
0.013581126928329468,0.0033489104826003313,-0.01292904932051897,0.009291574358940125,-0.00037663031253032386,0.01190606877207756
0.013589015230536461,0.0032617119140923023,-0.01223605964332819,0.009064409881830215,-0.0004028781841043383,0.01219005323946476
0.01351796742528677,0.003274857299402356,-0.012704052962362766,0.00965284276753664,-0.0004640312399715185,0.011923165991902351
0.013587470166385174,0.003540130564942956,-0.012567237950861454,0.009544342756271362,-0.0004899552441202104,0.012157169170677662
0.013907148502767086,0.0037805780302733183,-0.01255560852587223,0.009193147532641888,-0.000446339778136462,0.013161963783204556
0.013348711654543877,0.0034633290488272905,-0.012989173643290997,0.009518097154796124,-0.00040631910087540746,0.011885484680533409
0.013715934939682484,0.0035718108993023634,-0.012322976253926754,0.009495452046394348,-0.0003726544964592904,0.011944480240345001
0.01360526867210865,0.003678642911836505,-0.01291164755821228,0.009387651458382607,-0.000377482472686097,0.011878776364028454
0.014598780311644077,0.003467053174972534,-0.012498743832111359,0.009711443446576595,-0.0003812843351624906,0.012380965985357761
0.014367367140948772,0.003429390722885728,-0.013090924359858036,0.009600581601262093,-0.0003579916665330529,0.01251616794615984
0.014786900952458382,0.0031916587613523006,-0.013023401610553265,0.009790195152163506,-0.00033584554330445826,0.01246428769081831
0.014205781742930412,0.0032222603913396597,-0.01353417057543993,0.010269740596413612,-0.0003161799977533519,0.012447385117411613
0.01467019971460104,0.0033682738430798054,-0.012803652323782444,0.009653887711465359,-0.00032293819822371006,0.012188628315925598
0.014206520281732082,0.0034644457045942545,-0.012720906175673008,0.008888126350939274,-0.00032852834556251764,0.01233209203928709
0.014799170196056366,0.003525699023157358,-0.013424821197986603,0.009419567883014679,-0.00031363690504804254,0.012529566884040833
0.014466473832726479,0.003634736407548189,-0.013080705888569355,0.009324639104306698,-0.0002988509659189731,0.012483932077884674
0.014880454167723656,0.0037363101728260517,-0.013054764829576015,0.008851712569594383,-0.0002853191690519452,0.012551600113511086
0.01455395482480526,0.0033870921470224857,-0.012718481943011284,0.009101156145334244,-0.0002729542029555887,0.012223057448863983
0.015014133416116238,0.003559026401489973,-0.013494240120053291,0.009825014509260654,-0.0002616178535390645,0.012319083325564861
0.015014133416116238,0.003559026401489973,-0.013494240120053291,0.009825014509260654,-0.0002616178535390645,0.012319083325564861
0.015156175009906292,0.0034800153225660324,-0.013646767474710941,0.009586745873093605,-0.00027544813929125667,0.013438329100608826
0.014933687634766102,0.0036965101025998592,-0.013411167077720165,0.009700903668999672,-0.0002658248122315854,0.012867627665400505
0.015245283953845501,0.0038910629227757454,-0.01372869685292244,0.009580681100487709,-0.0002563922025728971,0.013349122367799282
0.014873713254928589,0.003973192069679499,-0.01364640798419714,0.009192193858325481,-0.00024757819483056664,0.013158365152776241
0.01501439604908228,0.003531215712428093,-0.01393126230686903,0.00946742482483387,-0.0002127720945281908,0.01306322030723095
0.015500443056225777,0.003357773181051016,-0.013798240572214127,0.009282398037612438,-0.00019555365724954754,0.013326193206012249
0.01524747908115387,0.0034049111418426037,-0.0137279462069273,0.00939494464546442,-0.00018690800061449409,0.012808936648070812
0.014835841953754425,0.003501313738524914,-0.014116204343736172,0.00964774377644062,-0.00019698016694746912,0.012716671451926231
0.015073642134666443,0.0035366930533200502,-0.013703431002795696,0.00895319227129221,-0.00020584817684721202,0.012606019154191017
0.015215635299682617,0.0036414831411093473,-0.014392193406820297,0.009048499166965485,-0.0001993200567085296,0.013088115490972996
0.014828122220933437,0.0037801689468324184,-0.01406780444085598,0.009168163873255253,-0.00020799280900973827,0.013305925764143467
0.015207267366349697,0.003840418066829443,-0.014048740267753601,0.008798082359135151,-0.00021556277351919562,0.013798876665532589
0.015440896153450012,0.003785251872614026,-0.013469584286212921,0.009007008746266365,-0.00020935895736329257,0.013655917719006538
0.015604883432388306,0.0037235929630696774,-0.013978561386466026,0.009146592579782009,-0.0002296871243743226,0.013476339168846607
0.014968730509281158,0.0037767442408949137,-0.013549457304179668,0.009544790722429752,-0.00022429644013755023,0.01320437528192997
0.015423214994370937,0.0038738304283469915,-0.014335359446704388,0.008774259127676487,-0.00034859045990742743,0.013604008592665195
0.01509870309382677,0.003930628765374422,-0.013713881373405457,0.009105411358177662,-0.00036281163920648396,0.013679948635399342
0.015774689614772797,0.0034365470055490732,-0.01394231803715229,0.009227433241903782,-0.0003880221047438681,0.013684437610208988
0.015834739431738853,0.003538968041539192,-0.013492721132934093,0.009643947705626488,-0.0003765871515497565,0.014170519076287746
0.015867827460169792,0.0038107195869088173,-0.014142782427370548,0.009901738725602627,-0.0003815787495113909,0.013739064335823059
0.01516255084425211,0.004386143758893013,-0.013054932467639446,0.009628614410758018,-0.0003846333420369774,0.013538709841668606
0.01569768786430359,0.0042466637678444386,-0.013600080274045467,0.008829208090901375,-0.0003894597466569394,0.013235406950116158
0.015813728794455528,0.0035271586384624243,-0.013035526499152184,0.008956104516983032,-0.000391770270653069,0.013534178026020527
0.015895135700702667,0.00358698982745409,-0.01392272673547268,0.009145040065050125,-0.00037300653639249504,0.012286473996937275
0.016191259026527405,0.003958761226385832,-0.013577280566096306,0.008977560326457024,-0.0004417166637722403,0.012716748751699924
0.016191259026527405,0.003958761226385832,-0.013577280566096306,0.008977560326457024,-0.0004417166637722403,0.012716748751699924
0.015845023095607758,0.004136974923312664,-0.01391891110688448,0.009337292052805424,-0.00042940041748806834,0.013357867486774921
0.016321709379553795,0.00355499773286283,-0.01361597515642643,0.00952963437885046,-0.0004514793981797993,0.013910793699324131
0.01619838923215866,0.004162428434938192,-0.014028910547494888,0.009227587841451168,-0.00043322189594618976,0.013751163147389889
0.016611093655228615,0.0039029617328196764,-0.013642610050737858,0.00976791512221098,-0.00042017048690468073,0.013732988387346268
0.016404958441853523,0.003776688128709793,-0.013452870771288872,0.010488155297935009,-0.0004072904121130705,0.013763578608632088
0.01653159409761429,0.003774103010073304,-0.013291332870721817,0.009139320813119411,-0.0003834270464722067,0.013729886151850224
0.015974266454577446,0.0041267722845077515,-0.014081625267863274,0.00940885953605175,-0.0004061470099259168,0.013857235200703144
0.016373522579669952,0.00423823157325387,-0.013894738629460335,0.00936933420598507,-0.00039024007855914533,0.013843421824276447
0.01600472256541252,0.004039213992655277,-0.014076855964958668,0.00957499723881483,-0.0003705505805555731,0.014141562394797802
0.016815975308418274,0.003920747898519039,-0.013505321927368641,0.00957266055047512,-0.0003855146642308682,0.014061189256608486
0.016679871827363968,0.003874713322147727,-0.014219088479876518,0.009691479615867138,-0.0003662923409137875,0.014201261103153229
0.016991116106510162,0.0040695504285395145,-0.013953159563243389,0.009870621375739574,-0.0003394410014152527,0.014169225469231606
0.016751671209931374,0.003908543847501278,-0.01441654097288847,0.010378117673099041,-0.0003701880050357431,0.014024282805621624
0.01633259654045105,0.0036974495742470026,-0.013632720336318016,0.009787757880985737,-0.0003533942508511245,0.013994785025715828
0.017228789627552032,0.003693691687658429,-0.0141440499573946,0.009918940253555775,-0.0003321363474242389,0.01413643267005682
0.017139697447419167,0.003782606916502118,-0.01379693765193224,0.009778372012078762,-0.0003614507440943271,0.014156115241348743
0.01757224276661873,0.00441336864605546,-0.014500586315989494,0.009274298325181007,-0.00034482599585317075,0.013934404589235783
0.01729881577193737,0.004169447813183069,-0.013966139405965805,0.009289329871535301,-0.0003271241730544716,0.01412783283740282
0.018169794231653214,0.004427447449415922,-0.014593781903386116,0.009741856716573238,-0.0003437702252995223,0.01428636908531189
0.017837028950452805,0.004186603240668774,-0.013799103908240795,0.009998942725360394,-0.00033792704925872386,0.014612176455557346
0.01672971434891224,0.0039947982877492905,-0.014119712635874748,0.009094322100281715,-0.00032341814949177206,0.014713180251419544
0.017328960821032524,0.0038929174188524485,-0.013801171444356441,0.009702470153570175,-0.0003348386089783162,0.014837857335805893
0.017889685928821564,0.004228502977639437,-0.014572922140359879,0.00967544224113226,-0.00033537481795065105,0.014575706794857979
0.017450926825404167,0.0042705112136900425,-0.013761389069259167,0.009454410523176193,-0.0003136569866910577,0.014621390029788017
0.018087586387991905,0.004382564686238766,-0.014294188469648361,0.010036233812570572,-0.0003440057043917477,0.014599782414734364
0.017699435353279114,0.004135982133448124,-0.013881932012736797,0.009837646037340164,-0.0003299113886896521,0.014545317739248276
0.017807167023420334,0.0038261301815509796,-0.014497815631330013,0.00986845325678587,-0.000336609868099913,0.014755749143660069
0.01795865222811699,0.004305252805352211,-0.013951326720416546,0.010160217061638832,-0.0003417139523662627,0.014729545451700687
0.01795865222811699,0.004305252805352211,-0.013951326720416546,0.010160217061638832,-0.0003417139523662627,0.014729545451700687
0.017730554565787315,0.00423578592017293,-0.014319787733256817,0.010201824828982353,-0.00035990015021525323,0.015219166874885559
0.017755068838596344,0.004210503306239843,-0.014551821164786816,0.010311801917850971,-0.000473535357741639,0.01544036716222763
0.017821086570620537,0.004042281303554773,-0.013874001801013947,0.009890211746096611,-0.0004471417923923582,0.01429740060120821
0.018107309937477112,0.004477707669138908,-0.014454705640673637,0.009733341634273529,-0.00047821542830206454,0.014756962656974792
0.018003417178988457,0.0041448939591646194,-0.014061352238059044,0.010442315600812435,-0.0004481442447286099,0.01507739257067442
0.018288642168045044,0.004068763926625252,-0.014222568832337856,0.010146535001695156,-0.0004785416822414845,0.015569880604743958
0.018329782411456108,0.003955966327339411,-0.013652735389769077,0.01015433482825756,-0.0004486710240598768,0.015373989008367062
0.018146056681871414,0.0038390294648706913,-0.014162743464112282,0.010100236162543297,-0.0004190840700175613,0.01552730891853571
0.01821299083530903,0.0037810015492141247,-0.013904566876590252,0.0095972940325737,-0.00044517277274280787,0.01479429379105568
0.01854763925075531,0.0043152268044650555,-0.01471726130694151,0.0096513656899333,-0.00042245135409757495,0.015103356912732124
0.018362607806921005,0.004114738665521145,-0.01404406875371933,0.010114641860127449,-0.00039953176747076213,0.01540638692677021
0.018520401790738106,0.0038759266026318073,-0.014438393525779247,0.009694715961813927,-0.000420747441239655,0.015361644327640533
0.018257705494761467,0.004154508002102375,-0.014024510979652405,0.01012952346354723,-0.0003882656747009605,0.015061470679938793
0.018035179004073143,0.004226737655699253,-0.01418507844209671,0.010355278849601746,-0.0004193356435280293,0.01541366707533598
0.018851744011044502,0.004092066083103418,-0.014318264089524746,0.009795966558158398,-0.00039691454730927944,0.015301654115319252
0.018403122201561928,0.004025273025035858,-0.014737743884325027,0.009506970643997192,-0.0003702377143781632,0.015366438776254654
0.018488846719264984,0.004047861322760582,-0.014341328293085098,0.009861832484602928,-0.00040022199391387403,0.015222514048218727
0.018702901899814606,0.004096359480172396,-0.014253964647650719,0.009894700720906258,-0.00037960492772981524,0.01527394913136959
0.018564509227871895,0.0040256730280816555,-0.01440067496150732,0.010382908396422863,-0.00038316965219564736,0.015645276755094528
0.01869591698050499,0.003875188296660781,-0.014733699150383472,0.010147896595299244,-0.00038568180752918124,0.015420926734805107
0.018727649003267288,0.004106678534299135,-0.01446828618645668,0.009777906350791454,-0.0003674988984130323,0.015370451845228672
0.018727649003267288,0.004106678534299135,-0.01446828618645668,0.009777906350791454,-0.0003674988984130323,0.015370451845228672
0.018814818933606148,0.004090756643563509,-0.014667416922748089,0.010224882513284683,-0.0003819784615188837,0.015776757150888443
0.018814818933606148,0.004090756643563509,-0.014667416922748089,0.010224882513284683,-0.0003819784615188837,0.015776757150888443
0.01879732869565487,0.003967984113842249,-0.015302207320928574,0.0096723772585392,-0.0003867969790007919,0.015675047412514687
0.018429085612297058,0.003920950461179018,-0.014744192361831665,0.010613426566123962,-0.00039006274892017245,0.01581774652004242
0.019023284316062927,0.004042947664856911,-0.015237812884151936,0.010433845221996307,-0.0003656792105175555,0.015678636729717255
0.018902963027358055,0.004112336318939924,-0.014322223141789436,0.009662110358476639,-0.00039572143577970564,0.01568092405796051
0.018943073228001595,0.0035863802768290043,-0.015187584795057774,0.010491617023944855,-0.0003755922371055931,0.01577593758702278
0.018920546397566795,0.004191188607364893,-0.015186537988483906,0.010266468860208988,-0.0003357714449521154,0.016268623992800713
0.019081439822912216,0.004076661076396704,-0.014746533706784248,0.01089098397642374,-0.00036118488060310483,0.015911467373371124
0.01960510015487671,0.0038992096669971943,-0.01533140242099762,0.010233588516712189,-0.0003465614281594753,0.01574498973786831
0.019576335325837135,0.0037936456501483917,-0.014500676654279232,0.010256387293338776,-0.0003308146260678768,0.015980970114469528
0.018979312852025032,0.0038268426433205605,-0.015111229382455349,0.010916966944932938,-0.00031628969009034336,0.015320887789130211
0.018719123676419258,0.004120310768485069,-0.014803922735154629,0.01033544261008501,-0.0003238905337639153,0.01526358537375927
0.01884653978049755,0.003960888367146254,-0.01564706861972809,0.010592028498649597,-0.0003096091386396438,0.01568620651960373
0.018704554066061974,0.0037598377093672752,-0.014975088648498058,0.010984080843627453,-0.0002901604166254401,0.01600503735244274
0.019248219206929207,0.003716986393555999,-0.01577029936015606,0.011142036877572536,-0.00027260719798505306,0.016412347555160522
0.0192117840051651,0.003756620455533266,-0.01515908632427454,0.011505509726703167,-0.00030487903859466314,0.017206303775310516
0.01860865205526352,0.004199511371552944,-0.01506145391613245,0.011326945386826992,-0.0002915342920459807,0.017126668244600296
0.019315004348754883,0.004059711471199989,-0.015333564952015877,0.0112833883613348,-0.00027678985497914255,0.017244381830096245
0.019271543249487877,0.003947251010686159,-0.015012899413704872,0.01133792009204626,-0.0003013017703779042,0.016665318980813026
0.01923360675573349,0.003893011249601841,-0.014985636807978153,0.01034283172339201,-0.00029251875821501017,0.01591951958835125
0.019073069095611572,0.003943492658436298,-0.014867584221065044,0.01085031870752573,-0.00030939560383558273,0.015804985538125038
0.019051771610975266,0.0039892662316560745,-0.014995641075074673,0.011079800315201283,-0.0003055764827877283,0.016524799168109894
0.01874406635761261,0.003449087031185627,-0.014794963411986828,0.010278111323714256,-0.0002937183598987758,0.017173919826745987
0.018940281122922897,0.0034550740383565426,-0.015087658539414406,0.01094340905547142,-0.00035464708344079554,0.017405524849891663
0.018940281122922897,0.0034550740383565426,-0.015087658539414406,0.01094340905547142,-0.00035464708344079554,0.017405524849891663
0.019101450219750404,0.0036546611227095127,-0.01524911168962717,0.01052099373191595,-0.00031582306837663054,0.01673606038093567
0.019500212743878365,0.003786765970289707,-0.014665295369923115,0.01138081680983305,-0.00034615330514498055,0.017492275685071945
0.019500212743878365,0.003786765970289707,-0.014665295369923115,0.01138081680983305,-0.00034615330514498055,0.017492275685071945
0.019280944019556046,0.004090945236384869,-0.014712890610098839,0.010491255670785904,-0.0003130516270175576,0.017627153545618057
0.019280944019556046,0.004090945236384869,-0.014712890610098839,0.010491255670785904,-0.0003130516270175576,0.017627153545618057
0.01909364014863968,0.004154318477958441,-0.015300769358873367,0.010858938097953796,-0.0003439166466705501,0.016755009070038795
0.01909364014863968,0.004154318477958441,-0.015300769358873367,0.010858938097953796,-0.0003439166466705501,0.016755009070038795
0.019569654017686844,0.004045816138386726,-0.014616373926401138,0.010561822913587093,-0.00033807673025876284,0.016218433156609535
0.019581491127610207,0.0035229006316512823,-0.015480760484933853,0.010076072067022324,-0.0003253186005167663,0.016481913626194
0.019233783707022667,0.0035282608587294817,-0.015359895303845406,0.010625999420881271,-0.0003789002657867968,0.017099088057875633
0.01944306306540966,0.004185553174465895,-0.015466064214706421,0.01053075585514307,-0.0004064384556841105,0.01708589680492878
0.019659215584397316,0.004060209728777409,-0.01522847730666399,0.010729772970080376,-0.0003933301195502281,0.017454352229833603
0.0195157527923584,0.00438148295506835,-0.015479806810617447,0.011570625938475132,-0.0003973848361056298,0.018028778955340385
0.019586974754929543,0.004110043868422508,-0.015573726035654545,0.011375835165381432,-0.0003995596489403397,0.0171523280441761
0.019615413621068,0.0039715031161904335,-0.015164623036980629,0.011519521474838257,-0.00040365918539464474,0.016608741134405136
0.019137566909193993,0.003480600891634822,-0.01580367423593998,0.01080924179404974,-0.0004052550648339093,0.016453063115477562
0.020010381937026978,0.003930546343326569,-0.015288146212697029,0.010552115738391876,-0.0005119116976857185,0.017274485900998116
0.02013745717704296,0.004236362874507904,-0.014947905205190182,0.011103087104856968,-0.0004979614168405533,0.017827846109867096
0.019409960135817528,0.004040971864014864,-0.014678693376481533,0.01148279383778572,-0.0005284302751533687,0.01773577369749546
0.019740840420126915,0.003966130781918764,-0.015761366114020348,0.010381781496107578,-0.0004910475690849125,0.01761692576110363
0.019448239356279373,0.003674920881167054,-0.015279541723430157,0.010763821192085743,-0.0005058185779489577,0.017333868891000748
0.019787531346082687,0.0035615318920463324,-0.015317407436668873,0.01081761997193098,-0.0004840425681322813,0.017851898446679115
0.02043893001973629,0.004029355477541685,-0.014437670819461346,0.011006064713001251,-0.0004978394717909396,0.017672456800937653
0.02089201658964157,0.004178756382316351,-0.015722140669822693,0.011164972558617592,-0.00047947035636752844,0.01752048172056675
0.02028072252869606,0.003592506982386112,-0.014843008480966091,0.011491943150758743,-0.0005230385577306151,0.017765527591109276
0.02028314583003521,0.0035740083549171686,-0.015186278149485588,0.011366132646799088,-0.0005498668178915977,0.017347054556012154
0.020626164972782135,0.003622995223850012,-0.015087640844285488,0.011132006533443928,-0.0005611577653326094,0.017393039539456367
0.020626164972782135,0.003622995223850012,-0.015087640844285488,0.011132006533443928,-0.0005611577653326094,0.017393039539456367
0.0205669105052948,0.004053547512739897,-0.015243983827531338,0.011156891472637653,-0.0005513032665476203,0.01777995377779007
0.020665055140852928,0.004045506473630667,-0.015413121320307255,0.01113777793943882,-0.0007250341586768627,0.01810934767127037
0.020665055140852928,0.004045506473630667,-0.015413121320307255,0.01113777793943882,-0.0007250341586768627,0.01810934767127037
0.02070564590394497,0.003907949663698673,-0.014838870614767075,0.011295504868030548,-0.0007453662692569196,0.01807587780058384
0.020624671131372452,0.003480922430753708,-0.016122978180646896,0.011040529236197472,-0.0006803340511396527,0.017964987084269524
0.020676111802458763,0.003966618794947863,-0.015446473844349384,0.01126843597739935,-0.0006547935190610588,0.017902204766869545
0.020651616156101227,0.004190012346953154,-0.015943216159939766,0.01136783603578806,-0.0006368234171532094,0.018107157200574875
0.021057825535535812,0.0035601607523858547,-0.015231984667479992,0.011081320233643055,-0.0006193218287080526,0.01854989118874073
0.021054357290267944,0.003556434530764818,-0.01609194464981556,0.011508299969136715,-0.0006039791624061763,0.018348906189203262
0.02149396575987339,0.0037951741833239794,-0.0153523413464427,0.011302808299660683,-0.0005453509511426091,0.01853087916970253
0.021532803773880005,0.003853005822747946,-0.015790510922670364,0.011412113904953003,-0.000570916396100074,0.018187418580055237
0.0211144108325243,0.004266621544957161,-0.015061074867844582,0.011202317662537098,-0.0005265948711894453,0.01763828657567501
0.020593270659446716,0.003618829883635044,-0.016008632257580757,0.011706206947565079,-0.0005494338693097234,0.0187982264906168
0.021309319883584976,0.003572107059881091,-0.01563888043165207,0.01169014722108841,-0.0005140021094121039,0.01788550615310669
0.021158838644623756,0.0040100389160215855,-0.016132598742842674,0.011289979331195354,-0.0004757725982926786,0.017879094928503036
0.021148696541786194,0.004206161480396986,-0.016092224046587944,0.0115339495241642,-0.0004969569854438305,0.01828598417341709
0.02119843102991581,0.003569402964785695,-0.015339682810008526,0.012025339528918266,-0.0004718257114291191,0.01780596189200878
0.02177850529551506,0.004006385803222656,-0.015954753383994102,0.011718934401869774,-0.00046166087849996984,0.018525442108511925
0.021625768393278122,0.0042670308612287045,-0.015948010608553886,0.011650729924440384,-0.0004362669715192169,0.018451450392603874
0.021667474880814552,0.0040908087976276875,-0.016593515872955322,0.011012804694473743,-0.0004729020583909005,0.019152596592903137
0.022361496463418007,0.004017263185232878,-0.015522073954343796,0.01165518444031477,-0.000493079365696758,0.01895429939031601
0.022259261459112167,0.004027903079986572,-0.0158456452190876,0.011907437816262245,-0.00047302746679633856,0.018729429692029953
0.02153582125902176,0.004006875213235617,-0.01595410890877247,0.011715681292116642,-0.0004410084511619061,0.01871001534163952
0.021098028868436813,0.0034815180115401745,-0.01656229980289936,0.0114970151335001,-0.0004669807094614953,0.018397774547338486
0.02195165678858757,0.0035811446141451597,-0.016035718843340874,0.011310108937323093,-0.0004418861062731594,0.01828363910317421
0.02195165678858757,0.0035811446141451597,-0.016035718843340874,0.011310108937323093,-0.0004418861062731594,0.01828363910317421
0.022991912439465523,0.004270131699740887,-0.015445643104612827,0.01142450887709856,-0.0005126442993059754,0.0186420027166605
0.022275730967521667,0.00420297309756279,-0.016001557931303978,0.011473575606942177,-0.0004898816696368158,0.019300824031233788
0.0219672080129385,0.004409505054354668,-0.01598774455487728,0.011380192823708057,-0.0004436993331182748,0.019371341913938522
0.02216619811952114,0.004220373462885618,-0.016439035534858704,0.011828597635030746,-0.00040395878022536635,0.01954744942486286
0.022496147081255913,0.0035931291058659554,-0.015661485493183136,0.011611553840339184,-0.00037066062213853,0.019578194245696068
0.02258753962814808,0.0035190475173294544,-0.01608898863196373,0.012010357342660427,-0.0003424286551307887,0.019184812903404236
0.022268885746598244,0.0036737399641424417,-0.0157022587954998,0.011716587468981743,-0.0003490834205877036,0.019076189026236534
0.022408103570342064,0.0037441363092511892,-0.015962908044457436,0.011138328351080418,-0.00035446631954982877,0.01960470899939537
0.023009588941931725,0.0038353647105395794,-0.0159138236194849,0.011512205936014652,-0.00031497361487708986,0.019319165498018265
0.022971805185079575,0.004289187025278807,-0.016061931848526,0.01156474370509386,-0.00029761463520117104,0.019566437229514122
0.022834239527583122,0.004263453651219606,-0.015850216150283813,0.011730361729860306,-0.0003258351352997124,0.0198232252150774
0.022552914917469025,0.004010061267763376,-0.016434773802757263,0.011955641210079193,-0.00031252301414497197,0.01974072866141796
0.023099752143025398,0.0035649386700242758,-0.015533095225691795,0.011910386383533478,-0.0002979258424602449,0.019623739644885063
0.02315567433834076,0.003553760005161166,-0.016179293394088745,0.011465338990092278,-0.00031449602101929486,0.02048155851662159
0.023518413305282593,0.003733118064701557,-0.015703467652201653,0.01168330479413271,-0.00031037823646329343,0.019389791414141655
0.023290622979402542,0.004065344110131264,-0.016224330291152,0.012289771810173988,-0.0002981416473630816,0.018864041194319725
0.02308609150350094,0.004641510080546141,-0.016437990590929985,0.011873760260641575,-0.0002863231929950416,0.01921955682337284
0.02338407002389431,0.004295018967241049,-0.015968579798936844,0.012229041196405888,-0.00026023093960247934,0.019568027928471565
0.02334035560488701,0.003930005710572004,-0.016026321798563004,0.012327305041253567,-0.00023312079429160804,0.019636565819382668
0.023313796147704124,0.0037502103950828314,-0.015546618029475212,0.012597202323377132,-0.00022078698384575546,0.019468918442726135
0.023706110194325447,0.0037091022823005915,-0.016415243968367577,0.012499532662332058,-0.0002495996595826,0.019558075815439224
0.023354412987828255,0.004264898598194122,-0.015826355665922165,0.012451793998479843,-0.00024100980954244733,0.019934849813580513
0.023544782772660255,0.004112142138183117,-0.016251923516392708,0.012274150736629963,-0.0002667259832378477,0.019880706444382668
0.02365146204829216,0.003908430226147175,-0.01582510396838188,0.012035369873046875,-0.0002854184713214636,0.01979302242398262
0.023373689502477646,0.004314848687499762,-0.016389137133955956,0.012160273268818855,-0.0002829487493727356,0.019757114350795746
0.024050235748291016,0.00440160883590579,-0.016438493505120277,0.012147761881351471,-0.0005116606480441988,0.020159965381026268
0.024050235748291016,0.00440160883590579,-0.016438493505120277,0.012147761881351471,-0.0005116606480441988,0.020159965381026268
0.024526018649339676,0.004269349854439497,-0.01594858430325985,0.012111448682844639,-0.0005753453588113189,0.020327690988779068
0.023725880309939384,0.0038887583650648594,-0.016310522332787514,0.01190901082009077,-0.0005751680582761765,0.019947510212659836
0.024102799594402313,0.003669878700748086,-0.015429601073265076,0.01185446884483099,-0.0005632495740428567,0.0198497474193573
0.02354276552796364,0.0037003729958087206,-0.01580769754946232,0.012317279353737831,-0.0005738113541156054,0.0201858077198267
0.02358155883848667,0.004230167716741562,-0.015236237086355686,0.011757849715650082,-0.0005472148768603802,0.0201374851167202
0.025214295834302902,0.004059996455907822,-0.01610257849097252,0.012288379482924938,-0.0006283288821578026,0.02005053125321865
0.02468148060142994,0.00435425341129303,-0.015821823850274086,0.012239637784659863,-0.0006439359858632088,0.020145520567893982
0.02454032003879547,0.004021340049803257,-0.016323162242770195,0.012703480198979378,-0.0006415584357455373,0.020401086658239365
0.024689406156539917,0.0038196833338588476,-0.016238629817962646,0.012539941817522049,-0.0006543271010741591,0.02059190161526203
0.024763064458966255,0.0038657726254314184,-0.016355277970433235,0.012900697067379951,-0.000621952407527715,0.020495915785431862
0.024915045127272606,0.003916129469871521,-0.015857508406043053,0.012410557828843594,-0.000753203930798918,0.0203141700476408
0.023765042424201965,0.0038625048473477364,-0.01609041355550289,0.012615597806870937,-0.0007212759810499847,0.020639311522245407
0.023668818175792694,0.0042571332305669785,-0.015618933364748955,0.012237213551998138,-0.0007389972452074289,0.020591897889971733
0.024123061448335648,0.004433195106685162,-0.016246965155005455,0.013812758959829807,-0.0007370204548351467,0.02161417342722416
0.025047210976481438,0.004267159383744001,-0.01602058857679367,0.012522921897470951,-0.0007876403396949172,0.020560717210173607
0.02501724287867546,0.0038893595337867737,-0.016153259202837944,0.012038757093250751,-0.0007573438924737275,0.02006293088197708
0.024773357436060905,0.004192289896309376,-0.016587579622864723,0.012443961575627327,-0.0007746644550934434,0.020386341959238052
0.024561934173107147,0.004118544980883598,-0.01634247787296772,0.012351088225841522,-0.0007825076463632286,0.02059531956911087
0.024516873061656952,0.004052034113556147,-0.016728583723306656,0.012523192912340164,-0.0007820727187208831,0.02116185799241066
0.024900756776332855,0.0039926934987306595,-0.01614988036453724,0.012262610718607903,-0.0007265970925800502,0.021702751517295837
0.02449215017259121,0.004472812172025442,-0.016662193462252617,0.012672890909016132,-0.0007003871724009514,0.021327465772628784
0.024869373068213463,0.004423935431987047,-0.01616836152970791,0.01253018993884325,-0.0006402821163646877,0.021231036633253098
0.02527838945388794,0.003971846774220467,-0.016845401376485825,0.012715532444417477,-0.0006591815617866814,0.020440947264432907
0.025250043720006943,0.003716810839250684,-0.01719111204147339,0.013384618796408176,-0.0005991493817418814,0.020132428035140038
0.025530541315674782,0.0036946400068700314,-0.01679769530892372,0.01279278751462698,-0.0006234972388483584,0.020733345299959183
0.025530541315674782,0.0036946400068700314,-0.01679769530892372,0.01279278751462698,-0.0006234972388483584,0.020733345299959183
0.025103729218244553,0.0038838142063468695,-0.01662086322903633,0.01275110337883234,-0.0005988254561088979,0.021672192960977554
0.024971995502710342,0.003909545950591564,-0.016726985573768616,0.01308479905128479,-0.0006174377631396055,0.021276304498314857
0.024971995502710342,0.003909545950591564,-0.016726985573768616,0.01308479905128479,-0.0006174377631396055,0.021276304498314857
0.025358544662594795,0.0040862164460122585,-0.016905158758163452,0.012089080177247524,-0.0006286328425630927,0.021634694188833237
0.025388240814208984,0.004089474678039551,-0.016670428216457367,0.012120031751692295,-0.0005852678441442549,0.02213180623948574
0.025194240733981133,0.0038934811018407345,-0.017391785979270935,0.012109444476664066,-0.0005294405855238438,0.022069651633501053
0.025965912267565727,0.003729840274900198,-0.01744004525244236,0.01299375668168068,-0.0005156943807378411,0.021139003336429596
0.0254517775028944,0.003786336397752166,-0.016963493078947067,0.012854382395744324,-0.0005405825795605779,0.020991159602999687
0.02575957216322422,0.0038164593279361725,-0.016632379963994026,0.013544321060180664,-0.0005079006659798324,0.021312667056918144
0.026118427515029907,0.003743757726624608,-0.017397049814462662,0.013012019917368889,-0.0005100372945889831,0.021659592166543007
0.02609161101281643,0.003734082914888859,-0.016960758715867996,0.013207001611590385,-0.0004615887301042676,0.02205287292599678
0.025331635028123856,0.004352761898189783,-0.01765197329223156,0.012607536278665066,-0.0004965666448697448,0.02205994352698326
0.02594710886478424,0.004136890638619661,-0.01775979995727539,0.013132473453879356,-0.0004593773919623345,0.02176704816520214
0.026016851887106895,0.0039064171724021435,-0.017620036378502846,0.013435576111078262,-0.0004892480792477727,0.021603725850582123
0.026078198105096817,0.0038536586798727512,-0.017766954377293587,0.01315285824239254,-0.0004579637316055596,0.021800819784402847
0.024874554947018623,0.0034227147698402405,-0.016571132466197014,0.013321883976459503,-0.0004271736543159932,0.0232530627399683
0.02641337737441063,0.003588194027543068,-0.018256910145282745,0.012573949992656708,-0.0004494476306717843,0.02170160971581936
0.02693147398531437,0.003761507570743561,-0.016545644029974937,0.013084444217383862,-0.00042938298429362476,0.02169128879904747
0.027213945984840393,0.0037812578957527876,-0.01703501306474209,0.012693180702626705,-0.00040562532376497984,0.0217899102717638
0.026827936992049217,0.004320733714848757,-0.018209164962172508,0.01284054946154356,-0.00039875629590824246,0.021987004205584526
0.026380209252238274,0.004392894916236401,-0.017301088199019432,0.012789789587259293,-0.0003801346756517887,0.022355537861585617
0.025456871837377548,0.004125479608774185,-0.01731216162443161,0.01338943187147379,-0.00035141585976816714,0.022161349654197693
0.026210889220237732,0.0038339679595083,-0.01739978976547718,0.013352906331419945,-0.00037391454679891467,0.022275472059845924
0.026210889220237732,0.0038339679595083,-0.01739978976547718,0.013352906331419945,-0.00037391454679891467,0.022275472059845924
0.02681943215429783,0.003710530698299408,-0.017334256321191788,0.013820936903357506,-0.0003636349574662745,0.022258659824728966
0.02610768750309944,0.0037200332153588533,-0.017403405159711838,0.013697815127670765,-0.0003415970131754875,0.02230539359152317
0.02656792849302292,0.004230480175465345,-0.016650650650262833,0.013538445346057415,-0.00037116248859092593,0.02242608740925789
0.027325725182890892,0.004135774914175272,-0.017722411081194878,0.013591902330517769,-0.0003535776922944933,0.022082727402448654
0.02682315558195114,0.0039645167998969555,-0.018046176061034203,0.013585319742560387,-0.0003795410448219627,0.022333243861794472
0.02640312910079956,0.003937477711588144,-0.017864836379885674,0.013272308744490147,-0.0005024783895350993,0.022720972076058388
0.026388082653284073,0.0034377267584204674,-0.017098739743232727,0.01392432488501072,-0.0005403122631832957,0.022628270089626312
0.02710786461830139,0.003331197425723076,-0.017640631645917892,0.01378367468714714,-0.0005158308194950223,0.023265499621629715
0.027231384068727493,0.0033142678439617157,-0.017806844785809517,0.014017881825566292,-0.0005414338666014373,0.023544063791632652
0.02686423808336258,0.003451598109677434,-0.017533302307128906,0.013179054483771324,-0.0007655935478396714,0.02327290177345276
0.026686299592256546,0.003871408523991704,-0.01828824169933796,0.013250758871436119,-0.000853810110129416,0.02205096185207367
0.026963621377944946,0.003977419342845678,-0.017485838383436203,0.013253017328679562,-0.0007565977284684777,0.021918199956417084
0.026912156492471695,0.003801231272518635,-0.017303626984357834,0.013763850554823875,-0.0007453552098013461,0.022296849638223648
0.026754429563879967,0.0036130158696323633,-0.017543140798807144,0.01326908078044653,-0.0006884897011332214,0.023205209523439407
0.02666560746729374,0.0034731810446828604,-0.017322596162557602,0.0134697575122118,-0.00062204321147874,0.023420017212629318
0.027205999940633774,0.003513726871460676,-0.017776792868971825,0.013356000185012817,-0.0006412494694814086,0.02298547327518463
0.02695201337337494,0.003654557978734374,-0.01802540011703968,0.013028767891228199,-0.0005952734500169754,0.02307017333805561
0.026853257790207863,0.0037621825467795134,-0.017965495586395264,0.013470595702528954,-0.0005405823467299342,0.023661179468035698
0.027073094621300697,0.003814747091382742,-0.01796719990670681,0.013490804471075535,-0.0005299701006151736,0.023413067683577538
0.02755122445523739,0.0038127945736050606,-0.017042722553014755,0.013839364983141422,-0.0005206394707784057,0.0230046808719635
0.02797037549316883,0.00379443378187716,-0.017484083771705627,0.01350513193756342,-0.0005458940286189318,0.02262495458126068
0.025883065536618233,0.003931103274226189,-0.017797498032450676,0.013386025093495846,-0.0005464623682200909,0.023272844031453133
0.028268177062273026,0.004019163548946381,-0.017389193177223206,0.013030141592025757,-0.0005384352407418191,0.02252618782222271
0.028164539486169815,0.003998259082436562,-0.017911763861775398,0.013647480867803097,-0.0006335076759569347,0.023179635405540466
0.02801862172782421,0.004078504629433155,-0.017998630180954933,0.013270956464111805,-0.0006731469184160233,0.02369713969528675
0.02801862172782421,0.004078504629433155,-0.017998630180954933,0.013270956464111805,-0.0006731469184160233,0.02369713969528675
0.0280852559953928,0.003984420094639063,-0.01807369664311409,0.013577615842223167,-0.0006992875714786351,0.023714888840913773
0.027757007628679276,0.00389602268114686,-0.0179398562759161,0.013582550920546055,-0.0007197912782430649,0.02359306626021862
0.0278382059186697,0.003827621228992939,-0.01748187467455864,0.014139586128294468,-0.0008130252244882286,0.02333866059780121
0.029296845197677612,0.004268215969204903,-0.017919812351465225,0.01421933714300394,-0.0008090926567092538,0.023579638451337814
0.02836953103542328,0.003970542922616005,-0.018165700137615204,0.014257893897593021,-0.0007189177558757365,0.023470325395464897
0.02729308418929577,0.0039017372764647007,-0.018673986196517944,0.014624943025410175,-0.0006868797936476767,0.023702826350927353
0.028500407934188843,0.0038250081706792116,-0.018047863617539406,0.014322197996079922,-0.000660308578517288,0.023948796093463898
0.029172252863645554,0.004196862690150738,-0.017766863107681274,0.0148079888895154,-0.0006003028829582036,0.023829709738492966
0.02874552458524704,0.004250782076269388,-0.01799807883799076,0.014107031747698784,-0.0006055947160348296,0.024338282644748688
0.02918115444481373,0.00398647366091609,-0.01767217367887497,0.014360788278281689,-0.0005749671836383641,0.024330325424671173
0.029888374730944633,0.0042946054600179195,-0.01850786991417408,0.013620097190141678,-0.000512849772349,0.0245415810495615
0.029584912583231926,0.004177621565759182,-0.0189230814576149,0.013996334746479988,-0.0004462515644263476,0.02501288242638111
0.028993476182222366,0.004156971350312233,-0.017950469627976418,0.014052881859242916,-0.00047476202598772943,0.0245046466588974
0.02903977781534195,0.0039567723870277405,-0.01863807812333107,0.014769809320569038,-0.00048096064710989594,0.024163274094462395
0.02976374328136444,0.003800045931711793,-0.018475819379091263,0.014667523093521595,-0.00047780375462025404,0.024645211175084114
0.03036113828420639,0.003840794088318944,-0.01879860647022724,0.01479349285364151,-0.0005054108914919198,0.02471698634326458
0.030106764286756516,0.004361077211797237,-0.018549982458353043,0.014136743731796741,-0.0006610660348087549,0.02509070187807083
0.030025534331798553,0.004095037467777729,-0.018313860520720482,0.014722269028425217,-0.0006312604527920485,0.025263983756303787
0.029945379123091698,0.003936762921512127,-0.01931646279990673,0.014696888625621796,-0.0006602876237593591,0.025436731055378914
0.03015621192753315,0.004435194656252861,-0.018935877829790115,0.01556942705065012,-0.0005945074371993542,0.025326257571578026
0.02994227223098278,0.004719983786344528,-0.01833689585328102,0.01516412477940321,-0.0006187192047946155,0.024859433993697166
0.03016628697514534,0.004317674785852432,-0.01873953267931938,0.015520059503614902,-0.0006075065466575325,0.024721462279558182
0.030787009745836258,0.004162034951150417,-0.019378218799829483,0.015100261196494102,-0.0005933217471465468,0.024831553921103477
0.030787009745836258,0.004162034951150417,-0.019378218799829483,0.015100261196494102,-0.0005933217471465468,0.024831553921103477
0.030446941033005714,0.004004054237157106,-0.01864336058497429,0.015525728464126587,-0.0005502972053363919,0.025241022929549217
0.03085227683186531,0.003769690403714776,-0.019092649221420288,0.01473394688218832,-0.0005137964035384357,0.025841042399406433
0.030571918934583664,0.003769452217966318,-0.01945669762790203,0.01555819995701313,-0.0004820272733923048,0.025735486298799515
0.030704574659466743,0.00394380372017622,-0.018432166427373886,0.01434287242591381,-0.00043672131141647696,0.02599724940955639
0.030428707599639893,0.004410265013575554,-0.01862424798309803,0.014527503401041031,-0.0004720578726846725,0.025495288893580437
0.031108222901821136,0.00410440843552351,-0.01861925795674324,0.014896738342940807,-0.0004385249922052026,0.025584952905774117
0.030912909656763077,0.004308745265007019,-0.018230952322483063,0.015176203101873398,-0.00046872737584635615,0.026572685688734055
0.031760554760694504,0.0044201151467859745,-0.019329393282532692,0.014924558810889721,-0.00046628087875433266,0.024761449545621872
0.0317736379802227,0.004054266028106213,-0.01852838508784771,0.015072393231093884,-0.0004437528841663152,0.025930967181921005
0.03175568953156471,0.004060399252921343,-0.018995631486177444,0.0153235774487257,-0.0004991005407646298,0.026440780609846115
0.03161628544330597,0.004265953321009874,-0.01923738233745098,0.015641745179891586,-0.0005399901419878006,0.025428371503949165
0.03192003816366196,0.004366583190858364,-0.018658500164747238,0.015569336712360382,-0.0004962930106557906,0.024518191814422607
0.03194583207368851,0.004546858835965395,-0.018714159727096558,0.015952400863170624,-0.0005252412520349026,0.025280380621552467
0.03238174691796303,0.0045181685127317905,-0.018976617604494095,0.015237990766763687,-0.0004890596610493958,0.02649242989718914
0.03253829479217529,0.004293974954634905,-0.018925383687019348,0.015271448530256748,-0.0005017599905841053,0.025978565216064453
0.032550692558288574,0.00408145971596241,-0.01912568509578705,0.014819619245827198,-0.00048294218140654266,0.026079503819346428
0.03282128646969795,0.004210581071674824,-0.0187185388058424,0.015523870475590229,-0.00045348357525654137,0.027484644204378128
0.033890269696712494,0.0047300406731665134,-0.01882316917181015,0.015237393788993359,-0.000462603522464633,0.027267247438430786
0.034046001732349396,0.004819147754460573,-0.019032539799809456,0.0159416813403368,-0.0004510005237534642,0.026037437841296196
0.03017077036201954,0.004459992051124573,-0.018499106168746948,0.015547506511211395,-0.0004829459940083325,0.02538980357348919
0.03280648961663246,0.0045520286075770855,-0.018907194957137108,0.015586130321025848,-0.0004522692470345646,0.02617800608277321
0.03369058296084404,0.0041381604969501495,-0.01917838491499424,0.015570196323096752,-0.0004779828595928848,0.027271311730146408
0.033136993646621704,0.004235958680510521,-0.018974030390381813,0.015643324702978134,-0.0004994194023311138,0.02764792926609516
0.03396327793598175,0.004503636155277491,-0.01888919621706009,0.0157327838242054,-0.00048134231474250555,0.02750021405518055
0.03421022742986679,0.0046246047131717205,-0.019016096368432045,0.015296039171516895,-0.0005725313676521182,0.026906844228506088
0.033562470227479935,0.004352943506091833,-0.01863008365035057,0.015967383980751038,-0.000638628494925797,0.02699565328657627
0.03225478529930115,0.004511637147516012,-0.018813995644450188,0.015830108895897865,-0.0006561140762642026,0.027239223942160606
0.03361727297306061,0.00419276487082243,-0.01901458576321602,0.01615186594426632,-0.0006573396385647357,0.027308136224746704
0.03361727297306061,0.00419276487082243,-0.01901458576321602,0.01615186594426632,-0.0006573396385647357,0.027308136224746704
0.03424282744526863,0.0040804981254041195,-0.018604332581162453,0.015498610213398933,-0.0006387953762896359,0.02733699604868889
0.03435591980814934,0.003932230174541473,-0.018888408318161964,0.015869872644543648,-0.000760891882237047,0.026903582736849785
0.03381907194852829,0.003890377702191472,-0.01916070096194744,0.015579109080135822,-0.0007020940538495779,0.027084916830062866
0.033788591623306274,0.004288057330995798,-0.019326424226164818,0.015715312212705612,-0.0007369010709226131,0.02711961604654789
0.03393491730093956,0.004596990533173084,-0.019183529540896416,0.015715189278125763,-0.000741366995498538,0.027489149942994118
0.033966124057769775,0.004529619123786688,-0.01846342906355858,0.015816591680049896,-0.0006923854234628379,0.027591535821557045
0.03395189344882965,0.004325555637478828,-0.019272346049547195,0.015680352225899696,-0.0006897309212945402,0.02738724835216999
0.03389937803149223,0.004014893434941769,-0.019721126183867455,0.016017412766814232,-0.0007130461744964123,0.027500798925757408
0.03356063365936279,0.0038672774098813534,-0.01914462260901928,0.015547823160886765,-0.0007350281812250614,0.027547316625714302
0.033802639693021774,0.004087869543582201,-0.019329221919178963,0.01588316261768341,-0.0007401774637401104,0.027785154059529305
0.03407248854637146,0.0045834435150027275,-0.019343635067343712,0.01572447083890438,-0.0009009550558403134,0.02741273120045662
0.034143589437007904,0.0047491868026554585,-0.01885492168366909,0.015898630023002625,-0.0009324667043983936,0.027514278888702393
0.033755604177713394,0.0043598972260952,-0.019167758524417877,0.015500076115131378,-0.0008951195632107556,0.028229940682649612
0.03484528511762619,0.003883172059431672,-0.01933588646352291,0.015374970622360706,-0.0008363982196897268,0.02858279086649418
0.03555208444595337,0.003772519063204527,-0.019111033529043198,0.015752313658595085,-0.0008326884708367288,0.02787398360669613
0.03431011363863945,0.0034272053744643927,-0.020128075033426285,0.016042809933423996,-0.0007591973408125341,0.026933807879686356
0.03383911773562431,0.004180533811450005,-0.019948774948716164,0.016443952918052673,-0.0007154812919907272,0.027374977245926857
0.03477359563112259,0.004131985362619162,-0.018874051049351692,0.01586516760289669,-0.0007279684650711715,0.028380082920193672
0.03467065840959549,0.003913313150405884,-0.01967690698802471,0.016392143443226814,-0.0007338115246966481,0.02811334654688835
0.03467651456594467,0.004263218492269516,-0.02025705762207508,0.016445497050881386,-0.0006797901005484164,0.02841583825647831
0.03549552336335182,0.004154880065470934,-0.019598906859755516,0.016741767525672913,-0.0006906219059601426,0.028676427900791168
0.03603310510516167,0.0038895979523658752,-0.019515832886099815,0.016285143792629242,-0.0006997317541390657,0.028859155252575874
0.03477950766682625,0.003826348576694727,-0.02028358168900013,0.01630786806344986,-0.0007229940383695066,0.02823854237794876
0.034751541912555695,0.0034078536555171013,-0.019341859966516495,0.016409512609243393,-0.0006901912274770439,0.027784423902630806
0.035237159579992294,0.003593748202547431,-0.019437085837125778,0.01637221872806549,-0.000690139306243509,0.028490576893091202
0.03593360632658005,0.003739064559340477,-0.019496995955705643,0.017379753291606903,-0.0006428111810237169,0.029415177181363106
0.03593360632658005,0.003739064559340477,-0.019496995955705643,0.017379753291606903,-0.0006428111810237169,0.029415177181363106
0.03589411824941635,0.0042745633982121944,-0.01998308300971985,0.01724039390683174,-0.000656538235489279,0.029626615345478058
0.0352289043366909,0.0041297501884400845,-0.01986560970544815,0.017189590260386467,-0.0006106799119152129,0.02916853502392769
0.0351845920085907,0.0039576273411512375,-0.020145660266280174,0.01664443127810955,-0.000622282677795738,0.028840446844697
0.03545696288347244,0.003483737353235483,-0.019844764843583107,0.016262399032711983,-0.0006525876233354211,0.02887125499546528
0.03568649664521217,0.0035269977524876595,-0.01949496753513813,0.01683647744357586,-0.0006796292727813125,0.029103374108672142
0.03589469939470291,0.004259676206856966,-0.019872386008501053,0.017509663477540016,-0.0006444172468036413,0.029226724058389664
0.036617666482925415,0.004019442014396191,-0.019695227965712547,0.01799236238002777,-0.000780168455094099,0.029460042715072632
0.03456615284085274,0.003884334582835436,-0.02072175405919552,0.016756972298026085,-0.0008098033140413463,0.02943369373679161
0.036681655794382095,0.003980285953730345,-0.021102288737893105,0.01683189533650875,-0.0007769915391691029,0.029257621616125107
0.03671133890748024,0.004029208328574896,-0.020522167906165123,0.01655433513224125,-0.0007378163863904774,0.03068622574210167
0.03649837151169777,0.003908772487193346,-0.01996922679245472,0.01762259751558304,-0.0007513199234381318,0.02908194437623024
0.03633176535367966,0.003868530271574855,-0.020466186106204987,0.017311882227659225,-0.0007713503437116742,0.028956076130270958
0.03680743649601936,0.003918746951967478,-0.020898256450891495,0.01724744588136673,-0.0008042441913858056,0.029259303584694862
0.03668556734919548,0.003837660886347294,-0.020475685596466064,0.017108870670199394,-0.0008178573334589601,0.02964101918041706
0.03760841488838196,0.0037352077197283506,-0.020484913140535355,0.016308067366480827,-0.0008138505509123206,0.030049597844481468
0.037158165127038956,0.003774516750127077,-0.02087303437292576,0.016271837055683136,-0.000753110449295491,0.029907934367656708
0.03726962208747864,0.003910041879862547,-0.020888330414891243,0.0160411037504673,-0.0007786281639710069,0.029861338436603546
0.037869643419981,0.0043607973493635654,-0.02045382931828499,0.01677514798939228,-0.0007610864122398198,0.029996750876307487
0.03790058568120003,0.004089142195880413,-0.02082480862736702,0.017509903758764267,-0.0007198700914159417,0.0299136471003294
0.03763483464717865,0.003927891608327627,-0.020881349220871925,0.017658371478319168,-0.0007371525280177593,0.02994399517774582
0.03801566734910011,0.00392130995169282,-0.02040351741015911,0.017642831429839134,-0.0007353444816544652,0.029942192137241364
0.03905307874083519,0.0039083645679056644,-0.020843379199504852,0.017144858837127686,-0.0006917119026184082,0.03011416643857956
0.03878016397356987,0.004369255155324936,-0.021154923364520073,0.017590900883078575,-0.0007995831547304988,0.030026134103536606
0.037240780889987946,0.0041541606187820435,-0.020843133330345154,0.017488164827227592,-0.0008183676400221884,0.02987755835056305
0.038519006222486496,0.004392372909933329,-0.020664216950535774,0.01733732596039772,-0.0008017141954042017,0.030324779450893402
0.03825730085372925,0.003624675329774618,-0.020467154681682587,0.017704585567116737,-0.0007728479104116559,0.03081170655786991
0.039654821157455444,0.003608092898502946,-0.02094964310526848,0.01725916750729084,-0.0009858341654762626,0.030802443623542786
0.038916610181331635,0.00421739649027586,-0.02055429294705391,0.017206234857439995,-0.001022271579131484,0.029450027272105217
0.037992000579833984,0.004183978773653507,-0.02069772407412529,0.017253583297133446,-0.0009753243648447096,0.029565608128905296
0.037992000579833984,0.004183978773653507,-0.02069772407412529,0.017253583297133446,-0.0009753243648447096,0.029565608128905296
0.03799952194094658,0.0042302231304347515,-0.020915251225233078,0.01730548031628132,-0.0009093014523386955,0.03066139854490757
0.03938852995634079,0.00408130930736661,-0.021218061447143555,0.017789455130696297,-0.0008895256905816495,0.030490072444081306
0.03772641345858574,0.004395730793476105,-0.02145097777247429,0.01742563582956791,-0.0008860777597874403,0.03092283383011818
0.03975176066160202,0.004563161637634039,-0.02179737389087677,0.017870621755719185,-0.0008384487009607255,0.03240763396024704
0.038978200405836105,0.004395662806928158,-0.021186457946896553,0.01763981021940708,-0.0007974040927365422,0.029953893274068832
0.03945477679371834,0.004521516151726246,-0.020484641194343567,0.0181487575173378,-0.0007736603147350252,0.03101217932999134
0.039368193596601486,0.00469963438808918,-0.02138635516166687,0.01787479594349861,-0.0007854592404328287,0.03191189467906952
0.039448123425245285,0.0048314230516552925,-0.02196955680847168,0.01782694272696972,-0.0008636029670014977,0.03167936950922012
0.03988431394100189,0.0048165288753807545,-0.022014513611793518,0.01815386861562729,-0.0008225081255659461,0.03070361353456974
0.039654336869716644,0.004719047341495752,-0.020765597000718117,0.017998844385147095,-0.0009407455800101161,0.030893640592694283
0.039611756801605225,0.004549236036837101,-0.021473398432135582,0.01852630451321602,-0.0008835913613438606,0.03076658584177494
0.039737943559885025,0.004577349405735731,-0.022129811346530914,0.01811865344643593,-0.0008178058778867126,0.03087051771581173
0.04125135391950607,0.0046934699639678,-0.021797357127070427,0.017818035557866096,-0.0008240087772719562,0.030858183279633522
0.039174292236566544,0.004552152473479509,-0.020526638254523277,0.018031859770417213,-0.0007855246076360345,0.031304024159908295
0.03916863352060318,0.004887511488050222,-0.021126052364706993,0.017827367410063744,-0.0007491958676837385,0.03151782974600792
0.04065193608403206,0.004828088916838169,-0.022044258192181587,0.017545511946082115,-0.0006818585679866374,0.03149740770459175
0.04003457352519035,0.004627058282494545,-0.021069360896945,0.01776590384542942,-0.0006974265561439097,0.031794335693120956
0.04107886925339699,0.00434006517753005,-0.021351167932152748,0.017835786566138268,-0.0006803521537221968,0.031766101717948914
0.04130206257104874,0.004455686081200838,-0.022438904270529747,0.0184285007417202,-0.0007242213468998671,0.031558942049741745
0.038861747831106186,0.004645253531634808,-0.022191213443875313,0.018584156408905983,-0.0008792260778136551,0.03183174133300781
0.04056186601519585,0.004766042809933424,-0.02208637073636055,0.018967440351843834,-0.0009432632941752672,0.03180759400129318
0.04101915284991264,0.004780897870659828,-0.021338878199458122,0.019520370289683342,-0.0009405896416865289,0.0322231762111187
