davideferrari95/blind_handover_controller/data/Test 216 - [2024-02-08 -- 12-12-06]/joint_states_data.csv
shoulder_pan_joint,shoulder_lift_joint,elbow_joint,wrist_1_joint,wrist_2_joint,wrist_3_joint
0.002195944543927908,0.007654064800590277,-0.011418836191296577,0.007239679340273142,-0.0,0.0021451336797326803
0.002175442175939679,0.00636325916275382,-0.011346662417054176,0.006988914683461189,-0.0,0.002531773876398802
0.002175442175939679,0.00636325916275382,-0.011346662417054176,0.006988914683461189,-0.0,0.002531773876398802
0.0020482251420617104,0.006738950498402119,-0.011156916618347168,0.0073995282873511314,-0.0,0.0022212848998606205
0.002221941016614437,0.007387733552604914,-0.012074663303792477,0.007124530151486397,-0.0,0.0019477825844660401
0.0021558331791311502,0.007618357427418232,-0.011724594980478287,0.007281811907887459,-0.0,0.0016462572384625673
0.0020681340247392654,0.006919988431036472,-0.011486487463116646,0.007060232572257519,-0.0,0.001504787476733327
0.002128747757524252,0.007228516042232513,-0.011506335809826851,0.00731201097369194,-0.0,0.0018385377479717135
0.002055348362773657,0.006883660797029734,-0.011854536831378937,0.007264765910804272,-0.0,0.0019680438563227654
0.0020165846217423677,0.006969922687858343,-0.011811407282948494,0.0072816587053239346,-0.0,0.0023364536464214325
0.0019789235666394234,0.006635178346186876,-0.011512900702655315,0.006623916327953339,-0.0,0.002143644029274583
0.0021898336708545685,0.006710996851325035,-0.011555834673345089,0.006693407893180847,-0.0,0.0018428696785122156
0.002019486390054226,0.006369463168084621,-0.011604785919189453,0.006675906479358673,-0.0,0.0016573109896853566
0.0021201756317168474,0.006312101613730192,-0.011657665483653545,0.006637463346123695,-0.0,0.0015376451192423701
0.0020072204060852528,0.006286265794187784,-0.01194616686552763,0.006240184884518385,-0.0,0.0015640192432329059
0.0019852686673402786,0.00647465605288744,-0.011569893918931484,0.0065240394324064255,-0.0,0.0015443065203726292
0.0018725168192759156,0.006526425946503878,-0.012098727747797966,0.007088786456733942,-0.0,0.0020463576074689627
0.0020500612445175648,0.006265916861593723,-0.011653305031359196,0.006916119251400232,-0.0,0.002368101617321372
0.0018515174742788076,0.00717003270983696,-0.011638798750936985,0.006212166510522366,-0.0,0.002275923965498805
0.0016418140148743987,0.005991117563098669,-0.012019263580441475,0.006474642548710108,-0.0,0.0020684245973825455
0.0016024443320930004,0.005793892312794924,-0.011271360330283642,0.007207394111901522,-0.0,0.001827000523917377
0.0016024443320930004,0.005793892312794924,-0.011271360330283642,0.007207394111901522,-0.0,0.001827000523917377
0.0013534880708903074,0.006289765238761902,-0.011866206303238869,0.006854751147329807,-0.0,0.0016641810070723295
0.0013788269134238362,0.006856356747448444,-0.011928281746804714,0.006785871926695108,-0.0,0.0016768320929259062
0.001357884961180389,0.006875150837004185,-0.011625594459474087,0.006808872800320387,-0.0,0.0016081253997981548
0.0016504088416695595,0.0061833299696445465,-0.01170596294105053,0.007043501362204552,-0.0,0.0017857783241197467
0.0014945156872272491,0.006597936153411865,-0.012154755182564259,0.006900769658386707,-0.0,0.0017511546611785889
0.0015096564311534166,0.0068669393658638,-0.011856083758175373,0.00656926492229104,-0.0,0.001614958979189396
0.0013888301327824593,0.006527257617563009,-0.01172697264701128,0.006916584447026253,-0.0,0.0014938144013285637
0.0012509917141869664,0.006065829657018185,-0.011744208633899689,0.007489614188671112,-0.0,0.0012535430723801255
0.0011926988372579217,0.00604930380359292,-0.011430750600993633,0.00645016971975565,-0.0,0.0013145852135494351
0.0012872081715613604,0.007162661291658878,-0.011872841976583004,0.005915626883506775,-0.0,0.0013070786371827126
0.001625287695787847,0.006548865232616663,-0.011566730216145515,0.0059621394611895084,-0.0,0.0015940162120386958
0.0016300489660352468,0.006245906930416822,-0.011965782381594181,0.0060404096730053425,-0.0,0.0015581409679725766
0.0018771556206047535,0.005720274057239294,-0.011809151619672775,0.006647931411862373,-0.0,0.0016074180603027344
0.0017303730128332973,0.005994815845042467,-0.011551790870726109,0.006416359916329384,-0.0,0.0015495065599679947
0.0016699045663699508,0.006200998090207577,-0.01221359521150589,0.005666689015924931,-0.0,0.0015423663426190615
0.0016716112149879336,0.006431276444345713,-0.011988402344286442,0.005780411418527365,-0.0,0.0015920531004667282
0.001584645826369524,0.006059675011783838,-0.012129408307373524,0.006958213169127703,-0.0,0.0015308414585888386
0.001669940771535039,0.005861674901098013,-0.011551205068826675,0.006864282768219709,-0.0,0.001539902063086629
0.0016824802150949836,0.005937207955867052,-0.012058149091899395,0.0063065579161047935,-0.0,0.0014939192915335298
0.0017999365227296948,0.006268591154366732,-0.012045036070048809,0.006045355461537838,-0.0,0.0014173409435898066
0.001806995365768671,0.006091417279094458,-0.011832917109131813,0.005816009361296892,-0.0,0.0014060635585337877
0.0018877098336815834,0.005970698781311512,-0.012809229083359241,0.006415879353880882,-0.0,0.0014353462029248476
0.001870822045020759,0.006053957622498274,-0.012012789025902748,0.006626248359680176,-0.0,0.0013739593559876084
0.0017648003995418549,0.006242240313440561,-0.011749682016670704,0.005873100366443396,-0.0,0.0013154003536328673
0.0017648003995418549,0.006242240313440561,-0.011749682016670704,0.005873100366443396,-0.0,0.0013154003536328673
0.0017707861261442304,0.006245867814868689,-0.011911137029528618,0.005355714354664087,-0.0,0.0013447316596284509
0.0018806981388479471,0.0061002615839242935,-0.01158070843666792,0.005347019527107477,-0.0,0.0013913695001974702
0.0018818487878888845,0.00612795352935791,-0.012523275800049305,0.005668431054800749,-0.0,0.001494083320721984
0.002026139758527279,0.005968600045889616,-0.011683662422001362,0.00621009012684226,-0.0,0.001459535793401301
0.0020575278904289007,0.006197055336087942,-0.012355001643300056,0.006066534668207169,-0.0,0.0016968704294413328
0.0020495173521339893,0.006675684824585915,-0.011664707213640213,0.006004275754094124,-0.0,0.001636721077375114
0.0018700417131185532,0.005871989298611879,-0.012125789187848568,0.006222238764166832,-0.0,0.0015507552307099104
0.0018562233308330178,0.005918633658438921,-0.011563098058104515,0.005939517170190811,-0.0,0.0014218167634680867
0.0019174140179529786,0.006032459903508425,-0.012100148014724255,0.005941091571003199,-0.0,0.0011940256226807833
0.001968096476048231,0.006787542719393969,-0.012065591290593147,0.006473154295235872,-0.0,0.001125942450016737
0.002040489809587598,0.00619902741163969,-0.011333253234624863,0.006547932978719473,-0.0,0.0010855781147256494
0.001989831682294607,0.005902436561882496,-0.012534692883491516,0.0066954512149095535,-0.0,0.0010655783116817474
0.0021817239467054605,0.0059838141314685345,-0.011503767222166061,0.006123805418610573,-0.0,0.0011483695125207305
0.001933361985720694,0.006072684656828642,-0.011773532256484032,0.0052877264097332954,-0.0,0.0012105737114325166
0.0020545176230371,0.006276432890444994,-0.011684880591928959,0.0056347716599702835,-0.0,0.0015577587764710188
0.0018667384283617139,0.006064869463443756,-0.011061195284128189,0.004813088569790125,-0.0,0.0015608451794832945
0.002058653626590967,0.00598903140053153,-0.011823564767837524,0.005900007206946611,-0.0,0.0015074737602844834
0.0020997035317122936,0.006111995317041874,-0.011601505801081657,0.006123428698629141,-0.0,0.0015842412831261754
0.0022941133938729763,0.006356503814458847,-0.011633147485554218,0.005783750209957361,-0.0,0.0015532232355326414
0.0022871128749102354,0.006261457689106464,-0.011395331472158432,0.005545120220631361,-0.0,0.0013798768632113934
0.0021603028289973736,0.006308273412287235,-0.01104075089097023,0.005187124479562044,-0.0,0.001236280775628984
0.0020270796958357096,0.006168244872242212,-0.011940943077206612,0.0053443000651896,-0.0,0.0011666076024994254
0.0020349351689219475,0.005828832276165485,-0.01165744848549366,0.005668511614203453,-0.0,0.0011217014398425817
0.0020277099683880806,0.006339959800243378,-0.011870322749018669,0.005251702852547169,-0.0,0.001075084088370204
0.001971385907381773,0.006911595817655325,-0.011659102514386177,0.005229760892689228,-0.0,0.0011548266047611833
0.0021971159148961306,0.005915911868214607,-0.011327548883855343,0.005147787742316723,-0.0,0.001168261980637908
0.002218335634097457,0.0060653844848275185,-0.011864645406603813,0.0052060578018426895,-0.0,0.0014187643537297845
0.002218335634097457,0.0060653844848275185,-0.011864645406603813,0.0052060578018426895,-0.0,0.0014187643537297845
0.002396067138761282,0.006237986031919718,-0.011326384730637074,0.005437213461846113,-0.0,0.0014383670641109347
0.002362672006711364,0.007123086601495743,-0.01178533025085926,0.005426575429737568,-0.0,0.0013433166313916445
0.002218879060819745,0.0065779732540249825,-0.01191070768982172,0.0053671724162995815,-0.0,0.001185406930744648
0.0022385339252650738,0.0061395056545734406,-0.011130690574645996,0.00506953801959753,-0.0,0.001009552739560604
0.0021661522332578897,0.006415813695639372,-0.011774790473282337,0.004932022653520107,-0.0,0.000981174292974174
0.0021219090558588505,0.006316657643765211,-0.011381062678992748,0.005201453808695078,-0.0,0.0009580918704159558
0.002275169128552079,0.006586655508726835,-0.011778896674513817,0.005193211138248444,-0.0,0.0009654175955802202
0.0022195475175976753,0.006018894258886576,-0.011431795544922352,0.005239246878772974,-0.0,0.0010319952853024006
0.002311275340616703,0.006075853947550058,-0.011674894951283932,0.004940660670399666,-0.0,0.0010282625444233418
0.002443017903715372,0.006312438286840916,-0.011651620268821716,0.004816614557057619,-0.0,0.0012470351066440344
0.0023695731069892645,0.006356321275234222,-0.011529899202287197,0.005177199374884367,-0.0,0.0012389406329020858
0.0023326617665588856,0.0060140881687402725,-0.011173014529049397,0.005267438478767872,-0.0,0.001146776252426207
0.002595755737274885,0.006085885688662529,-0.010895856656134129,0.005206666421145201,-0.0,0.0010459875920787454
0.0027523525059223175,0.006138843949884176,-0.011949454434216022,0.004995602183043957,-0.0,0.0009316396317444742
0.002416849136352539,0.006371538620442152,-0.01121191494166851,0.004407126922160387,-0.0,0.0009151388076134026
0.0023635404650121927,0.006595974322408438,-0.010598199442029,0.004403460770845413,-0.0,0.0009121025796048343
0.0020724220667034388,0.005757496692240238,-0.011190957389771938,0.005040853749960661,-0.0,0.000910462811589241
0.0020111994817852974,0.0059123109094798565,-0.011106200516223907,0.0052392976358532906,-0.0,0.0009021757286973298
0.0022964756935834885,0.0065027945674955845,-0.011452979408204556,0.004769902676343918,-0.0,0.0009369626059196889
0.0022452736739069223,0.006292934995144606,-0.011886844411492348,0.004406313877552748,-0.0,0.0008989914786070585
0.002459413604810834,0.0063069104216992855,-0.010480158030986786,0.004451093263924122,-0.0,0.0008395479526370764
0.0023064692504704,0.005870496854186058,-0.011917945928871632,0.004481683950871229,-0.0,0.0008426547865383327
0.002192562445998192,0.005871235858649015,-0.011576326563954353,0.004635332617908716,-0.0,0.0008262997725978494
0.00196985830552876,0.006545857526361942,-0.011800151318311691,0.00475488044321537,-0.0,0.0008463373524136841
0.0021020667627453804,0.006878582760691643,-0.011558772064745426,0.004579160362482071,-0.0,0.0008380399667657912
0.0021634018048644066,0.006635165307670832,-0.01033942960202694,0.0044157677330076694,-0.0,0.0007648399914614856
0.002204185351729393,0.006106192711740732,-0.011217276565730572,0.004537463653832674,-0.0,0.0006835903041064739
0.002204185351729393,0.006106192711740732,-0.011217276565730572,0.004537463653832674,-0.0,0.0006835903041064739
0.0024750137235969305,0.00650882488116622,-0.01100789476186037,0.004650850780308247,-0.0,0.0006984172505326569
0.002496634144335985,0.006900354288518429,-0.010616129264235497,0.004487830214202404,-0.0,0.000686308485455811
0.0022896509617567062,0.006507508922368288,-0.011102328076958656,0.004771263338625431,-0.0,0.0007026739185675979
0.0020566217135638,0.0063491943292319775,-0.010842207819223404,0.005293110851198435,-0.0,0.0007256421376951039
0.001985304756090045,0.006329130847007036,-0.010918913409113884,0.004987250082194805,-0.0,0.0007443712092936039
0.002366991015151143,0.006072587333619595,-0.011734087020158768,0.004510866943746805,-0.0,0.0008574175299145281
0.0027106227353215218,0.0064605227671563625,-0.010420831851661205,0.0039604841731488705,-0.0,0.0009953717235475779
0.0023054610937833786,0.006399134639650583,-0.010842960327863693,0.004450780805200338,-0.0,0.0009284433326683939
0.002190748928114772,0.0064459023997187614,-0.010626646690070629,0.00481655728071928,-0.0,0.0008706088992767036
0.002133752219378948,0.006407686974853277,-0.010920727625489235,0.004744632635265589,-0.0,0.0007797633879818022
0.0021468994673341513,0.006664840504527092,-0.010549545288085938,0.004728416912257671,-0.0,0.0007109076832421124
0.0024287221021950245,0.006516304332762957,-0.010894390754401684,0.004317009821534157,-0.0,0.0006250765873119235
0.0028410512022674084,0.006121088284999132,-0.011106975376605988,0.003972280770540237,-0.0,0.0005494360812008381
0.0027216123417019844,0.0061827427707612514,-0.010608836077153683,0.0038546842988580465,-0.0,0.000573732249904424
0.0025045343209058046,0.006118954624980688,-0.010702353902161121,0.0038569439202547073,-0.0,0.0005934470682404935
0.0023643968161195517,0.006850297097116709,-0.010893615894019604,0.0038932685274630785,-0.0,0.0005611824453808367
0.002334175631403923,0.006602225825190544,-0.011357615701854229,0.0038922608364373446,-0.0,0.0005850360612384975
0.002567215356975794,0.006341191940009594,-0.011334750801324844,0.003866680199280381,-0.0,0.0005456683575175703
0.0028410993982106447,0.006038557272404432,-0.010650113224983215,0.003923558164387941,-0.0,0.0005597526906058192
0.0027209906838834286,0.006362603511661291,-0.010440831072628498,0.003930344246327877,-0.0,0.0005025574937462807
0.0025056228041648865,0.006325665861368179,-0.011349060572683811,0.004308382514864206,-0.0,0.00045231811236590147
0.0023864279501140118,0.006088030990213156,-0.01091631781309843,0.003822995349764824,-0.0,0.0004872653807979077
0.0023392150178551674,0.006090789567679167,-0.011132804676890373,0.004018046427518129,-0.0,0.0004514727334026247
0.0025696677621454,0.005701940972357988,-0.01076479908078909,0.004109778441488743,-0.0,0.0004679315024986863
0.0030495459213852882,0.0058336155489087105,-0.01006532646715641,0.004114357754588127,-0.0,0.0004503297677729279
0.0027760243974626064,0.005966235883533955,-0.011540055274963379,0.004018498118966818,-0.0,0.00045048154424875975
0.0025814049877226353,0.00594875356182456,-0.011101307347416878,0.0039140754379332066,-0.0,0.0004492829320952296
0.0023963572457432747,0.0059208073653280735,-0.01096184179186821,0.003424554830417037,-0.0,0.00042454374488443136
0.0023963572457432747,0.0059208073653280735,-0.01096184179186821,0.003424554830417037,-0.0,0.00042454374488443136
0.002439270494505763,0.006475537084043026,-0.010631910525262356,0.003613600041717291,-2.975496727231075e-06,0.0003806180611718446
0.002439270494505763,0.006475537084043026,-0.010631910525262356,0.003613600041717291,-2.975496727231075e-06,0.0003806180611718446
0.002754614455625415,0.006247575394809246,-0.01102208998054266,0.004164583515375853,-1.94278669596315e-07,0.0003527229418978095
0.0029102927073836327,0.006040215026587248,-0.010779494419693947,0.0036624823696911335,-1.2685009487256593e-08,0.00035892537562176585
0.002628924557939172,0.006229843012988567,-0.011094140820205212,0.003628246486186981,-5.407818637337414e-11,0.0003426139592193067
0.002834262326359749,0.006658344995230436,-0.010918361134827137,0.0032994691282510757,-3.5309190467291973e-12,0.0003687314165290445
0.00295986863784492,0.00658986484631896,-0.012129398994147778,0.003328684251755476,-2.3054380128041674e-13,0.0003543441998772323
0.0026917257346212864,0.006156523246318102,-0.011519229970872402,0.003287502331659198,-1.505286306301319e-14,0.0003712497709784657
0.0027899069245904684,0.006218843162059784,-0.010724689811468124,0.00354940933175385,-9.82844410072042e-16,0.0003636160690803081
0.003055885201320052,0.006893028039485216,-0.011042525991797447,0.0038014166057109833,-6.417271162653329e-17,0.00041005207458510995
0.003078525885939598,0.006832964718341827,-0.011183965019881725,0.0034469079691916704,-4.190019699980195e-18,0.00043186653056181967
0.0030398934613913298,0.006279377266764641,-0.0115232327952981,0.003273832146078348,6.436271178245079e-06,0.0003976883599534631
0.0028204782865941525,0.006099201273173094,-0.011484282091259956,0.0032777716405689716,0.00035444513196125627,0.00036561020533554256
0.003007496241480112,0.006170897278934717,-0.011180219240486622,0.0030698999762535095,0.000414982030633837,0.00033813249319791794
0.003002006793394685,0.00717125553637743,-0.010495482012629509,0.003043350065127015,0.00039069834747351706,0.000314484495902434
0.002920870203524828,0.006652723532170057,-0.010747128166258335,0.0029382340144366026,0.0003646742843557149,0.0002939304104074836
0.0028936374001204967,0.00628661410883069,-0.010606718249619007,0.0027881574351340532,0.0003416153194848448,0.0002758995397016406
0.0029514022171497345,0.00667547108605504,-0.011193372309207916,0.0028479937463998795,0.00036758920759893954,0.0002599541621748358
0.00310218776576221,0.006971225142478943,-0.01041402481496334,0.0029628220945596695,0.0003532998089212924,0.0002819882065523416
0.0030210204422473907,0.006876823492348194,-0.010078911669552326,0.0031160004436969757,0.0003349239123053849,0.0002787822741083801
0.003127109492197633,0.006638749502599239,-0.010962237603962421,0.0031097298488020897,0.0003180380736012012,0.00026579899713397026
0.0032896820921450853,0.006441080942749977,-0.010401960462331772,0.002941650105640292,0.0003402060247026384,0.0002533725928515196
0.0031748670153319836,0.00632195919752121,-0.010407519526779652,0.0027504144236445427,0.000329754053382203,0.00024201752967201173
0.0030814751517027617,0.0072485581040382385,-0.010711215436458588,0.0028332839719951153,0.00034374897950328887,0.0002316341269761324
0.00316347717307508,0.006650327239185572,-0.010036300867795944,0.0025197439827024937,0.00034482870250940323,0.00022210486349649727
0.003171389689669013,0.006406909320503473,-0.010409817099571228,0.00229689572006464,0.0003775673103518784,0.00021332861797418445
0.0030681390780955553,0.006718403659760952,-0.01075850147753954,0.0021429338958114386,0.00036008338793180883,0.00020522018894553185
0.0030681390780955553,0.006718403659760952,-0.01075850147753954,0.0021429338958114386,0.00036008338793180883,0.00020522018894553185
0.0033373378682881594,0.006880305241793394,-0.00987017061561346,0.0020522119011729956,0.00038674354436807334,0.0001977054780581966
0.0029508175794035196,0.006571963895112276,-0.01027766801416874,0.002216080902144313,0.000370669033145532,0.00019072150462307036
0.0030442248098552227,0.006500352639704943,-0.010456644929945469,0.002238857327029109,0.00039380075759254396,0.00018421468848828226
0.0031065058428794146,0.006778514012694359,-0.010670882649719715,0.0024109615478664637,0.00037901982432231307,0.0001523797691334039
0.0033988214563578367,0.006953998003154993,-0.01033041998744011,0.002227978315204382,0.0005222876206971705,0.00014396301412489265
0.0033582933247089386,0.007106943521648645,-0.01010151393711567,0.0021020083222538233,0.0005195587873458862,0.000135079535539262
0.002958539640530944,0.0064673032611608505,-0.010479161515831947,0.002050371142104268,0.00048346398398280144,0.00013114143803250045
0.0030320051591843367,0.006370721384882927,-0.010265164077281952,0.0022148946300148964,0.0004986541462130845,0.00012742781837005168
0.003005518577992916,0.006141128484159708,-0.009733102284371853,0.0020888526923954487,0.00047770075616426766,0.00012391842028591782
0.003118707099929452,0.005827771965414286,-0.010495688766241074,0.0021701434161514044,0.000491785816848278,0.00012059744040016085
0.003311708103865385,0.005647475365549326,-0.00969319324940443,0.0021008686162531376,0.0004740194999612868,0.00011744949733838439
0.0030349527951329947,0.006427893415093422,-0.010259211994707584,0.0020670227240771055,0.0005008786101825535,0.00011446192365838215
0.003056307788938284,0.006013738457113504,-0.010090598836541176,0.001963873626664281,0.0004689873894676566,0.00011162248119944707
0.0029447220731526613,0.00563190458342433,-0.009454715996980667,0.001957270549610257,0.0004992386675439775,0.00010892080172197893
0.003313687164336443,0.006066187284886837,-0.010194719769060612,0.001769545371644199,0.0005231903051026165,0.00010634647333063185
0.0032078251242637634,0.0060399482026696205,-0.010270914062857628,0.001650507445447147,0.0005346350953914225,0.00010389140516053885
0.0035785443615168333,0.005795657634735107,-0.009859509766101837,0.0015940952580422163,0.0005282139172777534,0.00010154680057894439
0.003240834688767791,0.006095698568969965,-0.009698877111077309,0.001642380258999765,0.0006736794603057206,9.93057110463269e-05
0.003235106822103262,0.0059650251641869545,-0.010695594362914562,0.0017014694167301059,0.000715767964720726,7.902609650045633e-05
0.003294688416644931,0.006038878113031387,-0.009741145186126232,0.0016263950383290648,0.0006977175362408161,7.617109076818451e-05
0.003605083329603076,0.005951618775725365,-0.009462537243962288,0.0017345763044431806,0.0006705105188302696,7.45170473237522e-05
0.0039203050546348095,0.005898348055779934,-0.009959193877875805,0.001744613517075777,0.0006723754922859371,7.300108700292185e-05
0.004042130894958973,0.005972288548946381,-0.009658901020884514,0.0017531482735648751,0.000635167583823204,5.485392102855258e-05
0.003965390846133232,0.005996571388095617,-0.00971205160021782,0.00163688522297889,0.0006689721485599875,5.269432222121395e-05
0.0038113228511065245,0.0062022642232477665,-0.010633151046931744,0.0014435943448916078,0.0006754135829396546,5.677026820194442e-06
0.0039052413776516914,0.0064660003408789635,-0.009280592203140259,0.0014344261726364493,0.0006739585660398006,-3.7765352317364886e-05
0.0039052413776516914,0.0064660003408789635,-0.009280592203140259,0.0014344261726364493,0.0006739585660398006,-3.7765352317364886e-05
0.003923957236111164,0.006028402596712112,-0.009577060118317604,0.0013357901480048895,0.0006507275393232703,-4.9579739425098523e-05
0.0035922592505812645,0.005837754812091589,-0.010117169469594955,0.0011962602147832513,0.0006710882298648357,-5.7960547565016896e-05
0.0035379789769649506,0.006151868496090174,-0.009563040919601917,0.0011005011620000005,0.0006881760200485587,-7.153567275963724e-05
0.0037162285298109055,0.006238558329641819,-0.009751380421221256,0.0010616978397592902,0.0007514820899814367,-7.460259075742215e-05
0.004047292750328779,0.006133084185421467,-0.009774125181138515,0.001071293605491519,0.0007727702613919973,-7.337900751736015e-05
0.004126070532947779,0.006158746778964996,-0.009217244572937489,0.001056217821314931,0.0007874381262809038,-8.871757017914206e-05
0.0038656180258840322,0.005941384006291628,-0.008887250907719135,0.0010985928820446134,0.0007342072203755379,-0.0003128616081085056
0.0037499337922781706,0.006537917070090771,-0.009014642797410488,0.001044170232489705,0.000935965683311224,-0.0005309461266733706
0.004343057982623577,0.006037014536559582,-0.009025102481245995,0.00093950325390324,0.0009630355634726584,-0.0005285147926770151
0.00413545360788703,0.006201077252626419,-0.010188008658587933,0.0008796125766821206,0.0010801268508657813,-0.0005209004739299417
0.00394417904317379,0.006019539199769497,-0.010227503255009651,0.0008791974396444857,0.0011954561341553926,-0.0004832827835343778
0.004259032662957907,0.006089105270802975,-0.009374862536787987,0.0008817492052912712,0.0011547808535397053,-0.0005044586723670363
0.004294387064874172,0.006588905584067106,-0.009702078998088837,0.000888671784196049,0.0010549408616498113,-0.0004784010525327176
0.0040952293202281,0.005922361277043819,-0.00959246326237917,0.000978291966021061,0.0010234086075797677,-0.0005439210799522698
0.003964217379689217,0.006020806264132261,-0.009575116448104382,0.0009712295141071081,0.0010085668182000518,-0.0005849461304023862
0.003917991649359465,0.006088601890951395,-0.010668705217540264,0.0009614874143153429,0.0009816387901082635,-0.0006660243379883468
0.0039010054897516966,0.007133264560252428,-0.010008854791522026,0.0008998223929665983,0.0008639038424007595,-0.0009183649090118706
0.004425834398716688,0.006606608163565397,-0.009579815901815891,0.0009071902022697031,0.0008610874065198004,-0.001238383585587144
0.004465634468942881,0.006310383789241314,-0.010077733546495438,0.0009046412887983024,0.0007772892131470144,-0.0011240780586376786
0.004161223769187927,0.00632906099781394,-0.010569624602794647,0.000903832318726927,0.0007371269748546183,-0.0010859901085495949
0.003873866982758045,0.006161950528621674,-0.00978109147399664,0.0008046294096857309,0.0007545688422396779,-0.0009999428875744343
0.004250210709869862,0.006906067952513695,-0.010172942653298378,0.0007886977982707322,0.0007711744983680546,-0.0009401175193488598
0.0045884451828897,0.006615934893488884,-0.009812690317630768,0.000731344916857779,0.0009009474888443947,-0.0009310540626756847
0.004499020520597696,0.006930175237357616,-0.009911306202411652,0.0006651998846791685,0.0010347097413614392,-0.0009580896585248411
0.004351309034973383,0.00698814494535327,-0.010589011944830418,0.0005979950074106455,0.0010213006753474474,-0.0009983950294554234
0.004289457108825445,0.006585670169442892,-0.010463457554578781,0.0005228920490480959,0.001013316330499947,-0.0010996327036991715
0.004289728123694658,0.006661784369498491,-0.009907880797982216,0.00046804494922980666,0.001168332528322935,-0.001076166401617229
0.004431508481502533,0.006714068818837404,-0.01018134318292141,0.00042387039866298437,0.0010583840776234865,-0.0011453606421127915
0.0045797815546393394,0.0063749258406460285,-0.009864241816103458,0.00045927148312330246,0.0010279834968969226,-0.0013735982356593013
0.004625434521585703,0.007067386992275715,-0.010638964362442493,0.00042757560731843114,0.0010826687794178724,-0.0016129539581015706
0.004180720075964928,0.006755271926522255,-0.010708601213991642,0.0003964660572819412,0.0011109430342912674,-0.00185081094969064
0.004180720075964928,0.006755271926522255,-0.010708601213991642,0.0003964660572819412,0.0011109430342912674,-0.00185081094969064
0.003981948830187321,0.006458130665123463,-0.009947025217115879,0.00036935153184458613,0.001089278026483953,-0.0016981263179332018
0.004311855882406235,0.006554480642080307,-0.010344620794057846,0.00039549023495055735,0.001061807619407773,-0.0015531386015936732
0.004954467993229628,0.006598404608666897,-0.010617745108902454,0.00037852319655939937,0.001016432885080576,-0.001404623850248754
0.00503504229709506,0.007308233994990587,-0.01066838949918747,0.0003574803995434195,0.0010258893016725779,-0.0013499002670869231
0.004379383288323879,0.006831458769738674,-0.010139932855963707,0.00033830557367764413,0.0009697020868770778,-0.0013614456402137876
0.004541999660432339,0.006747898645699024,-0.009866931475698948,0.000305488589219749,0.0009661362855695188,-0.0023814586456865072
0.004743223078548908,0.00697348965331912,-0.010998422279953957,0.0002913561766035855,0.0011052924674004316,-0.002555587561801076
0.005041350610554218,0.00712596345692873,-0.010187682695686817,0.00027847421006299555,0.0011308783432468772,-0.002396742580458522
0.004735955037176609,0.006782518234103918,-0.009401921182870865,0.0002666835789568722,0.0011112034553661942,-0.0019946906249970198
0.004824260715395212,0.007098985370248556,-0.010150035843253136,0.0002558509004302323,0.0012584514915943146,-0.0017540572443976998
0.004793690517544746,0.006703792605549097,-0.010472063906490803,0.00024586435756646097,0.001222828053869307,-0.0016414709389209747
0.004422161728143692,0.006838182453066111,-0.009639942087233067,0.00023662779130972922,0.001161346910521388,-0.0016650852048769593
0.004609874449670315,0.006642697844654322,-0.009988315403461456,0.00022806055494584143,0.0011071356711909175,-0.0018238307675346732
0.005122851114720106,0.0067054517567157745,-0.009701852686703205,0.00022009217354934663,0.000999924261122942,-0.001984916627407074
0.004883324261754751,0.006637559738010168,-0.009319890290498734,0.00021266166004352272,0.0008044869173318148,-0.0021058593410998583
0.004750755149871111,0.007260093465447426,-0.009911924600601196,0.00020571665663737804,0.0008068038732744753,-0.002194782020524144
0.004654805175960064,0.006616173777729273,-0.009927238337695599,0.00019921106286346912,0.0008181556477211416,-0.002819980029016733
0.004579577594995499,0.006233306135982275,-0.01043892651796341,0.0001931043661898002,0.0008275346481241286,-0.0030084759928286076
0.004989855457097292,0.0061906855553388596,-0.010071415454149246,0.00018736100173555315,0.0009112445404753089,-0.0029249833896756172
0.004909297451376915,0.007178698666393757,-0.009621134027838707,9.647476690588519e-05,0.0009166784002445638,-0.002593180863186717
0.004996990319341421,0.006755851209163666,-0.010117326863110065,6.603205110877752e-05,0.0009238471393473446,-0.0023455882910639048
0.004849434830248356,0.006398112513124943,-0.010199777781963348,6.199625931913033e-05,0.0009212815784849226,-0.002202210947871208
0.004748906008899212,0.006713868584483862,-0.009721610695123672,5.982053335173987e-05,0.0009350958280265331,-0.002225018572062254
0.005096845794469118,0.0068338895216584206,-0.009658862836658955,5.788887938251719e-05,0.000951138325035572,-0.002502134535461664
0.005513026379048824,0.006751921493560076,-0.009760749526321888,5.6084485549945384e-05,0.0009266620618291199,-0.0027792288456112146
0.00525265047326684,0.006460887845605612,-0.009250614792108536,5.438959851744585e-05,0.0009376624948345125,-0.0029601810965687037
0.0052331662736833096,0.006652836687862873,-0.00891066063195467,5.2794213843299076e-05,0.0009287911234423518,-0.0029055210761725903
0.005309954285621643,0.007058918010443449,-0.009472002275288105,5.128978591528721e-05,0.0009897429263219237,-0.0026449651923030615
0.005533648654818535,0.007046597544103861,-0.008996548131108284,2.8223486879142e-05,0.0009897289564833045,-0.0025019433815032244
0.005533648654818535,0.007046597544103861,-0.008996548131108284,2.8223486879142e-05,0.0009897289564833045,-0.0025019433815032244
0.005074346903711557,0.00671114819124341,-0.008841199800372124,2.44768634729553e-05,0.0009866516338661313,-0.0025387571658939123
0.004908934701234102,0.006753024645149708,-0.009243701584637165,2.3639184291823767e-05,0.0012400955893099308,-0.0028954839799553156
0.0054633039981126785,0.006726021878421307,-0.008932765573263168,2.302174107171595e-05,0.0011915952200070024,-0.003035205416381359
0.005158708896487951,0.00689637940376997,-0.008436176925897598,2.9547920803452143e-06,0.0011445808922871947,-0.0034701130352914333
0.005476808175444603,0.006952465046197176,-0.009466657415032387,1.2596742315906795e-08,0.0010088233975693583,-0.0031210484448820353
0.0050362818874418736,0.006406874395906925,-0.009378237649798393,8.224772529707991e-10,0.0009883996099233627,-0.002702112775295973
0.005312471184879541,0.006273078266531229,-0.008700388483703136,5.37018936264122e-11,0.0009754676138982177,-0.002505510114133358
0.005564422812312841,0.007000606972724199,-0.009125890210270882,3.506350158138938e-12,0.0009214541059918702,-0.0026423311792314053
0.005609375890344381,0.007025659084320068,-0.008781281299889088,2.2893958864095287e-13,0.0010097798658534884,-0.003049896564334631
0.005547738168388605,0.006766390521079302,-0.008786376565694809,1.494812066282162e-14,0.0010175048373639584,-0.0033072333317250013
0.005420477129518986,0.006574526894837618,-0.009526092559099197,9.760054660559107e-16,0.0010177522199228406,-0.0036192501429468393
0.005486844573169947,0.006865655072033405,-0.009088773280382156,-0.00015808973694220185,0.001285141916014254,-0.003886695485562086
0.0056108832359313965,0.00731705455109477,-0.0085206413641572,-0.000936554919462651,0.00125130417291075,-0.0038961071986705065
0.005735649727284908,0.006745757535099983,-0.009231427684426308,-0.0010721213184297085,0.00121822371147573,-0.00384915410540998
0.005943781230598688,0.006777860224246979,-0.009087537415325642,-0.001216783537529409,0.0013576901983469725,-0.0038073216564953327
0.005466143600642681,0.006840194575488567,-0.008754171431064606,-0.0014998107217252254,0.0013777430867776275,-0.003838268807157874
0.00594277074560523,0.007289612200111151,-0.009048154577612877,-0.0016925798263400793,0.0012547447113320231,-0.003444611094892025
0.006074897944927216,0.006769611034542322,-0.009205426089465618,-0.0020333179272711277,0.0013465660158544779,-0.0034690257161855698
0.005941830109804869,0.006246659904718399,-0.008917226456105709,-0.002531456993892789,0.0012665081303566694,-0.0036896634846925735
0.006040147040039301,0.006498982198536396,-0.008865687996149063,-0.0028701063711196184,0.0012150065740570426,-0.003899139352142811
0.005524463020265102,0.007260478567332029,-0.009555501863360405,-0.003127295756712556,0.0012160750338807702,-0.004433813504874706
0.005756778176873922,0.007151641417294741,-0.009374067187309265,-0.003159191459417343,0.0012090739328414202,-0.0042200549505651
0.00598491495475173,0.006623696535825729,-0.009121456183493137,-0.003140451852232218,0.001180801773443818,-0.0039715636521577835
0.005995412357151508,0.006647652946412563,-0.009314554743468761,-0.0034536258317530155,0.0012916035484522581,-0.0038169953040778637
0.005995412357151508,0.006647652946412563,-0.009314554743468761,-0.0034536258317530155,0.0012916035484522581,-0.0038169953040778637
0.006218059454113245,0.006851993501186371,-0.009276357479393482,-0.0037958628963679075,0.0012822006829082966,-0.0042042238637804985
0.005518160294741392,0.007299407850950956,-0.008681174367666245,-0.004121108911931515,0.0012197148753330112,-0.003718541469424963
0.0059990533627569675,0.006947177927941084,-0.009804296307265759,-0.004023103509098291,0.0011861720122396946,-0.0035832931753247976
0.0061378455720841885,0.006746033206582069,-0.008931453339755535,-0.004338313825428486,0.0011594286188483238,-0.004053937271237373
0.00629560649394989,0.00665659736841917,-0.00846564956009388,-0.004624181427061558,0.0012307475553825498,-0.004459699150174856
0.005965872667729855,0.006595639977604151,-0.009114740416407585,-0.004811255726963282,0.0012313688639551401,-0.004856613930314779
0.005878941621631384,0.006983529776334763,-0.009541841223835945,-0.004908071830868721,0.0011904361890628934,-0.004796912893652916
0.006197867915034294,0.006561666261404753,-0.008688087575137615,-0.005337519105523825,0.0012284981785342097,-0.004340728744864464
0.006036838516592979,0.006697314791381359,-0.008458917029201984,-0.005126731004565954,0.0012074243277311325,-0.0043208715505898
0.0060104853473603725,0.007325613405555487,-0.008878245949745178,-0.0054941060952842236,0.0011728042736649513,-0.004104473628103733
0.005816859658807516,0.0067880721762776375,-0.009001079946756363,-0.005350423511117697,0.0011417638743296266,-0.004366770852357149
0.005648483522236347,0.006666491739451885,-0.008961069397628307,-0.00532231479883194,0.00126258737873286,-0.0046649714931845665
0.006088431924581528,0.006651132367551327,-0.008769133128225803,-0.005224411841481924,0.00122618000023067,-0.005039670504629612
0.006479473784565926,0.0074076843447983265,-0.008880669251084328,-0.005759749561548233,0.0012014429084956646,-0.004614702891558409
0.006512664258480072,0.007142690010368824,-0.008979345671832561,-0.005954341031610966,0.001312212785705924,-0.004259173758327961
0.006002495996654034,0.007029078900814056,-0.00952411163598299,-0.005456973798573017,0.0013642609119415283,-0.004201877862215042
0.0061679407954216,0.006895984522998333,-0.008782955817878246,-0.005538351368159056,0.0013442917261272669,-0.004424759652465582
0.006116494070738554,0.007563214283436537,-0.009169082157313824,-0.005912423133850098,0.0013380009913817048,-0.004431813023984432
0.005934019573032856,0.006990875117480755,-0.008993295021355152,-0.005937026347965002,0.0012551998952403665,-0.004318081308156252
0.006130396854132414,0.006726475432515144,-0.00924378540366888,-0.0060341255739331245,0.0012252320302650332,-0.003949892707169056
0.0061848401091992855,0.006725806277245283,-0.00872080959379673,-0.006327544339001179,0.0012881947914138436,-0.005019505973905325
0.006180358584970236,0.0069097368977963924,-0.008438886143267155,-0.006595591548830271,0.0012329791206866503,-0.005093598272651434
0.006553302519023418,0.0072069005109369755,-0.009036381728947163,-0.006348700262606144,0.0013120986986905336,-0.004836303647607565
0.006723170634359121,0.0072921751998364925,-0.008731775917112827,-0.006299743428826332,0.0014357289765030146,-0.004533514846116304
0.006169606931507587,0.007435180712491274,-0.009187529794871807,-0.0062304334715008736,0.0014251488028094172,-0.004549429751932621
0.006331303156912327,0.007088133599609137,-0.009077570401132107,-0.005587822757661343,0.0016436990117654204,-0.004914464894682169
0.006211552768945694,0.007476766128093004,-0.008426470682024956,-0.0059379818849265575,0.0016369797522202134,-0.004879768937826157
0.00654052197933197,0.00752292899414897,-0.00852152705192566,-0.006880947854369879,0.0014623638708144426,-0.004992750473320484
0.006450915243476629,0.006755533628165722,-0.008968286216259003,-0.006757576949894428,0.001379721099510789,-0.0050613549537956715
0.006450915243476629,0.006755533628165722,-0.008968286216259003,-0.006757576949894428,0.001379721099510789,-0.0050613549537956715
0.006312699522823095,0.006785926409065723,-0.008347797207534313,-0.006220982875674963,0.0013071508146822453,-0.004844450857490301
0.006110473535954952,0.006955992430448532,-0.008203229866921902,-0.006017894018441439,0.0012668607523664832,-0.004586226772516966
0.00628506438806653,0.006957939825952053,-0.008948360569775105,-0.006136943586170673,0.0014197786804288626,-0.004862411879003048
0.006708976812660694,0.006951053161174059,-0.008798259310424328,-0.006608666852116585,0.0013898065080866218,-0.005479168146848679
0.006715984549373388,0.006747720297425985,-0.008416487835347652,-0.006364868488162756,0.0015607691602781415,-0.005121768917888403
0.0062316772527992725,0.007278910838067532,-0.008767563849687576,-0.006090125069022179,0.001533225062303245,-0.005267508327960968
0.006363853346556425,0.0074583422392606735,-0.008751552551984787,-0.006134805269539356,0.001437275088392198,-0.005150894168764353
0.006897964049130678,0.006874523591250181,-0.008997185155749321,-0.0068309796042740345,0.001481955754570663,-0.004795363638550043
0.0064051952213048935,0.006987408734858036,-0.008847139775753021,-0.007059724070131779,0.0014534896472468972,-0.005174974445253611
0.006339198909699917,0.007245202548801899,-0.00888789538294077,-0.006502363830804825,0.0015252269804477692,-0.004770983941853046
0.006946039851754904,0.007070028688758612,-0.008530556224286556,-0.00680900551378727,0.001468378002755344,-0.005109595600515604
0.006902809254825115,0.006976588163524866,-0.00903251115232706,-0.007074721157550812,0.001540666213259101,-0.005251345224678516
0.006696266587823629,0.007072213105857372,-0.0086690504103899,-0.00769675150513649,0.00147064751945436,-0.005048861727118492
0.006577675696462393,0.007348516955971718,-0.008465192280709743,-0.007506632711738348,0.0013870054390281439,-0.005382584873586893
0.006717632990330458,0.007477505598217249,-0.008552922867238522,-0.0076936399564146996,0.0013530817814171314,-0.005141373723745346
0.00669470988214016,0.007164776790887117,-0.00872123334556818,-0.007719276938587427,0.0014346466632559896,-0.00494519155472517
0.006838105618953705,0.0074732364155352116,-0.008654376491904259,-0.008000263944268227,0.0018724572146311402,-0.005504104774445295
0.006757632363587618,0.008545896038413048,-0.008994780480861664,-0.00815627258270979,0.0018259886419400573,-0.005563075188547373
0.006495875306427479,0.007223031483590603,-0.00860358215868473,-0.008196777664124966,0.0016489946283400059,-0.005979191046208143
0.006859311368316412,0.006828468758612871,-0.008521915413439274,-0.00860511977225542,0.0016420704778283834,-0.0061485436744987965
0.007094291038811207,0.007425851654261351,-0.008942311629652977,-0.008343379944562912,0.0015396239468827844,-0.00554216792806983
0.006758917588740587,0.007627903949469328,-0.009282482787966728,-0.00827089510858059,0.0015225118258967996,-0.00540490448474884
0.006788448430597782,0.007543753366917372,-0.008543970994651318,-0.008106015622615814,0.0014494044007733464,-0.005746900569647551
0.00733629334717989,0.007021399214863777,-0.008587850257754326,-0.007956481538712978,0.001535223564133048,-0.006375935394316912
0.0069945757277309895,0.00721845543012023,-0.009548448026180267,-0.007894025184214115,0.0016276497626677155,-0.006623207125812769
0.007397320121526718,0.007771648932248354,-0.009132616221904755,-0.008318522945046425,0.001533582340925932,-0.0058755879290401936
0.007397320121526718,0.007771648932248354,-0.009132616221904755,-0.008318522945046425,0.001533582340925932,-0.0058755879290401936
0.0066529251635074615,0.00739895598962903,-0.008671984076499939,-0.008408503606915474,0.0013599931262433529,-0.0059214006178081036
0.006683798506855965,0.007217184640467167,-0.008912107907235622,-0.00816909596323967,0.0013803078327327967,-0.00584634393453598
0.007307352963835001,0.007540721911936998,-0.009356499649584293,-0.00824921764433384,0.0013747888151556253,-0.006252613849937916
0.007569131441414356,0.007573002018034458,-0.009360556490719318,-0.00911460630595684,0.001553101814351976,-0.006572075188159943
0.0068970308639109135,0.007363094948232174,-0.008522368967533112,-0.008768323808908463,0.0015643321676179767,-0.006118652876466513
0.007123452611267567,0.007283605635166168,-0.009394796565175056,-0.00833815149962902,0.001756340847350657,-0.006227792706340551
0.007454481441527605,0.007445724681019783,-0.00868040882050991,-0.0088771628215909,0.0016811226960271597,-0.00676242308691144
0.007454481441527605,0.007445724681019783,-0.00868040882050991,-0.0088771628215909,0.0016811226960271597,-0.00676242308691144
0.007133848499506712,0.007185092195868492,-0.009515490382909775,-0.006507893092930317,0.0016689581098034978,-0.00629294291138649
0.007487307768315077,0.007354347500950098,-0.0089442552998662,-0.00784763041883707,0.0018163808854296803,-0.006410975940525532
0.007750301621854305,0.00748128816485405,-0.009609144181013107,-0.009012521244585514,0.001727968454360962,-0.006409346591681242
0.007229698821902275,0.007368929218500853,-0.009369821287691593,-0.008810758590698242,0.0019182274118065834,-0.00694114388898015
0.006838672794401646,0.007235036231577396,-0.008768904022872448,-0.008347311057150364,0.0018022467847913504,-0.0066246408969163895
0.007397819776087999,0.007450795266777277,-0.008740149438381195,-0.008387344889342785,0.0020135643426328897,-0.006236210465431213
0.007780764251947403,0.007458759471774101,-0.010268772952258587,-0.008807198144495487,0.001877596601843834,-0.006887806113809347
0.007504557725042105,0.007181546650826931,-0.008767380379140377,-0.009050392545759678,0.0018782898550853133,-0.007702048867940903
0.007722051814198494,0.007077726535499096,-0.008673377335071564,-0.009574628435075283,0.001766831730492413,-0.00726782251149416
0.008586877025663853,0.007340488955378532,-0.009627433493733406,-0.009317883290350437,0.0016983139794319868,-0.006842947099357843
0.007946222089231014,0.00774496840313077,-0.009673114866018295,-0.009165167808532715,0.0017251051031053066,-0.007036333438009024
0.007565081585198641,0.007292430382221937,-0.008346537128090858,-0.009181629866361618,0.0016486379317939281,-0.00700774509459734
0.007707918528467417,0.007319792173802853,-0.008929558098316193,-0.008928240276873112,0.0016972413286566734,-0.007174255326390266
0.00812012329697609,0.007581859361380339,-0.009149874560534954,-0.009328735060989857,0.0015831005293875933,-0.007165516726672649
0.008333844132721424,0.007868047803640366,-0.00900211650878191,-0.009865927509963512,0.0015970340464264154,-0.007093713618814945
0.007838431745767593,0.00770989153534174,-0.009187684394419193,-0.009806198999285698,0.0016497395699843764,-0.007382305338978767
0.008134995587170124,0.008141415193676949,-0.008969349786639214,-0.008978953585028648,0.002016897313296795,-0.007761618122458458
0.008134995587170124,0.008141415193676949,-0.008969349786639214,-0.008978953585028648,0.002016897313296795,-0.007761618122458458
0.008247317746281624,0.00855130236595869,-0.008762002922594547,-0.009151012636721134,0.0019664487335830927,-0.007593369577080011
0.00804793369024992,0.00795870739966631,-0.008913715369999409,-0.009834007360041142,0.002087533241137862,-0.0072334702126681805
0.006763978861272335,0.007705890107899904,-0.009196371771395206,-0.009398767724633217,0.0019106024410575628,-0.006980542559176683
0.008892607875168324,0.007768171839416027,-0.008651652373373508,-0.009012567810714245,0.0017512623453512788,-0.007263281382620335
0.0084909126162529,0.007962034083902836,-0.009751621633768082,-0.009734618477523327,0.0015772123588249087,-0.007383119780570269
0.007894220761954784,0.007729454897344112,-0.009499268606305122,-0.009797472506761551,0.0016420893371105194,-0.008035695180296898
0.008408628404140472,0.007731915917247534,-0.00861030537635088,-0.009760179556906223,0.001993939047679305,-0.007781850174069405
0.00852831918746233,0.008962992578744888,-0.010070070624351501,-0.009361800737679005,0.0020935952197760344,-0.007429375313222408
0.008200803771615028,0.008046532981097698,-0.009714215062558651,-0.009978915564715862,0.002194525208324194,-0.007376020308583975
0.00833673682063818,0.007734106387943029,-0.009171148762106895,-0.010481627658009529,0.0021126307547092438,-0.00758841959759593
0.008467218838632107,0.007787829730659723,-0.009070688858628273,-0.009828542359173298,0.0019143002573400736,-0.008199010975658894
0.00854810606688261,0.007977910339832306,-0.009418557398021221,-0.009812870994210243,0.0018677994376048446,-0.008011115714907646
0.008058157749474049,0.007510639727115631,-0.008927869610488415,-0.010619440115988255,0.0018435075180605054,-0.007980558089911938
0.008350885473191738,0.007586776744574308,-0.00974715780466795,-0.010068259201943874,0.0019081904320046306,-0.00792388804256916
0.008731578476727009,0.008141253143548965,-0.00956312008202076,-0.00995307881385088,0.002205738564953208,-0.007638685870915651
0.008474454283714294,0.00808890163898468,-0.008516442961990833,-0.010165420360863209,0.00210458948276937,-0.007968786172568798
0.008108731359243393,0.008249619975686073,-0.00867290049791336,-0.01033814623951912,0.002254731021821499,-0.007933435961604118
0.008834636770188808,0.007999376393854618,-0.009563975967466831,-0.011007612571120262,0.0020226845517754555,-0.007635377813130617
0.008265300653874874,0.007860376499593258,-0.008739304728806019,-0.010619434528052807,0.0019343936583027244,-0.0075067258439958096
0.008190089836716652,0.007547881454229355,-0.008700059726834297,-0.009883237071335316,0.0019570193253457546,-0.00812049861997366
0.008797085843980312,0.007424754090607166,-0.009286481887102127,-0.010497820563614368,0.0022026568185538054,-0.008505044505000114
0.008549408987164497,0.0074433134868741035,-0.009010795503854752,-0.010515098460018635,0.0022482206113636494,-0.008205422200262547
0.008391717448830605,0.007928246632218361,-0.009272290393710136,-0.010224075987935066,0.002258812543004751,-0.007867895998060703
0.008053005672991276,0.007359663024544716,-0.009033347479999065,-0.010707413777709007,0.0020820910576730967,-0.00796997919678688
0.008524867706000805,0.0072500575333833694,-0.00898443628102541,-0.010188525542616844,0.0020046522840857506,-0.008302940055727959
0.008524867706000805,0.0072500575333833694,-0.00898443628102541,-0.010188525542616844,0.0020046522840857506,-0.008302940055727959
0.008228135295212269,0.007808625232428312,-0.00879732333123684,-0.010378202423453331,0.0018943403847515583,-0.007878998294472694
0.008524123579263687,0.008321544155478477,-0.009339997544884682,-0.010226872749626637,0.00187528261449188,-0.008065100759267807
0.008346817456185818,0.007657279260456562,-0.00895954854786396,-0.010100306011736393,0.002450693165883422,-0.007885666564106941
0.008691792376339436,0.007394604384899139,-0.008534167893230915,-0.010537589900195599,0.0029417378827929497,-0.007581792771816254
0.008850060403347015,0.008147815242409706,-0.00890449807047844,-0.01083810068666935,0.0030430827755481005,-0.00698775565251708
0.008729725144803524,0.008030189201235771,-0.009343297220766544,-0.01024316344410181,0.002700580283999443,-0.007417905610054731
0.008438589982688427,0.00770833995193243,-0.008347280323505402,-0.010764608159661293,0.002232686383649707,-0.00761090824380517
0.008951219730079174,0.0070274933241307735,-0.008164670318365097,-0.011586923152208328,0.0019310970092192292,-0.007267653476446867
0.008589964359998703,0.008062710985541344,-0.008366302587091923,-0.011263570748269558,0.0017195792170241475,-0.00800072867423296
0.008948853239417076,0.007491070311516523,-0.007771580014377832,-0.011110601015388966,0.001987834693863988,-0.007665888871997595
0.008682725951075554,0.007569768466055393,-0.008115680888295174,-0.011181130073964596,0.0021717615891247988,-0.007724069524556398
0.00970668625086546,0.007555897813290358,-0.008751058019697666,-0.011784693226218224,0.0024392111226916313,-0.007996728643774986
0.009011615999042988,0.0077033028937876225,-0.0076374029740691185,-0.010978786274790764,0.002604413079097867,-0.008142980746924877
0.009089155122637749,0.00738197285681963,-0.007499900180846453,-0.011437132954597473,0.002490774728357792,-0.008186946623027325
0.00902810413390398,0.007183474954217672,-0.008083957247436047,-0.011938691139221191,0.002580470871180296,-0.008121713995933533
0.009154091589152813,0.00820325780659914,-0.008667397312819958,-0.011635536327958107,0.002358493162319064,-0.0077998521737754345
0.00899407546967268,0.008458287455141544,-0.00864871684461832,-0.01192321628332138,0.0025104954838752747,-0.007935714907944202
0.00951557420194149,0.007990262471139431,-0.008101601153612137,-0.011753738857805729,0.0024994718842208385,-0.008180000819265842
0.009308011271059513,0.0071375928819179535,-0.008631154894828796,-0.012144933454692364,0.0024334508925676346,-0.008390807546675205
0.009761753492057323,0.008045908063650131,-0.008659977465867996,-0.011591077782213688,0.0024086046032607555,-0.008216405287384987
0.009323220700025558,0.007927912287414074,-0.008372883312404156,-0.011745866388082504,0.002412114990875125,-0.007835767231881618
0.009533178061246872,0.007462447043508291,-0.007868419401347637,-0.012262542732059956,0.00226037111133337,-0.008639352396130562
0.009383008815348148,0.007353546097874641,-0.008475789800286293,-0.011754883453249931,0.002200897317379713,-0.008554861880838871
0.00918679777532816,0.00766252214089036,-0.008942360058426857,-0.01224708091467619,0.0021001524291932583,-0.008428391069173813
0.009336245246231556,0.007412778679281473,-0.008572811260819435,-0.012358205392956734,0.002208342310041189,-0.008309952914714813
0.009568849578499794,0.007463282439857721,-0.008435417897999287,-0.012712452560663223,0.0022238825913518667,-0.007988394238054752
0.00972234457731247,0.007034697569906712,-0.0084507642313838,-0.01295357197523117,0.0023941497784107924,-0.008632728829979897
0.009559519588947296,0.007481776177883148,-0.008340967819094658,-0.012558076530694962,0.002294775564223528,-0.008207470178604126
0.00948466919362545,0.007708875462412834,-0.00772059103474021,-0.013032601214945316,0.0021739304065704346,-0.00871796440333128
0.009832498617470264,0.007413774263113737,-0.008256476372480392,-0.012816357426345348,0.0021381534170359373,-0.008428147062659264
0.009628170169889927,0.007229074370115995,-0.008661983534693718,-0.013208677992224693,0.0021534122060984373,-0.008713711984455585
0.009628170169889927,0.007229074370115995,-0.008661983534693718,-0.013208677992224693,0.0021534122060984373,-0.008713711984455585
0.009615185670554638,0.007637940812855959,-0.008437292650341988,-0.012947280891239643,0.0025895757135003805,-0.008828355930745602
0.010295262560248375,0.0074048419483006,-0.008618324995040894,-0.013322198763489723,0.0028310960624367,-0.008674162440001965
0.009777448140084743,0.008145253174006939,-0.008609200827777386,-0.012920579873025417,0.0029702838510274887,-0.008142152801156044
0.009493563324213028,0.007996818982064724,-0.008571435697376728,-0.013263584114611149,0.0027148148510605097,-0.00818029697984457
0.009364119730889797,0.007682579569518566,-0.00802399031817913,-0.012921562418341637,0.0022801451850682497,-0.008672037161886692
0.009794619865715504,0.007320628967136145,-0.00850260816514492,-0.013654987327754498,0.002104000886902213,-0.00930374301970005
0.010132846422493458,0.007948827929794788,-0.00845373421907425,-0.013494184240698814,0.0020005940459668636,-0.009158024564385414
0.009808220900595188,0.00790110882371664,-0.00857022125273943,-0.013627415522933006,0.0023870652075856924,-0.009316685609519482
0.009545186534523964,0.007559673395007849,-0.008218292146921158,-0.013556331396102905,0.0023747023660689592,-0.008928237482905388
0.010449211113154888,0.007650325074791908,-0.008069525472819805,-0.013887951150536537,0.0023684115149080753,-0.008994566276669502
0.01009874977171421,0.007765683811157942,-0.007769071031361818,-0.013508833013474941,0.0024538510479032993,-0.00903724879026413
0.00931000616401434,0.007602670229971409,-0.008760074153542519,-0.013879158534109592,0.002513536484912038,-0.009187402203679085
0.009060687385499477,0.007719419896602631,-0.008337791077792645,-0.01375863328576088,0.0027581483591347933,-0.009423187002539635
0.009766539558768272,0.007569619920104742,-0.00812128372490406,-0.014193783514201641,0.0028359757270663977,-0.009543883614242077
0.009788972325623035,0.007598627358675003,-0.00817752256989479,-0.01388466451317072,0.002912885509431362,-0.009404607117176056
0.00947065930813551,0.008183734491467476,-0.008149872533977032,-0.014391961507499218,0.00273890420794487,-0.009824313223361969
0.0096744354814291,0.007700046524405479,-0.00803652685135603,-0.014179391786456108,0.0025542674120515585,-0.009896866977214813
0.009686477482318878,0.0075842393562197685,-0.007761445827782154,-0.0146280936896801,0.002277119318023324,-0.01020822860300541
0.009598148986697197,0.008237435482442379,-0.008789174258708954,-0.014407690614461899,0.002236761851236224,-0.00994610320776701
0.009797471575438976,0.00769220432266593,-0.008614872582256794,-0.014557250775396824,0.0024377910885959864,-0.009915833361446857
0.009829364717006683,0.007717996370047331,-0.007774141617119312,-0.014291916973888874,0.0024990374222397804,-0.009839758276939392
0.010461798869073391,0.0077840969897806644,-0.007669028826057911,-0.014765762723982334,0.0024656630121171474,-0.009889146313071251
0.010461798869073391,0.0077840969897806644,-0.007669028826057911,-0.014765762723982334,0.0024656630121171474,-0.009889146313071251
0.011528592556715012,0.008237705565989017,-0.00871762353926897,-0.014713259413838387,0.0026389106642454863,-0.010232554748654366
0.011386585421860218,0.007958993315696716,-0.009114679880440235,-0.014948712661862373,0.0027662888169288635,-0.009386291727423668
0.0115297120064497,0.008263510651886463,-0.008137905038893223,-0.014689714647829533,0.002863933565095067,-0.009808598086237907
0.011361249722540379,0.008014891296625137,-0.008648483082652092,-0.015030041337013245,0.0027214849833399057,-0.010496842674911022
0.011338124051690102,0.007972938008606434,-0.008425545878708363,-0.014446955174207687,0.00262802978977561,-0.010164807550609112
0.011939970776438713,0.007730022072792053,-0.008368310518562794,-0.015271840617060661,0.0023664385080337524,-0.010360990650951862
0.011375238187611103,0.007820870727300644,-0.00795887503772974,-0.015452123247087002,0.0023931737523525953,-0.010001239366829395
0.011693359352648258,0.007849160581827164,-0.00833655335009098,-0.015384187921881676,0.0026068242732435465,-0.010017815046012402
0.011747857555747032,0.00809857714921236,-0.008276631124317646,-0.015434716828167439,0.0028257824014872313,-0.010695510543882847
0.012385828420519829,0.008333620615303516,-0.008149277418851852,-0.015497583895921707,0.002824727213010192,-0.010291952639818192
0.011666500009596348,0.008180266246199608,-0.008602268062531948,-0.015266110189259052,0.003099593799561262,-0.010446885600686073
0.012068827636539936,0.007979975081980228,-0.008236276917159557,-0.015655340626835823,0.0029451679438352585,-0.010305911302566528
0.011906018480658531,0.007673908490687609,-0.008345961570739746,-0.015421055257320404,0.003096903208643198,-0.010424893349409103
0.01173908170312643,0.0075512840412557125,-0.00896061584353447,-0.015901468694210052,0.0029758852906525135,-0.010543283075094223
0.012229622341692448,0.008115079253911972,-0.008695635944604874,-0.016063375398516655,0.0031740954145789146,-0.010533368214964867
0.011832887306809425,0.008227075450122356,-0.00853551086038351,-0.01672813482582569,0.003252293448895216,-0.010722844861447811
0.011952478438615799,0.007877759635448456,-0.00887052621692419,-0.016229946166276932,0.0028533251024782658,-0.011039615608751774
0.011893562972545624,0.007956599816679955,-0.008919140323996544,-0.01633373275399208,0.0026453055907040834,-0.011216217651963234
0.0118439681828022,0.008470411412417889,-0.007919586263597012,-0.01622919552028179,0.0026031872257590294,-0.011310596019029617
0.011955518275499344,0.008424093946814537,-0.008345445618033409,-0.016271453350782394,0.0027160171885043383,-0.011109551414847374
0.011699716560542583,0.008408784866333008,-0.008992078714072704,-0.017075911164283752,0.002599705010652542,-0.011211780831217766
0.012165344320237637,0.008375630713999271,-0.00893611740320921,-0.01688278280198574,0.002757530426606536,-0.011334829963743687
0.011499964632093906,0.008044229820370674,-0.00799885205924511,-0.017131995409727097,0.002717608353123069,-0.011357990093529224
0.012178521603345871,0.007600969634950161,-0.008479372598230839,-0.016593966633081436,0.002740703523159027,-0.0113150579854846
0.012293105013668537,0.0074483901262283325,-0.008562386967241764,-0.016926173120737076,0.002604496432468295,-0.011193587444722652
0.011913374997675419,0.008312532678246498,-0.008605854585766792,-0.016974547877907753,0.0028226731810718775,-0.010065680369734764
0.012020662426948547,0.008547456003725529,-0.008475298061966896,-0.01679113879799843,0.0029871731530874968,-0.011607436463236809
0.011908907443284988,0.008046654984354973,-0.009128106757998466,-0.01753190904855728,0.003241082187741995,-0.011494260281324387
0.01222900114953518,0.007727724500000477,-0.00866012740880251,-0.017661433666944504,0.002882877830415964,-0.011110695078969002
0.01191798411309719,0.008122384548187256,-0.007909215055406094,-0.01758311130106449,0.002798660658299923,-0.011027239263057709
0.01191798411309719,0.008122384548187256,-0.007909215055406094,-0.01758311130106449,0.002798660658299923,-0.011027239263057709
0.011854694224894047,0.008059515617787838,-0.008820470422506332,-0.017188556492328644,0.0024567111395299435,-0.010706368833780289
0.0123673090711236,0.00848336797207594,-0.008449229411780834,-0.016682539135217667,0.0022574947215616703,-0.010704448446631432
0.011894256807863712,0.008968710899353027,-0.008335178717970848,-0.01758233830332756,0.0023056219797581434,-0.010563776828348637
0.011817481368780136,0.008965839631855488,-0.009080927819013596,-0.01678607426583767,0.0024676998145878315,-0.010685202665627003
0.011959262192249298,0.009339472278952599,-0.00911653134971857,-0.016859471797943115,0.0023828172124922276,-0.010360646061599255
0.012222646735608578,0.008903475478291512,-0.008487611077725887,-0.017451955005526543,0.002485040109604597,-0.010380903258919716
0.012436479330062866,0.009328237734735012,-0.007558868732303381,-0.01751171052455902,0.002698444528505206,-0.010312659665942192
0.011690925806760788,0.008702374063432217,-0.00861082412302494,-0.017475614324212074,0.002694466384127736,-0.010682486928999424
0.01223411038517952,0.00862155668437481,-0.00870463252067566,-0.01716192252933979,0.0028938637115061283,-0.010789395309984684
0.01226753182709217,0.00932326540350914,-0.008234182372689247,-0.017477311193943024,0.002743657911196351,-0.010819334536790848
0.012219195254147053,0.009102092124521732,-0.008406129665672779,-0.017690422013401985,0.002927783178165555,-0.010390887968242168
0.01212537381798029,0.009498407132923603,-0.00799306109547615,-0.01804487779736519,0.0030200115870684385,-0.01079834345728159
0.012472079135477543,0.009016446769237518,-0.0077699776738882065,-0.01720382273197174,0.0030878446996212006,-0.010929465293884277
0.012365147471427917,0.00918483640998602,-0.008701390586793423,-0.017116129398345947,0.003350289072841406,-0.011174460873007774
0.013151843100786209,0.009386308491230011,-0.008819603361189365,-0.0175301656126976,0.0032253412064164877,-0.011352689936757088
0.012390662916004658,0.009730237536132336,-0.007831830531358719,-0.017462190240621567,0.0034193461760878563,-0.010614682920277119
0.012195223942399025,0.00901018176227808,-0.007558284793049097,-0.017836205661296844,0.0036652449052780867,-0.010915734805166721
0.012515577487647533,0.009622424840927124,-0.00808034185320139,-0.018178781494498253,0.0033413018099963665,-0.01129323523491621
0.012587852776050568,0.009465843439102173,-0.008028780110180378,-0.01825559511780739,0.003351569874212146,-0.011487042531371117
0.012932166457176208,0.00908559001982212,-0.007673629559576511,-0.018447816371917725,0.0033179502934217453,-0.011699902825057507
0.012200312688946724,0.009551022201776505,-0.00833882950246334,-0.017909299582242966,0.003224986605346203,-0.011219319887459278
0.012509796768426895,0.009772070683538914,-0.008328959345817566,-0.018303964287042618,0.0032619046978652477,-0.011761761270463467
0.012162163853645325,0.009692050516605377,-0.007757164537906647,-0.018934646621346474,0.003145762952044606,-0.011470031924545765
0.01267161499708891,0.009499696083366871,-0.007484732661396265,-0.018576079979538918,0.0030302382074296474,-0.011172648519277573
0.012906217016279697,0.00940695684403181,-0.008031874895095825,-0.018810970708727837,0.002984812017530203,-0.011659498326480389
0.012721177190542221,0.008999021723866463,-0.0077853938564658165,-0.01964716613292694,0.002989067928865552,-0.011510796844959259
0.013001871295273304,0.009099973365664482,-0.007436142303049564,-0.01944706216454506,0.0029204164166003466,-0.010986424051225185
0.012501666322350502,0.009375182911753654,-0.0074442424811422825,-0.01943174935877323,0.0030392631888389587,-0.011643598787486553
0.01329813338816166,0.008905664086341858,-0.008705904707312584,-0.019851146265864372,0.002862616442143917,-0.0119271045550704
0.01329813338816166,0.008905664086341858,-0.008705904707312584,-0.019851146265864372,0.002862616442143917,-0.0119271045550704
0.012825878337025642,0.00899020116776228,-0.00781903974711895,-0.02011602744460106,0.003051613923162222,-0.011653055436909199
0.013551447540521622,0.009303749538958073,-0.0073494273237884045,-0.019704271107912064,0.0030741875525563955,-0.01140113640576601
0.013381071388721466,0.008725181221961975,-0.007470216602087021,-0.020058434456586838,0.0034194376785308123,-0.01140490174293518
0.013389562256634235,0.008938122540712357,-0.008193999528884888,-0.02002178505063057,0.003618586575612426,-0.011934774927794933
0.013069814071059227,0.009463314898312092,-0.008066484704613686,-0.020442456007003784,0.0036870089825242758,-0.012085865251719952
0.013302781619131565,0.009635561145842075,-0.007496577687561512,-0.021283414214849472,0.00399162620306015,-0.012171808630228043
0.013426891528069973,0.008850356563925743,-0.00833364948630333,-0.021510515362024307,0.003646744415163994,-0.012134197168052197
0.013366983272135258,0.009498571045696735,-0.007844850420951843,-0.02076895907521248,0.00361454114317894,-0.011982996016740799
0.013562830165028572,0.00898523349314928,-0.007560350000858307,-0.02038426883518696,0.003630452323704958,-0.012127748690545559
0.013765212148427963,0.008807000704109669,-0.007727872580289841,-0.020646950230002403,0.0033519910648465157,-0.012225169688463211
0.013570483773946762,0.008941834792494774,-0.007962549105286598,-0.02065867744386196,0.0034000512678176165,-0.012088730931282043
0.013610323891043663,0.009213601239025593,-0.008234376087784767,-0.021077316254377365,0.0036645280197262764,-0.0118985865265131
0.013531864620745182,0.008694981224834919,-0.007077999413013458,-0.021829552948474884,0.0037649739533662796,-0.011912818066775799
0.013944151811301708,0.009327094070613384,-0.008087804540991783,-0.02185080759227276,0.00337912212125957,-0.011891109868884087
0.013487695716321468,0.008716474287211895,-0.008000816218554974,-0.022014876827597618,0.0031258759554475546,-0.012875769287347794
0.014192571863532066,0.008492676541209221,-0.007706712000072002,-0.02243468351662159,0.003085661679506302,-0.012733216397464275
0.013696855865418911,0.00915040448307991,-0.007033044937998056,-0.022372182458639145,0.0032535602804273367,-0.012997198849916458
0.013669759966433048,0.008918317034840584,-0.008098592981696129,-0.021881410852074623,0.0031944201327860355,-0.01297090109437704
0.013082035817205906,0.009051314555108547,-0.00776643818244338,-0.021010752767324448,0.003463196801021695,-0.012830720283091068
0.013282008469104767,0.010458974167704582,-0.007418455556035042,-0.021132586523890495,0.003696293570101261,-0.012822501361370087
0.01349620521068573,0.00915514212101698,-0.007454745937138796,-0.021877581253647804,0.003786435816437006,-0.012984009459614754
0.013921385630965233,0.008928045630455017,-0.007850470952689648,-0.022494491189718246,0.003983978182077408,-0.013328528963029385
0.013478384353220463,0.00886755995452404,-0.007802246604114771,-0.02166113071143627,0.00402746070176363,-0.013235226273536682
0.012880364432930946,0.009554327465593815,-0.007658546324819326,-0.02159109152853489,0.0040674759075045586,-0.013530617579817772
0.014815757051110268,0.009003992192447186,-0.00766576174646616,-0.02210456132888794,0.003931930288672447,-0.013631877489387989
0.014812760055065155,0.008781393989920616,-0.007720583118498325,-0.02216089330613613,0.0038485019467771053,-0.013763763010501862
0.01393441203981638,0.009233337827026844,-0.007539256010204554,-0.021739007905125618,0.0035450973082333803,-0.01341728400439024
0.014245099388062954,0.00883757509291172,-0.00753150787204504,-0.022256694734096527,0.003431434743106365,-0.013564740307629108
0.014277092181146145,0.008708524517714977,-0.0070215570740401745,-0.022568820044398308,0.003433400532230735,-0.01333664171397686
0.014277092181146145,0.008708524517714977,-0.0070215570740401745,-0.022568820044398308,0.003433400532230735,-0.01333664171397686
0.014759453013539314,0.009404788725078106,-0.008090157061815262,-0.022980421781539917,0.0033144247718155384,-0.013598117046058178
0.014256101101636887,0.008973087184131145,-0.007811711635440588,-0.023151615634560585,0.0035057375207543373,-0.013644358143210411
0.014713631942868233,0.008342165499925613,-0.0075730858370661736,-0.022939132526516914,0.0037476508878171444,-0.013745577074587345
0.01438477449119091,0.009164078161120415,-0.007016334682703018,-0.02259305864572525,0.004017265513539314,-0.013844591565430164
0.014682885259389877,0.009043666534125805,-0.007536256220191717,-0.02328954078257084,0.003826909465715289,-0.014141138643026352
0.01522791013121605,0.009190259501338005,-0.007330464664846659,-0.023429743945598602,0.003568927524611354,-0.013848711736500263
0.01522791013121605,0.009190259501338005,-0.007330464664846659,-0.023429743945598602,0.003568927524611354,-0.013848711736500263
0.01548263430595398,0.009092737920582294,-0.007588914129883051,-0.02326902560889721,0.0038633239455521107,-0.014325053431093693
0.014494179747998714,0.00966168288141489,-0.007456958293914795,-0.023746956139802933,0.003839475568383932,-0.013967735692858696
0.01576167717576027,0.009549829177558422,-0.007463778369128704,-0.02385682798922062,0.003965557087212801,-0.013814781792461872
0.014966553077101707,0.009195240214467049,-0.006864540744572878,-0.024416564032435417,0.003956710919737816,-0.013728502206504345
0.014889072626829147,0.008758130483329296,-0.007072039879858494,-0.024332409724593163,0.003854927374050021,-0.01409010961651802
0.015164042823016644,0.009765620343387127,-0.008125584572553635,-0.024080663919448853,0.003905908903107047,-0.014148976653814316
0.0159003846347332,0.008870805613696575,-0.0071035586297512054,-0.023813597857952118,0.003956090658903122,-0.01403055340051651
0.01542902085930109,0.008870596066117287,-0.0067714788019657135,-0.02381204441189766,0.004240989685058594,-0.013644726015627384
0.01574506051838398,0.00955467764288187,-0.006812660954892635,-0.024177471175789833,0.004075090400874615,-0.013740609399974346
0.01602035202085972,0.009518385864794254,-0.007262406870722771,-0.024592358618974686,0.004276626743376255,-0.014390778727829456
0.01563837192952633,0.008947611786425114,-0.0071320971474051476,-0.02433321811258793,0.004250334110110998,-0.01450727041810751
0.015966540202498436,0.009675517678260803,-0.0070396773517131805,-0.0245872363448143,0.00403889175504446,-0.014210483990609646
0.015836672857403755,0.00966337975114584,-0.006725876126438379,-0.02475125715136528,0.0034533694852143526,-0.014037693850696087
0.016454478725790977,0.00910795759409666,-0.007201788481324911,-0.024200543761253357,0.0031564217060804367,-0.014377813786268234
0.016229353845119476,0.010041791945695877,-0.006514828186482191,-0.024241076782345772,0.00323475175537169,-0.014719503000378609
0.01656585931777954,0.009141281247138977,-0.0065048206597566605,-0.02385159768164158,0.004130084067583084,-0.014725121669471264
0.016446897760033607,0.009445566684007645,-0.006784514058381319,-0.02407524362206459,0.004443635232746601,-0.014773482456803322
0.016251739114522934,0.009703246876597404,-0.007232593838125467,-0.024698760360479355,0.004297136794775724,-0.014807049185037613
0.015949908643960953,0.00951609667390585,-0.007366889156401157,-0.024128394201397896,0.0042459857650101185,-0.014768495224416256
0.016118304803967476,0.009159401059150696,-0.006885996088385582,-0.023862477391958237,0.004296211991459131,-0.014762287959456444
0.016118304803967476,0.009159401059150696,-0.006885996088385582,-0.023862477391958237,0.004296211991459131,-0.014762287959456444
0.016841771081089973,0.009537797421216965,-0.006181383039802313,-0.02442813105881214,0.00405911123380065,-0.015155426226556301
0.017020095139741898,0.009652040898799896,-0.007065923884510994,-0.024992460384964943,0.004011966288089752,-0.015226387418806553
0.017020095139741898,0.009652040898799896,-0.007065923884510994,-0.024992460384964943,0.004011966288089752,-0.015226387418806553
0.016618577763438225,0.009859158657491207,-0.006734365131705999,-0.025183649733662605,0.004049110691994429,-0.015113923698663712
0.016461169347167015,0.010233702138066292,-0.007195314392447472,-0.02451377734541893,0.004416370298713446,-0.015384498983621597
0.016493964940309525,0.01009189710021019,-0.006642091553658247,-0.02482808381319046,0.004194857086986303,-0.015033217146992683
0.0164860300719738,0.00987320113927126,-0.0071594868786633015,-0.025549497455358505,0.003985749091953039,-0.015223470516502857
0.017035892233252525,0.0099022863432765,-0.006748727057129145,-0.0255464855581522,0.003794620744884014,-0.015130829066038132
0.016750432550907135,0.009906780906021595,-0.006775297690182924,-0.025298945605754852,0.0037200781516730785,-0.015146243385970592
0.01716201938688755,0.010635768063366413,-0.007767593488097191,-0.024833787232637405,0.004417021293193102,-0.0155282411724329
0.016892435029149055,0.0105135478079319,-0.007145178038626909,-0.02563808299601078,0.004394653253257275,-0.0154310567304492
0.017511967569589615,0.011030432768166065,-0.006426684558391571,-0.026449376717209816,0.004592858720570803,-0.015822090208530426
0.015970103442668915,0.0104173319414258,-0.006317620165646076,-0.026002001017332077,0.004878918174654245,-0.015570711344480515
0.01776455156505108,0.01039697416126728,-0.007186904549598694,-0.026133017614483833,0.004448753781616688,-0.015505904331803322
0.017971795052289963,0.01113651692867279,-0.007363675627857447,-0.0271819606423378,0.004432086367160082,-0.015480000525712967
0.017419029027223587,0.010603096336126328,-0.006836657412350178,-0.027099451050162315,0.00415075896307826,-0.015756966546177864
0.01787923090159893,0.010804609395563602,-0.00698291789740324,-0.026111621409654617,0.003945140168070793,-0.015788191929459572
0.017765222117304802,0.010839670896530151,-0.006976432166993618,-0.025586223229765892,0.004317119717597961,-0.015594685450196266
0.01774294301867485,0.010442125611007214,-0.007178345695137978,-0.026428133249282837,0.004515763837844133,-0.0157619696110487
0.017760997638106346,0.01064261607825756,-0.007219056133180857,-0.02762923389673233,0.0047132172621786594,-0.015631916001439095
0.017672907561063766,0.010439656674861908,-0.007460119668394327,-0.02745942957699299,0.004588311072438955,-0.01581081934273243
0.018393924459815025,0.010522971861064434,-0.007019957061856985,-0.027467375621199608,0.004223932512104511,-0.015344350598752499
0.018325159326195717,0.011204585433006287,-0.007094847038388252,-0.027224505320191383,0.004170228261500597,-0.01588135026395321
0.018012484535574913,0.01138249970972538,-0.00697353994473815,-0.028007831424474716,0.004098508507013321,-0.016644105315208435
0.018459688872098923,0.010470342822372913,-0.006751328241080046,-0.028110461309552193,0.004431317560374737,-0.01682882569730282
0.018165023997426033,0.011024425737559795,-0.006894598715007305,-0.028239067643880844,0.004604749381542206,-0.016730306670069695
0.018074775114655495,0.010689900256693363,-0.0076119923032820225,-0.02811930701136589,0.004275721963495016,-0.01609695330262184
0.018074775114655495,0.010689900256693363,-0.0076119923032820225,-0.02811930701136589,0.004275721963495016,-0.01609695330262184
0.01821228489279747,0.010835728608071804,-0.007030928507447243,-0.028527330607175827,0.004433212336152792,-0.01606043055653572
0.01821228489279747,0.010835728608071804,-0.007030928507447243,-0.028527330607175827,0.004433212336152792,-0.01606043055653572
0.01826641522347927,0.010688635520637035,-0.007009996101260185,-0.02847486361861229,0.004444344434887171,-0.01557583175599575
0.018583601340651512,0.01114285085350275,-0.007438508793711662,-0.028919413685798645,0.004357881844043732,-0.01569552719593048
0.017827611416578293,0.010814173147082329,-0.0073036192916333675,-0.02806050516664982,0.004446526523679495,-0.015975307673215866
0.018606847152113914,0.010808314196765423,-0.0070600020699203014,-0.029274780303239822,0.004915855824947357,-0.016277704387903214
0.018549492582678795,0.011121110059320927,-0.007201854605227709,-0.029677214100956917,0.004698793403804302,-0.016661932691931725
0.01886714994907379,0.010756708681583405,-0.007640458643436432,-0.028367333114147186,0.004786035045981407,-0.016264131292700768
0.01914462260901928,0.010982959531247616,-0.00720038078725338,-0.028248989954590797,0.0045466129668056965,-0.016478434205055237
0.01873086765408516,0.010764709673821926,-0.006989200599491596,-0.02873481810092926,0.004521002061665058,-0.01657785102725029
0.01892487332224846,0.011517682112753391,-0.0078577334061265,-0.02983289584517479,0.004222618881613016,-0.016943015158176422
0.01894787698984146,0.01033068634569645,-0.007626042701303959,-0.029833033680915833,0.004283324349671602,-0.01680937595665455
0.01933109015226364,0.010190552100539207,-0.007203089538961649,-0.03038705885410309,0.0051501099951565266,-0.01645636186003685
0.019665678963065147,0.010854685679078102,-0.007162165362387896,-0.031293243169784546,0.005227481015026569,-0.016997680068016052
0.01928725838661194,0.010411201976239681,-0.007801310624927282,-0.0302574522793293,0.004567453637719154,-0.01658009923994541
0.0189954973757267,0.010805628262460232,-0.008027598261833191,-0.02944742888212204,0.0037704771384596825,-0.01640475168824196
0.01940670982003212,0.01111532747745514,-0.006842321716248989,-0.029424162581562996,0.003881722455844283,-0.01668652705848217
0.019626440480351448,0.010721936821937561,-0.007608599029481411,-0.030941372737288475,0.004568144213408232,-0.017200162634253502
0.01958712749183178,0.011506614275276661,-0.008017267100512981,-0.030907832086086273,0.005253074690699577,-0.01776188053190708
0.020333465188741684,0.011138559319078922,-0.008034254424273968,-0.030854836106300354,0.0051078833639621735,-0.017751943320035934
0.0201713927090168,0.01076348964124918,-0.007578730583190918,-0.031009310856461525,0.004871101584285498,-0.017581084743142128
0.019557982683181763,0.011749102734029293,-0.007508686278015375,-0.031007913872599602,0.004755686037242413,-0.017338233068585396
0.01794668287038803,0.010810045525431633,-0.007862831465899944,-0.030542533844709396,0.004609063267707825,-0.01767115108668804
0.01794668287038803,0.010810045525431633,-0.007862831465899944,-0.030542533844709396,0.004609063267707825,-0.01767115108668804
0.019784407690167427,0.010568835772573948,-0.007457022089511156,-0.0307925958186388,0.00439388956874609,-0.017580214887857437
0.020139602944254875,0.011348425410687923,-0.008092465810477734,-0.03115765191614628,0.004609931726008654,-0.01765923574566841
0.020146986469626427,0.01042876299470663,-0.007858171127736568,-0.0310976579785347,0.005080206785351038,-0.01773318275809288
0.020094474777579308,0.011014712043106556,-0.008259989321231842,-0.0313897505402565,0.005439229309558868,-0.017550606280565262
0.019675640389323235,0.010747794061899185,-0.007512322627007961,-0.031837958842515945,0.005349474493414164,-0.017758524045348167
0.020169338211417198,0.010573162697255611,-0.007402046117931604,-0.03150399401783943,0.004850531462579966,-0.01780257374048233
0.02069121040403843,0.011246778070926666,-0.007853266783058643,-0.031347762793302536,0.004246448166668415,-0.01751590333878994
0.020658301189541817,0.011068256571888924,-0.007900349795818329,-0.03135224059224129,0.0047855316661298275,-0.017818227410316467
0.020053615793585777,0.010706248693168163,-0.007340481970459223,-0.03130846843123436,0.004773600958287716,-0.01830127276480198
0.020557211712002754,0.011094476096332073,-0.007165543735027313,-0.031344179064035416,0.004981813952326775,-0.018141310662031174
0.020245125517249107,0.010893852449953556,-0.008218660019338131,-0.030866339802742004,0.0052102841436862946,-0.018131036311388016
0.020692065358161926,0.010933402925729752,-0.007152350153774023,-0.03107864037156105,0.00539708137512207,-0.018462233245372772
0.021069755777716637,0.01057820487767458,-0.006988836918026209,-0.031119264662265778,0.005307212471961975,-0.0185692198574543
0.020433807745575905,0.011501399800181389,-0.008306693285703659,-0.0320616215467453,0.005115229170769453,-0.01845727488398552
0.020449742674827576,0.011106181889772415,-0.007796409539878368,-0.03089022822678089,0.005249817855656147,-0.018401050940155983
0.0210875291377306,0.011265870183706284,-0.007294187322258949,-0.031192481517791748,0.005178809631615877,-0.018867015838623047
0.02116834744811058,0.01096954196691513,-0.007453428581357002,-0.03186620771884918,0.005413209553807974,-0.01875273510813713
0.020983263850212097,0.010797819122672081,-0.00785453338176012,-0.0318085178732872,0.005112065002322197,-0.01862769015133381
0.020509161055088043,0.011320536956191063,-0.007645501289516687,-0.03161321207880974,0.004888857714831829,-0.01897977851331234
0.021426038816571236,0.01081484742462635,-0.007494581397622824,-0.03191997855901718,0.004897505510598421,-0.018806176260113716
0.021475568413734436,0.010824517346918583,-0.006735417991876602,-0.0327196829020977,0.004739860072731972,-0.01876291260123253
0.021177276968955994,0.0116393081843853,-0.007174111437052488,-0.03236695006489754,0.005007144063711166,-0.01930193230509758
0.02122885175049305,0.01124740019440651,-0.007481894455850124,-0.0327264629304409,0.005469669122248888,-0.01937216892838478
0.021651482209563255,0.011456035077571869,-0.007051892578601837,-0.03458426892757416,0.0053126150742173195,-0.019053064286708832
0.021600496023893356,0.011371721513569355,-0.006934435106813908,-0.035171665251255035,0.00553834019228816,-0.019015828147530556
0.02135540172457695,0.011181616224348545,-0.007104147225618362,-0.03337277099490166,0.005238358397036791,-0.019257545471191406
0.02145334705710411,0.011931326240301132,-0.0072809262201189995,-0.032991230487823486,0.005938975140452385,-0.019431747496128082
0.021724257618188858,0.011374572291970253,-0.006754032336175442,-0.034692391753196716,0.005493001081049442,-0.01909438520669937
0.02150123007595539,0.012180689722299576,-0.006205830257385969,-0.03504816070199013,0.005368471145629883,-0.02002289518713951
0.021869106218218803,0.011432912200689316,-0.005909356288611889,-0.035991184413433075,0.005596617702394724,-0.02006620541214943
0.021869106218218803,0.011432912200689316,-0.005909356288611889,-0.035991184413433075,0.005596617702394724,-0.02006620541214943
0.021882817149162292,0.010654529556632042,-0.006500070448964834,-0.036190349608659744,0.005018757656216621,-0.019478844478726387
0.021772701293230057,0.011680067516863346,-0.006837780587375164,-0.034717708826065063,0.004867287818342447,-0.018506763502955437
0.021976852789521217,0.011595693416893482,-0.006795169319957495,-0.03412073850631714,0.005376814398914576,-0.01917392387986183
0.020298562943935394,0.011256510391831398,-0.005930246785283089,-0.035019442439079285,0.00597667321562767,-0.020361054688692093
0.022570505738258362,0.011535401456058025,-0.006412801332771778,-0.03521900251507759,0.00555411446839571,-0.02055368386209011
0.022824279963970184,0.011278335005044937,-0.007270110305398703,-0.034953247755765915,0.005015620030462742,-0.02010970748960972
0.022607777267694473,0.011457417160272598,-0.006894855760037899,-0.03436671569943428,0.005185146816074848,-0.020080896094441414
0.0220170971006155,0.011476407758891582,-0.006348203867673874,-0.03543403372168541,0.0046366071328520775,-0.02077195607125759
0.021925073117017746,0.01169451605528593,-0.00685091782361269,-0.034391362220048904,0.005076257977634668,-0.020438963547348976
0.022447708994150162,0.011425969190895557,-0.007171818520873785,-0.03446618467569351,0.00571678439155221,-0.02014518342912197
0.022741803899407387,0.01214502565562725,-0.006350877229124308,-0.034859538078308105,0.005293195601552725,-0.0197349414229393
0.0231153704226017,0.011821895837783813,-0.006224591750651598,-0.03589022904634476,0.005145634058862925,-0.01994452066719532
0.022370725870132446,0.01187015138566494,-0.006707820110023022,-0.03542131930589676,0.0052025215700268745,-0.020568568259477615
0.022808915004134178,0.01199379749596119,-0.006533004809170961,-0.035790614783763885,0.00514132808893919,-0.020797904580831528
0.023321157321333885,0.011218661442399025,-0.00626451475545764,-0.036043085157871246,0.005686667747795582,-0.020772660151124
0.022957636043429375,0.011740900576114655,-0.0062501137144863605,-0.03753925859928131,0.005793282296508551,-0.020885372534394264
0.022690201178193092,0.011497226543724537,-0.006044770125299692,-0.03746020048856735,0.005553318653255701,-0.02080090157687664
0.022879283875226974,0.01136074773967266,-0.00662517175078392,-0.03619195148348808,0.005085209850221872,-0.020680787041783333
0.02290959469974041,0.012100850231945515,-0.006925676949322224,-0.03578268364071846,0.0054843672551214695,-0.02072659134864807
0.0228238794952631,0.01203873846679926,-0.006586381234228611,-0.03729711100459099,0.0057531436905264854,-0.02108755148947239
0.02311581000685692,0.012024820782244205,-0.006134588737040758,-0.03658374398946762,0.006225752178579569,-0.02107861079275608
0.023069927468895912,0.01174890622496605,-0.006393187213689089,-0.03772955760359764,0.005859567783772945,-0.020785827189683914
0.02320987358689308,0.011946727521717548,-0.007195508107542992,-0.038022324442863464,0.005636328365653753,-0.020904110744595528
0.023069802671670914,0.01188688725233078,-0.0068394276313483715,-0.0361008420586586,0.005795979406684637,-0.020935634151101112
0.023219367489218712,0.011250113137066364,-0.006228581536561251,-0.03573339059948921,0.005894452799111605,-0.020784884691238403
0.023219367489218712,0.011250113137066364,-0.006228581536561251,-0.03573339059948921,0.005894452799111605,-0.020784884691238403
0.023096054792404175,0.011910098604857922,-0.006289993412792683,-0.037374429404735565,0.005585695616900921,-0.02100239135324955
0.023003878071904182,0.01178104430437088,-0.006734543479979038,-0.037577398121356964,0.005781356245279312,-0.02088119275867939
0.02293294295668602,0.011683506891131401,-0.007370465900748968,-0.03724224865436554,0.005298318341374397,-0.020966945216059685
0.02351604588329792,0.011561265215277672,-0.007013093214482069,-0.03811945393681526,0.005134711042046547,-0.021161217242479324
0.023409156128764153,0.011293313466012478,-0.006258087698370218,-0.036688365042209625,0.00539369136095047,-0.02121320180594921
0.02360313944518566,0.011812486685812473,-0.006370692979544401,-0.03673025965690613,0.005631071515381336,-0.021184250712394714
0.023070599883794785,0.011827917769551277,-0.0073571521788835526,-0.03654354065656662,0.005593129899352789,-0.020835191011428833
0.023669354617595673,0.011496738530695438,-0.006500369869172573,-0.03730266913771629,0.005127357318997383,-0.020745277404785156
0.024145036935806274,0.011171633377671242,-0.006135312840342522,-0.0372079573571682,0.005723617039620876,-0.021368805319070816
0.024115445092320442,0.012037321925163269,-0.00674020778387785,-0.03681033104658127,0.005423407536000013,-0.021592041477560997
0.022272968664765358,0.012604672461748123,-0.0069691697135567665,-0.03728456795215607,0.005892795976251364,-0.021538779139518738
0.024039676412940025,0.012394084595143795,-0.006417623721063137,-0.0375216081738472,0.005927430000156164,-0.021755458787083626
0.024002427235245705,0.012836120091378689,-0.006055075209587812,-0.03762519359588623,0.0056169647723436356,-0.021658316254615784
0.02426055446267128,0.012549616396427155,-0.006229630205780268,-0.03765660151839256,0.005850363057106733,-0.021956084296107292
0.024315500631928444,0.012823684141039848,-0.006374557502567768,-0.03841638192534447,0.006064221262931824,-0.022229963913559914
0.02414623834192753,0.012466493993997574,-0.0066640665754675865,-0.03903115913271904,0.006241028197109699,-0.021949106827378273
0.02453315444290638,0.01333191990852356,-0.0063085914589464664,-0.03935685753822327,0.00596025912091136,-0.022025911137461662
0.024267196655273438,0.012875791639089584,-0.006515354849398136,-0.03934082016348839,0.00582149950787425,-0.022226186469197273
0.024078264832496643,0.013033268041908741,-0.006288377568125725,-0.03914536163210869,0.005951934494078159,-0.022552384063601494
0.024334009736776352,0.012641018256545067,-0.006631818599998951,-0.03949788957834244,0.006119369994848967,-0.022335441783070564
0.024872547015547752,0.013023393228650093,-0.006637393031269312,-0.03920796886086464,0.006172100082039833,-0.021961957216262817
0.025166237726807594,0.012920579873025417,-0.00660452526062727,-0.038848698139190674,0.0060589974746108055,-0.02196645922958851
0.024701543152332306,0.012598236091434956,-0.0062280078418552876,-0.04107539355754852,0.0057820649817585945,-0.02174249477684498
0.023918215185403824,0.013274973258376122,-0.006491603329777718,-0.04012284800410271,0.005767866037786007,-0.02240743301808834
0.024290386587381363,0.012312045320868492,-0.0068670231848955154,-0.038637299090623856,0.006089002825319767,-0.022820385172963142
0.024290386587381363,0.012312045320868492,-0.0068670231848955154,-0.038637299090623856,0.006089002825319767,-0.022820385172963142
0.024736687541007996,0.01311419252306223,-0.006636328529566526,-0.03918386995792389,0.006523692514747381,-0.023210100829601288
0.024864189326763153,0.012518106028437614,-0.006195371504873037,-0.040217962116003036,0.006282155402004719,-0.022602416574954987
0.02477104589343071,0.013047667220234871,-0.006438978016376495,-0.04093749448657036,0.006275946740061045,-0.022191954776644707
0.024411940947175026,0.012722689658403397,-0.007106178440153599,-0.04179425910115242,0.006301769055426121,-0.022072596475481987
0.024522269144654274,0.013373485766351223,-0.006918628234416246,-0.04011687636375427,0.006217489019036293,-0.022045273333787918
0.024670733138918877,0.0131754782050848,-0.006377668119966984,-0.03890063613653183,0.006149280816316605,-0.022653669118881226
0.02523183822631836,0.012859692797064781,-0.006270779296755791,-0.04030903801321983,0.00611580815166235,-0.02319771610200405
0.025148116052150726,0.012818941846489906,-0.006723938509821892,-0.04194485396146774,0.0061380090191960335,-0.023014957085251808
0.024635013192892075,0.012735971249639988,-0.006472090259194374,-0.042015641927719116,0.006110548507422209,-0.023465916514396667
0.025060856714844704,0.012423482723534107,-0.006126359570771456,-0.04203245788812637,0.006076301448047161,-0.02362850308418274
0.025970902293920517,0.01305060088634491,-0.006219919305294752,-0.042642418295145035,0.006398297846317291,-0.022568849846720695
0.026052838191390038,0.012763330712914467,-0.007427630014717579,-0.04247266799211502,0.006666129920631647,-0.02220672182738781
0.025326430797576904,0.012757095508277416,-0.006748195271939039,-0.042113397270441055,0.0068253218196332455,-0.022365206852555275
0.02593093179166317,0.012982480227947235,-0.006288543343544006,-0.04242948442697525,0.006508448161184788,-0.022708484902977943
0.02631501480937004,0.012743102386593819,-0.006164915394037962,-0.042808495461940765,0.006333811674267054,-0.023607874289155006
0.025009576231241226,0.012526343576610088,-0.006417618133127689,-0.04223896190524101,0.00628148578107357,-0.02372887171804905
0.025467760860919952,0.012441683560609818,-0.006767685990780592,-0.041892919689416885,0.006322498433291912,-0.02382844127714634
0.02567151002585888,0.013037989847362041,-0.006535879336297512,-0.04335351660847664,0.0062703937292099,-0.023651814088225365
0.02578122541308403,0.012362319976091385,-0.0066588507033884525,-0.04378896206617355,0.006822272203862667,-0.02397545799612999
0.026432905346155167,0.013500355184078217,-0.006681989878416061,-0.04122287407517433,0.006929855328053236,-0.024424567818641663
0.026302894577383995,0.012989518232643604,-0.00733542675152421,-0.040795665234327316,0.006393471732735634,-0.024213405326008797
0.0244926605373621,0.012883377261459827,-0.006711257621645927,-0.04115767404437065,0.006113090086728334,-0.024090081453323364
0.026798343285918236,0.012601703405380249,-0.006441541016101837,-0.04205562174320221,0.006325847469270229,-0.024532364681363106
0.02659410610795021,0.013269615359604359,-0.006604856811463833,-0.04285285621881485,0.0073196496814489365,-0.024769727140665054
0.026389271020889282,0.013393468223512173,-0.0066879126243293285,-0.04095348343253136,0.006605150643736124,-0.024664580821990967
0.025642061606049538,0.012385309673845768,-0.006783472839742899,-0.04106779769062996,0.005849039647728205,-0.024981621652841568
0.026295332238078117,0.012781891040503979,-0.006474830210208893,-0.04239428788423538,0.005798622500151396,-0.025204138830304146
0.02660675160586834,0.01231974083930254,-0.006466644816100597,-0.04272732883691788,0.006355321034789085,-0.0247329194098711
0.026505956426262856,0.013126108795404434,-0.006603711750358343,-0.04290131852030754,0.007107207085937262,-0.024597814306616783
0.026505956426262856,0.013126108795404434,-0.006603711750358343,-0.04290131852030754,0.007107207085937262,-0.024597814306616783
0.026647133752703667,0.012796347960829735,-0.007280261721462011,-0.042164672166109085,0.006556110922247171,-0.024658694863319397
0.027394844219088554,0.013536881655454636,-0.006804965902119875,-0.04287009686231613,0.006070916075259447,-0.02464914880692959
0.02727922424674034,0.013151849620044231,-0.006265954580157995,-0.0438343845307827,0.006391595117747784,-0.02501419186592102
0.02733667753636837,0.013007531873881817,-0.006575560662895441,-0.04359547421336174,0.006877773907035589,-0.024970106780529022
0.027265487238764763,0.012970387004315853,-0.007318670395761728,-0.042745232582092285,0.006817445158958435,-0.02535346895456314
0.027249574661254883,0.012717882171273232,-0.007116236258298159,-0.043200794607400894,0.006631213240325451,-0.025294002145528793
0.02705453895032406,0.013283099047839642,-0.006537130568176508,-0.04302487149834633,0.006272291764616966,-0.024862688034772873
0.028230948373675346,0.012811964377760887,-0.006299590226262808,-0.0429743193089962,0.0061666518449783325,-0.025578949600458145
0.027510738000273705,0.013128310441970825,-0.007128022611141205,-0.04344629868865013,0.006751779466867447,-0.025413265451788902
0.026858050376176834,0.013707960024476051,-0.006822919938713312,-0.04358293488621712,0.00672368798404932,-0.02407902479171753
0.02798824943602085,0.013521120883524418,-0.006300588138401508,-0.04375240579247475,0.00662189070135355,-0.02463962510228157
0.02844133973121643,0.013459478504955769,-0.006222764030098915,-0.04369821771979332,0.00668855058029294,-0.02603090927004814
0.027811354026198387,0.013261238113045692,-0.006686853244900703,-0.044537048786878586,0.006888480391353369,-0.026433544233441353
0.02816234715282917,0.013576461933553219,-0.007201852276921272,-0.04438922554254532,0.006711685564368963,-0.025612713769078255
0.02846963331103325,0.013351992703974247,-0.006832788698375225,-0.04455004632472992,0.006583887618035078,-0.026067238301038742
0.028522321954369545,0.013256321661174297,-0.006381215527653694,-0.04644099250435829,0.006820794194936752,-0.02683679200708866
0.02780567854642868,0.013327334076166153,-0.006368315313011408,-0.04518958181142807,0.006931733340024948,-0.025538543239235878
0.02734672836959362,0.013211683370172977,-0.007094650063663721,-0.044078513979911804,0.00655666459351778,-0.024468468502163887
0.028682202100753784,0.013644589111208916,-0.0070950849913060665,-0.04542355611920357,0.006638285703957081,-0.025076044723391533
0.028774337843060493,0.01304054819047451,-0.006865194533020258,-0.04766819626092911,0.007169811055064201,-0.026497384533286095
0.028445299714803696,0.013560803607106209,-0.0066022914834320545,-0.04705008119344711,0.007242975756525993,-0.026358284056186676
0.027812188491225243,0.012956500053405762,-0.006935592740774155,-0.04443621262907982,0.007042214274406433,-0.025683695450425148
0.028424272313714027,0.0135287344455719,-0.007277027238160372,-0.044487010687589645,0.006671754643321037,-0.02591371349990368
0.0282328762114048,0.013279014267027378,-0.006735433358699083,-0.046283069998025894,0.007079542148858309,-0.026304632425308228
0.028280658647418022,0.013299667276442051,-0.006617426872253418,-0.046145401895046234,0.006733614485710859,-0.026585174724459648
0.028312470763921738,0.012841273099184036,-0.007256638258695602,-0.04583015665411949,0.006979889702051878,-0.02640000358223915
0.028312470763921738,0.012841273099184036,-0.007256638258695602,-0.04583015665411949,0.006979889702051878,-0.02640000358223915
0.02854282036423683,0.012856529094278812,-0.007777600549161434,-0.046288613229990005,0.006828159559518099,-0.026276756078004837
0.028225954622030258,0.012879456393420696,-0.006954884622246027,-0.046352848410606384,0.007205633912235498,-0.026465052738785744
0.028159458190202713,0.012624491937458515,-0.006192014552652836,-0.04548013210296631,0.0070847030729055405,-0.02635108307003975
0.02857920154929161,0.013364954851567745,-0.006562341004610062,-0.04547379910945892,0.0071256267838180065,-0.0269160196185112
0.02881113439798355,0.013017205521464348,-0.007193951401859522,-0.045373477041721344,0.007520582526922226,-0.02692529559135437
0.029262693598866463,0.013540295884013176,-0.007115266285836697,-0.045249514281749725,0.007153721060603857,-0.02668163552880287
0.028960151597857475,0.013182472437620163,-0.007069018203765154,-0.04520218074321747,0.007456641178578138,-0.026563122868537903
0.029049059376120567,0.012945130467414856,-0.007540632039308548,-0.04530222713947296,0.008342324756085873,-0.027000218629837036
0.02915249951183796,0.013863342814147472,-0.007532224990427494,-0.0467820018529892,0.0070620751939713955,-0.027089159935712814
0.02912411279976368,0.013809483498334885,-0.0071661449037492275,-0.04612540081143379,0.0064863539300858974,-0.027487749233841896
0.029064031317830086,0.013903053477406502,-0.007350686006247997,-0.04398297891020775,0.007145042531192303,-0.027204293757677078
0.029987169429659843,0.013837272301316261,-0.00765411788597703,-0.04625941812992096,0.007190796546638012,-0.027058223262429237
0.029719380661845207,0.013654282316565514,-0.007441692985594273,-0.04576463997364044,0.007162570953369141,-0.027390239760279655
0.02912055142223835,0.013867832720279694,-0.007311443332582712,-0.0478614941239357,0.007273715455085039,-0.027233760803937912
0.0293582733720541,0.01391243189573288,-0.00741221010684967,-0.04642685875296593,0.007323348894715309,-0.0274617038667202
0.029302863404154778,0.013914001174271107,-0.007581439800560474,-0.04721323400735855,0.00717976875603199,-0.02735879085958004
0.02950095571577549,0.013587296940386295,-0.007520326413214207,-0.048376988619565964,0.007252480834722519,-0.027242127805948257
0.029368039220571518,0.013741612434387207,-0.007157431449741125,-0.0483865924179554,0.00700936047360301,-0.02727862074971199
0.029591262340545654,0.013727081939578056,-0.0069410246796905994,-0.048125315457582474,0.0065719932317733765,-0.026948560029268265
0.029557526111602783,0.014203876256942749,-0.008040264248847961,-0.047707699239254,0.007009543944150209,-0.027133960276842117
0.02951996959745884,0.014380301348865032,-0.007714293897151947,-0.04835928604006767,0.006818609777837992,-0.02723836898803711
0.029554458335042,0.014725843444466591,-0.006743340287357569,-0.048791348934173584,0.007208552677184343,-0.027424372732639313
0.02926040254533291,0.01391051709651947,-0.005769579205662012,-0.04818880558013916,0.007300293073058128,-0.027232207357883453
0.029422258958220482,0.014368555508553982,-0.006825052667409182,-0.0484280027449131,0.0070114159025251865,-0.026995040476322174
0.029422258958220482,0.014368555508553982,-0.006825052667409182,-0.0484280027449131,0.0070114159025251865,-0.026995040476322174
0.030704110860824585,0.013825598172843456,-0.00728084659203887,-0.04941953346133232,0.006753890309482813,-0.02823866903781891
0.030562538653612137,0.014095932245254517,-0.006425388157367706,-0.048980485647916794,0.0071007912047207355,-0.02783370576798916
0.02935284934937954,0.013811876997351646,-0.005899725016206503,-0.04882558807730675,0.0074970112182199955,-0.027973860502243042
0.028989022597670555,0.014242102392017841,-0.006271386053413153,-0.04873970150947571,0.00706546800211072,-0.027302024886012077
0.029487187042832375,0.013758484274148941,-0.007016142830252647,-0.04912449046969414,0.006781736388802528,-0.02733619697391987
0.029809612780809402,0.014352371916174889,-0.007238219492137432,-0.04952147603034973,0.006917141377925873,-0.028166435658931732
0.030051812529563904,0.01413905993103981,-0.006056600715965033,-0.04893103986978531,0.007186323869973421,-0.028790129348635674
0.030631739646196365,0.014406567439436913,-0.006001095753163099,-0.05069218948483467,0.007709830068051815,-0.028506599366664886
0.03037838824093342,0.014377787709236145,-0.007263178937137127,-0.04752388224005699,0.006988209206610918,-0.02977151609957218
0.028997812420129776,0.01402251236140728,-0.006486630532890558,-0.04854881763458252,0.007059744093567133,-0.028584884479641914
0.0295630544424057,0.014933624304831028,-0.006756787188351154,-0.049077022820711136,0.007272852584719658,-0.02726823464035988
0.03060896135866642,0.014467544853687286,-0.005484885536134243,-0.050970517098903656,0.007272620219737291,-0.027579642832279205
0.030012305825948715,0.01488840114325285,-0.006064780987799168,-0.048788268119096756,0.007154254242777824,-0.028940338641405106
0.0301057156175375,0.014548787847161293,-0.006918021477758884,-0.04820255562663078,0.007489354349672794,-0.029714589938521385
0.030518384650349617,0.014996092766523361,-0.0059614465571939945,-0.04964037984609604,0.00800614058971405,-0.029717857018113136
0.030421089380979538,0.014065954834222794,-0.005671306978911161,-0.04930369183421135,0.007993767037987709,-0.029475880786776543
0.03030979447066784,0.014719593338668346,-0.006123135797679424,-0.04883334040641785,0.007410661783069372,-0.02900596149265766
0.03074139915406704,0.014386506751179695,-0.007316554430872202,-0.04868052154779434,0.008014556020498276,-0.02934286929666996
0.031033607199788094,0.015036318451166153,-0.0064799063839018345,-0.049003392457962036,0.008248116821050644,-0.02939985692501068
