davideferrari95/blind_handover_controller/data/Test 239 - [2024-02-08 -- 12-33-15]/joint_states_data.csv
shoulder_pan_joint,shoulder_lift_joint,elbow_joint,wrist_1_joint,wrist_2_joint,wrist_3_joint
0.005970188416540623,0.010427224449813366,-0.01317231822758913,0.003989575430750847,0.0,0.006735669448971748
0.006071095354855061,0.01091603934764862,-0.013389842584729195,0.004182182252407074,0.0,0.006935692857950926
0.0063864439725875854,0.010468235239386559,-0.013430159538984299,0.0041385842487216,0.0,0.0068892380222678185
0.0063864439725875854,0.010468235239386559,-0.013430159538984299,0.0041385842487216,0.0,0.0068892380222678185
0.0059639099054038525,0.010214529000222683,-0.014193398877978325,0.003973572980612516,0.0,0.0070947823114693165
0.006293224170804024,0.010405606590211391,-0.013352937065064907,0.0035106963478028774,0.0,0.007392684929072857
0.005765348207205534,0.010309181176126003,-0.013273581862449646,0.0035616657696664333,0.0,0.006919280160218477
0.006014741491526365,0.010324029251933098,-0.013499877415597439,0.0036937794648110867,0.0,0.006702423095703125
0.006456573959439993,0.010769476182758808,-0.013190160505473614,0.003655673936009407,0.0,0.006728455424308777
0.006541872397065163,0.010122510604560375,-0.013661429286003113,0.003638532478362322,0.0,0.007216813508421183
0.006141465622931719,0.010941047221422195,-0.01354916300624609,0.0034211701713502407,0.0,0.0067469170317053795
0.005931440740823746,0.010612118057906628,-0.013735922984778881,0.0033534083049744368,0.0,0.006633019540458918
0.00591315096244216,0.009956811554729939,-0.013367454521358013,0.0034688927698880434,0.0,0.00664537725970149
0.006223870441317558,0.010578110814094543,-0.013819337822496891,0.003614639863371849,0.0,0.006413171999156475
0.006148971151560545,0.009969128295779228,-0.013150577433407307,0.0036687764804810286,0.0,0.006583862937986851
0.005862541496753693,0.010634840466082096,-0.01381123811006546,0.0036900066770613194,0.0,0.006723613012582064
0.00606979476287961,0.011046730913221836,-0.01346717868000269,0.003574836067855358,0.0,0.006610466632992029
0.00606979476287961,0.011046730913221836,-0.01346717868000269,0.003574836067855358,0.0,0.006610466632992029
0.005722422618418932,0.009943447075784206,-0.013840649276971817,0.0035417811013758183,0.0,0.006445889826864004
0.00601554661989212,0.009587529115378857,-0.01347569189965725,0.003842915641143918,0.0,0.006464622914791107
0.006135408766567707,0.010445564053952694,-0.01384985912591219,0.003915667999535799,0.0,0.006479126866906881
0.006169155240058899,0.00976515281945467,-0.013425469398498535,0.0035863984376192093,0.0,0.007468828931450844
0.0067765070125460625,0.010405607521533966,-0.013864132575690746,0.0033973336685448885,0.0,0.007154472172260284
0.006951718591153622,0.010224075987935066,-0.013877110555768013,0.003808405250310898,0.0,0.007216135039925575
0.0065805851481854916,0.01104406826198101,-0.013577835634350777,0.003937496803700924,0.0,0.006784643977880478
0.006273728329688311,0.010321635752916336,-0.013888020068407059,0.0038540028035640717,0.0,0.0067644319497048855
0.006108210422098637,0.009927388280630112,-0.013845177367329597,0.003760336898267269,0.0,0.0067586638033390045
0.0061159501783549786,0.010881694965064526,-0.013344066217541695,0.003674169536679983,0.0,0.006766239181160927
0.006352424621582031,0.010567079298198223,-0.013721338473260403,0.003725186688825488,0.0,0.006368645932525396
0.0066165924072265625,0.010166661813855171,-0.013411767780780792,0.0033640232868492603,0.0,0.006491467356681824
0.006112057249993086,0.01081025693565607,-0.013929314911365509,0.003425400471314788,0.0,0.006486298516392708
0.006048779468983412,0.01032976433634758,-0.013338795863091946,0.0034058778546750546,0.0,0.007382893469184637
0.006886947434395552,0.01075842697173357,-0.012521299533545971,0.0034244803246110678,0.0,0.006796662230044603
0.006503380835056305,0.01033299881964922,-0.013459751382470131,0.0034344957675784826,0.0,0.006377596873790026
0.006158916279673576,0.010361045598983765,-0.014201517216861248,0.003388932440429926,0.0,0.006337196100503206
0.006102872546762228,0.010983290150761604,-0.013145582750439644,0.003453903365880251,0.0,0.006957472767680883
0.006102872546762228,0.010983290150761604,-0.013145582750439644,0.003453903365880251,0.0,0.006957472767680883
0.0071466052904725075,0.010107023641467094,-0.01273469626903534,0.0034505135845392942,-0.00018051432562060654,0.0064901625737547874
0.00660798279568553,0.010546494275331497,-0.013273663818836212,0.00324419722892344,-0.00017901240789797157,0.006586033385246992
0.006347322370857,0.010604986920952797,-0.013339039869606495,0.0033415735233575106,-0.00020243931794539094,0.006626436021178961
0.006140888202935457,0.010559764690697193,-0.01349036954343319,0.003218104364350438,-0.0001991076860576868,0.0066567836329340935
0.0071182032115757465,0.011090566404163837,-0.01340929139405489,0.0032684749457985163,-0.00020798883633688092,0.006604430731385946
0.0071182032115757465,0.011090566404163837,-0.01340929139405489,0.0032684749457985163,-0.00020798883633688092,0.006604430731385946
0.006541261449456215,0.01112773735076189,-0.013009198941290379,0.003269877750426531,-0.00021557274158112705,0.006605013273656368
0.006358027458190918,0.01018123235553503,-0.013092602603137493,0.003402280854061246,-0.00022403574257623404,0.0064627863466739655
0.006324429530650377,0.010641702450811863,-0.012818696908652782,0.0032427108380943537,-0.00023065584537107497,0.006303999572992325
0.007208632305264473,0.010217852890491486,-0.013379087671637535,0.003486077068373561,-0.00022436873405240476,0.006343920715153217
0.006773409433662891,0.010683853179216385,-0.012991874478757381,0.0033544187899678946,-0.0003789846959989518,0.0061218091286718845
0.006541804410517216,0.011467876844108105,-0.013133751228451729,0.0034019628074020147,-0.0003974789578933269,0.006082475185394287
0.006680832244455814,0.010872628539800644,-0.013245458714663982,0.003273735288530588,-0.0004063012602273375,0.006212024483829737
0.007428906392306089,0.010471269488334656,-0.013241519220173359,0.0033486969769001007,-0.0003798491961788386,0.006504261866211891
0.006765725556761026,0.01013475563377142,-0.013357071205973625,0.0031419415026903152,-0.00035500238300301135,0.006321131717413664
0.006800943054258823,0.011004356667399406,-0.01332111842930317,0.003254192415624857,-0.00038109783781692386,0.006483760196715593
0.0066285887733101845,0.01079504657536745,-0.01320837065577507,0.003179895458742976,-0.0003655378823168576,0.006539226975291967
0.006965051405131817,0.011490387842059135,-0.013353101909160614,0.0034564652014523745,-0.0003458904102444649,0.0062811668030917645
0.006931940093636513,0.010305743664503098,-0.012862731702625751,0.0033268809784203768,-0.0003684552211780101,0.006257700268179178
0.007188726216554642,0.010336875915527344,-0.012934544123709202,0.00317977974191308,-0.000355797354131937,0.006437595002353191
0.006551263853907585,0.011299468576908112,-0.012914094142615795,0.0028701259288936853,-0.0003401317517273128,0.0061902329325675964
0.006536596920341253,0.011330249719321728,-0.013754314742982388,0.0027781350072473288,-0.0003612565342336893,0.006133990827947855
0.007804275956004858,0.010916970670223236,-0.012979481369256973,0.0026849510613828897,-0.0003373366198502481,0.006483281962573528
0.006867020390927792,0.011387785896658897,-0.013390425592660904,0.002971670124679804,-0.0003723840054590255,0.006206684745848179
0.006231804843991995,0.01131365355104208,-0.013072640635073185,0.003336567198857665,-0.00035192680661566556,0.006134887225925922
0.006231804843991995,0.01131365355104208,-0.013072640635073185,0.003336567198857665,-0.00035192680661566556,0.006134887225925922
0.006190587300807238,0.011285733431577682,-0.013184585608541965,0.003645797958597541,-0.0003782635321840644,0.006408398039638996
0.006888405419886112,0.011702454648911953,-0.013241483829915524,0.00338945584371686,-0.00036299010389484465,0.0062047685496509075
0.0069136228412389755,0.011378559283912182,-0.013355983421206474,0.0030764334369450808,-0.0003798059478867799,0.00632131053134799
0.007172257173806429,0.0115980114787817,-0.013451543636620045,0.002822653856128454,-0.000371569418348372,0.005951639264822006
0.006905181799083948,0.011230062693357468,-0.01288223173469305,0.002977142808958888,-0.0004647629684768617,0.005938165355473757
0.006522220093756914,0.011486283503472805,-0.012944119051098824,0.0031081053894013166,-0.00045506726019084454,0.006379884202033281
0.0070412252098321915,0.011746480129659176,-0.012651453725993633,0.003291695611551404,-0.00048705414519645274,0.006007018499076366
0.006892460398375988,0.010994923301041126,-0.013713312335312366,0.0035973205231130123,-0.00045580012374557555,0.00611529778689146
0.006723638623952866,0.011999641545116901,-0.012809911742806435,0.0033468096517026424,-0.0004814202548004687,0.0059617068618535995
0.0069397492334246635,0.011245150119066238,-0.013001241721212864,0.00340103916823864,-0.0004549269797280431,0.005727898795157671
0.006973286624997854,0.01109776645898819,-0.012696080841124058,0.0031551187857985497,-0.00042477730312384665,0.006134022958576679
0.007500929292291403,0.011323646642267704,-0.01326199434697628,0.0031852233223617077,-0.00045085480087436736,0.006144995801150799
0.006683249492198229,0.011726051568984985,-0.013230509124696255,0.0031286084558814764,-0.0004037658800370991,0.006429372821003199
0.006732062436640263,0.01145960297435522,-0.013507014140486717,0.0027161259204149246,-0.0003841497818939388,0.006033315323293209
0.0067685265094041824,0.011259867809712887,-0.013161770068109035,0.00272640329785645,-0.0003941382165066898,0.005833272822201252
0.007176010869443417,0.012061944231390953,-0.013563836924731731,0.002781178103759885,-0.00036500892019830644,0.00609380891546607
0.006828662008047104,0.011555822566151619,-0.013161774724721909,0.003111986443400383,-0.00033777760108932853,0.006115015130490065
0.006530883722007275,0.011591749265789986,-0.013893834315240383,0.0030723155941814184,-0.0003726152644958347,0.0065369210205972195
0.006769574712961912,0.010979519225656986,-0.01324128732085228,0.0029433388262987137,-0.0003521184844430536,0.006406421773135662
0.006733833346515894,0.011131676845252514,-0.013914557173848152,0.0030074981041252613,-0.0003784562577493489,0.005961874965578318
0.006965490989387035,0.011509131640195847,-0.013221921399235725,0.0030377572402358055,-0.00036316431942395866,0.0060790907591581345
0.006923104170709848,0.01147708110511303,-0.013989491388201714,0.0032154927030205727,-0.00038626560126431286,0.006120635662227869
0.00695987930521369,0.01025930605828762,-0.013577636331319809,0.0030956766568124294,-0.00037213985342532396,0.006008855067193508
0.007325040642172098,0.010233609937131405,-0.01368600782006979,0.002913870383054018,-0.0003542097401805222,0.005978105124086142
0.007325040642172098,0.010233609937131405,-0.01368600782006979,0.002913870383054018,-0.0003542097401805222,0.005978105124086142
0.006895124446600676,0.010356206446886063,-0.013534361496567726,0.00298488000407815,-0.00033762012026272714,0.005739955231547356
0.006600216031074524,0.010652435943484306,-0.014412293210625648,0.0033442475832998753,-0.0003224953543394804,0.005666226614266634
0.006779264658689499,0.010944726876914501,-0.01372460462152958,0.0032300930470228195,-0.00034186188713647425,0.005884238984435797
0.006947480142116547,0.010064425878226757,-0.01331605389714241,0.0030727065168321133,-0.0003229122085031122,0.006066974252462387
0.007282347418367863,0.01087255496531725,-0.013568737544119358,0.0028653419576585293,-0.0003016214759554714,0.006199544761329889
0.006941679865121841,0.011047887615859509,-0.013777418993413448,0.0029030805453658104,-0.0002826874260790646,0.006103382911533117
0.007467521354556084,0.010042725130915642,-0.013812670484185219,0.0028743890579789877,-0.0002659719903022051,0.0062101478688418865
0.0068061682395637035,0.01001223735511303,-0.013287593610584736,0.0032514564227312803,-0.0002845522831194103,0.005887638311833143
0.0068061682395637035,0.01001223735511303,-0.013287593610584736,0.0032514564227312803,-0.0002845522831194103,0.005887638311833143
0.006737276911735535,0.010559802874922752,-0.01323756854981184,0.003276132047176361,-0.00027102476451545954,0.005568482913076878
0.006919211708009243,0.01035703718662262,-0.01294960267841816,0.0032041880767792463,-0.0002581159642431885,0.0056498488411307335
0.007322121411561966,0.009943033568561077,-0.013175702653825283,0.0031296575907617807,-0.00024634075816720724,0.006012700032442808
0.0076627954840660095,0.009920809417963028,-0.013478824868798256,0.0030437218956649303,-0.00023559141845908016,0.005839423276484013
0.0065253302454948425,0.010777105577290058,-0.013492741622030735,0.0036991687957197428,-0.0002433763147564605,0.005702301859855652
0.007096754387021065,0.00996421929448843,-0.013227607123553753,0.003354469081386924,-0.00024242501240223646,0.0056882696226239204
0.0071810041554272175,0.010422044433653355,-0.013702207244932652,0.0029941985849291086,-0.00023397065524477512,0.0055564153008162975
0.007130756042897701,0.010212404653429985,-0.013798745349049568,0.0029650183860212564,-0.00022562597587238997,0.0056365374475717545
0.006894628517329693,0.010167245753109455,-0.013235415332019329,0.003288236213847995,-0.00021782604744657874,0.005567785352468491
0.007153701037168503,0.010513913817703724,-0.013047548942267895,0.0030038845725357533,-0.00023663802130613476,0.00552584370598197
0.007207768969237804,0.010044253431260586,-0.013003730215132236,0.0030643336940556765,-0.00023258078726939857,0.005242303945124149
0.007258242461830378,0.010498179122805595,-0.013406801968812943,0.002845524810254574,-0.00022552922018803656,0.005750290118157864
0.00783460307866335,0.01079096645116806,-0.012671326287090778,0.0030031546484678984,-0.00021869335614610463,0.005605978425592184
0.007148864213377237,0.010347428731620312,-0.013021636754274368,0.003093620529398322,-0.00021235921303741634,0.005864227190613747
0.007278899662196636,0.010864563286304474,-0.012655166909098625,0.0030984305776655674,-0.00019975428585894406,0.00571866100654006
0.007369808852672577,0.010622630827128887,-0.013063468970358372,0.003183583728969097,-0.00019106324180029333,0.005564363207668066
0.0073076956905424595,0.010444428771734238,-0.012944024056196213,0.0029084382113069296,-0.00018326673307456076,0.005295939743518829
0.007459473330527544,0.010883905924856663,-0.01343762781471014,0.00269827782176435,-0.00017609272617846727,0.005694565363228321
0.007459473330527544,0.010883905924856663,-0.01343762781471014,0.00269827782176435,-0.00017609272617846727,0.005694565363228321
0.007473760284483433,0.010448787361383438,-0.012873295694589615,0.0030910165514796972,-0.00020105282601434737,0.005511079914867878
0.0074972775764763355,0.010766854509711266,-0.012829302810132504,0.0031685244757682085,-0.00019582135428208858,0.00572739914059639
0.007096013054251671,0.010638054460287094,-0.01308638509362936,0.0034451172687113285,-0.000189097918337211,0.005413901060819626
0.007589616347104311,0.010567478835582733,-0.01304152887314558,0.0032172976061701775,-0.0001827076484914869,0.00510586379095912
0.007943060249090195,0.010176698677241802,-0.013451442122459412,0.00319646461866796,-0.00017672772810328752,0.005482454318553209
0.007844039238989353,0.010534411296248436,-0.012293949723243713,0.0030249785631895065,-0.00017112692876253277,0.005427669733762741
0.0071204230189323425,0.010049656964838505,-0.013312515802681446,0.0028636171482503414,-0.00018634034495335072,0.005567600019276142
0.007546518929302692,0.010433408431708813,-0.012769285589456558,0.003060415852814913,-0.00018727891438174993,0.005422479007393122
0.007690994534641504,0.010108999907970428,-0.013072416186332703,0.0029357741586863995,-0.00018228300905320793,0.0054543642327189445
0.00758131081238389,0.01074163243174553,-0.01284867711365223,0.0030547918286174536,-0.00017718384333420545,0.005157658830285072
0.007468841038644314,0.011343160644173622,-0.013079330325126648,0.003015034832060337,-0.00017233812832273543,0.005275745410472155
0.00794145092368126,0.009925042279064655,-0.012615306302905083,0.0031766074243932962,-0.00018633558647707105,0.005420890636742115
0.0072039891965687275,0.010665987618267536,-0.013061883859336376,0.0031247043516486883,-0.00018199307669419795,0.0053902557119727135
0.0070208171382546425,0.010014314204454422,-0.012125222012400627,0.0032253973186016083,-0.00017752937856130302,0.005007247906178236
0.00733293266966939,0.010386594571173191,-0.012841779738664627,0.003267536638304591,-0.0001732588279992342,0.004931764677166939
0.007993059232831001,0.01088715996593237,-0.012483918108046055,0.0031448272056877613,-0.00016918752226047218,0.00482761999592185
0.008111901581287384,0.011222487315535545,-0.013114828616380692,0.0028441590256989002,-0.0001653028157306835,0.005059120710939169
0.007173021789640188,0.010614592581987381,-0.012350036762654781,0.0027521541342139244,-0.00018783706764224917,0.0055955443531274796
0.007428065408021212,0.010643143206834793,-0.01239017304033041,0.0028075675945729017,-0.00018864851153921336,0.005398143548518419
0.007488856092095375,0.010508636012673378,-0.012960913591086864,0.0031774044036865234,-0.00018160197942052037,0.005102391354739666
0.008077158592641354,0.010338854044675827,-0.01240050420165062,0.0031597462948411703,-0.00017459203081671149,0.005069063976407051
0.007086634635925293,0.010122776962816715,-0.01235812995582819,0.0030544635374099016,-0.0001680724526522681,0.005217410158365965
0.007475784979760647,0.01035771518945694,-0.011965513229370117,0.002857414772734046,-0.0001778937439667061,0.006211151368916035
0.00781983695924282,0.010247468017041683,-0.012247503735125065,0.0029415502212941647,-0.00018658745102584362,0.005818717647343874
0.00758769316598773,0.01002392079681158,-0.012326765805482864,0.0029560639522969723,-0.00018129228556063026,0.005349279846996069
0.007623805198818445,0.01000365149229765,-0.012838657945394516,0.0032354348804801702,-0.00017546435992699116,0.004536272957921028
0.007623805198818445,0.01000365149229765,-0.012838657945394516,0.0032354348804801702,-0.00017546435992699116,0.004536272957921028
0.007802960462868214,0.010284971445798874,-0.012741655111312866,0.003155044512823224,-0.00016994564794003963,0.004368168767541647
0.007926596328616142,0.010731554590165615,-0.012357322499155998,0.003479067701846361,-0.00016476018936373293,0.004677916411310434
0.008050327189266682,0.010077794082462788,-0.012997528538107872,0.0038071204908192158,-0.0001847354433266446,0.0054194312542676926
0.007146570831537247,0.010263720527291298,-0.012658389285206795,0.003875941736623645,-0.00018104715854860842,0.004726025275886059
0.007059080991894007,0.009938094764947891,-0.012615394778549671,0.003333803964778781,-0.00017609228962101042,0.0045372662134468555
0.008154863491654396,0.010420571081340313,-0.012430772185325623,0.0031422043684870005,-0.00017131055938079953,0.004669885616749525
0.007665614131838083,0.010161121375858784,-0.012791085988283157,0.0034041665494441986,-0.00016677557141520083,0.004959744866937399
0.008011733181774616,0.009794694371521473,-0.012723339721560478,0.0037644063122570515,-0.00016247431631200016,0.005012189503759146
0.007955883629620075,0.010049440898001194,-0.012141542509198189,0.0034488763194531202,-0.00015838928811717778,0.004686230327934027
0.007771850097924471,0.01045666728168726,-0.012606984004378319,0.0031549022532999516,-0.00017086642037611455,0.0048147160559892654
0.007862942293286324,0.009832170791924,-0.012279042042791843,0.003166242502629757,-0.00017197687702719122,0.005058852955698967
0.007822958752512932,0.010547691956162453,-0.01256183348596096,0.0031010378152132034,-0.0001644735166337341,0.005167356692254543
0.007658420596271753,0.00988667830824852,-0.012922953814268112,0.003318748204037547,-0.00016080148634500802,0.005296323448419571
0.008123350329697132,0.010540799237787724,-0.012224298901855946,0.0031962727662175894,-0.00015728858124930412,0.005046751815825701
0.008057329803705215,0.00994217861443758,-0.012605207972228527,0.003471232485026121,-0.00016824271006044,0.004795120097696781
0.008054080419242382,0.009649885818362236,-0.013243241235613823,0.0037927061785012484,-0.0001757248246576637,0.004689747001975775
0.007871588692069054,0.009920238517224789,-0.013236241415143013,0.003426459850743413,-0.0001700039574643597,0.004709600005298853
0.0077682542614638805,0.010532727465033531,-0.01361154206097126,0.00324145401827991,-0.0001638719841139391,0.004503606352955103
0.007482130546122789,0.009421768598258495,-0.012393977493047714,0.0031768372282385826,-0.00015811737102922052,0.004346918780356646
0.0081044165417552,0.01004756335169077,-0.013236194849014282,0.003164303721860051,-0.0001527495332993567,0.004267065320163965
0.008362064138054848,0.010151078924536705,-0.012537664733827114,0.003425732022151351,-0.00014773420116398484,0.004434624221175909
0.00809395033866167,0.009646420367062092,-0.013259313069283962,0.0032659622374922037,-0.0001430377596989274,0.004627300892025232
0.007505462970584631,0.009951230138540268,-0.012722126208245754,0.003109275596216321,-0.00016269073239527643,0.0046617151238024235
0.008291076868772507,0.010061702691018581,-0.012776259332895279,0.002858108840882778,-0.00016114514437504113,0.004693109076470137
0.008291076868772507,0.010061702691018581,-0.012776259332895279,0.002858108840882778,-0.00016114514437504113,0.004693109076470137
0.00847658235579729,0.009598963893949986,-0.012647844851016998,0.0035470223519951105,-0.0001566852442920208,0.004259710665792227
0.0081945126876235,0.0097414031624794,-0.01291978731751442,0.003876016242429614,-0.0001481046638218686,0.00417642155662179
0.008560610003769398,0.009517962113022804,-0.012730631045997143,0.0033299396745860577,-0.0001441508502466604,0.0040554446168243885
0.008560610003769398,0.009517962113022804,-0.012730631045997143,0.0033299396745860577,-0.0001441508502466604,0.0040554446168243885
0.008304000832140446,0.009993311949074268,-0.012278864160180092,0.0033246208913624287,-0.00014040264068171382,0.004141232930123806
0.007603883743286133,0.0097504248842597,-0.012412777170538902,0.003664384363219142,-0.00013684452278539538,0.004296744707971811
0.008067319169640541,0.009247059933841228,-0.013041427358984947,0.0038762157782912254,-0.00013346220657695085,0.0044538285583257675
0.008177529089152813,0.009949608705937862,-0.012517709285020828,0.003857804462313652,-0.00015049769717734307,0.004432591609656811
0.007997455075383186,0.009496672078967094,-0.01285612490028143,0.003766779787838459,-0.00014827644918113947,0.004271830432116985
0.008277876302599907,0.009384110569953918,-0.01288919523358345,0.003744407556951046,-0.00014495119103230536,0.004029046278446913
0.008357888087630272,0.009655189700424671,-0.01243522111326456,0.003601050702854991,-0.00014169646601658314,0.0038521396927535534
0.008876817300915718,0.009050917811691761,-0.01242924202233553,0.0031167399138212204,-0.00013559707440435886,0.003950487356632948
0.008382921107113361,0.00948502216488123,-0.012908272445201874,0.003004900412634015,-0.00013273986405692995,0.003980074543505907
0.00846690870821476,0.009422818198800087,-0.012389770708978176,0.0033474641386419535,-0.00013000075705349445,0.0042611779645085335
0.008472495712339878,0.008916604332625866,-0.012829889543354511,0.0032087299041450024,-0.00012737236102111638,0.004176474642008543
0.008506836369633675,0.009166169911623001,-0.012433179654181004,0.0034844265319406986,-0.00012484821490943432,0.003918896429240704
0.008521534502506256,0.009199162945151329,-0.012497037649154663,0.004089081194251776,-0.0001224220177391544,0.0037581478245556355
0.008883528411388397,0.009032480418682098,-0.012804897502064705,0.0036168068181723356,-0.00012008843623334542,0.0038479589857161045
0.008711478672921658,0.009510857984423637,-0.012269162572920322,0.003426166484132409,-0.00011784203525166959,0.0039924634620547295
0.008769999258220196,0.00996154360473156,-0.01277337595820427,0.0033088691998273134,-0.00011567834008019418,0.004020813852548599
0.008567309938371181,0.008802161552011967,-0.012495876289904118,0.0034550298005342484,-0.00011359256313880906,0.003996847663074732
0.007997477427124977,0.008397994562983513,-0.012895653024315834,0.003681408939883113,-0.00011158059351146221,0.004232920240610838
0.007997477427124977,0.008397994562983513,-0.012895653024315834,0.003681408939883113,-0.00011158059351146221,0.004232920240610838
0.008725710213184357,0.008727134205400944,-0.012853594496846199,0.003958672750741243,-0.00010776337148854509,0.004383365157991648
0.008473935537040234,0.00854670163244009,-0.012996778823435307,0.003533106530085206,-0.00010595100320642814,0.0040459525771439075
0.008458549156785011,0.008719010278582573,-0.012248102575540543,0.004011954180896282,-0.00010419866885058582,0.0035433978773653507
0.00896933302283287,0.008674876764416695,-0.012696350924670696,0.004153094720095396,-0.00010250324703520164,0.00339757208712399
0.00896933302283287,0.008674876764416695,-0.012696350924670696,0.004153094720095396,-0.00010250324703520164,0.00339757208712399
0.00846056267619133,0.008544893935322762,-0.013115420937538147,0.0034856318961828947,-9.927285282174125e-05,0.004232951905578375
0.00846056267619133,0.008544893935322762,-0.013115420937538147,0.0034856318961828947,-9.927285282174125e-05,0.004232951905578375
0.008941074833273888,0.008413263596594334,-0.012713877484202385,0.003624481614679098,-9.773280908120796e-05,0.004135324619710445
0.008673549629747868,0.008294196799397469,-0.012696593068540096,0.0034286833833903074,-9.623978257877752e-05,0.0044508217833936214
0.008717894554138184,0.008192501030862331,-0.012464815750718117,0.004059267695993185,-9.479177242610604e-05,0.004137377720326185
0.009067426435649395,0.008606405928730965,-0.012607365846633911,0.004080100916326046,-9.338658128399402e-05,0.0038679165299981833
0.00911786314100027,0.00864507257938385,-0.01328500546514988,0.003916740883141756,-0.0001034516462823376,0.0035115829668939114
0.009366730228066444,0.008158987388014793,-0.01278721448034048,0.003805408487096429,-0.00010354250844102353,0.0033918223343789577
0.008624568581581116,0.008131119422614574,-0.013284523971378803,0.003810114460065961,-0.00010217613453278318,0.0035852736327797174
0.009312635287642479,0.008184668608009815,-0.012410551309585571,0.004151748493313789,-0.0001007531100185588,0.00423792190849781
0.009173047728836536,0.007898119278252125,-0.0128862913697958,0.004172393120825291,-9.936308197211474e-05,0.0041291071102023125
0.00939751323312521,0.008770019747316837,-0.012853969819843769,0.004057726822793484,-9.66942825471051e-05,0.004286379553377628
0.009687011130154133,0.008173996582627296,-0.01265812013298273,0.004160079173743725,-9.541292092762887e-05,0.0036026821471750736
0.008879156783223152,0.00792828481644392,-0.01277940720319748,0.00431230291724205,-9.41650869208388e-05,0.003130229888483882
0.0099331084638834,0.008187302388250828,-0.013078445568680763,0.0036920555867254734,-9.294946357840672e-05,0.0028993047308176756
0.009777714498341084,0.008835597895085812,-0.012587185949087143,0.0034433684777468443,-9.176482853945345e-05,0.003211002564057708
0.009118553251028061,0.008680050261318684,-0.012715617194771767,0.003520161611959338,-9.060993761522695e-05,0.0035438118502497673
0.009323240257799625,0.007841491140425205,-0.012513729743659496,0.003730089869350195,-8.948383037932217e-05,0.0036207556258887053
0.009551791474223137,0.008867695927619934,-0.012915214523673058,0.004113503731787205,-8.838540088618174e-05,0.0034408026840537786
0.009958206675946712,0.008687579073011875,-0.012601451016962528,0.0041032214649021626,-8.731355046620592e-05,0.003516016062349081
0.009727757424116135,0.008749924600124359,-0.012836066074669361,0.004034287296235561,-8.626741328043863e-05,0.0037756061647087336
0.009500381536781788,0.008621031418442726,-0.013078627176582813,0.0043985131196677685,-8.52460361784324e-05,0.00356316682882607
0.009637401439249516,0.008953580632805824,-0.012552856467664242,0.004423183389008045,-8.424854604527354e-05,0.0035195089876651764
0.009529276750981808,0.008788911625742912,-0.012814061716198921,0.00434877397492528,-8.327417890541255e-05,0.0032553449273109436
0.009827000088989735,0.008468642830848694,-0.012513726949691772,0.0040834504179656506,-7.724833267275244e-05,0.0033989690709859133
0.009709186851978302,0.00906590186059475,-0.012642654590308666,0.004146013408899307,-7.155814091674984e-05,0.003260050667449832
0.010221167467534542,0.008548513054847717,-0.012003020383417606,0.004118678160011768,-7.044372614473104e-05,0.0031713114585727453
0.009856022894382477,0.00837018620222807,-0.012733768671751022,0.004466364160180092,-6.9644462200813e-05,0.0032105022110044956
0.009305489249527454,0.008564350195229053,-0.012232068926095963,0.004669233225286007,-4.547285698208725e-06,0.0034745712764561176
0.009305489249527454,0.008564350195229053,-0.012232068926095963,0.004669233225286007,-4.547285698208725e-06,0.0034745712764561176
0.009580227546393871,0.00897703692317009,-0.012296441942453384,0.004662778694182634,-2.969052559365082e-07,0.003738367697224021
0.010443978011608124,0.008232803083956242,-0.012765936553478241,0.0041289860382676125,-1.9385792526804835e-08,0.003362931776791811
0.00999762024730444,0.00871515553444624,-0.01236516609787941,0.004096807446330786,-1.26575350201108e-09,0.00302308052778244
0.010707817040383816,0.00895009096711874,-0.012991710565984249,0.004030726850032806,-8.264466194729536e-11,0.0027168847154825926
0.010147461667656898,0.00819754134863615,-0.012502744793891907,0.004071247298270464,-5.396105003802054e-12,0.002629197435453534
0.009657894261181355,0.008214930072426796,-0.013005218468606472,0.004821982234716415,-3.5232708135539414e-13,0.0030952636152505875
0.009998423978686333,0.009083442389965057,-0.012588711455464363,0.005068554542958736,-2.3004440759537455e-14,0.0031091738492250443
0.010797718539834023,0.008466467261314392,-0.012789852917194366,0.005074494518339634,-1.50202563179504e-15,0.0028793734963983297
0.009884901344776154,0.00823905784636736,-0.013281640596687794,0.004801022354513407,-9.807153927591183e-17,0.0026813321746885777
0.010108405724167824,0.008595077320933342,-0.012737711891531944,0.0043969787657260895,-6.403370557895498e-18,0.002379806013777852
0.01052185334265232,0.008600208908319473,-0.013081745244562626,0.0043023256585001945,-4.180943305612592e-19,0.002428791718557477
0.010032450780272484,0.008247286081314087,-0.012633225880563259,0.004347070585936308,-2.729857257020954e-20,0.0026741260662674904
0.01004516240209341,0.00812440738081932,-0.01316530629992485,0.004483718425035477,-1.78240155417684e-21,0.002798396861180663
0.010618513450026512,0.008465883322060108,-0.012987968511879444,0.00435506459325552,-7.598657704469799e-24,0.002497438807040453
0.01040403451770544,0.008246744982898235,-0.013044331222772598,0.004420319572091103,-4.961380426016181e-25,0.0022514609154313803
0.01032155379652977,0.008390492759644985,-0.013019826263189316,0.004361053463071585,-3.239426800559766e-26,0.0023003474343568087
0.010122695006430149,0.008722561411559582,-0.012920884415507317,0.004155062139034271,-2.1151142354173885e-27,0.002599703846499324
0.010748857632279396,0.008440140634775162,-0.012874427251517773,0.0044547864235937595,-1.381018520390113e-28,0.0025428717490285635
0.010820003226399422,0.008379471488296986,-0.013234232552349567,0.004497650545090437,-9.017064068773516e-30,0.002625341759994626
0.010987520217895508,0.008668871596455574,-0.013289247639477253,0.004340571817010641,-5.887498720923952e-31,0.0026343739591538906
0.011115767061710358,0.008334977552294731,-0.013446711003780365,0.004368148744106293,-3.8441157319912545e-32,0.0024479266721755266
0.011129806749522686,0.008200465701520443,-0.013287351466715336,0.0045232344418764114,-2.5099329866200183e-33,0.0023154362570494413
0.011345784179866314,0.008205142803490162,-0.01390785537660122,0.004671761300414801,-1.6388068396211273e-34,0.002095595235005021
0.011280929669737816,0.008548983372747898,-0.012966749258339405,0.0045598773285746574,-1.0700237228652013e-35,0.0019817808642983437
0.01129482313990593,0.008510506711900234,-0.014070664532482624,0.004823286551982164,-6.98649029944819e-37,0.00178202660754323
0.011412248946726322,0.007992547005414963,-0.013174155727028847,0.004692648537456989,-4.5616794010409493e-38,0.001746450667269528
0.011384128592908382,0.008728423155844212,-0.013418294489383698,0.004342647269368172,-2.9784500768331484e-39,0.0017007600981742144
0.010515619069337845,0.008348159492015839,-0.013270506635308266,0.004377127159386873,-1.944722008789981e-40,0.002208317629992962
0.010955085046589375,0.007709922268986702,-0.013616971671581268,0.0042349183931946754,-1.2697165385247167e-41,0.0024245192762464285
0.01085707452148199,0.007491861470043659,-0.013503773137927055,0.004281213041394949,-8.295686908802917e-43,0.0024234321899712086
0.010955954901874065,0.008719241246581078,-0.013691509142518044,0.0042085545137524605,-5.465064010866787e-44,0.0024665547534823418
0.010955954901874065,0.008719241246581078,-0.013691509142518044,0.0042085545137524605,-5.465064010866787e-44,0.0024665547534823418
0.010898571461439133,0.00854875985532999,-0.013732794672250748,0.0047832983545959,-4.203895392974451e-45,0.0020802610088139772
0.010968456044793129,0.007997006177902222,-0.013165859505534172,0.005063856020569801,-0.0,0.0016979374922811985
0.011528842151165009,0.007814549840986729,-0.01291363500058651,0.00490271020680666,-0.0,0.0015452058287337422
0.010888718068599701,0.00846839975565672,-0.012756112031638622,0.004691183567047119,-0.0,0.0014714277349412441
0.011183192953467369,0.008010784164071083,-0.013368697836995125,0.004614732228219509,-6.214145741978427e-06,0.0015382022829726338
0.010870802216231823,0.007969267666339874,-0.013586817309260368,0.004641931038349867,-4.0573931414655817e-07,0.0015310733579099178
0.010954868979752064,0.008437109179794788,-0.013848635368049145,0.0045633031986653805,-2.6491877136436415e-08,0.0020455936901271343
0.011006486602127552,0.008602249436080456,-0.01321706548333168,0.005003235302865505,-1.7297300258789505e-09,0.0023326240479946136
0.011252283118665218,0.008522745221853256,-0.013264833018183708,0.005057418718934059,-7.374110870539408e-12,0.0020660634618252516
0.011603409424424171,0.008204928599298,-0.013809345662593842,0.004600560758262873,-4.814766749357269e-13,0.001829609158448875
0.010532299987971783,0.007936903275549412,-0.013484085910022259,0.0043929265812039375,-3.1436984092303444e-14,0.0017304818611592054
0.01075427234172821,0.007963714189827442,-0.013170713558793068,0.004588287323713303,-2.052610282400136e-15,0.001767351059243083
0.01108424924314022,0.008972485549747944,-0.013200473040342331,0.004723787307739258,-1.340207822276868e-16,0.0020282110199332237
0.010671883821487427,0.008110478520393372,-0.013139593414962292,0.004749210085719824,-8.750599770771896e-18,0.0021957820281386375
0.010858805850148201,0.008103023283183575,-0.013521546497941017,0.004692048765718937,-5.713516402686992e-19,0.002230120822787285
0.010780422948300838,0.008133088238537312,-0.013438352383673191,0.004662913735955954,-3.730518323541665e-20,0.002060696016997099
0.010708853602409363,0.008549835532903671,-0.013652129098773003,0.004744501318782568,-2.4357617528395345e-21,0.0016902764327824116
0.011082838289439678,0.008459675125777721,-0.01311557274311781,0.0047827898524701595,-1.5903781685876447e-22,0.0013758959248661995
0.010997394099831581,0.007827959954738617,-0.013608085922896862,0.004841836169362068,-1.038403326407928e-23,0.0012644425733014941
0.010603468865156174,0.008496616035699844,-0.012924116104841232,0.005047934595495462,-6.780031696788214e-25,0.0012385535519570112
0.010882783681154251,0.008623460307717323,-0.013728627935051918,0.004905584268271923,-4.426875701880831e-26,0.0010990997543558478
0.010679027996957302,0.008521710522472858,-0.013430455699563026,0.0049041882157325745,-2.890433156827436e-27,0.00119270128197968
0.011034565046429634,0.008142285980284214,-0.013831669464707375,0.004776363726705313,-1.887246437748003e-28,0.00148415332660079
0.01146908663213253,0.00856129452586174,-0.013287456706166267,0.004751313012093306,-1.2322370618087964e-29,0.0017862842651084065
0.011839883401989937,0.00836930051445961,-0.013772472739219666,0.004762325435876846,-8.045627826011037e-31,0.0016660753171890974
0.010630551725625992,0.008557027205824852,-0.01346390787512064,0.004996284376829863,-5.253220189382683e-32,0.0017040312523022294
0.010630551725625992,0.008557027205824852,-0.01346390787512064,0.004996284376829863,-5.253220189382683e-32,0.0017040312523022294
0.01060803234577179,0.008265708573162556,-0.013767847791314125,0.005290721543133259,-3.429977537658245e-33,0.0016415471909567714
0.011000840924680233,0.00844203494489193,-0.013663453981280327,0.005518423393368721,-2.239530255845025e-34,0.0014470841269940138
0.011624088510870934,0.007869749329984188,-0.013884142972528934,0.00533915963023901,-1.4622532704489445e-35,0.0011598754208534956
0.01094814483076334,0.007988535799086094,-0.01372357178479433,0.0050849406979978085,-9.547469293269573e-37,0.0010951689910143614
0.011956576257944107,0.008284426294267178,-0.013699475675821304,0.005300941877067089,-6.23381522735661e-38,0.0010606655851006508
0.01140293013304472,0.007987688295543194,-0.01389126107096672,0.0057492987252771854,-4.070235341551757e-39,0.001036946545355022
0.011484027840197086,0.007782932370901108,-0.013311702758073807,0.005898224655538797,-2.657576550576659e-40,0.000991968670859933
0.011693937703967094,0.008094757795333862,-0.013616377487778664,0.005799348000437021,-1.735227888373421e-41,0.0010134592885151505
0.011312436312437057,0.00790195632725954,-0.014151626266539097,0.00547263165935874,-7.42688186092153e-44,0.0013856904115527868
0.011648234911262989,0.007558581884950399,-0.013512668199837208,0.005865300539880991,-4.203895392974451e-45,0.0014111169148236513
0.01089258212596178,0.008148406632244587,-0.013743563555181026,0.005707534030079842,-0.0,0.0013639219105243683
0.011685473844408989,0.008775235153734684,-0.013030782341957092,0.0057816822081804276,-0.0,0.0011432886822149158
0.01137202326208353,0.007970421575009823,-0.013766583055257797,0.005551175680011511,-0.0,0.0009170776465907693
0.01142126228660345,0.008158715441823006,-0.01353682391345501,0.0057350327260792255,-0.0,0.0007615098147653043
0.011811118572950363,0.007972209714353085,-0.014103993773460388,0.005953548476099968,-0.0,0.0006509246304631233
0.011478882282972336,0.008064858615398407,-0.013578726910054684,0.005263995379209518,-0.0,0.0005684512434527278
0.011998861096799374,0.007906205952167511,-0.013899393379688263,0.004912325646728277,-0.0,0.0005912458291277289
0.011539983563125134,0.0075624543242156506,-0.013529404997825623,0.005335184745490551,-0.0,0.0005434129852801561
0.011512862518429756,0.00826987624168396,-0.01356538012623787,0.005276407115161419,-0.0,0.0004943714011460543
0.0119017930701375,0.007612007670104504,-0.01377938687801361,0.005481170956045389,-0.0,0.0004529128782451153
0.01161106489598751,0.007432520855218172,-0.014598513953387737,0.005756635684520006,-0.0,0.000417836825363338
0.011909580789506435,0.008104954846203327,-0.013874697498977184,0.006013074889779091,-0.0,0.0003878063289448619
0.011525243520736694,0.007786849979311228,-0.014325149357318878,0.005588589236140251,-0.0,0.00036180601455271244
0.011969258077442646,0.007745164446532726,-0.013614295981824398,0.005391146056354046,-0.0,0.0003916491405107081
0.011803795583546162,0.007533309515565634,-0.01325256284326315,0.0057068378664553165,-0.0,0.00037194613832980394
0.011481903493404388,0.008128046058118343,-0.01353528629988432,0.006029766518622637,-0.0,0.000351415277691558
0.011908688582479954,0.009132393635809422,-0.013659317046403885,0.005826734006404877,-0.0,0.00033285567769780755
0.01164398342370987,0.00806676596403122,-0.014090988785028458,0.005713485646992922,-0.0,0.00031614775070920587
0.01164398342370987,0.00806676596403122,-0.014090988785028458,0.005713485646992922,-0.0,0.00031614775070920587
0.01226012408733368,0.007429608143866062,-0.01383440662175417,0.005429561715573072,-0.0,0.0003010357322636992
0.012347719632089138,0.008225088007748127,-0.014179238118231297,0.006154889706522226,-0.0,0.00028730405028909445
0.01238392572849989,0.007975476793944836,-0.013241886161267757,0.006254284642636776,-0.0,0.00027477051480673254
0.012085001915693283,0.008276764303445816,-0.013781270943582058,0.006179498974233866,-0.0,0.0002632850082591176
0.011726261116564274,0.007708885241299868,-0.013552726246416569,0.0064407470636069775,-0.0,0.00025272113271057606
0.012566223740577698,0.008113541640341282,-0.014479667879641056,0.005937574896961451,-0.0,0.00024297265917994082
0.01160645205527544,0.007894404232501984,-0.013776431791484356,0.005797238554805517,-0.0,0.00023394808522425592
0.011957445181906223,0.007595791481435299,-0.014483954757452011,0.006075156852602959,-0.0,0.00022557040210813284
0.012853710912168026,0.007714065723121166,-0.013454490341246128,0.005881433375179768,-0.0,0.00021777217625640333
0.012146549299359322,0.008208992891013622,-0.01430449727922678,0.006004484370350838,-0.0,0.00020368841069284827
0.011645384132862091,0.008451907895505428,-0.014984510838985443,0.005892049986869097,-0.0,0.0001973087782971561
0.01210832316428423,0.008377792313694954,-0.013784359209239483,0.005953737534582615,-0.0,0.00019131627050228417
0.01234098244458437,0.008191978558897972,-0.014390353113412857,0.005877380259335041,-0.0,0.00018567702500149608
0.012635068036615849,0.0077443476766347885,-0.013707323931157589,0.006070203613489866,-0.0,0.00018036084657069296
0.012355489656329155,0.007600735407322645,-0.014224613085389137,0.00634378707036376,-0.0,0.00017534088692627847
0.011944744735956192,0.008723373524844646,-0.014454885385930538,0.006284611765295267,-0.0,0.0001705924078123644
0.013385675847530365,0.007998961955308914,-0.015096638351678848,0.006108901463449001,-0.0,0.00016609476006124169
0.013253535144031048,0.007615671493113041,-0.014187350869178772,0.005904329940676689,-0.0,0.00016182786202989519
0.013370833359658718,0.007858029566705227,-0.014284836128354073,0.006062498316168785,-0.0,0.0001577749935677275
0.013172857463359833,0.008405662141740322,-0.013916470110416412,0.006704078055918217,-0.0,0.00015391995839308947
0.013549390248954296,0.00840433407574892,-0.0142990006133914,0.0069599151611328125,-0.0,0.00015024897584225982
0.01328166201710701,0.008530632592737675,-0.013892845250666142,0.006702017039060593,-0.0,0.00014674896374344826
0.013603441417217255,0.00814165361225605,-0.014332633465528488,0.005903082434087992,-0.0,0.00014340836787596345
0.013418816030025482,0.008022225461900234,-0.014067484997212887,0.006378124933689833,-0.0,5.555263487622142e-05
0.013513322919607162,0.008041003718972206,-0.014775059185922146,0.006753317080438137,-0.0,4.259329944034107e-05
0.013678395189344883,0.008409986272454262,-0.014004245400428772,0.006670808885246515,-0.0,4.0865161281544715e-05
0.01360236294567585,0.008482275530695915,-0.014324943535029888,0.006609940901398659,-0.0,2.511200182198081e-05
0.01390359178185463,0.007727607619017363,-0.013833791948854923,0.006533190608024597,-0.0,1.9856959625030868e-05
0.013955213129520416,0.007801406551152468,-0.014544395729899406,0.006809537764638662,-0.0,1.9127712221234106e-05
0.013955213129520416,0.007801406551152468,-0.014544395729899406,0.006809537764638662,-0.0,1.9127712221234106e-05
0.014084549620747566,0.008100735954940319,-0.014070144854485989,0.006922671105712652,-0.0,4.832137165067252e-06
0.01394210010766983,0.008539976552128792,-0.014804927632212639,0.006804054137319326,-0.0,3.155040815272514e-07
0.014032155275344849,0.00789495836943388,-0.0138261578977108,0.0065930746495723724,-0.0,2.0600163352924028e-08
0.013698064722120762,0.008152102120220661,-0.013970445841550827,0.006363698747009039,-0.0,1.3450435210060618e-09
0.01425197347998619,0.007837225683033466,-0.013831478543579578,0.006963627878576517,-0.0,8.782172905563712e-11
0.013882940635085106,0.007585451006889343,-0.014316917397081852,0.0070084379985928535,-0.0,3.743978055099212e-13
0.013598445802927017,0.00750997057184577,-0.014570644125342369,0.006372114643454552,-0.0,2.4445501300832985e-14
0.014325469732284546,0.008055206388235092,-0.014133200980722904,0.006525255739688873,-0.0,1.5961166985540079e-15
0.013716147281229496,0.008260519243776798,-0.013752243481576443,0.007006003055721521,-0.0,1.0421501630278806e-16
0.014033813029527664,0.007732030935585499,-0.013657175935804844,0.00699559785425663,-0.0,-0.0006248895078897476
0.013856652192771435,0.008266610093414783,-0.014444978907704353,0.006442739628255367,-0.0,-0.0008484514546580613
0.013884041458368301,0.008289260789752007,-0.014144000597298145,0.005946217104792595,-0.0,-0.0009117876179516315
0.01341051422059536,0.008063022047281265,-0.01394962053745985,0.006430475972592831,-0.0,-0.0011653805850073695
0.014114310033619404,0.007729628123342991,-0.014172100462019444,0.006528880447149277,-0.0,-0.001118435524404049
0.013874071650207043,0.008335200138390064,-0.013654914684593678,0.006377185229212046,-0.0,-0.000999785610474646
0.014064191840589046,0.008459185250103474,-0.013758495450019836,0.006590601056814194,-0.0,-0.0008480718242935836
0.013888797722756863,0.007805922068655491,-0.013651384972035885,0.006650710012763739,-0.0,-0.000837544328533113
0.014010108076035976,0.007795093115419149,-0.014386246912181377,0.007202399428933859,-0.0,-0.0008030450553633273
0.013882644474506378,0.008264248259365559,-0.013862860389053822,0.006830672267824411,-0.0,-0.0007693171501159668
0.014142010360956192,0.007894249632954597,-0.014077474363148212,0.006905987858772278,-0.0,-0.0007152760517783463
0.014172328636050224,0.008165090344846249,-0.013266297988593578,0.006656975019723177,-0.0,-0.0008341215434484184
0.014001952484250069,0.008472667075693607,-0.013815955258905888,0.006879295222461224,-0.0,-0.001650140155106783
0.014012676663696766,0.007995794527232647,-0.013348931446671486,0.007002405822277069,-0.0,-0.001808777335099876
0.014204325154423714,0.007732535246759653,-0.014389965683221817,0.007091678213328123,-0.0,-0.0019069220870733261
0.014204325154423714,0.007732535246759653,-0.014389965683221817,0.007091678213328123,-0.0,-0.0019069220870733261
0.013878459110856056,0.007573436014354229,-0.013379997573792934,0.006531877908855677,-0.0,-0.0014825985999777913
0.01459718681871891,0.007653879467397928,-0.013848774135112762,0.006488327868282795,-0.0,-0.0011661514872685075
0.012964165769517422,0.007834787480533123,-0.013687956146895885,0.006959802936762571,-0.0,-0.00109408563002944
0.015151562169194221,0.007486376445740461,-0.014092344790697098,0.007348162122070789,-0.0,-0.0010630167089402676
0.014872926287353039,0.007562807761132717,-0.013330548070371151,0.007329926826059818,-0.0,-0.0008239743183366954
0.014476055279374123,0.008321725763380527,-0.01411235611885786,0.007380697876214981,-0.0,-0.0007854194263927639
0.014536547474563122,0.008256752043962479,-0.013799147680401802,0.007259739562869072,-0.0,-0.0008931871852837503
0.014611964114010334,0.007703778333961964,-0.013931513763964176,0.00719450181350112,-0.0,-0.0032695424742996693
0.014861668460071087,0.007719436660408974,-0.013810893520712852,0.0074789091013371944,-0.0,-0.0034864144399762154
0.014825897291302681,0.008013163693249226,-0.01380903460085392,0.007852495647966862,-0.0,-0.002651203190907836
0.015342077240347862,0.007968626916408539,-0.014205901883542538,0.007785548456013203,-0.0,-0.0021858501713722944
0.014923478476703167,0.007696847897022963,-0.01391187310218811,0.006896289065480232,-0.0,-0.001934042782522738
0.01506859716027975,0.008788960985839367,-0.01437881588935852,0.006994627416133881,-0.0,-0.0017336258897557855
0.014897545799612999,0.007988819852471352,-0.014114998281002045,0.006984047591686249,-0.0,-0.0016967242117971182
0.015296618454158306,0.00788161251693964,-0.01345040649175644,0.007051065564155579,-0.0,-0.002351835835725069
0.015066420659422874,0.00784357450902462,-0.014312533661723137,0.007103767711669207,-0.0,-0.002923706779256463
0.015424693003296852,0.007882748730480671,-0.014120632782578468,0.007140572648495436,-0.0,-0.002783476607874036
0.014779452234506607,0.0082851592451334,-0.014507664367556572,0.007202016655355692,-0.0,-0.002580628264695406
0.015418198890984058,0.008596588857471943,-0.01408730074763298,0.007368672173470259,-0.0,-0.002405575942248106
0.014947483316063881,0.008119771257042885,-0.014303802512586117,0.0073739406652748585,-0.0,-0.002158036921173334
0.015296593308448792,0.007871618494391441,-0.014217115007340908,0.007304800674319267,-0.0,-0.0021572564728558064
0.015185178257524967,0.008095432072877884,-0.014553378336131573,0.007418314926326275,-0.0,-0.002359684556722641
0.01556747779250145,0.0079025374725461,-0.013600577600300312,0.00772889656946063,-0.0,-0.0024631700944155455
0.015163946896791458,0.008172797039151192,-0.014977596700191498,0.007441658992320299,-0.0,-0.0027166984509676695
0.015253503806889057,0.00821245089173317,-0.014497009105980396,0.007245643530040979,-0.0,-0.0028037060983479023
0.015268150717020035,0.007960786111652851,-0.01429505180567503,0.007164796814322472,-0.0,-0.002885120455175638
0.015252002514898777,0.008335189893841743,-0.014556572772562504,0.007603075355291367,-0.0,-0.002818410750478506
0.015560160391032696,0.008227336220443249,-0.014822744764387608,0.007641918957233429,-0.0,-0.0029252436943352222
0.015560160391032696,0.008227336220443249,-0.014822744764387608,0.007641918957233429,-0.0,-0.0029252436943352222
0.01539339404553175,0.007433740422129631,-0.01420404203236103,0.007426748052239418,-0.0,-0.0030441314447671175
0.015705570578575134,0.006113595329225063,-0.014578639529645443,0.00751122273504734,-0.0,-0.003211884992197156
0.01532711461186409,0.006720670498907566,-0.014299704693257809,0.007552389055490494,-0.0,-0.0031768963672220707
0.015719106420874596,0.0070229219272732735,-0.014488850720226765,0.007441007066518068,-0.0,-0.003452888922765851
0.015286477282643318,0.0073957075364887714,-0.014052382670342922,0.007356954738497734,-0.0,-0.0032256972044706345
0.01584196835756302,0.006637481972575188,-0.014325246214866638,0.007600746583193541,-0.0,-0.0032521935645490885
0.015703711658716202,0.006642468273639679,-0.014242817647755146,0.007786382455378771,-0.0,-0.0032897833734750748
0.01537646260112524,0.006856754422187805,-0.014410861767828465,0.007695229724049568,-0.0,-0.0034919281024485826
0.015764998272061348,0.0066699497401714325,-0.014441953040659428,0.007724684197455645,-0.0,-0.0035217113327234983
0.015988491475582123,0.006465823855251074,-0.014611911028623581,0.0076743802055716515,-0.0,-0.0036212471313774586
0.015988314524292946,0.007067739497870207,-0.015190916135907173,0.008195200935006142,-0.0,-0.003858737414702773
0.016412125900387764,0.0070643555372953415,-0.014805779792368412,0.008310597389936447,-0.0,-0.004025732167065144
0.015535022132098675,0.006543559022247791,-0.01522375363856554,0.008746598847210407,-0.0,-0.004080128390341997
0.0159787368029356,0.006439136806875467,-0.015040469355881214,0.00858908612281084,-0.0,-0.0035793427377939224
0.015938859432935715,0.007257291581481695,-0.014956215396523476,0.008111190050840378,-0.0,-0.003890465712174773
0.016412153840065002,0.006962502840906382,-0.015235945582389832,0.007837934419512749,-0.0,-0.004206574987620115
0.016592519357800484,0.0062939440831542015,-0.014869936741888523,0.00788820069283247,-0.0,-0.004064023960381746
0.016719624400138855,0.006522865500301123,-0.014717279002070427,0.007658353075385094,-0.0,-0.004349118564277887
0.016610467806458473,0.006684170104563236,-0.014524483121931553,0.007385146338492632,-0.0,-0.004154946655035019
0.016469640657305717,0.007463749498128891,-0.014756673946976662,0.007412153761833906,-0.0,-0.0039014939684420824
0.0170585960149765,0.006853003520518541,-0.014609813690185547,0.008222751319408417,-0.0,-0.003777935402467847
0.01640530675649643,0.006600580643862486,-0.015287980437278748,0.00826027151197195,-0.0,-0.003958757501095533
0.01640043407678604,0.006780656985938549,-0.014370101504027843,0.00794500857591629,-0.0,-0.004168687388300896
0.016788043081760406,0.0071821813471615314,-0.014848685823380947,0.00786664430052042,-0.0,-0.004469013307243586
0.016809631139039993,0.0072247181087732315,-0.014030054211616516,0.008123083040118217,-0.0,-0.0046378569677472115
0.01703549362719059,0.0068231201730668545,-0.014732894487679005,0.008003470487892628,-0.0,-0.0047485618852078915
0.016640854999423027,0.0072587626054883,-0.014422441832721233,0.008141705766320229,-0.0,-0.004653790965676308
0.01699434220790863,0.00709453783929348,-0.015158048830926418,0.0079408660531044,-0.0,-0.004653403535485268
0.017051834613084793,0.008026640862226486,-0.01465666200965643,0.008107981644570827,-0.0,-0.00460348604246974
0.01749114878475666,0.007171091623604298,-0.015132938511669636,0.008253985084593296,-0.0,-0.004825899377465248
0.01773979887366295,0.007367147132754326,-0.01466953381896019,0.008816534653306007,-0.0,-0.004701972473412752
0.017487436532974243,0.006836708635091782,-0.015010538510978222,0.009072563610970974,-0.0,-0.0048510488122701645
0.017487436532974243,0.006836708635091782,-0.015010538510978222,0.009072563610970974,-0.0,-0.0048510488122701645
0.017960578203201294,0.00813362654298544,-0.014873738400638103,0.00852045789361,-0.0,-0.004926052410155535
0.017197459936141968,0.006999501492828131,-0.015457352623343468,0.008350616320967674,-0.0,-0.004880101885646582
0.017441367730498314,0.006936071906238794,-0.014781332574784756,0.008844990283250809,-0.0,-0.005142760928720236
0.017284223809838295,0.007102952804416418,-0.014927485957741737,0.009024000726640224,-0.0,-0.004882661625742912
0.017767881974577904,0.007061592303216457,-0.015511883422732353,0.009010209701955318,-0.0,-0.0042531793005764484
0.01849307492375374,0.007169807329773903,-0.0151908528059721,0.008679126389324665,-0.0,-0.004860714077949524
0.01748422160744667,0.007124791853129864,-0.014981059357523918,0.007940005511045456,-0.0,-0.004812352824956179
0.01782897673547268,0.00735340965911746,-0.01487242802977562,0.007940989919006824,-0.0,-0.0048994384706020355
0.01803709752857685,0.007118158973753452,-0.01516816858202219,0.00835386011749506,-0.0,-0.004959414713084698
0.017907805740833282,0.007440020330250263,-0.015537082217633724,0.008872751146554947,-0.0,-0.00519977230578661
0.01788558065891266,0.007612952031195164,-0.01521368883550167,0.008405869826674461,-0.0,-0.004844441544264555
0.018050407990813255,0.007123996503651142,-0.015566671267151833,0.008703305386006832,-0.0,-0.00470989802852273
0.018357686698436737,0.007272318005561829,-0.014904063194990158,0.008824363350868225,-0.0,-0.004658204969018698
0.01825755275785923,0.007259536534547806,-0.01565210148692131,0.008759346790611744,-0.0,-0.005042154807597399
0.018008723855018616,0.007263495121151209,-0.014958393760025501,0.009336834773421288,-0.0,-0.005055917892605066
0.018292592838406563,0.008102561347186565,-0.01574392057955265,0.009323074482381344,-0.0,-0.005447471514344215
0.018049513921141624,0.0070943571627140045,-0.014947905205190182,0.008669761009514332,-0.0,-0.004697447642683983
0.018252182751893997,0.007412883453071117,-0.015273254364728928,0.0086843091994524,-0.0,-0.004616843070834875
0.018450738862156868,0.006979119498282671,-0.014972186647355556,0.009151671081781387,-0.0,-0.004777473397552967
0.018350902944803238,0.007011942565441132,-0.015909554436802864,0.008849886246025562,-0.0,-0.005138322710990906
0.018472135066986084,0.007285436615347862,-0.016054315492510796,0.008575662970542908,-0.0,-0.005144855007529259
0.01866484247148037,0.007060530129820108,-0.015800032764673233,0.008734315633773804,-0.0,-0.00555209256708622
0.018404142931103706,0.006686550565063953,-0.015197953209280968,0.00915093906223774,-0.0,-0.005353654734790325
0.018730010837316513,0.007216264493763447,-0.015660183504223824,0.009134185500442982,-0.00027206886443309486,-0.004827667027711868
0.019017696380615234,0.007213040255010128,-0.01566133089363575,0.009355545975267887,-0.00047486371477134526,-0.004797950852662325
0.01865776628255844,0.00649299705401063,-0.015591653063893318,0.009311005473136902,-0.0005211005918681622,-0.005345257930457592
0.018675556406378746,0.007180169690400362,-0.016109628602862358,0.009002611972391605,-0.0005340239149518311,-0.00585796358063817
0.01870611310005188,0.0067863427102565765,-0.015722209587693214,0.009761735796928406,-0.0005303854122757912,-0.005910016596317291
0.018598487600684166,0.00714934803545475,-0.016392499208450317,0.010204598307609558,-0.0009180508204735816,-0.0060079386457800865
0.018598487600684166,0.00714934803545475,-0.016392499208450317,0.010204598307609558,-0.0009180508204735816,-0.0060079386457800865
0.01902432180941105,0.006855590734630823,-0.015822095796465874,0.009597204625606537,-0.0008677453733980656,-0.005690896883606911
0.018782543018460274,0.006910642609000206,-0.01576748676598072,0.009441989473998547,-0.0008225899655371904,-0.006362804677337408
0.019564758986234665,0.007569838780909777,-0.01630629599094391,0.00885371956974268,-0.0007831648108549416,-0.006113403011113405
0.019060345366597176,0.007030129432678223,-0.01663261651992798,0.008989511989057064,-0.0008312389836646616,-0.006473858840763569
0.018935423344373703,0.006512807682156563,-0.01652754284441471,0.009277375414967537,-0.0008433177717961371,-0.006266400218009949
0.019163476303219795,0.0066605014726519585,-0.016943946480751038,0.009019491262733936,-0.0008507694583386183,-0.0059722112491726875
0.01838303543627262,0.006732468493282795,-0.016176562756299973,0.009161500260233879,-0.0008077303064055741,-0.005531767383217812
0.01907067559659481,0.006868269294500351,-0.016863660886883736,0.010188514366745949,-0.0008735107840038836,-0.0056279744021594524
0.01964549720287323,0.006150817032903433,-0.016196995973587036,0.009834939613938332,-0.0008880526875145733,-0.00644985307008028
0.01989317126572132,0.006281212437897921,-0.01645597070455551,0.009090697392821312,-0.0007943607051856816,-0.005421668756753206
0.019313935190439224,0.006647256202995777,-0.016924241557717323,0.009076620452105999,-0.0008014914346858859,-0.0059787495993077755
0.019609328359365463,0.007138064596801996,-0.016512669622898102,0.009146638214588165,-0.0007919945055618882,-0.006872272584587336
0.019022613763809204,0.0063596018590033054,-0.017170144245028496,0.009073479101061821,-0.0007344717159867287,-0.006921571213752031
0.01766727864742279,0.006502044852823019,-0.016861330717802048,0.010136613622307777,-0.000685285369399935,-0.006257255561649799
0.019610857591032982,0.006649754010140896,-0.01680608093738556,0.010010072961449623,-0.0006038096034899354,-0.005719534121453762
0.020284969359636307,0.006706303916871548,-0.016912778839468956,0.009260225109755993,-0.0006315312930382788,-0.006263059098273516
0.01965668424963951,0.006687679328024387,-0.01673121377825737,0.009365594014525414,-0.0005711370031349361,-0.006264818832278252
0.01918971724808216,0.006399508565664291,-0.01716550439596176,0.009372910484671593,-0.0005967439501546323,-0.006234115920960903
0.01909191533923149,0.006138324737548828,-0.01668976992368698,0.009126673452556133,-0.0006074575358070433,-0.006976781412959099
0.019456515088677406,0.006582984700798988,-0.016824590042233467,0.009872263297438622,-0.0006325153517536819,-0.006377266254276037
0.019928131252527237,0.0069209313951432705,-0.016439897939562798,0.009916459210216999,-0.0006060971063561738,-0.005963557865470648
0.019928131252527237,0.0069209313951432705,-0.016439897939562798,0.009916459210216999,-0.0006060971063561738,-0.005963557865470648
0.02003669925034046,0.006429341156035662,-0.01651225984096527,0.009997962974011898,-0.0006370337796397507,-0.006111202761530876
0.019945353269577026,0.006324644200503826,-0.016707077622413635,0.010081705637276173,-0.0005757785984314978,-0.006028912030160427
0.019805487245321274,0.006393701769411564,-0.0163019560277462,0.009791258722543716,-0.0005206285277381539,-0.006533307489007711
0.019244853407144547,0.0072962259873747826,-0.0167160015553236,0.009214559569954872,-0.0005328047554939985,-0.006860538385808468
0.01907406561076641,0.006990113295614719,-0.016118012368679047,0.00960284098982811,-0.0005077648675069213,-0.0069108810275793076
0.020549193024635315,0.006491601001471281,-0.01641060784459114,0.009833804331719875,-0.00043824786553159356,-0.007014987524598837
0.0202313382178545,0.006581142544746399,-0.016620798036456108,0.01066392008215189,-0.00045280312770046294,-0.0070332130417227745
0.020063146948814392,0.006828805431723595,-0.016744982451200485,0.010391849093139172,-0.00043864644248969853,-0.007238699588924646
0.020351603627204895,0.006638278253376484,-0.016252394765615463,0.009795423597097397,-0.0004142771358601749,-0.007159014698117971
0.020159032195806503,0.006501518655568361,-0.01643795147538185,0.010446914471685886,-0.0003917834837920964,-0.007350702304393053
0.019958680495619774,0.006393004208803177,-0.016486935317516327,0.010290310718119144,-0.0003729401505552232,-0.007266832981258631
0.02059318497776985,0.006157672498375177,-0.0166451595723629,0.010412345640361309,-0.00032250559888780117,-0.0071424152702093124
0.020585378631949425,0.00687640393152833,-0.016191789880394936,0.010428301058709621,-0.00029947308939881623,-0.00699209701269865
0.020266950130462646,0.006628511473536491,-0.016437457874417305,0.01048233825713396,-0.00032200870919041336,-0.0069685024209320545
0.020216291770339012,0.006438944023102522,-0.01698138192296028,0.0100182443857193,-0.0003160587511956692,-0.006994647439569235
0.020631270483136177,0.0070910644717514515,-0.016538407653570175,0.010037691332399845,-0.0002993742236867547,-0.006944932043552399
0.02041846141219139,0.006970132701098919,-0.016606496647000313,0.009761077351868153,-0.0003277200448792428,-0.006741915829479694
0.020152535289525986,0.0068914457224309444,-0.015957670286297798,0.010381772182881832,-0.0003142439527437091,-0.0064621008932590485
0.020778853446245193,0.0068801832385361195,-0.016685480251908302,0.01044343039393425,-0.00032038355129770935,-0.007073307875543833
0.020778853446245193,0.0068801832385361195,-0.016685480251908302,0.01044343039393425,-0.00032038355129770935,-0.007073307875543833
0.02106429822742939,0.006620363797992468,-0.01680203340947628,0.009888713248074055,-0.000325320812407881,-0.007094983011484146
0.0204630047082901,0.006497357971966267,-0.01624075509607792,0.010310274548828602,-0.0003796231758315116,-0.006801735144108534
0.02076362632215023,0.007196667604148388,-0.016819069162011147,0.010402292013168335,-0.00044862410868518054,-0.006900767330080271
0.020831789821386337,0.0065594930201768875,-0.01657501980662346,0.010232514701783657,-0.00048635818529874086,-0.007556632161140442
0.020831789821386337,0.0065594930201768875,-0.01657501980662346,0.010232514701783657,-0.00048635818529874086,-0.007556632161140442
0.020648175850510597,0.006411415059119463,-0.016306163743138313,0.01028114277869463,-0.00048512581270188093,-0.007189420983195305
0.021016016602516174,0.00721090380102396,-0.016590449959039688,0.010549751110374928,-0.00048267413512803614,-0.006853312719613314
0.020962972193956375,0.006939991842955351,-0.01613055355846882,0.010245032608509064,-0.0007033641450107098,-0.0072872876189649105
0.021181942895054817,0.006555767729878426,-0.01620546355843544,0.010001404210925102,-0.0007409772952087224,-0.007317994721233845
0.020807938650250435,0.0065873051062226295,-0.016690244898200035,0.009750241413712502,-0.0007610458415001631,-0.0074506183154881
0.0212395116686821,0.006741711404174566,-0.016482792794704437,0.010534517467021942,-0.0007568751461803913,-0.006861426401883364
0.021426092833280563,0.006788544822484255,-0.016735754907131195,0.011051931418478489,-0.0008044698624871671,-0.007124094758182764
0.021509164944291115,0.006628398783504963,-0.016313254833221436,0.01043314766138792,-0.0008423262042924762,-0.0075169275514781475
0.02174224518239498,0.006727614440023899,-0.01638289913535118,0.010989661328494549,-0.0008035956998355687,-0.007596273440867662
0.02187367156147957,0.007053114008158445,-0.016434088349342346,0.010679691098630428,-0.0008108510519377887,-0.008114758878946304
0.02184479497373104,0.006571079604327679,-0.016935549676418304,0.010954402387142181,-0.0008422679384239018,-0.008332787081599236
0.021927673369646072,0.006951747927814722,-0.016357142478227615,0.010589653626084328,-0.0008523654541932046,-0.008093358017504215
0.021893948316574097,0.0069834040477871895,-0.016775036230683327,0.010832474566996098,-0.0008273464627563953,-0.008178428746759892
0.021829377859830856,0.007699005771428347,-0.016272898763418198,0.011045761406421661,-0.0007807592046447098,-0.008130243048071861
0.021366817876696587,0.007038014475256205,-0.0167675968259573,0.01054809708148241,-0.0007902334327809513,-0.007790135685354471
0.022146673873066902,0.006708763539791107,-0.01741086319088936,0.010614532046020031,-0.0007952147861942649,-0.008188456296920776
0.022356288507580757,0.006687261164188385,-0.016584955155849457,0.010394198819994926,-0.0008221572497859597,-0.007982323877513409
0.02238301932811737,0.00694472249597311,-0.01714303158223629,0.010893674567341805,-0.0007871737470850348,-0.008115457370877266
0.022151242941617966,0.007195975631475449,-0.016258709132671356,0.011359916999936104,-0.0007463530055247247,-0.007873079739511013
0.022053809836506844,0.006813297979533672,-0.01721765100955963,0.010977029800415039,-0.0007590735331177711,-0.007941695861518383
0.021529072895646095,0.006418550852686167,-0.017217637971043587,0.011104571633040905,-0.000800768902990967,-0.008111365139484406
0.021643897518515587,0.006443566642701626,-0.016975052654743195,0.010934856720268726,-0.0007983313407748938,-0.00869388971477747
0.022061174735426903,0.006636242847889662,-0.01705668307840824,0.010584026575088501,-0.0007231012568809092,-0.008133242838084698
0.02224172279238701,0.005988179240375757,-0.016736403107643127,0.010768436826765537,-0.000639398000203073,-0.007922971621155739
0.02224172279238701,0.005988179240375757,-0.016736403107643127,0.010768436826765537,-0.000639398000203073,-0.007922971621155739
0.02199278213083744,0.005801380146294832,-0.017735082656145096,0.010193229652941227,-0.0006600375636480749,-0.007821228355169296
0.022257601842284203,0.006197537295520306,-0.01694699563086033,0.010539717972278595,-0.0006441277801059186,-0.008036056533455849
0.022699030116200447,0.006080987397581339,-0.01668505184352398,0.010199770331382751,-0.0006259920191951096,-0.008124507032334805
0.022604962810873985,0.006567242089658976,-0.017314784228801727,0.010477784089744091,-0.0005849967710673809,-0.008209063671529293
0.021850239485502243,0.006351382005959749,-0.0169824305921793,0.010467243380844593,-0.0006108356174081564,-0.007916436530649662
0.02274029515683651,0.005923264194279909,-0.017697719857096672,0.010714499279856682,-0.0005598253337666392,-0.008092307485640049
0.0222849752753973,0.006150067318230867,-0.017199285328388214,0.010548007674515247,-0.00056987174320966,-0.007889821194112301
0.022336691617965698,0.006149225868284702,-0.01712198741734028,0.010773807764053345,-0.0005401443922892213,-0.00808694027364254
0.022103201597929,0.006396662909537554,-0.017353659495711327,0.011233939789235592,-0.0004986141575500369,-0.008690380491316319
0.02263650856912136,0.005777355283498764,-0.01709296740591526,0.010512041859328747,-0.00046209600986912847,-0.008153547532856464
0.02259587123990059,0.0055354321375489235,-0.017362521961331367,0.010963475331664085,-0.00043050257954746485,-0.007953492924571037
0.02264227531850338,0.005767901428043842,-0.01732296496629715,0.010933466255664825,-0.0004290571669116616,-0.008508987724781036
0.02261267974972725,0.005958226043730974,-0.017578326165676117,0.011258983053267002,-0.00040801821160130203,-0.008593063801527023
0.02302459627389908,0.005461121443659067,-0.017088118940591812,0.01110476441681385,-0.00038633201620541513,-0.008440500125288963
0.02319042570888996,0.005546124652028084,-0.017300035804510117,0.011577504687011242,-0.00036666489904746413,-0.008507398888468742
0.023161454126238823,0.005550749599933624,-0.016965292394161224,0.012037218548357487,-0.00033433601493015885,-0.008638652041554451
0.023014167323708534,0.005648352671414614,-0.017192000523209572,0.01154146809130907,-0.00031018248409964144,-0.008558227680623531
0.022791657596826553,0.006205964367836714,-0.017472844570875168,0.011564621701836586,-0.00029010168509557843,-0.00885314866900444
0.022907191887497902,0.005537973251193762,-0.017148343846201897,0.011509444564580917,-0.00032323418417945504,-0.008717217482626438
0.023188015446066856,0.005162794608622789,-0.01707596890628338,0.011764295399188995,-0.0003080934111494571,-0.008404546417295933
0.022904518991708755,0.005442844238132238,-0.016711551696062088,0.011637821793556213,-0.000333729840349406,-0.008646877482533455
0.022745270282030106,0.00524422200396657,-0.017391709610819817,0.011824513785541058,-0.00032241889857687056,-0.008849197998642921
0.023248497396707535,0.005898686125874519,-0.01796848140656948,0.01245838776230812,-0.0003394566010683775,-0.008858992718160152
0.023365763947367668,0.006315149832516909,-0.01741870865225792,0.011709523387253284,-0.00033390545286238194,-0.00902123935520649
0.02150117978453636,0.0055810557678341866,-0.017622049897909164,0.011842955835163593,-0.00031974122975952923,-0.009196365252137184
0.023781802505254745,0.005829340312629938,-0.01716390997171402,0.011601886712014675,-0.00030618481105193496,-0.00911493320018053
0.02375979907810688,0.005834253504872322,-0.01713835820555687,0.011279983446002007,-0.0003628428385127336,-0.008961143903434277
0.023581044748425484,0.006269996054470539,-0.01789356954395771,0.012032967992126942,-0.00035719183506444097,-0.009065614081919193
0.023433629423379898,0.006596351973712444,-0.017327021807432175,0.011344125494360924,-0.00039411414763890207,-0.009213872253894806
0.02372501790523529,0.0058493707329034805,-0.017399229109287262,0.012020960450172424,-0.0003711447643581778,-0.0091073764488101
0.02372501790523529,0.0058493707329034805,-0.017399229109287262,0.012020960450172424,-0.0003711447643581778,-0.0091073764488101
0.023346424102783203,0.0057869888842105865,-0.016802268102765083,0.012031485326588154,-0.0004013967700302601,-0.009154433384537697
0.02355801872909069,0.005595599301159382,-0.01735180988907814,0.011893960647284985,-0.00038066552951931953,-0.009439114481210709
0.024643542245030403,0.005661194212734699,-0.017853381112217903,0.011964484117925167,-0.0004035730962641537,-0.009442402981221676
0.02413415163755417,0.005881901364773512,-0.017055997624993324,0.011281817220151424,-0.0003879107825923711,-0.009458695538341999
0.024545539170503616,0.005884326528757811,-0.017597731202840805,0.01200958527624607,-0.000368451263057068,-0.010239842347800732
0.023862991482019424,0.005374378524720669,-0.017146576195955276,0.011980373412370682,-0.0004405745130497962,-0.009631291031837463
0.023976001888513565,0.005338260903954506,-0.017669782042503357,0.011363961733877659,-0.0004289450589567423,-0.009285149164497852
0.024232443422079086,0.005148209165781736,-0.017561472952365875,0.01162868645042181,-0.00046123468200676143,-0.010142017155885696
0.024089541286230087,0.005872862879186869,-0.017599519342184067,0.012081476859748363,-0.00040186094702221453,-0.009550163522362709
0.024753501638770103,0.005989133846014738,-0.017028190195560455,0.011926749721169472,-0.000419882737332955,-0.00968354381620884
0.024984445422887802,0.005896215792745352,-0.01744508184492588,0.01210029050707817,-0.00040702687692828476,-0.009750062599778175
0.025230292230844498,0.00584167055785656,-0.017759110778570175,0.011844768188893795,-0.0003831931098829955,-0.009744899347424507
0.02532617188990116,0.0063211857341229916,-0.01734006777405739,0.011347704567015171,-0.0004093056486453861,-0.01040978729724884
0.02453654818236828,0.005744084250181913,-0.01815134286880493,0.01171580608934164,-0.0003907319041900337,-0.010061823762953281
0.024627286940813065,0.005762799177318811,-0.01790260337293148,0.01183602586388588,-0.00042675493750721216,-0.010011563077569008
0.024709071964025497,0.005676920060068369,-0.017805475741624832,0.012089110910892487,-0.0004519644717220217,-0.010030243545770645
0.0256123635917902,0.0060880850069224834,-0.018147002905607224,0.012069069780409336,-0.0004338307771831751,-0.010450324043631554
0.025417011231184006,0.00597849627956748,-0.017297517508268356,0.01178150624036789,-0.00046059032320044935,-0.010038533248007298
0.02532917819917202,0.005845501087605953,-0.0181868989020586,0.012252054177224636,-0.0004366278590168804,-0.009879931807518005
0.02553514949977398,0.005351235158741474,-0.018806694075465202,0.012083361856639385,-0.00043719002860598266,-0.010098681785166264
0.025502044707536697,0.005864144768565893,-0.01843971014022827,0.01226071361452341,-0.0004367963410913944,-0.010415938682854176
0.025507424026727676,0.0056257229298353195,-0.018060998991131783,0.012138588353991508,-0.0004134182818233967,-0.01068334374576807
0.025101318955421448,0.0058426507748663425,-0.018111195415258408,0.012179311364889145,-0.000493130530230701,-0.010010207071900368
0.023846914991736412,0.006541152019053698,-0.018336955457925797,0.012842055410146713,-0.00045903975842520595,-0.009957635775208473
0.026048971340060234,0.005881002172827721,-0.01946800947189331,0.011725964955985546,-0.0004893846344202757,-0.010464475490152836
0.025955814868211746,0.005923239979892969,-0.0183115154504776,0.011712935753166676,-0.00045771218719892204,-0.010057289153337479
0.02593798190355301,0.006222984753549099,-0.017853571102023125,0.011619338765740395,-0.00045662085176445544,-0.009537878446280956
0.0260617658495903,0.006118122488260269,-0.019060151651501656,0.011851917020976543,-0.00045481050619855523,-0.009309486486017704
0.0260617658495903,0.006118122488260269,-0.019060151651501656,0.011851917020976543,-0.00045481050619855523,-0.009309486486017704
0.025852981954813004,0.0059768506325781345,-0.01769603043794632,0.0120994308963418,-0.0004484928504098207,-0.009356423281133175
0.025852981954813004,0.0059768506325781345,-0.01769603043794632,0.0120994308963418,-0.0004484928504098207,-0.009356423281133175
0.026204407215118408,0.005803156178444624,-0.01832706667482853,0.01145443320274353,-0.0004285313480067998,-0.009715190157294273
0.02584276720881462,0.006128391250967979,-0.018126167356967926,0.012369989417493343,-0.0004522509698290378,-0.009718768298625946
0.026359762996435165,0.005543188191950321,-0.01872110553085804,0.013225403614342213,-0.0004676956741604954,-0.00963640958070755
0.025940794497728348,0.005944189615547657,-0.018618972972035408,0.013008646667003632,-0.00046575599117204547,-0.009535632096230984
0.026004035025835037,0.005393541883677244,-0.01809859648346901,0.012857389636337757,-0.0004930683062411845,-0.009294184856116772
0.026313431560993195,0.005589598324149847,-0.01818275637924671,0.013389123603701591,-0.0007302826270461082,-0.009717373177409172
0.026517514139413834,0.006068256683647633,-0.018229525536298752,0.013179239816963673,-0.0008161861915141344,-0.00958125852048397
0.026947682723402977,0.005564410705119371,-0.018650975078344345,0.0126414829865098,-0.000785360811278224,-0.009697557426989079
0.02686024270951748,0.005332070868462324,-0.018380802124738693,0.013136100955307484,-0.000745041819754988,-0.010151726193726063
0.026859968900680542,0.005659237504005432,-0.01806647703051567,0.012464374303817749,-0.000715200265403837,-0.009604476392269135
0.02677108906209469,0.005716152489185333,-0.018392864614725113,0.012897688895463943,-0.0006882951129227877,-0.009511897340416908
0.02709493599832058,0.005778306629508734,-0.01757044717669487,0.012664747424423695,-0.0006306720897555351,-0.010216250084340572
0.02706071175634861,0.00615494092926383,-0.018367094919085503,0.012832346372306347,-0.0005899074021726847,-0.009783665649592876
0.02696041762828827,0.0054825120605528355,-0.018478505313396454,0.012640894390642643,-0.0005339772906154394,-0.010101058520376682
0.02696116454899311,0.005881190299987793,-0.01813497766852379,0.013129577040672302,-0.0005240344326011837,-0.009915637783706188
0.027177676558494568,0.005579812917858362,-0.01851833611726761,0.013143161311745644,-0.0005153503152541816,-0.00992785207927227
0.027348536998033524,0.005877242423593998,-0.018156440928578377,0.012469379231333733,-0.0004728921048808843,-0.010234268382191658
0.028126990422606468,0.005974407307803631,-0.018224846571683884,0.01290967222303152,-0.0004881334607489407,-0.009983512572944164
0.027566872537136078,0.0061027249321341515,-0.018794192001223564,0.012333228252828121,-0.0004683345032390207,-0.009940765798091888
0.02561730146408081,0.005719254724681377,-0.01789953000843525,0.012940283864736557,-0.0004908355185762048,-0.010255818255245686
0.027753032743930817,0.005824545864015818,-0.018212921917438507,0.012778917327523232,-0.0004664513107854873,-0.010305319912731647
0.028157196938991547,0.005249121226370335,-0.018531514331698418,0.013129970990121365,-0.00043851445661857724,-0.010385451838374138
0.028157196938991547,0.005249121226370335,-0.018531514331698418,0.013129970990121365,-0.00043851445661857724,-0.010385451838374138
0.02730683796107769,0.005214137490838766,-0.01792728528380394,0.013043583370745182,-0.00044027561671100557,-0.010079102590680122
0.027761954814195633,0.0051881843246519566,-0.018131084740161896,0.012878352776169777,-0.0004059861530549824,-0.00995352678000927
0.028404559940099716,0.0057491157203912735,-0.018105357885360718,0.013253634795546532,-0.0004419226315803826,-0.010328592732548714
0.027514642104506493,0.0048813363537192345,-0.018481869250535965,0.013433302752673626,-0.00044637895189225674,-0.009994289837777615
0.027514642104506493,0.0048813363537192345,-0.018481869250535965,0.013433302752673626,-0.00044637895189225674,-0.009994289837777615
0.026756783947348595,0.004805647302418947,-0.01803741417825222,0.012948048301041126,-0.0004617234808392823,-0.010350593365728855
0.02744285576045513,0.005447995383292437,-0.01798982359468937,0.013709349557757378,-0.00044682578300125897,-0.010159511119127274
0.028177445754408836,0.005312375724315643,-0.018265793099999428,0.013431964442133904,-0.0005711404955945909,-0.009985825046896935
0.027733854949474335,0.005174913443624973,-0.01771869696676731,0.013811460696160793,-0.0005782473017461598,-0.010470286011695862
0.027688641101121902,0.005160441622138023,-0.018503503873944283,0.013760584406554699,-0.000576578953769058,-0.009728783741593361
0.02778523601591587,0.005384910386055708,-0.017773522064089775,0.013559308834373951,-0.0005838925135321915,-0.01002822257578373
0.027718432247638702,0.005034316796809435,-0.018453365191817284,0.013841857202351093,-0.0005730089615099132,-0.010119411163032055
0.02744394540786743,0.00502453837543726,-0.018345091491937637,0.013548814691603184,-0.0006554466090165079,-0.010426150634884834
0.02770850993692875,0.005277181044220924,-0.018046611919999123,0.013667093589901924,-0.0006994375144131482,-0.010325934737920761
0.02760070189833641,0.004695741459727287,-0.018434923142194748,0.013796612620353699,-0.0006767644081264734,-0.010365467518568039
0.027677007019519806,0.004536434542387724,-0.018090056255459785,0.013864037580788136,-0.0006520063034258783,-0.00999057199805975
0.02784442901611328,0.005003529600799084,-0.018480569124221802,0.013684074394404888,-0.0005934925866313279,-0.010481796227395535
0.02756856009364128,0.005157311912626028,-0.01887776143848896,0.013933274894952774,-0.0005799724604003131,-0.010104825720191002
0.027668055146932602,0.0048585692420601845,-0.01801465079188347,0.013905176892876625,-0.0005682191113010049,-0.009612971916794777
0.028106285259127617,0.004751854110509157,-0.018291926011443138,0.013706034980714321,-0.0005321504431776702,-0.010123292915523052
0.027972718700766563,0.0048411996103823185,-0.0186638031154871,0.013859862461686134,-0.0005163229652680457,-0.010028778575360775
0.027509590610861778,0.004796624183654785,-0.018741106614470482,0.013567269779741764,-0.0005459371604956686,-0.009874803014099598
0.026400825008749962,0.0047638677060604095,-0.0192860197275877,0.01389910839498043,-0.0005058133392594755,-0.009927066043019295
0.028741227462887764,0.005036382470279932,-0.0190962515771389,0.013673309236764908,-0.0005347977858036757,-0.010508662089705467
0.02907698228955269,0.004984135273844004,-0.018276825547218323,0.014324015937745571,-0.000549453659914434,-0.010723528452217579
0.02907698228955269,0.004984135273844004,-0.018276825547218323,0.014324015937745571,-0.000549453659914434,-0.010723528452217579
0.02838657796382904,0.0050510624423623085,-0.018422240391373634,0.01412392407655716,-0.0006429998320527375,-0.010976037941873074
0.02766832895576954,0.004978186916559935,-0.01873650588095188,0.013592238537967205,-0.0006659645587205887,-0.010590609163045883
0.028352072462439537,0.004889361560344696,-0.019314618781208992,0.01351549755781889,-0.0006048891809768975,-0.010791711509227753
0.028352072462439537,0.004889361560344696,-0.019314618781208992,0.01351549755781889,-0.0006048891809768975,-0.010791711509227753
0.029519513249397278,0.005063275340944529,-0.018625780940055847,0.013215534389019012,-0.0005446732975542545,-0.010752382688224316
0.028845522552728653,0.005019180942326784,-0.01825054921209812,0.014240310527384281,-0.0005657831206917763,-0.01072616595774889
0.028826789930462837,0.004784178454428911,-0.018839232623577118,0.014235120266675949,-0.0005279813194647431,-0.010941226966679096
0.029505299404263496,0.004676110111176968,-0.018526343628764153,0.01437308732420206,-0.0005478277453221381,-0.010803522542119026
0.029377564787864685,0.005030196625739336,-0.01924777776002884,0.014352640137076378,-0.0005167261697351933,-0.010720077902078629
0.028911344707012177,0.004886047448962927,-0.019398527219891548,0.014116926118731499,-0.0004913340671919286,-0.010779326781630516
0.028770869597792625,0.00490659149363637,-0.018540874123573303,0.013731739483773708,-0.0004914543242193758,-0.010832666419446468
0.029023297131061554,0.005380368325859308,-0.019030427560210228,0.013935518451035023,-0.0004865064984187484,-0.01052116323262453
0.0296053234487772,0.0044562905095517635,-0.017907926812767982,0.013349615968763828,-0.0004827404918614775,-0.010978804901242256
0.02973569557070732,0.004867194686084986,-0.018161572515964508,0.01388833299279213,-0.0005085336160846055,-0.011053033173084259
0.02985580638051033,0.005018426571041346,-0.019644029438495636,0.014148561283946037,-0.0005870451568625867,-0.010795616544783115
0.029553864151239395,0.004457710310816765,-0.018918966874480247,0.014304002746939659,-0.0006117614102549851,-0.010935124941170216
0.02947038784623146,0.004458899609744549,-0.018738064914941788,0.014964580535888672,-0.0006454339018091559,-0.011446645483374596
0.029787831008434296,0.004940573591738939,-0.01897757314145565,0.015182629227638245,-0.0005827406421303749,-0.011419421061873436
0.029959600418806076,0.00497701158747077,-0.01876056380569935,0.01580183394253254,-0.0006076963618397713,-0.0111110620200634
0.029934028163552284,0.004724954720586538,-0.019072679802775383,0.015370186418294907,-0.0005976588581688702,-0.01164359413087368
0.03032432682812214,0.004800741095095873,-0.01906144991517067,0.01555338129401207,-0.0005844768602401018,-0.011450886726379395
0.030502934008836746,0.004808430094271898,-0.01880616322159767,0.015105793252587318,-0.0005860097007825971,-0.011440352536737919
0.030596936121582985,0.004906198009848595,-0.019300958141684532,0.014923634007573128,-0.0006109729874879122,-0.011403950862586498
0.028713705018162727,0.00510864844545722,-0.0188954696059227,0.014447829686105251,-0.0005943210562691092,-0.011215652339160442
0.03096800111234188,0.004834732972085476,-0.018751487135887146,0.015212584286928177,-0.0006215840694494545,-0.011147242039442062
0.03070833720266819,0.004764724988490343,-0.01933634653687477,0.014722674153745174,-0.0006466108607128263,-0.011221271939575672
0.030569855123758316,0.00471838703379035,-0.018990876153111458,0.014862196519970894,-0.0007904943777248263,-0.01148600596934557
0.030349940061569214,0.0050262766890227795,-0.01890449970960617,0.014505703002214432,-0.0007992124301381409,-0.011956145986914635
0.030349940061569214,0.0050262766890227795,-0.01890449970960617,0.014505703002214432,-0.0007992124301381409,-0.011956145986914635
0.030864611268043518,0.004799939226359129,-0.01924596168100834,0.014540646225214005,-0.000759284826926887,-0.011079380288720131
0.030667314305901527,0.004650949966162443,-0.01893547736108303,0.01478048600256443,-0.0007365605561062694,-0.010930223390460014
0.030667314305901527,0.004650949966162443,-0.01893547736108303,0.01478048600256443,-0.0007365605561062694,-0.010930223390460014
0.030987896025180817,0.004681737627834082,-0.019024645909667015,0.014266110956668854,-0.000707455154042691,-0.011328968219459057
0.031152183189988136,0.0047799875028431416,-0.01867777481675148,0.014871632680296898,-0.0006466901977546513,-0.011213477700948715
0.031296152621507645,0.004783154930919409,-0.01854744553565979,0.014534574933350086,-0.000606344488915056,-0.011507728137075901
0.031227510422468185,0.0056046596728265285,-0.019299739971756935,0.01488383486866951,-0.0005409046425484121,-0.011698098853230476
0.0318264476954937,0.0052764746360480785,-0.018759233877062798,0.014182253740727901,-0.0005662775947712362,-0.011445165611803532
0.03167559206485748,0.004758513066917658,-0.01910608820617199,0.014689520932734013,-0.0005226952489465475,-0.011618406511843204
0.03143225237727165,0.0047613475471735,-0.019498217850923538,0.014822190627455711,-0.0005354676977731287,-0.011636525392532349
0.031187672168016434,0.00516148004680872,-0.018944237381219864,0.01541054341942072,-0.0005101452115923166,-0.011688445694744587
0.032144851982593536,0.005188398063182831,-0.019014691933989525,0.01516733318567276,-0.0005479801911860704,-0.011885534040629864
0.0320359468460083,0.005321744829416275,-0.018953019753098488,0.015059161931276321,-0.0005302965873852372,-0.011763558723032475
0.030663901939988136,0.005040367599576712,-0.01934371329843998,0.01521717756986618,-0.0005591493099927902,-0.011789289303123951
0.030663901939988136,0.005040367599576712,-0.01934371329843998,0.01521717756986618,-0.0005591493099927902,-0.011789289303123951
0.032164234668016434,0.005142977926880121,-0.018765950575470924,0.01535799726843834,-0.0005883651319891214,-0.011630917899310589
0.0321686752140522,0.005309001076966524,-0.019358033314347267,0.01583390310406685,-0.0005770710413344204,-0.011556485667824745
0.03315829858183861,0.00515298917889595,-0.019924180582165718,0.015324854291975498,-0.0007216004887595773,-0.012049267068505287
0.03219131380319595,0.005316091701388359,-0.018885942175984383,0.015380460768938065,-0.0007529092254117131,-0.011671403422951698
0.03136499598622322,0.004997112788259983,-0.019476812332868576,0.014940474182367325,-0.0007714806706644595,-0.012155940756201744
0.030795520171523094,0.00482515525072813,-0.019361652433872223,0.015531386248767376,-0.0007856239681132138,-0.012377914041280746
0.03142474591732025,0.005512522999197245,-0.018384549766778946,0.014823042787611485,-0.0009040817967616022,-0.012358823791146278
0.032100409269332886,0.005295024253427982,-0.018800579011440277,0.015285574831068516,-0.000893349526450038,-0.01217199768871069
0.031107788905501366,0.005449564196169376,-0.019463328644633293,0.014773276634514332,-0.0007972121820785105,-0.012289686128497124
0.03242229297757149,0.005617676302790642,-0.019671892747282982,0.01516139879822731,-0.0006964915082789958,-0.012065109796822071
0.03291667252779007,0.005144053138792515,-0.019594376906752586,0.015199527144432068,-0.0007051869761198759,-0.011791272088885307
0.03291667252779007,0.005144053138792515,-0.019594376906752586,0.015199527144432068,-0.0007051869761198759,-0.011791272088885307
0.031778208911418915,0.005077583249658346,-0.0188183281570673,0.016018064692616463,-0.0006576774176210165,-0.011544279754161835
0.03252466768026352,0.005745909176766872,-0.01989533007144928,0.01608269102871418,-0.0006116466247476637,-0.01183488592505455
0.03252466768026352,0.005745909176766872,-0.01989533007144928,0.01608269102871418,-0.0006116466247476637,-0.01183488592505455
0.031957659870386124,0.005393723491579294,-0.020003383979201317,0.015606816858053207,-0.0005642756004817784,-0.012185136787593365
0.03194448724389076,0.004857195075601339,-0.019702957943081856,0.014927160926163197,-0.0005248101660981774,-0.012388508766889572
0.03235775977373123,0.004785242024809122,-0.01965203881263733,0.015135061927139759,-0.0004264813323970884,-0.012579665519297123
0.03268500417470932,0.005264123901724815,-0.019675910472869873,0.01453323196619749,-0.00038659494020976126,-0.012547934427857399
0.03218269348144531,0.005058493930846453,-0.019432077184319496,0.015097899362444878,-0.00042189686791971326,-0.01230884063988924
0.032191380858421326,0.005500216968357563,-0.019351402297616005,0.015249907039105892,-0.0003952931729145348,-0.012248513288795948
0.03387702256441116,0.005203342530876398,-0.019941989332437515,0.015746919438242912,-0.00040148128755390644,-0.01244201511144638
0.03321724757552147,0.005403975024819374,-0.019490860402584076,0.015763457864522934,-0.00042501979623921216,-0.01269276812672615
0.03118305839598179,0.005111983045935631,-0.019939295947551727,0.015593110583722591,-0.00040741125121712685,-0.012793485075235367
0.0325055867433548,0.005221037659794092,-0.019758302718400955,0.015902085229754448,-0.0004742664168588817,-0.013090942054986954
0.03348885476589203,0.005379555281251669,-0.019136056303977966,0.01663321442902088,-0.00045636724098585546,-0.012798123061656952
0.03273719921708107,0.00561950309202075,-0.019496429711580276,0.01625128835439682,-0.0004876450984738767,-0.01261607464402914
0.03402295336127281,0.005229247733950615,-0.01992832124233246,0.016452843323349953,-0.00045640519238077104,-0.012235527858138084
0.0337853766977787,0.005354136694222689,-0.019794149324297905,0.015900295227766037,-0.00048665274516679347,-0.01279413141310215
0.03242337703704834,0.005563367623835802,-0.019529875367879868,0.015936262905597687,-0.0005119771813042462,-0.012247512117028236
0.03153923898935318,0.005275591276586056,-0.019696246832609177,0.015245591290295124,-0.0005843780236318707,-0.012451865710318089
0.033467862755060196,0.005410165060311556,-0.019712086766958237,0.015983879566192627,-0.0006598570616915822,-0.012530369684100151
0.03403368592262268,0.00543326186016202,-0.019882934167981148,0.016178812831640244,-0.000639632809907198,-0.012727308087050915
0.033048782497644424,0.005491957068443298,-0.020047994330525398,0.01671765185892582,-0.0006452421075664461,-0.013393767178058624
0.033269356936216354,0.005565190222114325,-0.020029082894325256,0.01694861240684986,-0.0006049770745448768,-0.012796021066606045
0.0331871472299099,0.005511616822332144,-0.01981353759765625,0.016375089064240456,-0.0006212961161509156,-0.012204894796013832
0.03325023129582405,0.005484612192958593,-0.01977117918431759,0.01667785458266735,-0.0005805524997413158,-0.012433219701051712
0.03314690664410591,0.005646058823913336,-0.02005440555512905,0.01634303107857704,-0.0005830192239955068,-0.012797032482922077
0.03382933884859085,0.0052311597391963005,-0.01996729150414467,0.017525648698210716,-0.0005553161608986557,-0.012559846974909306
0.033588677644729614,0.0049058240838348866,-0.019955381751060486,0.01725422777235508,-0.0005889396998099983,-0.012980069033801556
0.033588677644729614,0.0049058240838348866,-0.019955381751060486,0.01725422777235508,-0.0005889396998099983,-0.012980069033801556
0.03338497132062912,0.005407298449426889,-0.019872426986694336,0.016784800216555595,-0.0005794973694719374,-0.012937008403241634
0.03353409841656685,0.005231047049164772,-0.019260533154010773,0.01699015125632286,-0.0005667483201250434,-0.012759505771100521
0.034100573509931564,0.005122338887304068,-0.01962084136903286,0.01611427403986454,-0.0005770485149696469,-0.012867799028754234
0.033937472850084305,0.005715517792850733,-0.019975459203124046,0.01616901345551014,-0.0005549507332034409,-0.013012714684009552
0.03418586775660515,0.005191401578485966,-0.019566217437386513,0.015643484890460968,-0.0006147270323708653,-0.013296077959239483
0.03449954837560654,0.00545499799773097,-0.020010892301797867,0.01600148156285286,-0.0006503278855234385,-0.01315196044743061
0.033684149384498596,0.0051596444100141525,-0.02022544853389263,0.016482574865221977,-0.0006336199585348368,-0.013337695971131325
0.03341498598456383,0.0054487865418195724,-0.02003282867372036,0.017025822773575783,-0.0006145795923657715,-0.013188522309064865
0.034883398562669754,0.005802068393677473,-0.020291512832045555,0.01718784123659134,-0.0006316770450212061,-0.013214454986155033
0.03485320135951042,0.005274786613881588,-0.020535293966531754,0.016819952055811882,-0.0005895497160963714,-0.012851238250732422
0.03445357456803322,0.0048739914782345295,-0.01982397772371769,0.0165545791387558,-0.0005628190701827407,-0.013128072954714298
0.034339096397161484,0.005230410490185022,-0.02038039267063141,0.01682591438293457,-0.0006425730534829199,-0.013156244531273842
0.03447958081960678,0.005499625112861395,-0.02079162746667862,0.016829730942845345,-0.0006712595350109041,-0.01341511681675911
0.03476862981915474,0.00537370890378952,-0.02004753239452839,0.01675628498196602,-0.0006573140271939337,-0.013207169249653816
0.03481922671198845,0.005289502441883087,-0.02032175101339817,0.01692860946059227,-0.0008848877623677254,-0.013254479505121708
0.03431287035346031,0.004977105651050806,-0.020857080817222595,0.016614466905593872,-0.0008997912518680096,-0.013291473500430584
0.03435423970222473,0.004783162847161293,-0.021331874653697014,0.016960401087999344,-0.0008433085167780519,-0.013343612663447857
0.03427658602595329,0.005143426358699799,-0.02022300846874714,0.016637619584798813,-0.000846194161567837,-0.013096887618303299
0.03576049208641052,0.005178069230169058,-0.020852139219641685,0.016741637140512466,-0.000890435534529388,-0.013109521009027958
0.03595713898539543,0.005061871837824583,-0.021078813821077347,0.016729727387428284,-0.000836001243442297,-0.01284394133836031
0.034090667963027954,0.005041169468313456,-0.01990707777440548,0.01651509292423725,-0.0007798304432071745,-0.013363009318709373
0.0336669497191906,0.004929621238261461,-0.020258018746972084,0.017138753086328506,-0.0007680098060518503,-0.013273845426738262
0.034853365272283554,0.004798443987965584,-0.02106618322432041,0.016850372776389122,-0.0007072670850902796,-0.01314679253846407
0.03515191376209259,0.004699477925896645,-0.020929869264364243,0.01706114411354065,-0.0007217355305328965,-0.0132425706833601
0.03615007922053337,0.005048793740570545,-0.01981886848807335,0.01718159206211567,-0.0006666611880064011,-0.013345862738788128
0.03619665279984474,0.004943526815623045,-0.020628994330763817,0.01708461530506611,-0.0005952724604867399,-0.013576587662100792
0.03461273014545441,0.004961236845701933,-0.0208581555634737,0.016939764842391014,-0.000603320193476975,-0.013454406522214413
0.03461273014545441,0.004961236845701933,-0.0208581555634737,0.016939764842391014,-0.000603320193476975,-0.013454406522214413
0.03604800999164581,0.004814263433218002,-0.020417043939232826,0.01707584597170353,-0.0005910173058509827,-0.013153137639164925
0.03604800999164581,0.004814263433218002,-0.020417043939232826,0.01707584597170353,-0.0005910173058509827,-0.013153137639164925
0.036118172109127045,0.004544136114418507,-0.02094760723412037,0.016952306032180786,-0.0006020666914992034,-0.013005244545638561
0.035483524203300476,0.004888344556093216,-0.020108556374907494,0.016755104064941406,-0.000572320306673646,-0.013095502741634846
0.03528014197945595,0.005524956155568361,-0.019825108349323273,0.016908107325434685,-0.0005327896797098219,-0.013165867887437344
0.035840656608343124,0.004957581404596567,-0.020356707274913788,0.01634776033461094,-0.0005604932084679604,-0.013206983916461468
0.035619448870420456,0.004675546661019325,-0.02121736668050289,0.01676776073873043,-0.0005904984427616,-0.013636183924973011
0.03582939878106117,0.004800898488610983,-0.020536115393042564,0.016549181193113327,-0.0006211447180248797,-0.013527723960578442
0.03534083068370819,0.005004269070923328,-0.020487552508711815,0.016983473673462868,-0.0006153418216854334,-0.013418253511190414
0.03582792356610298,0.004897484090179205,-0.020681725814938545,0.017101993784308434,-0.0006008492200635374,-0.013748830184340477
0.03594028949737549,0.0051424200646579266,-0.020788731053471565,0.01685718260705471,-0.0007072293083183467,-0.01372185442596674
0.03594452142715454,0.004766680765897036,-0.020411066710948944,0.016906600445508957,-0.0006826500175520778,-0.013569989241659641
0.03686341643333435,0.004972168244421482,-0.020767584443092346,0.017476070672273636,-0.0006123231141828001,-0.013557689264416695
0.035596199333667755,0.005047065671533346,-0.020535634830594063,0.018355827778577805,-0.0005502920830622315,-0.013737494125962257
0.03466014936566353,0.004746757447719574,-0.020489314571022987,0.01773051917552948,-0.0005710372934117913,-0.013792588375508785
0.03573628515005112,0.005408061668276787,-0.020941127091646194,0.018020490184426308,-0.0005324742523953319,-0.013828784227371216
0.03568900004029274,0.005155481863766909,-0.020706545561552048,0.017362307757139206,-0.0004915308672934771,-0.013939959928393364
0.03654690459370613,0.004876728635281324,-0.020146390423178673,0.017059290781617165,-0.0005038374220021069,-0.013695484027266502
0.036469101905822754,0.004642431624233723,-0.020698996260762215,0.01737692765891552,-0.00048479257384315133,-0.013697147369384766
0.03482284024357796,0.0039999778382480145,-0.02067459188401699,0.017477815970778465,-0.00043895767885260284,-0.013797789812088013
0.03461805358529091,0.003817074466496706,-0.020344307646155357,0.018144337460398674,-0.0004653082287404686,-0.014083589427173138
0.03675391525030136,0.003985248506069183,-0.0203939750790596,0.017918085679411888,-0.0004996099742129445,-0.013952767476439476
0.03648591414093971,0.004628044553101063,-0.020498979836702347,0.017406173050403595,-0.0005040530813857913,-0.014124209061264992
0.03598639369010925,0.004641647916287184,-0.020448703318834305,0.018080992624163628,-0.0004995537456125021,-0.013776488602161407
0.03620203956961632,0.00432422012090683,-0.020340586081147194,0.017954811453819275,-0.00046899524750187993,-0.014029975049197674
0.036214012652635574,0.0040487064979970455,-0.020491868257522583,0.018750108778476715,-0.0006604086956940591,-0.013835916295647621
0.036394909024238586,0.003986898809671402,-0.020431507378816605,0.018756529316306114,-0.0007094167522154748,-0.014167883433401585
0.03675749525427818,0.004077570047229528,-0.020158715546131134,0.017995549365878105,-0.000641331949736923,-0.01519381906837225
0.03682742267847061,0.0040602367371320724,-0.020655017346143723,0.01802016980946064,-0.0006628072005696595,-0.014578767120838165
0.03682742267847061,0.0040602367371320724,-0.020655017346143723,0.01802016980946064,-0.0006628072005696595,-0.014578767120838165
0.036255061626434326,0.00411088764667511,-0.020517490804195404,0.01806487701833248,-0.0006682145176455379,-0.013908672146499157
0.036248546093702316,0.004038881976157427,-0.02036755345761776,0.01812721975147724,-0.0006296276114881039,-0.01451563835144043
0.03706975653767586,0.003869483945891261,-0.020133020356297493,0.018450146540999413,-0.0006607953691855073,-0.014694937504827976
0.037465110421180725,0.003761280793696642,-0.020623354241251945,0.017962399870157242,-0.0006898941355757415,-0.014655622653663158
0.03711742162704468,0.003769972827285528,-0.020713690668344498,0.017762936651706696,-0.0006745929131284356,-0.01441419031471014
0.03724105656147003,0.003819023724645376,-0.020151721313595772,0.017921360209584236,-0.0006505011697299778,-0.01421887893229723
0.03776489570736885,0.0034503694623708725,-0.02067490853369236,0.01771371439099312,-0.0006542233750224113,-0.01415901631116867
0.03745013102889061,0.0035027151461690664,-0.020876457914710045,0.01761065050959587,-0.0006178210023790598,-0.01475081592798233
0.03783063217997551,0.0037978356704115868,-0.020782575011253357,0.01767364889383316,-0.0006687254062853754,-0.015362342819571495
0.03779469057917595,0.0038762600161135197,-0.020684510469436646,0.01776915043592453,-0.0006184770609252155,-0.015611782670021057
0.037477511912584305,0.0039705680683255196,-0.020906412973999977,0.017490722239017487,-0.0006423979066312313,-0.014971131458878517
0.03818565607070923,0.003469321643933654,-0.020778415724635124,0.017471084371209145,-0.0005880942335352302,-0.014715105295181274
0.03814677149057388,0.003583000972867012,-0.02134452760219574,0.01727081835269928,-0.0006095763528719544,-0.014975246042013168
