davideferrari95/blind_handover_controller/data/Test 9 - [2024-02-07 -- 13-10-58]/joint_states_data.csv
shoulder_pan_joint,shoulder_lift_joint,elbow_joint,wrist_1_joint,wrist_2_joint,wrist_3_joint
0.009653560817241669,0.0055894092656672,-0.008718392811715603,0.00372787332162261,0.00017538745305500925,0.010591046884655952
0.009653560817241669,0.0055894092656672,-0.008718392811715603,0.00372787332162261,0.00017538745305500925,0.010591046884655952
0.009541112929582596,0.005799415055662394,-0.009037853218615055,0.0033573817927390337,0.00019443602650426328,0.00992350559681654
0.009368622675538063,0.006346481386572123,-0.008826184086501598,0.0032699473667889833,0.00019189227896276861,0.009184153750538826
0.00925615057349205,0.006071443669497967,-0.008425883948802948,0.003023747820407152,0.0001864338555606082,0.009469793178141117
0.00925615057349205,0.006071443669497967,-0.008425883948802948,0.003023747820407152,0.0001864338555606082,0.009469793178141117
0.0102424006909132,0.005405663978308439,-0.009352749213576317,0.003227662993595004,0.00018108927179127932,0.00968540646135807
0.009358171373605728,0.005341057665646076,-0.008907338604331017,0.0033332244493067265,0.0001760300510795787,0.009761164896190166
0.009406809695065022,0.005563001614063978,-0.008658175356686115,0.003497923957183957,0.00017124458099715412,0.009690667502582073
0.009672340005636215,0.005721178837120533,-0.00835034903138876,0.0032645221799612045,0.0001873906294349581,0.009572982788085938
0.009337686002254486,0.006275760475546122,-0.008634823374450207,0.003060193732380867,0.00018541204917710274,0.009158046916127205
0.008920451626181602,0.005578265991061926,-0.008598457090556622,0.002950121182948351,0.00018093838298227638,0.009282675571739674
0.009235947392880917,0.005212484393268824,-0.00832025334239006,0.003007269697263837,0.00017651439702603966,0.009917359799146652
0.01004773285239935,0.004989704117178917,-0.0083899712190032,0.0033152156975120306,0.00017229135846719146,0.009620172902941704
0.009685320779681206,0.005622641649097204,-0.007836107164621353,0.0035682208836078644,0.00016442201740574092,0.009243521839380264
0.009607660584151745,0.005813250318169594,-0.007965128868818283,0.0033552912063896656,0.00017683727492112666,0.0094352588057518
0.009200545027852058,0.0052831233479082584,-0.008845800533890724,0.0035231956280767918,0.00017254626436624676,0.009832876734435558
0.009406867437064648,0.0048926942981779575,-0.007942575961351395,0.0036884869914501905,0.00016633063205517828,0.009777977131307125
0.009532173164188862,0.0052178483456373215,-0.0075321258045732975,0.0037324039731174707,0.00016041085473261774,0.009448006749153137
0.00980917178094387,0.005392182152718306,-0.008106320165097713,0.003324453253298998,0.00015488990175072104,0.009916858747601509
0.00969654880464077,0.0058706882409751415,-0.008776496164500713,0.0029698952566832304,0.0001497353077866137,0.009819240309298038
0.009320235811173916,0.005238543264567852,-0.007862922735512257,0.002988620661199093,0.00016636789951007813,0.009147503413259983
0.008990702219307423,0.005048689432442188,-0.007331143599003553,0.0031340064015239477,0.0001679783163126558,0.009052805602550507
0.010029005818068981,0.005389965604990721,-0.008151810616254807,0.003271473105996847,0.00016334018437191844,0.009221245534718037
0.011208927258849144,0.005234739743173122,-0.007859409786760807,0.003556544193997979,0.00015857229300308973,0.009176175110042095
0.009588073007762432,0.005982688628137112,-0.007678702473640442,0.0033663809299468994,0.00015405028534587473,0.009028783068060875
0.009184220805764198,0.005693905055522919,-0.00727220019325614,0.003469231305643916,0.00014977729006204754,0.009376989677548409
0.009883183985948563,0.005772412288933992,-0.007661532144993544,0.003134994301944971,0.00014573481166735291,0.009190253913402557
0.009883183985948563,0.005772412288933992,-0.007661532144993544,0.003134994301944971,0.00014573481166735291,0.009190253913402557
0.010784831829369068,0.005174407735466957,-0.007824119180440903,0.0031197448261082172,0.00014190480578690767,0.008707954548299313
0.010224474593997002,0.00490424782037735,-0.007485477719455957,0.00336145656183362,0.00015535097918473184,0.00944633036851883
0.00981268659234047,0.004881843458861113,-0.006876491010189056,0.0032959841191768646,0.00015689889551140368,0.009773073717951775
0.009898087941110134,0.005134123843163252,-0.007405373267829418,0.0034708804450929165,0.00015343166887760162,0.009607804007828236
0.010808899067342281,0.005617993418127298,-0.007663287688046694,0.0032387941610068083,0.0001498061465099454,0.010002700611948967
0.01019018329679966,0.005296983290463686,-0.007272480521351099,0.003185650799423456,0.00014632815145887434,0.009417777881026268
0.009559291414916515,0.004483918659389019,-0.006861010566353798,0.0032886466942727566,0.000153049681102857,0.009428726509213448
0.009774298407137394,0.004386356100440025,-0.007394133135676384,0.003998460713773966,0.00015913024253677577,0.009601602330803871
0.010696454904973507,0.004570123739540577,-0.007294794078916311,0.00408754451200366,0.00015629385598003864,0.009529810398817062
0.009430689737200737,0.0051015387289226055,-0.007315475959330797,0.0035233162343502045,0.0001530126464786008,0.009851565584540367
0.009837964549660683,0.004942205734550953,-0.007258196361362934,0.003330015344545245,0.0001498310884926468,0.009302090853452682
0.010407323949038982,0.004942544735968113,-0.007620446849614382,0.003324247431010008,0.00014677671424578875,0.009549612179398537
0.009846488013863564,0.004858304746448994,-0.007185932248830795,0.003556632436811924,0.00014400825602933764,0.009534710086882114
0.009856543503701687,0.004579820670187473,-0.0074818311259150505,0.0034308205358684063,0.00016322519513778389,0.009366855956614017
0.010671400465071201,0.00485390517860651,-0.008161766454577446,0.0031361670698970556,0.0001576297072460875,0.009084703400731087
0.010223381221294403,0.005313707981258631,-0.008030356839299202,0.002878370229154825,0.0001523022074252367,0.008753175847232342
0.009774189442396164,0.004949949681758881,-0.007051561959087849,0.003159233834594488,0.00014731603732798249,0.008772709406912327
0.010015297681093216,0.00473676435649395,-0.006997568998485804,0.0033421129919588566,0.00014264587662182748,0.008565741591155529
0.010578370653092861,0.00473817577585578,-0.00827764067798853,0.0031468081288039684,0.00015873878146521747,0.0088352644816041
0.009701856411993504,0.004761853255331516,-0.00774036068469286,0.0030307434499263763,0.00016050036356318742,0.009188665077090263
0.00955772865563631,0.004606038797646761,-0.007443110458552837,0.003291178261861205,0.00015627862012479454,0.009002371691167355
0.010413077659904957,0.004955145996063948,-0.007585512939840555,0.0031316648237407207,0.00015190972771961242,0.008783592842519283
0.009560910984873772,0.004949192050844431,-0.007729603908956051,0.0034387577325105667,0.0001477546466048807,0.008669357746839523
0.009374652989208698,0.004839744418859482,-0.007445813622325659,0.0041184453293681145,0.00014381922665052116,0.00858541764318943
0.010775664821267128,0.004277962259948254,-0.007574440445750952,0.0037757419049739838,0.0001400880719302222,0.008758872747421265
0.009950959123671055,0.0042734392918646336,-0.00678101135417819,0.003468873677775264,0.00013654569920618087,0.008159035816788673
0.009950959123671055,0.0042734392918646336,-0.00678101135417819,0.003468873677775264,0.00013654569920618087,0.008159035816788673
0.009723278693854809,0.0045912438072264194,-0.0073982845060527325,0.0032521840184926987,0.0001331779349129647,0.008491008542478085
0.010356012731790543,0.004813113249838352,-0.008787275291979313,0.0033598148729652166,0.000150184947415255,0.00878389086574316
0.009729774668812752,0.0047844648361206055,-0.008094971999526024,0.0032604059670120478,0.00014797566109336913,0.008502716198563576
0.009513705037534237,0.0043035936541855335,-0.007939249277114868,0.003765774192288518,0.00014466376160271466,0.008298812434077263
0.010431838221848011,0.004466130863875151,-0.008068207651376724,0.004161273129284382,0.0001414219441358,0.008308040909469128
0.009366447106003761,0.0045458427630364895,-0.008321725763380527,0.004056115169078112,0.00013831720571033657,0.008407040499150753
0.009666898287832737,0.004625527188181877,-0.007880162447690964,0.0037866742350161076,0.00013534569006878883,0.008461717516183853
0.010672708973288536,0.0046796053647994995,-0.008390875533223152,0.003619774477556348,0.00013249910261947662,0.008406874723732471
0.009756175801157951,0.00526778120547533,-0.007881460711359978,0.0032549172174185514,0.00012976974539924413,0.008233113214373589
0.009453767910599709,0.004946429748088121,-0.007830990478396416,0.0031816824339330196,0.0001271507062483579,0.007873041555285454
0.010592320933938026,0.004925154149532318,-0.007838430814445019,0.0032661627046763897,0.00012463511666283011,0.008041937835514545
0.009328166954219341,0.004819391295313835,-0.008612080477178097,0.003215775592252612,0.00011989129416178912,0.008078002370893955
0.010607738047838211,0.005060017574578524,-0.008031382225453854,0.0033902968280017376,0.00011765235831262544,0.00794054102152586
0.009661632589995861,0.0048961094580590725,-0.008810728788375854,0.0036616360303014517,0.0001154954225057736,0.007831634022295475
0.009504650719463825,0.004561904352158308,-0.008668468333780766,0.0035602650605142117,0.00011341623030602932,0.007980221882462502
0.010577075183391571,0.004665775690227747,-0.008195796981453896,0.00357328774407506,0.00011141048889840022,0.008270099759101868
0.009760446846485138,0.004707626067101955,-0.00890304520726204,0.003293106099590659,0.00010947461851174012,0.007916204631328583
0.009402825497090816,0.004839261993765831,-0.008966334164142609,0.0030946789775043726,0.00010760469740489498,0.008191770873963833
0.009573034942150116,0.004563892260193825,-0.00845478568226099,0.003316577523946762,0.00010579761874396354,0.007733279373496771
0.009627606719732285,0.004891620948910713,-0.00767865963280201,0.0032471208833158016,0.00010405023203929886,0.007953114807605743
0.00994979776442051,0.004832680802792311,-0.008352067321538925,0.003311239182949066,0.00010235977970296517,0.0076501090079545975
0.009808981791138649,0.0047615449875593185,-0.008532158099114895,0.0035256000701338053,0.00010072316217701882,0.007742760702967644
0.00961416307836771,0.005183389876037836,-0.008116167038679123,0.003684141905978322,0.0001123612528317608,0.007574019022285938
0.0095952358096838,0.005046590697020292,-0.008007938042283058,0.0036821700632572174,0.00011148426710860804,0.007484839763492346
0.009691234678030014,0.004796035122126341,-0.00889156199991703,0.0036084698513150215,0.00010983982792822644,0.007375285029411316
0.00943017564713955,0.004804323893040419,-0.00833548977971077,0.0035356220323592424,0.00010819287126651034,0.0074314577504992485
0.009427055716514587,0.005042070057243109,-0.008111149072647095,0.0035662485752254725,0.00010659145482350141,0.007062918972223997
0.009861993603408337,0.0048903245478868484,-0.008952348493039608,0.003467906266450882,0.00010503648081794381,0.007137731183320284
0.009861791506409645,0.00481279194355011,-0.008545218035578728,0.0035835180897265673,0.0001035262321238406,0.007320382632315159
0.009861791506409645,0.00481279194355011,-0.008545218035578728,0.0035835180897265673,0.0001035262321238406,0.007320382632315159
0.010478262789547443,0.0049739922396838665,-0.00816278625279665,0.00339182885363698,0.00010205873695667833,0.00772674847394228
0.01006554625928402,0.0049052475951612,-0.008182420395314693,0.0034806823823601007,0.00010063229274237528,0.007023816462606192
0.009713138453662395,0.00481774564832449,-0.008510475978255272,0.00390516291372478,9.924520418280736e-05,0.006897671613842249
0.010126695968210697,0.005097035318613052,-0.008130480535328388,0.004187831189483404,9.789583418751135e-05,0.006888559553772211
0.009517623111605644,0.00485689751803875,-0.008057886734604836,0.003620621981099248,9.658256749389693e-05,0.0073175206780433655
0.009732261300086975,0.004446240607649088,-0.008464637212455273,0.00357336038723588,9.530424722470343e-05,0.007667213212698698
0.00924384593963623,0.004560472443699837,-0.008504879660904408,0.003754677250981331,9.40592071856372e-05,0.007485715672373772
0.010430220514535904,0.0050544762052595615,-0.008071810007095337,0.0034309779293835163,9.284626139560714e-05,0.007057312875986099
0.009813426993787289,0.00502984831109643,-0.007955506443977356,0.0032067676074802876,9.166428935714066e-05,0.006768096704035997
0.009999477304518223,0.004888847935944796,-0.008864021860063076,0.003990866709500551,9.051190863829106e-05,0.007074764929711819
0.009613190777599812,0.004502748139202595,-0.00782173965126276,0.0038321351166814566,8.829218131722882e-05,0.007620038464665413
0.009876798838376999,0.0045624468475580215,-0.007998856715857983,0.0036292041186243296,8.722256461624056e-05,0.006859027314931154
0.009705852717161179,0.004519323352724314,-0.008114687167108059,0.0036372689064592123,8.617861749371514e-05,0.006383157800883055
0.009470807388424873,0.004772782791405916,-0.008217514492571354,0.0036880094558000565,8.515931403962895e-05,0.006292731035500765
0.0105059202760458,0.00526060676202178,-0.007828552275896072,0.0036709296982735395,8.416386117460206e-05,0.006469608750194311
0.010253318585455418,0.004654587246477604,-0.00871759932488203,0.003609583480283618,8.319141488755122e-05,0.006803503260016441
0.010249605402350426,0.00444385502487421,-0.008364403620362282,0.0036657233722507954,8.224124030675739e-05,0.006915343925356865
0.010073704645037651,0.0046814484521746635,-0.008296755142509937,0.004254376981407404,8.131242066156119e-05,0.006682574283331633
0.010166839696466923,0.005221146624535322,-0.007991605438292027,0.004114208277314901,8.040444663492963e-05,0.006563056726008654
0.010614603757858276,0.004965140018612146,-0.008779644034802914,0.0039053044747561216,7.951648876769468e-05,0.006455333903431892
0.010287554934620857,0.004909159149974585,-0.008891516365110874,0.0038363283965736628,5.191858235775726e-06,0.006807773839682341
0.010287554934620857,0.004909159149974585,-0.008891516365110874,0.0038363283965736628,5.191858235775726e-06,0.006807773839682341
0.010530740953981876,0.005162128247320652,-0.008034897036850452,0.00387008348479867,3.3899121376634866e-07,0.006610851269215345
0.010165732353925705,0.004838631488382816,-0.008353079669177532,0.0038540747482329607,2.213370464687614e-08,0.006326538976281881
0.010696169920265675,0.004878858104348183,-0.008260803297162056,0.0034049097448587418,1.4451727592401653e-09,0.00626258784905076
0.010686568915843964,0.004938760306686163,-0.008324573747813702,0.0035285234916955233,9.435945774738386e-11,0.006240688730031252
0.01017309632152319,0.004804764408618212,-0.008535841479897499,0.003728816518560052,6.160997927107115e-12,0.006572064943611622
0.010459777899086475,0.004898690618574619,-0.008683407679200172,0.004130029585212469,4.0226911970746293e-13,0.006219801958650351
0.010705034248530865,0.0050722029991447926,-0.008213156834244728,0.0039019507821649313,2.6265300766032014e-14,0.005910459905862808
0.011178758926689625,0.00487939128652215,-0.007577233016490936,0.003574793692678213,1.714936362812473e-15,0.005566336680203676
0.010516811162233353,0.004773340653628111,-0.0088272700086236,0.0035929030273109674,1.119730969458086e-16,0.005780513864010572
0.010637517087161541,0.005103801842778921,-0.008206363767385483,0.003353299805894494,7.311043288675448e-18,0.006452483590692282
0.01034639123827219,0.004926426336169243,-0.007957221940159798,0.0034483044873923063,4.773589004691456e-19,0.0059308381751179695
0.010507071390748024,0.0046090115793049335,-0.00795959122478962,0.0036922553554177284,3.11681234757326e-20,0.005440345034003258
0.010379605926573277,0.004920876119285822,-0.008229470811784267,0.004315012600272894,1.328746075374982e-22,0.006050705909729004
0.010885341092944145,0.004760160110890865,-0.008273352868855,0.004202384036034346,8.675762073571326e-24,0.0060780770145356655
0.010211462154984474,0.005073086824268103,-0.008084181696176529,0.0039876913651824,5.664652388211042e-25,0.005910777952522039
0.010817338712513447,0.005021377932280302,-0.00867029745131731,0.003876789938658476,3.698613489025184e-26,0.005477746017277241
0.010877861641347408,0.004872726742178202,-0.00801375787705183,0.004037188366055489,2.414930490614955e-27,0.005456738173961639
0.010170876048505306,0.004718372598290443,-0.00796343944966793,0.0041605751030147076,1.5767769010630586e-28,0.005143487360328436
0.010398069396615028,0.005027406848967075,-0.008399344980716705,0.004064833279699087,1.0295226284275719e-29,0.005469872150570154
0.01030049566179514,0.005079349502921104,-0.008158719167113304,0.0035795557778328657,6.72204798825634e-31,0.005276642739772797
0.010243529453873634,0.004717662930488586,-0.00822416227310896,0.003494771895930171,4.389016726062101e-32,0.005310182459652424
0.010826840065419674,0.004854511469602585,-0.00801069661974907,0.0041862609796226025,2.8657141679826383e-33,0.005250338464975357
0.010155334137380123,0.004819509573280811,-0.00864423718303442,0.00411537429317832,1.8711065638626892e-34,0.0051673599518835545
0.01128340046852827,0.004881557542830706,-0.008276599459350109,0.003868906991556287,1.221698941333814e-35,0.005233973730355501
0.009989015758037567,0.004841045010834932,-0.008172577247023582,0.0037634095642715693,7.97682043431091e-37,0.005219141021370888
0.01014235895127058,0.004935938399285078,-0.008465900085866451,0.004066415596753359,5.208294003899607e-38,0.004819126799702644
0.010128682479262352,0.004844549112021923,-0.008380807004868984,0.004146793391555548,3.400644488552644e-39,0.004479432478547096
0.01057609636336565,0.004556338768452406,-0.008277860470116138,0.003904470009729266,2.220371429707316e-40,0.004409424029290676
0.01057609636336565,0.004556338768452406,-0.008277860470116138,0.003904470009729266,2.220371429707316e-40,0.004409424029290676
0.010267331264913082,0.005385941825807095,-0.008395185694098473,0.0036619524471461773,9.472777618835763e-43,0.004557386972010136
0.010267331264913082,0.005385941825807095,-0.008395185694098473,0.0036619524471461773,9.472777618835763e-43,0.004557386972010136
0.011052745394408703,0.005021483637392521,-0.008402718231081963,0.004170120228081942,6.165713243029195e-44,0.004354871343821287
0.010049381293356419,0.0048285918310284615,-0.007942910306155682,0.004037098027765751,4.203895392974451e-45,0.004015295300632715
0.010191180743277073,0.004804207943379879,-0.008761167526245117,0.0041600619442760944,0.0,0.004095221403986216
0.010239348746836185,0.005091200582683086,-0.008469866588711739,0.004256312269717455,0.0,0.0041586910374462605
0.010277621448040009,0.005583915393799543,-0.00817943550646305,0.0040986789390444756,0.0,0.0047550927847623825
0.010856677778065205,0.005194703117012978,-0.007885691709816456,0.003986346069723368,2.4201133783208206e-05,0.0045636738650500774
0.010220358148217201,0.004781119525432587,-0.00870455987751484,0.004048990085721016,1.580161210767983e-06,0.004530003760010004
0.009786139242351055,0.004912127740681171,-0.008012655191123486,0.0038891653530299664,1.0317323528852285e-07,0.0042703766375780106
0.010435784235596657,0.00489658722653985,-0.007827166467905045,0.004132336471229792,6.736474933433101e-09,0.004318881779909134
0.010016776621341705,0.004727588966488838,-0.008251741528511047,0.004115299787372351,4.398436892483204e-10,0.004205149132758379
0.01107274554669857,0.0045948270708322525,-0.008032148703932762,0.004274025559425354,1.8751226699836865e-12,0.0035503683611750603
0.010222462937235832,0.003965436015278101,-0.007964814081788063,0.004397012759000063,1.224321073125742e-13,0.0036051508504897356
0.010411864146590233,0.0033277354668825865,-0.008775151334702969,0.004285150207579136,7.99394120234824e-15,0.0038150602485984564
0.010879009030759335,0.0032930627930909395,-0.008442402817308903,0.004009714350104332,5.219472607518162e-16,0.0036548487842082977
0.010163925588130951,0.003633815096691251,-0.008064362220466137,0.004254281520843506,3.4079424338156013e-17,0.003500736551359296
0.010564809665083885,0.004352798219770193,-0.008287066593766212,0.004156734794378281,2.2251429379327056e-18,0.0032148307655006647
0.010479890741407871,0.004178299102932215,-0.008376209996640682,0.004408018197864294,1.452859510900255e-19,0.0034672648180276155
0.010201413184404373,0.004024961031973362,-0.008154545910656452,0.004546512383967638,9.486134729739398e-21,0.0032866664696484804
0.010867930948734283,0.003972234670072794,-0.008170600049197674,0.004361143335700035,6.193767776851445e-22,0.003068848978728056
0.011192694306373596,0.00387562089599669,-0.009099815040826797,0.004439558833837509,4.044087857550827e-23,0.0028813881799578667
0.010033906437456608,0.003881519427523017,-0.008653067983686924,0.004442321136593819,2.6405002682895115e-24,0.002816819353029132
0.01011164952069521,0.0039346711710095406,-0.007802669890224934,0.004175064619630575,1.7240579735508501e-25,0.002903459593653679
0.010554613545536995,0.003488878719508648,-0.008212439715862274,0.004256369546055794,1.1256867161576977e-26,0.002973510418087244
0.010265177115797997,0.0034952370915561914,-0.008710772730410099,0.004271293990314007,7.349929335659925e-28,0.003141379915177822
0.010694209486246109,0.0035812349524348974,-0.007408634293824434,0.00450544711202383,4.79897897142409e-29,0.0031980942003428936
0.010895887389779091,0.004230234306305647,-0.008847369812428951,0.004518219269812107,3.1333902183880443e-30,0.0028784482274204493
0.010895887389779091,0.004230234306305647,-0.008847369812428951,0.004518219269812107,3.1333902183880443e-30,0.0028784482274204493
0.010919594205915928,0.003610050305724144,-0.008653873577713966,0.004361853003501892,1.335813413175216e-32,0.0024629628751426935
0.010919594205915928,0.003610050305724144,-0.008653873577713966,0.004361853003501892,1.335813413175216e-32,0.0024629628751426935
0.010541209951043129,0.0033065243624150753,-0.00788429006934166,0.0044869412668049335,8.721906351937323e-34,0.002377438126131892
0.010892819613218307,0.003392699873074889,-0.009051741100847721,0.004834400024265051,5.694782253660644e-35,0.002296275459229946
0.01095714420080185,0.0037028274964541197,-0.00869760848581791,0.004816965665668249,3.7182857909817096e-36,0.0024219220504164696
0.010105802677571774,0.003777233185246587,-0.008294508792459965,0.004821202717721462,2.427775149126735e-37,0.002672096248716116
0.010534018278121948,0.0035427454859018326,-0.00827728770673275,0.004649997688829899,1.5851635364781085e-38,0.0026187035255134106
0.010638878680765629,0.0035262738820165396,-0.008715189062058926,0.0044034318998456,1.0349990457503099e-39,0.002611730247735977
0.010588089935481548,0.0037613369058817625,-0.008657325990498066,0.0044485172256827354,6.75776184420643e-41,0.0022825105115771294
0.010725096799433231,0.0038933984469622374,-0.008296935819089413,0.004260390531271696,4.412688864158849e-42,0.002298492006957531
0.011009433306753635,0.0037266863510012627,-0.009017040953040123,0.005069205071777105,1.8216880036222622e-44,0.002164409263059497
0.010871168226003647,0.0033304118551313877,-0.00860101729631424,0.0052930130623281,-0.0004200167313683778,0.002259894274175167
0.010595587082207203,0.0035207897890359163,-0.008134725503623486,0.0052252099849283695,-0.0004976043710485101,0.0020542379934340715
0.01085108332335949,0.004044884815812111,-0.008846074342727661,0.005169819109141827,-0.0005346478428691626,0.0020668075885623693
0.010938922874629498,0.004221808165311813,-0.009029923938214779,0.004673763178288937,-0.0005639686132781208,0.0018999635940417647
0.011078649200499058,0.004093645606189966,-0.00826612114906311,0.004561285488307476,-0.000828502350486815,0.0018093240214511752
0.011249986477196217,0.003985216375440359,-0.008975421078503132,0.004998978227376938,-0.0007836694130674005,0.001743340864777565
0.011172008700668812,0.0034753947984427214,-0.008790790103375912,0.005100187845528126,-0.000797076674643904,0.0015558237209916115
0.011469417251646519,0.003572933143004775,-0.008160928264260292,0.004945353604853153,-0.0007018355536274612,0.0015264323446899652
0.011382177472114563,0.0037866896018385887,-0.008462298661470413,0.00501383189111948,-0.0006214482127688825,0.0014510046457871795
0.011055863462388515,0.0038498120848089457,-0.009030056186020374,0.004563263151794672,-0.0006433480302803218,0.0012923504691570997
0.01161764282733202,0.004314247984439135,-0.008830897510051727,0.004479800350964069,-0.0006503928452730179,0.0012016131076961756
0.010964419692754745,0.004134348593652248,-0.00898880697786808,0.004260630812495947,-0.0006142421043477952,0.0011667257640510798
0.011228330433368683,0.0035207958426326513,-0.00922981183975935,0.004914930090308189,-0.000543328293133527,0.0012466378975659609
0.011419235728681087,0.0035924885887652636,-0.009263203479349613,0.005061555188149214,-0.00048122130101546645,0.0013658690731972456
0.011199822649359703,0.0037510402034968138,-0.00841068010777235,0.0049027795903384686,-0.0005092122592031956,0.0013013991992920637
0.011199822649359703,0.0037510402034968138,-0.00841068010777235,0.0049027795903384686,-0.0005092122592031956,0.0013013991992920637
0.012235341593623161,0.003469303948804736,-0.009386774152517319,0.004153979942202568,-0.000504441384691745,0.001090616569854319
0.012235341593623161,0.003469303948804736,-0.009386774152517319,0.004153979942202568,-0.000504441384691745,0.001090616569854319
0.01162325032055378,0.0035439024213701487,-0.008820879273116589,0.004289041738957167,-0.0005292837740853429,0.0008954346994869411
0.01185635570436716,0.0036858459934592247,-0.009037578478455544,0.005027757957577705,-0.0005972585058771074,0.0008852192549966276
0.01142707746475935,0.003705336945131421,-0.009797417558729649,0.00519170006737113,-0.0006098104640841484,0.0007680571870878339
0.01194835640490055,0.003728429786860943,-0.009028631262481213,0.004996926989406347,-0.0006428806227631867,0.00067271658917889
0.01158070471137762,0.0037610186263918877,-0.009786197915673256,0.004710811655968428,-0.0006638846243731678,0.0006707981810905039
0.011805477552115917,0.004136194009333849,-0.00956612266600132,0.00462325569242239,-0.0006532818078994751,0.0006263276445679367
0.012181139551103115,0.004220068454742432,-0.009146420285105705,0.004596235230565071,-0.0006344873108901083,0.0005709623801521957
0.012298043817281723,0.0035704493056982756,-0.008837459608912468,0.004635396413505077,-0.0007134494371712208,0.0005784087697975338
0.012383623979985714,0.003541046753525734,-0.00939976517111063,0.00502354558557272,-0.0007267625187523663,0.0005511079216375947
0.01242806389927864,0.004038427956402302,-0.009207624942064285,0.004923317115753889,-0.0006866477779112756,0.00047886872198432684
0.012464942410588264,0.00408513518050313,-0.009605348110198975,0.0047043995000422,-0.000667623127810657,0.000448994425823912
0.012251893058419228,0.004041727632284164,-0.009115844964981079,0.004684304818511009,-0.0006467868224717677,0.00042262731585651636
0.012530959211289883,0.003997899126261473,-0.008799182251095772,0.00464432081207633,-0.0005999885615892708,0.00039918505353853106
0.011802300810813904,0.0034871334210038185,-0.009683438576757908,0.005216125398874283,-0.0005780154606327415,0.00037820820580236614
0.011988066136837006,0.003386839758604765,-0.009620795026421547,0.005512131378054619,-0.0005153491511009634,0.00035932668833993375
0.012216501869261265,0.003459411673247814,-0.009242496453225613,0.005505821667611599,-0.0005483026034198701,0.0003422412264626473
0.012836260721087456,0.0036138726864010096,-0.009392566047608852,0.005251951515674591,-0.0005642010364681482,0.0003267077263444662
0.012349013239145279,0.0036144275218248367,-0.009047403000295162,0.004505932331085205,-0.0005355290486477315,0.0003125231887679547
0.012660196051001549,0.0034085542429238558,-0.008963704109191895,0.004519360139966011,-0.0005603820900432765,0.00029951927717775106
0.013035045005381107,0.0034492232371121645,-0.010700754821300507,0.005147174000740051,-0.0006290448363870382,0.0002875546633731574
0.012626041658222675,0.0036540385335683823,-0.009756110608577728,0.005017649848014116,-0.0006654859171248972,0.0002465423312969506
0.012783078476786613,0.0037836444098502398,-0.009366041049361229,0.004739922937005758,-0.000678884272929281,0.00023329594114329666
0.012783078476786613,0.0037836444098502398,-0.009366041049361229,0.004739922937005758,-0.000678884272929281,0.00023329594114329666
0.012932411395013332,0.003546301042661071,-0.009786688722670078,0.004845276940613985,-0.0006340245017781854,0.000224704563152045
0.01324011106044054,0.0034720581024885178,-0.009531432762742043,0.004904292058199644,-0.0006484498735517263,0.00021694829047191888
0.012872273102402687,0.0031771508511155844,-0.009387983940541744,0.005159300286322832,-0.0006955584394745529,0.0001403934438712895
0.012381261214613914,0.003415200160816312,-0.009703045710921288,0.005471538286656141,-0.0006812420906499028,7.011158595560119e-05
0.012938973493874073,0.0030692648142576218,-0.009910877794027328,0.005339482799172401,-0.0006537152221426368,6.339226092677563e-05
0.013320268131792545,0.0032093720510601997,-0.009010357782244682,0.004908947739750147,-0.0006284164846874774,3.4532389690866694e-05
0.013591751456260681,0.0033688100520521402,-0.009561658836901188,0.004687505774199963,-0.0006111860857345164,2.9740225727437064e-05
0.013364022597670555,0.0035991657059639692,-0.010058320127427578,0.004808325320482254,-0.0005944750737398863,3.7937425076961517e-06
0.013747671619057655,0.003464472945779562,-0.009146535769104958,0.005502576474100351,-0.0006180358468554914,2.4770429263298865e-07
0.013047447428107262,0.003422421170398593,-0.009898403659462929,0.005384846590459347,-0.0006152665591798723,1.617332046066622e-08
0.013365685008466244,0.003395611187443137,-0.008908276446163654,0.004938288126140833,-0.0006660283543169498,6.894940174362318e-11
0.013577337376773357,0.003156881546601653,-0.009280477650463581,0.004933019168674946,-0.0006669742288067937,4.5019031905124685e-12
0.013424285687506199,0.003192974254488945,-0.009715658612549305,0.005210521165281534,-0.0006474727997556329,-0.0007968586287461221
0.01394576020538807,0.0032500075176358223,-0.00973394326865673,0.005593567155301571,-0.0007971731829456985,-0.0013743436429649591
0.01389075256884098,0.003570358967408538,-0.009716867469251156,0.005522805266082287,-0.000835718703456223,-0.0016502788057550788
0.013931083492934704,0.003783934284001589,-0.009500979445874691,0.0049452888779342175,-0.0007911435095593333,-0.001811038120649755
0.01352023333311081,0.0038220963906496763,-0.009485125541687012,0.0047879707999527454,-0.0007491321885026991,-0.0017152659129351377
0.01422023493796587,0.0033992973621934652,-0.010182569734752178,0.005502563435584307,-0.0007552104652859271,-0.0016745406901463866
0.014053432270884514,0.003565792925655842,-0.010265576653182507,0.005382719449698925,-0.0006990034598857164,-0.0017083522398024797
0.014137178659439087,0.003451707074418664,-0.009312589652836323,0.005476700142025948,-0.0007321786833927035,-0.002071394817903638
0.014144368469715118,0.0034273501951247454,-0.009102730080485344,0.005808362737298012,-0.0007542670355178416,-0.0024434810038655996
0.014496780931949615,0.0031776558607816696,-0.009669193997979164,0.005945514887571335,-0.000797069224063307,-0.0026275645941495895
0.014245427213609219,0.0032475031912326813,-0.009954849258065224,0.0053874715231359005,-0.0010214297799393535,-0.0029325750656425953
0.014261019416153431,0.0034849182702600956,-0.009836062788963318,0.004995710216462612,-0.0012143143685534596,-0.0029100056272000074
0.013843546621501446,0.0036450636107474566,-0.010173122398555279,0.005560819525271654,-0.0011960890842601657,-0.0025224045384675264
0.014073277823626995,0.0035711464006453753,-0.009435754269361496,0.005610973574221134,-0.0014648135984316468,-0.00246338895522058
0.014191544614732265,0.0033635885920375586,-0.009476234205067158,0.005717955529689789,-0.0015032119117677212,-0.0025839200243353844
0.01402974408119917,0.0031153459567576647,-0.009894856251776218,0.005451835226267576,-0.0013606902211904526,-0.003730342024937272
0.013982780277729034,0.003407680196687579,-0.009412916377186775,0.0058390116319060326,-0.0013867974048480392,-0.004733589477837086
0.013982780277729034,0.003407680196687579,-0.009412916377186775,0.0058390116319060326,-0.0013867974048480392,-0.004733589477837086
0.014334732666611671,0.0033641536720097065,-0.009733128361403942,0.005659653339534998,-0.0013182726688683033,-0.0050056129693984985
0.013984039425849915,0.0030281608924269676,-0.00930014532059431,0.0057327901013195515,-0.001321597141213715,-0.0038123696576803923
0.013984039425849915,0.0030281608924269676,-0.00930014532059431,0.0057327901013195515,-0.001321597141213715,-0.0038123696576803923
0.014084605500102043,0.003264955710619688,-0.009538192301988602,0.005712930578738451,-0.001258412841707468,-0.003754048142582178
0.014189685694873333,0.0034801275469362736,-0.00985236931592226,0.00526113947853446,-0.0012162113562226295,-0.003971216268837452
0.014438748359680176,0.0034524209331721067,-0.009507176466286182,0.005176921840757132,-0.0012403157306835055,-0.00458596833050251
0.014674450270831585,0.0033077721018344164,-0.010692974552512169,0.005659399554133415,-0.001178036560304463,-0.00479819905012846
0.014607296325266361,0.0033897515386343002,-0.009900625795125961,0.006316651124507189,-0.0011313864961266518,-0.005801946856081486
0.014657111838459969,0.0036589407827705145,-0.00909578800201416,0.006153740454465151,-0.0010360722662881017,-0.005474753677845001
0.014401205815374851,0.0034683095291256905,-0.009572235867381096,0.005920299794524908,-0.0009099040762521327,-0.00528611009940505
0.014453250914812088,0.00292575778439641,-0.00934563297778368,0.005713426973670721,-0.0009683811804279685,-0.0053746323101222515
0.014647476375102997,0.0031705577857792377,-0.009304999373853207,0.006077338941395283,-0.0010413776617497206,-0.005975374020636082
0.014720410108566284,0.0035677747800946236,-0.009699223563075066,0.006195304449647665,-0.0010997180361300707,-0.006512653548270464
0.014853892847895622,0.0036961459554731846,-0.009674159809947014,0.0055040097795426846,-0.001091596088372171,-0.006311871111392975
0.014987759292125702,0.003663163399323821,-0.00977795384824276,0.00529605895280838,-0.001064377836883068,-0.006375892553478479
0.014852491207420826,0.0032904460094869137,-0.010045339353382587,0.005810657516121864,-0.0010514762252569199,-0.005979267880320549
0.014676501974463463,0.0034035281278192997,-0.009731605648994446,0.006477629765868187,-0.001019965042360127,-0.006306601222604513
0.01492619514465332,0.003233551047742367,-0.010518655180931091,0.006533794105052948,-0.0009999963222071528,-0.006297159940004349
0.014872141182422638,0.0034717090893536806,-0.010042340494692326,0.006233152933418751,-0.0009858194971457124,-0.006442290730774403
0.01529204472899437,0.00311574200168252,-0.009429743513464928,0.005984387826174498,-0.0009962867479771376,-0.007556624244898558
0.01545002218335867,0.0032958209048956633,-0.01042298972606659,0.00657804636284709,-0.0010085331741720438,-0.007810111157596111
0.015295213088393211,0.003365339944139123,-0.010007430799305439,0.006639743689447641,-0.0009830647613853216,-0.007701272610574961
0.014795112423598766,0.0030981632880866528,-0.009598287753760815,0.006774465553462505,-0.0009710229351185262,-0.0075225322507321835
0.01518151443451643,0.003347942838445306,-0.010201189666986465,0.0059516215696930885,-0.0009639068157412112,-0.008042535744607449
0.01472822017967701,0.003719629719853401,-0.009929659776389599,0.005792735144495964,-0.001056881621479988,-0.0080594876781106
0.015185235999524593,0.0034294503275305033,-0.009210724383592606,0.006250046659260988,-0.001039688242599368,-0.008045453578233719
0.0146859185770154,0.003557964926585555,-0.009927898645401001,0.006828195881098509,-0.0009646644466556609,-0.007853256538510323
0.015142282471060753,0.003176254453137517,-0.011016646400094032,0.006144093815237284,-0.0010886855889111757,-0.007756705395877361
0.01547503937035799,0.003175993449985981,-0.010032450780272484,0.005767281632870436,-0.0009856008691713214,-0.008110766299068928
0.015852568671107292,0.0032920660451054573,-0.009855260141193867,0.005552165675908327,-0.0009674002067185938,-0.008405889384448528
0.015531940385699272,0.0036281058564782143,-0.010221526026725769,0.006256638094782829,-0.0009579143370501697,-0.008810150437057018
0.015531940385699272,0.0036281058564782143,-0.010221526026725769,0.006256638094782829,-0.0009579143370501697,-0.008810150437057018
0.015363811515271664,0.0034033479169011116,-0.009308094158768654,0.006679154932498932,-0.000926917651668191,-0.008519694209098816
0.015356415882706642,0.0036006506998091936,-0.010249411687254906,0.006362490355968475,-0.0010019192704930902,-0.008732955902814865
0.015325834043323994,0.003322076052427292,-0.010139893740415573,0.005582897458225489,-0.0010255164233967662,-0.00853945966809988
0.015365325845777988,0.00354915764182806,-0.009555919095873833,0.005677605047821999,-0.0010659232502803206,-0.008258067071437836
0.015468082390725613,0.003180521074682474,-0.010269253514707088,0.005969346966594458,-0.0011376795591786504,-0.008482965640723705
0.015566729009151459,0.003260467667132616,-0.009876932017505169,0.006461315788328648,-0.0011021787067875266,-0.0087389862164855
0.016234016045928,0.0031640890520066023,-0.009774364531040192,0.0052171312272548676,-0.0009980497416108847,-0.008944828063249588
0.01436263881623745,0.0030663874931633472,-0.009974043816328049,0.006203670520335436,-0.0009864727035164833,-0.009392425417900085
0.015427670441567898,0.002892961958423257,-0.009443995542824268,0.006842555943876505,-0.000973054557107389,-0.009637484326958656
0.015546838752925396,0.0030679062474519014,-0.00963198859244585,0.006396770942956209,-0.0009793030330911279,-0.009891360998153687
0.016052454710006714,0.002988270716741681,-0.009495151229202747,0.0061716241762042046,-0.0010366507340222597,-0.00994214415550232
0.015522443689405918,0.003177905920892954,-0.008488547056913376,0.006382536143064499,-0.0011108708567917347,-0.010666342452168465
0.015972036868333817,0.0031116243917495012,-0.010816357098519802,0.0069658695720136166,-0.0011198701104149222,-0.010478250682353973
0.015671392902731895,0.0035440765786916018,-0.010744955390691757,0.0065239532850682735,-0.0011737127788364887,-0.00973411463201046
0.015657629817724228,0.0032033449970185757,-0.009301543235778809,0.006132085807621479,-0.0012612673453986645,-0.009784123860299587
0.015868529677391052,0.0032526501454412937,-0.009300780482590199,0.006226853467524052,-0.0012060325825586915,-0.010799911804497242
0.015608232468366623,0.0033245328813791275,-0.009267237037420273,0.006617952138185501,-0.0011860945960506797,-0.011142991483211517
0.01572730951011181,0.003115277271717787,-0.010125776752829552,0.0065545858815312386,-0.0011679260060191154,-0.011131740175187588
0.015365222468972206,0.0031370455399155617,-0.01021311804652214,0.006286895368248224,-0.0011432465398684144,-0.011129936203360558
0.016207678243517876,0.003277828451246023,-0.009851074777543545,0.006017025094479322,-0.0011065814178436995,-0.010581962764263153
0.01573598012328148,0.003012832487002015,-0.00984057318419218,0.006110541522502899,-0.0010250112973153591,-0.01097950804978609
0.01611611805856228,0.0030718939378857613,-0.010085242800414562,0.006209704093635082,-0.00103035569190979,-0.011636698618531227
0.015774471685290337,0.0033169619273394346,-0.010631566867232323,0.006662163883447647,-0.0010210705222561955,-0.011605833657085896
0.01599254086613655,0.00322423386387527,-0.009594936855137348,0.006824393756687641,-0.0010150013258680701,-0.011725364252924919
0.016337597742676735,0.0030834414064884186,-0.010192289017140865,0.006434774491935968,-0.0012089184019714594,-0.011280237697064877
0.016261693090200424,0.0030328042339533567,-0.009700866416096687,0.006142422556877136,-0.0011872593313455582,-0.011501451954245567
0.01607717014849186,0.0030354640912264585,-0.009329423308372498,0.006609342060983181,-0.0013095972826704383,-0.011718987487256527
0.01586354523897171,0.0031075975857675076,-0.010195858776569366,0.006869910284876823,-0.00145243713632226,-0.011405892670154572
0.01586354523897171,0.0031075975857675076,-0.010195858776569366,0.006869910284876823,-0.00145243713632226,-0.011405892670154572
0.016111481934785843,0.003030090592801571,-0.010501984506845474,0.006869419943541288,-0.001415143022313714,-0.011213143356144428
0.015860311686992645,0.0030178779270499945,-0.009387138299643993,0.006305066868662834,-0.001516379532404244,-0.011148275807499886
0.016343476250767708,0.00282720266841352,-0.010665814392268658,0.006579271517693996,-0.0014838658971711993,-0.011528369039297104
0.015683388337492943,0.003163042012602091,-0.009878105483949184,0.007175010163336992,-0.0013754727551713586,-0.011519081890583038
0.016196036711335182,0.0033744238317012787,-0.009688196703791618,0.006881754379719496,-0.001260241842828691,-0.011997519992291927
0.015965363010764122,0.0033894393127411604,-0.010194936767220497,0.007017724681645632,-0.0011500086402520537,-0.011155861429870129
0.015946179628372192,0.0032054127659648657,-0.010443104431033134,0.007369389757514,-0.0011213411344215274,-0.011310797184705734
0.015815317630767822,0.003154030768200755,-0.010381129570305347,0.007347297389060259,-0.0011954543879255652,-0.010979397222399712
0.016402792185544968,0.003083337564021349,-0.010174944065511227,0.007005331572145224,-0.0011702857445925474,-0.010943709872663021
0.01615302823483944,0.0027989810332655907,-0.011291994713246822,0.006588369142264128,-0.0013084996026009321,-0.011364540085196495
0.016379257664084435,0.0027190623804926872,-0.010599290020763874,0.0068670096807181835,-0.0013560268562287092,-0.01141322497278452
0.016041871160268784,0.0032385403756052256,-0.010461123660206795,0.006993160583078861,-0.0012847159523516893,-0.010965378023684025
0.016225356608629227,0.0030726788099855185,-0.01073771808296442,0.006902989931404591,-0.0012308615259826183,-0.011571385897696018
0.01623036339879036,0.0031869569793343544,-0.010554835200309753,0.00691909110173583,-0.0012103962944820523,-0.01190026942640543
0.015800297260284424,0.002999984659254551,-0.01009785570204258,0.007201587315648794,-0.0011972426436841488,-0.011987530626356602
0.01616126298904419,0.002746313577517867,-0.010680362582206726,0.0077512022107839584,-0.0011706638615578413,-0.011785928159952164
0.016042198985815048,0.0028054644353687763,-0.010579653084278107,0.007551767863333225,-0.0012463440652936697,-0.012322895228862762
0.016485249623656273,0.002944312524050474,-0.010494493879377842,0.006987302098423243,-0.0012414451921358705,-0.012314576655626297
0.016753582283854485,0.0031793336383998394,-0.01023405697196722,0.007247265428304672,-0.0012075480772182345,-0.012237713672220707
0.016753582283854485,0.0031793336383998394,-0.01023405697196722,0.007247265428304672,-0.0012075480772182345,-0.012237713672220707
0.016665248200297356,0.0030209198594093323,-0.01015047263354063,0.0069665671326220036,-0.0013636123621836305,-0.012561427429318428
0.01649877056479454,0.002865023212507367,-0.009831923060119152,0.007231048308312893,-0.0013177904766052961,-0.012486731633543968
0.01593860611319542,0.0026370040141046047,-0.010270786471664906,0.007420672103762627,-0.001262704492546618,-0.012299383990466595
0.01607479155063629,0.0029092365875840187,-0.01067955419421196,0.007003492675721645,-0.0013033868744969368,-0.012243960052728653
0.01641632243990898,0.0025751455686986446,-0.010394974611699581,0.007131953723728657,-0.001212577917613089,-0.01297845784574747
0.01641632243990898,0.0025751455686986446,-0.010394974611699581,0.007131953723728657,-0.001212577917613089,-0.01297845784574747
0.01607905514538288,0.0019081401405856013,-0.009661413729190826,0.006887097377330065,-0.0011176415719091892,-0.013404721394181252
0.01661965623497963,0.0016309706261381507,-0.010543011128902435,0.0071165007539093494,-0.0011013239854946733,-0.014119599014520645
0.01656608283519745,0.0015184867661446333,-0.010789493098855019,0.00729504507035017,-0.0011914782226085663,-0.014082643203437328
0.0159224234521389,0.0013022460043430328,-0.009998377412557602,0.007318251300603151,-0.0014259963063523173,-0.013859975151717663
0.016217276453971863,0.0014477602671831846,-0.010862525552511215,0.007326798979192972,-0.0014394118916243315,-0.013895993120968342
0.01629536971449852,0.0026655057445168495,-0.011050581000745296,0.007305228617042303,-0.0013965631369501352,-0.014386827126145363
0.017211472615599632,0.002849191427230835,-0.010097043588757515,0.007769664749503136,-0.0014688079245388508,-0.014310496859252453
0.016677960753440857,0.002329842885956168,-0.010946683585643768,0.007452108431607485,-0.0013819093583151698,-0.014659563079476357
0.01633375883102417,0.0013870062539353967,-0.010139016434550285,0.007073705550283194,-0.0012538633309304714,-0.015259096398949623
0.016382329165935516,0.0014526271261274815,-0.010529232211411,0.0070930891670286655,-0.0012358729727566242,-0.01399542298167944
0.016545146703720093,0.001515942974947393,-0.010088559240102768,0.007162484340369701,-0.0012048435164615512,-0.014282691292464733
0.016341472044587135,0.0016030294355005026,-0.011013414710760117,0.007397796027362347,-0.0014169602654874325,-0.014282632619142532
0.016867022961378098,0.002295501297339797,-0.011160978116095066,0.0070101176388561726,-0.0014558836119249463,-0.014822655357420444
0.016991229727864265,0.002144786762073636,-0.011150826700031757,0.007315527647733688,-0.0016501941718161106,-0.015122253447771072
0.01683047227561474,0.0020218752324581146,-0.010720628313720226,0.0075696720741689205,-0.001740414765663445,-0.01534288004040718
0.0168286319822073,0.0018130375538021326,-0.01050429418683052,0.006918927188962698,-0.0017158424016088247,-0.01519389171153307
0.016918493434786797,0.0015925201587378979,-0.010256044566631317,0.007003637962043285,-0.001749399583786726,-0.015281915664672852
0.01815129444003105,0.0014962609857320786,-0.011529071256518364,0.007579346187412739,-0.0017414153553545475,-0.015429231338202953
0.01959877833724022,0.001542288577184081,-0.010978520847856998,0.007508954033255577,-0.0017415689071640372,-0.015394958667457104
0.017416566610336304,0.0018074141116812825,-0.010346037335693836,0.007476402912288904,-0.001628001336939633,-0.015602615661919117
0.017254570499062538,0.002107607899233699,-0.010716342367231846,0.0074171386659145355,-0.0015888025518506765,-0.015642113983631134
0.017254570499062538,0.002107607899233699,-0.010716342367231846,0.0074171386659145355,-0.0015888025518506765,-0.015642113983631134
0.01783636584877968,0.002060351427644491,-0.010291241109371185,0.007901037111878395,-0.0016310306964442134,-0.015781216323375702
0.018366806209087372,0.0017859902000054717,-0.011137034744024277,0.008057092316448689,-0.0015729103470221162,-0.015500583685934544
0.017682136967778206,0.0017534159123897552,-0.012155170552432537,0.007620316930115223,-0.0016946654068306088,-0.015627257525920868
0.01789492927491665,0.0016441940097138286,-0.011890384368598461,0.007572460919618607,-0.001580153708346188,-0.015820130705833435
0.018725477159023285,0.0016142658423632383,-0.011936692520976067,0.008239264599978924,-0.0015783923445269465,-0.016243519261479378
0.01829494535923004,0.0016564958496019244,-0.011178956367075443,0.008089296519756317,-0.0014589157653972507,-0.016185352578759193
0.01803208887577057,0.0017858659848570824,-0.011506888084113598,0.008072937838733196,-0.0013748020865023136,-0.016260772943496704
0.01808263547718525,0.0018287902930751443,-0.012357332743704319,0.00809357687830925,-0.001279068412259221,-0.01593901589512825
0.01835697516798973,0.0021148021332919598,-0.011688515543937683,0.008150420151650906,-0.0012483646860346198,-0.016053171828389168
0.018805215135216713,0.0018655807944014668,-0.012005924247205257,0.007787858601659536,-0.0012118567246943712,-0.016151349991559982
0.018721241503953934,0.0018108325311914086,-0.011321797035634518,0.008025350980460644,-0.0012628579279407859,-0.01611928455531597
0.01806151680648327,0.0017571962671354413,-0.01179974153637886,0.007853006944060326,-0.0012766994768753648,-0.016750477254390717
0.018657686188817024,0.0018160673789680004,-0.011586163192987442,0.007856550626456738,-0.0015137812588363886,-0.016505610197782516
0.018463047221302986,0.001662418944761157,-0.011993737891316414,0.007663902826607227,-0.0015044682659208775,-0.016898635774850845
0.01878790743649006,0.0017356134485453367,-0.011449419893324375,0.00823903363198042,-0.0018743420951068401,-0.017229873687028885
0.01870078220963478,0.0016330424696207047,-0.012206228449940681,0.008416730910539627,-0.0017405352555215359,-0.017595846205949783
0.018607692793011665,0.001772546675056219,-0.011396786198019981,0.008146634325385094,-0.0017088138265535235,-0.01673566736280918
0.018896594643592834,0.0016481649363413453,-0.011563701555132866,0.008421207778155804,-0.0016170624876394868,-0.016840899363160133
0.018772467970848083,0.0016932613216340542,-0.011956202797591686,0.0089187603443861,-0.0015242357039824128,-0.017403166741132736
0.01885911077260971,0.0016659063985571265,-0.011503736488521099,0.00850643590092659,-0.0015871030045673251,-0.016810240224003792
0.019183076918125153,0.0014463007682934403,-0.011960277333855629,0.008440110832452774,-0.0015154718421399593,-0.016738519072532654
0.018768176436424255,0.0013881325721740723,-0.011635067872703075,0.008807956241071224,-0.001670026802457869,-0.017002439126372337
0.01900951936841011,0.0012874942040070891,-0.011430200189352036,0.008965153247117996,-0.001651025377213955,-0.018101844936609268
0.019366160035133362,0.001241563819348812,-0.012122472748160362,0.008506986312568188,-0.0015971321845427155,-0.018108878284692764
0.01930403523147106,0.0012987381778657436,-0.011316548101603985,0.008667366579174995,-0.0015866021858528256,-0.017439480870962143
0.019505003467202187,0.0013967547565698624,-0.012433088384568691,0.009278753772377968,-0.001497782999649644,-0.01760951802134514
0.019855357706546783,0.001677694614045322,-0.01208362728357315,0.008833474479615688,-0.0013390216045081615,-0.01777719333767891
0.01891646347939968,0.001741365878842771,-0.01135812047868967,0.008565190248191357,-0.0012459467398002744,-0.018144812434911728
0.01891646347939968,0.001741365878842771,-0.01135812047868967,0.008565190248191357,-0.0012459467398002744,-0.018144812434911728
0.018661590293049812,0.0018980001332238317,-0.011691459454596043,0.009123988449573517,-0.001179798855446279,-0.01778559200465679
0.019136816263198853,0.0018953130347654223,-0.011505219154059887,0.00834107305854559,-0.0011602995218709111,-0.017483655363321304
0.019147662445902824,0.0017093283822759986,-0.012314296327531338,0.008110817521810532,-0.0011996018001809716,-0.017843451350927353
0.01948290690779686,0.0016696536913514137,-0.011523839086294174,0.008359611965715885,-0.0011718382593244314,-0.017347807064652443
0.01918995939195156,0.0015690253349021077,-0.011842100881040096,0.008670595474541187,-0.0012960989261046052,-0.01737683080136776
0.018834730610251427,0.0015567723894491792,-0.012000910937786102,0.008291500620543957,-0.0014425532426685095,-0.018081001937389374
0.01943304017186165,0.0016109596472233534,-0.011701853945851326,0.008484765887260437,-0.0014447347493842244,-0.018590549007058144
0.020147576928138733,0.0020433070603758097,-0.012273251079022884,0.009097925387322903,-0.0017003912944346666,-0.018743719905614853
0.020181773230433464,0.0018462426960468292,-0.011931734159588814,0.008272621780633926,-0.0017046722350642085,-0.018189826980233192
0.01979714259505272,0.0018356757936999202,-0.011854552663862705,0.009041231125593185,-0.0015045388136059046,-0.01853344775736332
0.01918908953666687,0.0017755019944161177,-0.011785698123276234,0.008797399699687958,-0.0014595510438084602,-0.01844240166246891
0.0194398146122694,0.0016307421028614044,-0.012634065002202988,0.008613135665655136,-0.001510632922872901,-0.01815381459891796
0.01972096413373947,0.0015962052857503295,-0.012005312368273735,0.00915393978357315,-0.001517453114502132,-0.01811225898563862
0.01971384510397911,0.0016254844376817346,-0.012701660394668579,0.009014095179736614,-0.0014852453023195267,-0.017964869737625122
0.019911641255021095,0.0015812412602826953,-0.012117438949644566,0.008519801311194897,-0.001446286216378212,-0.0181833915412426
0.019775105640292168,0.0019640091340988874,-0.012640437111258507,0.008244223892688751,-0.001439805026166141,-0.01834084652364254
0.019720004871487617,0.001987917348742485,-0.01253815833479166,0.008852094411849976,-0.0013759962748736143,-0.018353959545493126
0.019684821367263794,0.0019502812065184116,-0.012005791999399662,0.008730790577828884,-0.0014557021204382181,-0.018139077350497246
0.019788475707173347,0.0017651121597737074,-0.012868275865912437,0.008684917353093624,-0.0014189110370352864,-0.01859181560575962
0.020102420821785927,0.0016641025431454182,-0.01203377079218626,0.008437360636889935,-0.0015514767728745937,-0.019228830933570862
0.020282382145524025,0.0016395599814131856,-0.012642161920666695,0.008718077093362808,-0.0015308228321373463,-0.019079415127635002
0.019889576360583305,0.0017580047715455294,-0.012145920656621456,0.008903305046260357,-0.0014588688500225544,-0.018629858270287514
0.020161425694823265,0.001848722924478352,-0.012447888031601906,0.009054617956280708,-0.0014688544906675816,-0.018870944157242775
0.020250292494893074,0.0020558235701173544,-0.012728366069495678,0.0094361687079072,-0.0014327038079500198,-0.019066546112298965
0.020214194431900978,0.0019965581595897675,-0.012529050000011921,0.009238561615347862,-0.0015064628096297383,-0.019900761544704437
0.020214194431900978,0.0019965581595897675,-0.012529050000011921,0.009238561615347862,-0.0015064628096297383,-0.019900761544704437
0.02037992514669895,0.001858053496107459,-0.012567020021378994,0.00892662163823843,-0.001581694814376533,-0.01979985274374485
0.02011962980031967,0.0018391351914033294,-0.012380093336105347,0.00934627465903759,-0.0018165184883400798,-0.02027560956776142
0.02029752917587757,0.001624444150365889,-0.01278025284409523,0.00942776259034872,-0.0017691549146547914,-0.019428690895438194
0.020745815709233284,0.001682643429376185,-0.011934729292988777,0.009106234647333622,-0.0018217642791569233,-0.01998896151781082
0.02056005597114563,0.0017558777472004294,-0.01275612786412239,0.009391571395099163,-0.0018489083740860224,-0.020173221826553345
0.020610861480236053,0.0017816624604165554,-0.012311347760260105,0.009447152726352215,-0.0019497307948768139,-0.020630333572626114
0.020755236968398094,0.0016474935691803694,-0.012364829890429974,0.009043513797223568,-0.0019582330714911222,-0.020599836483597755
0.020847462117671967,0.0016171508468687534,-0.012022202834486961,0.008932889439165592,-0.001960648922249675,-0.02049916423857212
0.02066146768629551,0.0015525470953434706,-0.012487515807151794,0.008909408003091812,-0.0017328354297205806,-0.020489659160375595
0.020548345521092415,0.0016148599097505212,-0.012143333442509174,0.008891565725207329,-0.0016873721033334732,-0.020546214655041695
0.020929044112563133,0.0016990401782095432,-0.012429414317011833,0.009928739629685879,-0.0015986913349479437,-0.020947111770510674
0.02109120599925518,0.0017396084731444716,-0.012413570657372475,0.009582887403666973,-0.0015156855806708336,-0.021605009213089943
0.020939238369464874,0.0016063761431723833,-0.012460305355489254,0.009499131701886654,-0.0014385117683559656,-0.02141980454325676
0.02122584357857704,0.0016119362553581595,-0.012254256755113602,0.009860889986157417,-0.0013698773691430688,-0.02173927053809166
0.02120370976626873,0.0014983585570007563,-0.01199948787689209,0.008922298438847065,-0.0014248512452468276,-0.022068984806537628
0.02131977677345276,0.0014084355207160115,-0.012803645804524422,0.009815335273742676,-0.0015032014343887568,-0.021811900660395622
0.02128617651760578,0.0014421276282519102,-0.012173131108283997,0.009393413551151752,-0.0016363965114578605,-0.02149856835603714
0.02140248380601406,0.0015179560286924243,-0.012848151847720146,0.0092990193516016,-0.0017222206806764007,-0.021669302135705948
0.02146034874022007,0.0017840227810665965,-0.012664362788200378,0.00919659435749054,-0.0018617227906361222,-0.021731704473495483
0.02170703373849392,0.001739624422043562,-0.012400357984006405,0.009660282172262669,-0.0018970078090205789,-0.02191190980374813
0.021619604900479317,0.0015688700368627906,-0.012824141420423985,0.00962385069578886,-0.001967642456293106,-0.0220424123108387
0.021744783967733383,0.0014466445427387953,-0.012434742413461208,0.009599867276847363,-0.0019588356371968985,-0.022258980199694633
0.021744783967733383,0.0014466445427387953,-0.012434742413461208,0.009599867276847363,-0.0019588356371968985,-0.022258980199694633
0.02172660641372204,0.0014588733902201056,-0.012724347412586212,0.010222328826785088,-0.0019204517593607306,-0.022139450535178185
0.02224598452448845,0.0013967787381261587,-0.011965190060436726,0.009471428580582142,-0.0018844056176021695,-0.02241099625825882
0.02236759103834629,0.001438251230865717,-0.013165329582989216,0.009221936576068401,-0.0016750992508605123,-0.02238650433719158
0.021966304630041122,0.0013761610025539994,-0.012846182100474834,0.009909572079777718,-0.0016453700372949243,-0.02093922346830368
0.021837234497070312,0.0013010186376050115,-0.012526723556220531,0.009807954542338848,-0.0015676836483180523,-0.022703561931848526
0.02162858098745346,0.0013555636396631598,-0.012354776263237,0.009483037516474724,-0.0015885328175500035,-0.02296646498143673
0.02181105501949787,0.0013164833653718233,-0.012512464076280594,0.009980293922126293,-0.001575768576003611,-0.023390449583530426
0.022705916315317154,0.001472360105253756,-0.012901273556053638,0.010299667716026306,-0.0015116329304873943,-0.02405315265059471
0.022397680208086967,0.0014162964653223753,-0.012018394656479359,0.009967844933271408,-0.0016339150024577975,-0.023656854405999184
0.021883349865674973,0.0013633735943585634,-0.012700698338449001,0.009982981719076633,-0.0020007893908768892,-0.02344268374145031
0.02244582027196884,0.0015121654141694307,-0.01250113733112812,0.009346816688776016,-0.0020309698302298784,-0.02260635234415531
0.0233758557587862,0.0015133584383875132,-0.01293274201452732,0.009032297879457474,-0.002197694033384323,-0.02292417548596859
0.02381848357617855,0.0014869656879454851,-0.012440013699233532,0.009802673012018204,-0.0022382489405572414,-0.02424851432442665
0.021695081144571304,0.0014139005215838552,-0.013293220661580563,0.009584957733750343,-0.0020296149887144566,-0.023232365027070045
0.02193916216492653,0.0015045945765450597,-0.012868978083133698,0.00990378949791193,-0.0019900333136320114,-0.023594846948981285
0.022714288905262947,0.001422942616045475,-0.01230282336473465,0.009612646885216236,-0.0020728621166199446,-0.02477172762155533
0.023561902344226837,0.0013672473141923547,-0.01288953609764576,0.009590404108166695,-0.002114777220413089,-0.02451588772237301
0.023495258763432503,0.0014755462761968374,-0.01369786262512207,0.01028008759021759,-0.0019282802240923047,-0.02382699027657509
0.02287137694656849,0.001529030967503786,-0.012768780812621117,0.009793982841074467,-0.0016430200776085258,-0.023034360259771347
0.02301572635769844,0.0016731193754822016,-0.013268928974866867,0.009521011263132095,-0.0015934710390865803,-0.023543598130345345
0.023294221609830856,0.001563867088407278,-0.013399447314441204,0.010384821332991123,-0.0015908017521724105,-0.024784591048955917
0.023447802290320396,0.001431689946912229,-0.013221683911979198,0.009545049630105495,-0.001648004981689155,-0.025616096332669258
0.023425370454788208,0.0012097563594579697,-0.012981179170310497,0.00939243659377098,-0.0020141075365245342,-0.025605155155062675
0.02318752557039261,0.001266581704840064,-0.013007082976400852,0.009459266439080238,-0.002130985027179122,-0.025401223450899124
0.02322256937623024,0.0012403357541188598,-0.01316727977246046,0.009274479001760483,-0.0023497140500694513,-0.02506374567747116
0.023510171100497246,0.0011941009433940053,-0.013023486360907555,0.009456651285290718,-0.0020942750852555037,-0.02509683184325695
0.023510171100497246,0.0011941009433940053,-0.013023486360907555,0.009456651285290718,-0.0020942750852555037,-0.02509683184325695
0.02347218245267868,0.0011487370356917381,-0.013531211763620377,0.010342804715037346,-0.0018372595077380538,-0.0251762792468071
0.02347632125020027,0.0012067711213603616,-0.012919946573674679,0.01035975106060505,-0.0017831458244472742,-0.025335099548101425
0.02357809618115425,0.0010877676540985703,-0.013468945398926735,0.01022922620177269,-0.001745274756103754,-0.025486577302217484
0.023578686639666557,0.001173491356894374,-0.013199612498283386,0.010700981132686138,-0.001770191709510982,-0.025247106328606606
0.023295709863305092,0.0011255014687776566,-0.013924938626587391,0.010426929220557213,-0.0021532285027205944,-0.02529357746243477
0.023680508136749268,0.0011020181700587273,-0.01310911774635315,0.010747760534286499,-0.0024092812091112137,-0.025863368064165115
0.023863984271883965,0.001103962422348559,-0.014034930616617203,0.010431748814880848,-0.002449935069307685,-0.026004668325185776
0.023818491026759148,0.0011974676745012403,-0.013394637033343315,0.009715463034808636,-0.0022901943884789944,-0.02574477717280388
0.023505810648202896,0.0011497248196974397,-0.013361020013689995,0.009607632644474506,-0.002153147477656603,-0.02479040063917637
0.023815758526325226,0.0011024187551811337,-0.013937518000602722,0.009630031883716583,-0.0018137068254873157,-0.026824723929166794
0.02407660149037838,0.0010675755329430103,-0.013765755109488964,0.010139787569642067,-0.0016180394450202584,-0.027140313759446144
0.023966152220964432,0.0010423185303807259,-0.013316577300429344,0.010394033044576645,-0.0016390129458159208,-0.02650071680545807
0.023940525949001312,0.0010381287429481745,-0.013938682153820992,0.010527300648391247,-0.0015622923383489251,-0.0249827541410923
0.023746447637677193,0.0008809442515484989,-0.013683509081602097,0.011151325888931751,-0.0017377178883180022,-0.0250588059425354
0.023821523413062096,0.0007370332605205476,-0.01374006737023592,0.010582728311419487,-0.0017004916444420815,-0.02632015570998192
0.023786790668964386,0.0006331961485557258,-0.013293138705193996,0.010096183978021145,-0.0020189417991787195,-0.026889268308877945
0.024491647258400917,0.0005550229689106345,-0.01374373771250248,0.010563250631093979,-0.0020039789378643036,-0.026491627097129822
0.02532247081398964,0.0005886072758585215,-0.013669006526470184,0.01054155733436346,-0.0021647398825734854,-0.026958918198943138
0.02492356486618519,0.0005341169890016317,-0.014881552197039127,0.010390857234597206,-0.0021057503763586283,-0.027864545583724976
0.02407021075487137,0.0005572526133619249,-0.013802180998027325,0.010763274505734444,-0.0020422288216650486,-0.02706976607441902
0.02371371164917946,0.0005201038438826799,-0.01394628919661045,0.010713440366089344,-0.0021234718151390553,-0.026155447587370872
0.024139875546097755,0.0005481926491484046,-0.01400548405945301,0.011081063188612461,-0.002106189727783203,-0.026315536350011826
0.024475714191794395,0.0005102461436763406,-0.014998296275734901,0.01123787835240364,-0.0023031854070723057,-0.02710459940135479
0.024537233635783195,0.0004007975512649864,-0.01364109292626381,0.011015286669135094,-0.002105714287608862,-0.027376413345336914
0.024537233635783195,0.0004007975512649864,-0.01364109292626381,0.011015286669135094,-0.002105714287608862,-0.027376413345336914
0.024350950494408607,0.00036542792804539204,-0.014667864888906479,0.010759304277598858,-0.002018146915361285,-0.027575738728046417
0.024698108434677124,0.0004027028626296669,-0.013852223753929138,0.010158460587263107,-0.0018580560572445393,-0.02745405212044716
0.024726243689656258,0.00037715520011261106,-0.014782263897359371,0.010446388274431229,-0.001754791708663106,-0.027291934937238693
0.02438138984143734,0.0003525608335621655,-0.014486626721918583,0.011003643274307251,-0.0017626816406846046,-0.027219371870160103
0.024299906566739082,0.00038531969767063856,-0.015001826919615269,0.01041971892118454,-0.002028153045102954,-0.026457710191607475
0.02391039952635765,0.00036379796802066267,-0.0138264624401927,0.010678937658667564,-0.0023574125953018665,-0.02805711328983307
0.024191882461309433,0.00034394324757158756,-0.014505714178085327,0.010498558171093464,-0.002456936752423644,-0.028131045401096344
0.024882756173610687,0.0003261366509832442,-0.014363428577780724,0.01062485296279192,-0.0023230318911373615,-0.028230471536517143
0.024723585695028305,0.00034911735565401614,-0.01522629801183939,0.011269495822489262,-0.002178521128371358,-0.02799566648900509
0.02506246045231819,0.00033768403227441013,-0.014300105161964893,0.01130988821387291,-0.0018471387447789311,-0.028022993355989456
0.02456267550587654,0.00032261802698485553,-0.014986834488809109,0.010496099479496479,-0.0018003981094807386,-0.028348460793495178
0.024625778198242188,0.00032673042733222246,-0.014841899275779724,0.011269617825746536,-0.002858893945813179,-0.02866937778890133
0.025288837030529976,0.00030467615579254925,-0.01459776982665062,0.011251183226704597,-0.0032980372197926044,-0.029080335050821304
0.02508065663278103,0.0003400621935725212,-0.01507152896374464,0.011147888377308846,-0.0029133835341781378,-0.029082873836159706
0.02484060265123844,0.00032197096152231097,-0.014888064935803413,0.010749509558081627,-0.0021501120645552874,-0.02928766794502735
0.02485278807580471,0.00034848926588892937,-0.015163213014602661,0.011829908937215805,-0.0019499940099194646,-0.02941814810037613
0.02479144185781479,0.0003355547378305346,-0.014563553035259247,0.011468764394521713,-0.0017649991204962134,-0.02904779091477394
0.024749061092734337,0.00031865580240264535,-0.014530381187796593,0.01125763077288866,-0.0017063175328075886,-0.02910211682319641
0.025181414559483528,0.00030331421294249594,-0.014566001482307911,0.011671590618789196,-0.0018831165507435799,-0.029411712661385536
0.02534840814769268,0.00032581950654275715,-0.015063916333019733,0.011378361843526363,-0.0022301264107227325,-0.02951592206954956
0.025195419788360596,0.0003161299100611359,-0.014909805729985237,0.01149793528020382,-0.0023772665299475193,-0.029941469430923462
0.02526812255382538,0.0003028924693353474,-0.014582064002752304,0.011549032293260098,-0.0022766939364373684,-0.030271902680397034
0.02542625553905964,0.00029066455317661166,-0.015150665305554867,0.011175128631293774,-0.0022774022072553635,-0.030236588791012764
0.025332355871796608,0.0003335150540806353,-0.014617607928812504,0.011943023651838303,-0.002066177548840642,-0.03042748011648655
0.024944696575403214,0.0003127930103801191,-0.016072964295744896,0.01131984032690525,-0.002199530601501465,-0.030516652390360832
0.02543937787413597,0.0002924910804722458,-0.014941945672035217,0.011456696316599846,-0.0024290087167173624,-0.030860282480716705
0.02521907165646553,0.0002746378886513412,-0.014787270687520504,0.012004241347312927,-0.002428233390673995,-0.030796339735388756
0.02563316933810711,0.00025883811758831143,-0.014613762497901917,0.011594795621931553,-0.002483104122802615,-0.030715998262166977
0.025864042341709137,0.0002916969533544034,-0.015842687338590622,0.012036964297294617,-0.002272353507578373,-0.03044910728931427
0.02634255401790142,0.00027852944913320243,-0.015338667668402195,0.011371730826795101,-0.002153335604816675,-0.03096352145075798
0.0262038242071867,0.00026489063748158514,-0.015412927605211735,0.011405047960579395,-0.002207482000812888,-0.0322144515812397
0.0262038242071867,0.00026489063748158514,-0.015412927605211735,0.011405047960579395,-0.002207482000812888,-0.0322144515812397
0.025835981592535973,0.00025250361068174243,-0.014913306571543217,0.0116644948720932,-0.0022374943364411592,-0.032530270516872406
0.025482503697276115,0.00024122298054862767,-0.015742680057883263,0.01105408277362585,-0.002471713814884424,-0.031430698931217194
0.025905610993504524,0.00023090776812750846,-0.015491093508899212,0.01186214480549097,-0.0026574302464723587,-0.03097803331911564
0.026097839698195457,0.00022143844398669899,-0.01561681553721428,0.011788979172706604,-0.0026608712505549192,-0.031891610473394394
0.026467833667993546,0.00021271512378007174,-0.015284696593880653,0.01164989173412323,-0.0025486103259027004,-0.030966371297836304
0.026547614485025406,0.00023737763694953173,-0.01577155478298664,0.011855602264404297,-0.0022649860475212336,-0.032733093947172165
0.02575247548520565,0.00023002458328846842,-0.01546399388462305,0.011961190961301327,-0.0020303407218307257,-0.03398621827363968
0.026194917038083076,0.00022193831682670861,-0.015273257158696651,0.012234847992658615,-0.0020002236124128103,-0.03294546902179718
0.026773935183882713,0.00021438598923850805,-0.015484082512557507,0.012023339979350567,-0.0022106370888650417,-0.031409721821546555
0.026711294427514076,0.00020733039127662778,-0.01527621690183878,0.012278332374989986,-0.0025685338769108057,-0.032032713294029236
0.02654772438108921,0.0002007243747357279,-0.01577906496822834,0.011917481198906898,-0.0024659247137606144,-0.03282112255692482
0.027410896494984627,0.00018869986524805427,-0.015617506578564644,0.012181609869003296,-0.002401462523266673,-0.033184248954057693
0.026846993714571,0.0001832119596656412,-0.015424048528075218,0.011998207308351994,-0.002306708600372076,-0.0332845076918602
0.026612063869833946,0.0001133767218561843,-0.016160037368535995,0.012016438879072666,-0.0024842931888997555,-0.033259689807891846
0.026201847940683365,5.161955414223485e-05,-0.015448164194822311,0.01222750823944807,-0.0028170295991003513,-0.03357816860079765
0.026890791952610016,3.670615114970133e-05,-0.015501768328249454,0.012433754280209541,-0.002657434670254588,-0.03364308550953865
0.027642883360385895,3.5102275433018804e-05,-0.015551576390862465,0.012651558965444565,-0.002679483499377966,-0.03356931358575821
0.027361217886209488,3.378229303052649e-05,-0.015950579196214676,0.012595608830451965,-0.002736436203122139,-0.03365902975201607
0.027363626286387444,5.3936448239255697e-05,-0.0160273015499115,0.012667173519730568,-0.002477015368640423,-0.03371735289692879
0.02746712602674961,6.269635923672467e-05,-0.0157933346927166,0.012245001271367073,-0.0024904198944568634,-0.034002967178821564
0.027392318472266197,6.072412361390889e-05,-0.016099980100989342,0.01112690381705761,-0.0027620219625532627,-0.03422496095299721
0.027826758101582527,5.8744139096233994e-05,-0.01568305864930153,0.012123744934797287,-0.003137606894597411,-0.03413177281618118
0.028038596734404564,2.9592327337013558e-05,-0.01607177034020424,0.01256608497351408,-0.0027991088572889566,-0.03562002256512642
0.02789166383445263,2.758775735856034e-05,-0.015411298722028732,0.012800530530512333,-0.0027132323011755943,-0.03653063625097275
0.02817765809595585,2.675296491361223e-05,-0.016123073175549507,0.012317492626607418,-0.002432834589853883,-0.0353262722492218
0.02838699333369732,2.5980485588661395e-05,-0.016077391803264618,0.012652767822146416,-0.002242435235530138,-0.03403740003705025
0.02831682749092579,2.525151830923278e-05,-0.016523296013474464,0.012460678815841675,-0.0019481178605929017,-0.03441578149795532
0.028243234381079674,2.4562350517953746e-05,-0.01645655743777752,0.012569675222039223,-0.001977598061785102,-0.03591111674904823
0.028631139546632767,2.3909820811240934e-05,-0.01597290299832821,0.012904589995741844,-0.002508968347683549,-0.03639833256602287
0.028631139546632767,2.3909820811240934e-05,-0.01597290299832821,0.012904589995741844,-0.002508968347683549,-0.03639833256602287
0.028548914939165115,2.329106609977316e-05,-0.016771331429481506,0.012938577681779861,-0.002912749070674181,-0.03727894648909569
0.028546994552016258,2.2703503418597393e-05,-0.016122225672006607,0.012846335768699646,-0.003012478118762374,-0.03564076870679855
0.0284627266228199,2.2144869944895618e-05,-0.016961857676506042,0.012729426845908165,-0.0027916438411921263,-0.03434229642152786
0.028570951893925667,2.1613082935800776e-05,-0.01655568927526474,0.012770203873515129,-0.002834080485627055,-0.03625154867768288
0.0287146158516407,2.1106216081534512e-05,-0.016379857435822487,0.012697330676019192,-0.0029642204754054546,-0.037061888724565506
0.02863488346338272,2.0622586816898547e-05,-0.016597863286733627,0.01285549160093069,-0.0026886840350925922,-0.036977868527173996
0.028617888689041138,2.016062535403762e-05,-0.016564035788178444,0.012402397580444813,-0.0026719081215560436,-0.036569345742464066
0.02832951955497265,1.9718916519195773e-05,-0.017123935744166374,0.012711768969893456,-0.0026689660735428333,-0.036416567862033844
0.029858238995075226,8.858565081482084e-08,-0.017543228343129158,0.013025708496570587,-0.0025316583923995495,-0.03678165003657341
0.029566770419478416,1.1884895290137365e-09,-0.017347225919365883,0.013155510649085045,-0.0023970715701580048,-0.03751853480935097
0.02857387252151966,1.5945102876946393e-11,-0.017111612483859062,0.012850388884544373,-0.002263491740450263,-0.037292320281267166
0.02777903340756893,2.1392391710058772e-13,-0.017357435077428818,0.01296905241906643,-0.0023845736868679523,-0.03778916969895363
0.030112149193882942,2.8700625097957113e-15,-0.016687149181962013,0.012941648252308369,-0.0024456374812871218,-0.037917960435152054
0.030037904158234596,3.850554868191906e-17,-0.017195792868733406,0.01387703139334917,-0.002432695822790265,-0.03792282193899155
0.02939583919942379,5.166010725116972e-19,-0.01747436635196209,0.013620622456073761,-0.0026247857604175806,-0.037974752485752106
0.029844600707292557,6.930863149844423e-21,-0.017049143090844154,0.014177454635500908,-0.0029648274648934603,-0.037642478942871094
0.030082087963819504,9.298636704686432e-23,-0.01805640384554863,0.013619956560432911,-0.0033635373692959547,-0.03887215256690979
0.030010666698217392,1.2475306679263804e-24,-0.017013275995850563,0.014101619832217693,-0.003376286244019866,-0.03876454383134842
0.028862854465842247,1.6737217144499498e-26,-0.017132144421339035,0.013702998869121075,-0.003114721504971385,-0.03850531950592995
0.029066812247037888,2.2455112963803193e-28,-0.017943700775504112,0.013527202419936657,-0.003031974658370018,-0.038937684148550034
0.03036000020802021,3.0126402413269447e-30,-0.01752483658492565,0.013047121465206146,-0.0028633044566959143,-0.03895830735564232
0.030406760051846504,4.0418415225128436e-32,-0.01725175604224205,0.013790666125714779,-0.0025913999415934086,-0.0388900451362133
0.030008792877197266,5.422646357484409e-34,-0.017234282568097115,0.013804678805172443,-0.0026025206316262484,-0.03888660669326782
0.029647255316376686,7.275171414930563e-36,-0.017817677929997444,0.013943412341177464,-0.0026737332809716463,-0.039002325385808945
0.030117830261588097,9.760570692244937e-38,-0.01763187348842621,0.013997828587889671,-0.0027803026605397463,-0.038959577679634094
0.03016776777803898,1.3095050071207556e-39,-0.0168510302901268,0.014131477102637291,-0.003171883523464203,-0.039263077080249786
0.029939871281385422,1.7568078847240232e-41,-0.017373625189065933,0.013815242797136307,-0.0035907591227442026,-0.040291041135787964
0.0303056500852108,2.3541814200656927e-43,-0.017766635864973068,0.01411859504878521,-0.0032556620426476,-0.03976239264011383
0.030359739437699318,2.802596928649634e-45,-0.01786293461918831,0.014489681459963322,-0.0030561441089957952,-0.038368936628103256
0.030359739437699318,2.802596928649634e-45,-0.01786293461918831,0.014489681459963322,-0.0030561441089957952,-0.038368936628103256
0.030685892328619957,0.0,-0.01755232736468315,0.014669269323348999,-0.0029510546009987593,-0.03996333107352257
0.030774204060435295,0.0,-0.017333656549453735,0.015211740508675575,-0.0026716147549450397,-0.03911096975207329
0.03044268861413002,0.0,-0.017891954630613327,0.01457673218101263,-0.0027879918925464153,-0.04160669445991516
0.031052032485604286,0.0,-0.017619555816054344,0.014236688613891602,-0.003035446861758828,-0.04212015122175217
0.03088907152414322,0.0,-0.01748250238597393,0.014586430042982101,-0.003092826809734106,-0.03997834026813507
0.031585291028022766,0.0,-0.017085682600736618,0.014243336394429207,-0.0028253730852156878,-0.040812037885189056
0.031182600185275078,0.0,-0.017277631908655167,0.014003909192979336,-0.002851295517757535,-0.0410190150141716
0.031283047050237656,0.0,-0.017410969361662865,0.014168947003781796,-0.0030308696441352367,-0.041288744658231735
0.03158411756157875,0.0,-0.017582718282938004,0.014419441111385822,-0.003237438155338168,-0.04143296554684639
0.031154174357652664,-0.0002217266010120511,-0.0177083108574152,0.01470870990306139,-0.0031411813106387854,-0.041724130511283875
0.03138243779540062,-0.00021663526422344148,-0.016748664900660515,0.01469677034765482,-0.003004516940563917,-0.041862647980451584
0.03130710870027542,-0.00020675665291491896,-0.01751946471631527,0.014263400807976723,-0.0030575913842767477,-0.0421968512237072
0.03120228834450245,-0.00019767420599237084,-0.017326515167951584,0.014376647770404816,-0.0032171530183404684,-0.04186895117163658
0.031106295064091682,-0.00018935580737888813,-0.017243215814232826,0.014431450515985489,-0.003152258927002549,-0.04211125150322914
0.0326690711081028,-0.00021754304179921746,-0.01756850630044937,0.01455322839319706,-0.002970854053273797,-0.04104176163673401
0.032913755625486374,-0.0002095806848956272,-0.016727685928344727,0.0143693583086133,-0.0026932251639664173,-0.042336396872997284
0.03248731419444084,-0.00020175636745989323,-0.01731082797050476,0.014450429938733578,-0.0025518364273011684,-0.04327865689992905
0.0313442125916481,-0.0001944896939676255,-0.017458101734519005,0.014579346403479576,-0.0026617092080414295,-0.04418360814452171
0.0313442125916481,-0.0001944896939676255,-0.017458101734519005,0.014579346403479576,-0.0026617092080414295,-0.04418360814452171
0.03099152073264122,-0.00021858086984138936,-0.017154701054096222,0.014794203452765942,-0.0026723474729806185,-0.043045639991760254
0.03201385214924812,-0.00021165174257475883,-0.017914598807692528,0.014926611445844173,-0.003092768369242549,-0.04143746197223663
0.03140246868133545,-0.00023362600768450648,-0.017355678603053093,0.014716582372784615,-0.0033423402346670628,-0.042644109576940536
0.03183824196457863,-0.00022665852156933397,-0.01738930121064186,0.014455948956310749,-0.002952195703983307,-0.04342968761920929
0.032572343945503235,-0.0003121007757727057,-0.017711063846945763,0.014509696513414383,-0.0027140378952026367,-0.04513298720121384
0.03203922510147095,-0.00030321511439979076,-0.017303774133324623,0.014376919716596603,-0.002638616831973195,-0.04331371560692787
0.031829141080379486,-0.00028422364266589284,-0.01766716130077839,0.014477194286882877,-0.0027619500178843737,-0.0422682911157608
0.03141835704445839,-0.0002673378330655396,-0.017437810078263283,0.014300648123025894,-0.002831975929439068,-0.04390128329396248
0.031808461993932724,-0.00030073526431806386,-0.01810215413570404,0.014563466422259808,-0.0028968947008252144,-0.04396198317408562
0.032324500381946564,-0.00028670451138168573,-0.018113086000084877,0.014736534096300602,-0.00301283597946167,-0.04303748160600662
0.03189853951334953,-0.0002972755173686892,-0.018284844234585762,0.014611447229981422,-0.002782294061034918,-0.0447966605424881
0.031595777720212936,-0.0002884822024498135,-0.018428098410367966,0.014576719142496586,-0.002739083720371127,-0.04423565790057182
0.03184111416339874,-0.0002759119379334152,-0.018637115135788918,0.014794331975281239,-0.00305630499497056,-0.04383658245205879
0.0323871374130249,-0.00029762956546619534,-0.01803157478570938,0.014469677582383156,-0.0034755163360387087,-0.04397175461053848
0.03220043703913689,-0.0002898724633269012,-0.017683714628219604,0.014860427007079124,-0.003528279485180974,-0.044582631438970566
0.03210475668311119,-0.00027894446975551546,-0.018034199252724648,0.014681207947432995,-0.0032750095706433058,-0.04387965053319931
0.03196427971124649,-0.0003346986777614802,-0.01830935664474964,0.015037508681416512,-0.002961135236546397,-0.044334761798381805
0.03221401944756508,-0.0003124837239738554,-0.017876427620649338,0.014919960871338844,-0.002756688743829727,-0.04470456391572952
0.03213272988796234,-0.00034821958979591727,-0.01833214797079563,0.015160192735493183,-0.0027182837948203087,-0.04509758576750755
0.03213951364159584,-0.00032922651735134423,-0.018639108166098595,0.015077109448611736,-0.002772409236058593,-0.04406491294503212
0.0328155979514122,-0.00035992442280985415,-0.017913294956088066,0.015601322054862976,-0.003189029172062874,-0.04550640285015106
0.03266233578324318,-0.0003854351816698909,-0.01879802905023098,0.015366124920547009,-0.003707297146320343,-0.045969605445861816
0.03223445639014244,-0.00037103882641531527,-0.018388105556368828,0.015595568343997002,-0.003401429858058691,-0.045618802309036255
0.03200605511665344,-0.0005595239927060902,-0.018172254785895348,0.015200688503682613,-0.002983665792271495,-0.04442582279443741
0.03255310282111168,-0.0006024219910614192,-0.018503766506910324,0.015373775735497475,-0.002954965690150857,-0.04577502980828285
0.03255310282111168,-0.0006024219910614192,-0.018503766506910324,0.015373775735497475,-0.002954965690150857,-0.04577502980828285
0.03358182683587074,-0.0005455018836073577,-0.017853742465376854,0.015182428061962128,-0.003016630420461297,-0.04727305471897125
0.03302653133869171,-0.0005768397240899503,-0.01816132478415966,0.015500789508223534,-0.0030094515532255173,-0.04456181079149246
0.031125418841838837,-0.0005294432048685849,-0.018654830753803253,0.014973215758800507,-0.0029312835540622473,-0.04495605081319809
0.03204887732863426,-0.0005552528309635818,-0.018132852390408516,0.01495596207678318,-0.0029340663459151983,-0.04595412686467171
0.03319922462105751,-0.0005200656596571207,-0.018527811393141747,0.01511056162416935,-0.0028957235626876354,-0.048065561801195145
0.032637402415275574,-0.0005811791634187102,-0.018465852364897728,0.015017306432127953,-0.0031673270277678967,-0.046298351138830185
0.033526524901390076,-0.0006178929470479488,-0.018297340720891953,0.014982931315898895,-0.0036198466550558805,-0.045364994555711746
0.03371084854006767,-0.00063697638688609,-0.018937906250357628,0.014873890206217766,-0.003339775139465928,-0.047197360545396805
0.03324790671467781,-0.0006423352751880884,-0.018359726294875145,0.015583446249365807,-0.002996033290401101,-0.047830209136009216
0.03233494609594345,-0.0006140196928754449,-0.018416643142700195,0.015569666400551796,-0.003033264074474573,-0.04749409481883049
0.0331248864531517,-0.0005688647506758571,-0.018841862678527832,0.016210583969950676,-0.0033883776050060987,-0.04780590906739235
0.034051910042762756,-0.0006451001390814781,-0.018428659066557884,0.015497163869440556,-0.003287451108917594,-0.04800024256110191
0.03362669795751572,-0.0006914890254847705,-0.018764255568385124,0.015954218804836273,-0.0029540753457695246,-0.0477386973798275
0.033308688551187515,-0.0007123567047528923,-0.018329957500100136,0.016172213479876518,-0.0029065522830933332,-0.04826316609978676
0.03365739434957504,-0.0008140106219798326,-0.018840789794921875,0.016202131286263466,-0.0031785950995981693,-0.048444636166095734
0.031907305121421814,-0.0008984833839349449,-0.019377972930669785,0.016175104305148125,-0.0037101416382938623,-0.048383522778749466
0.034665297716856,-0.0008996176766231656,-0.01835477538406849,0.016215240582823753,-0.0038801732007414103,-0.04930509999394417
0.034473784267902374,-0.000890588213223964,-0.018874838948249817,0.015703078359365463,-0.003671439830213785,-0.04869864135980606
0.034572601318359375,-0.000806300959084183,-0.019361911341547966,0.015720095485448837,-0.003171664895489812,-0.04997314140200615
0.0343550406396389,-0.0008461812976747751,-0.018786586821079254,0.015550047159194946,-0.0025419711600989103,-0.04870695248246193
0.034291040152311325,-0.0008548767655156553,-0.01932087354362011,0.016063740476965904,-0.0025535004679113626,-0.04741645231842995
0.035006456077098846,-0.0008609715150669217,-0.01921940967440605,0.015856916084885597,-0.003190393792465329,-0.04896043241024017
0.03519507497549057,-0.0010365775087848306,-0.018623463809490204,0.015893537551164627,-0.0037123956717550755,-0.05062393099069595
0.0349595807492733,-0.0010900584748014808,-0.019003963097929955,0.015278962440788746,-0.003835539799183607,-0.05070611089468002
0.03512873500585556,-0.0011962959542870522,-0.019257182255387306,0.016109326854348183,-0.003354908199980855,-0.04861978068947792
0.03478080779314041,-0.0013677019160240889,-0.018876394256949425,0.015565802343189716,-0.0033141695894300938,-0.04788850247859955
0.0357937328517437,-0.0014867132995277643,-0.019247639924287796,0.015055488795042038,-0.003367648459970951,-0.05013345927000046
0.03545287251472473,-0.0013901933562010527,-0.019361574202775955,0.015145906247198582,-0.0038058876525610685,-0.0501672737300396
0.03552548959851265,-0.0012564188800752163,-0.01881030946969986,0.015435497276484966,-0.003980195615440607,-0.04963255301117897
0.035603273659944534,-0.0013619158416986465,-0.019608628004789352,0.016058089211583138,-0.0036071650683879852,-0.049491800367832184
0.035603273659944534,-0.0013619158416986465,-0.019608628004789352,0.016058089211583138,-0.0036071650683879852,-0.049491800367832184
0.036170557141304016,-0.0012967337388545275,-0.01980096660554409,0.015546080656349659,-0.0031687121372669935,-0.04963618144392967
0.03604092821478844,-0.0016190347960218787,-0.018652234226465225,0.01570097729563713,-0.00328839011490345,-0.04962199181318283
0.03598248213529587,-0.0015800477704033256,-0.019295649603009224,0.015565484762191772,-0.0031653407495468855,-0.049610257148742676
0.03697475790977478,-0.0020530521869659424,-0.019515259191393852,0.01634012907743454,-0.003178574610501528,-0.050164368003606796
0.0343095064163208,-0.001794085605069995,-0.019269905984401703,0.016287272796034813,-0.003350419458001852,-0.04887354373931885
0.0343095064163208,-0.001794085605069995,-0.019269905984401703,0.016287272796034813,-0.003350419458001852,-0.04887354373931885
0.036644719541072845,-0.0017745564691722393,-0.019989749416708946,0.015969667583703995,-0.0033533384557813406,-0.05106581375002861
0.03788650780916214,-0.0017669586231932044,-0.019302478060126305,0.01592683233320713,-0.003185161855071783,-0.050883859395980835
0.03808124363422394,-0.002199840033426881,-0.02016482688486576,0.01563224382698536,-0.0028191206511110067,-0.05023115128278732
0.03838420286774635,-0.002394269686192274,-0.019808754324913025,0.016107242554426193,-0.0027928941417485476,-0.05155731365084648
0.03686058893799782,-0.0022883352357894182,-0.019835852086544037,0.015738656744360924,-0.0032103846315294504,-0.05261307954788208
0.03703658655285835,-0.002169504063203931,-0.019874203950166702,0.01653970777988434,-0.0034920356702059507,-0.050377003848552704
0.037544623017311096,-0.0021459744311869144,-0.020347358658909798,0.017003268003463745,-0.003476143581792712,-0.05061272531747818
0.0382314994931221,-0.002296858699992299,-0.0205793809145689,0.016637936234474182,-0.0032080800738185644,-0.0518508180975914
0.03785724937915802,-0.002104365499690175,-0.02112233266234398,0.017266612499952316,-0.003348982660099864,-0.05303015187382698
0.03727118298411369,-0.002423767698928714,-0.021044423803687096,0.017025476321578026,-0.003111825790256262,-0.05200276896357536
0.03796057775616646,-0.0025009445380419493,-0.020357485860586166,0.01747303642332554,-0.003357360837981105,-0.05238707363605499
0.0379025898873806,-0.0023888235446065664,-0.02027873881161213,0.01671573705971241,-0.003576594404876232,-0.05232328549027443
0.03755434229969978,-0.0023869434371590614,-0.020673563703894615,0.01633259654045105,-0.0034899895545095205,-0.052376434206962585
0.03790634125471115,-0.002163410186767578,-0.02047871984541416,0.016422301530838013,-0.003138195723295212,-0.052543092519044876
0.038069553673267365,-0.002288311254233122,-0.020674124360084534,0.016169017180800438,-0.0029944349080324173,-0.05247613787651062
0.03801123797893524,-0.0025300607085227966,-0.020490257069468498,0.016740843653678894,-0.0032721611205488443,-0.0528469942510128
0.0382639579474926,-0.002442627912387252,-0.018912246450781822,0.016355153173208237,-0.003612394677475095,-0.0533076636493206
0.0382639579474926,-0.002442627912387252,-0.018912246450781822,0.016355153173208237,-0.003612394677475095,-0.0533076636493206
0.03804493322968483,-0.00254364893771708,-0.021606320515275,0.017009522765874863,-0.00389278051443398,-0.052435941994190216
0.038177795708179474,-0.0023626366164535284,-0.022010382264852524,0.016964999958872795,-0.004020031075924635,-0.0523209422826767
0.03993699699640274,-0.002269303658977151,-0.021337658166885376,0.016824079677462578,-0.003557317890226841,-0.05381446331739426
0.039520569145679474,-0.002267685020342469,-0.0208964291960001,0.016904504969716072,-0.0034367553889751434,-0.05331169813871384
0.03720493242144585,-0.002145077334716916,-0.020283406600356102,0.016853539273142815,-0.0035356732551008463,-0.05251781642436981
0.038057807832956314,-0.0023787806276232004,-0.020739087834954262,0.01752404123544693,-0.0037626258563250303,-0.05498803034424782
0.03918952867388725,-0.002984486287459731,-0.02120998501777649,0.01695294678211212,-0.003847989486530423,-0.05434061586856842
0.03890220448374748,-0.0030555592384189367,-0.0215388722717762,0.016909945756196976,-0.003695563180372119,-0.05234980955719948
0.039429157972335815,-0.002942777471616864,-0.021024905145168304,0.016873715445399284,-0.0033061590511351824,-0.053370263427495956
0.03967578709125519,-0.0026503305416554213,-0.02117253467440605,0.01694689877331257,-0.003180266125127673,-0.05602578818798065
0.03827216103672981,-0.0026737141888588667,-0.021520180627703667,0.017603768035769463,-0.0033537752460688353,-0.05403154343366623
0.039145614951848984,-0.0030855678487569094,-0.02149149961769581,0.01742415688931942,-0.0036030493211001158,-0.05192084237933159
0.03947781026363373,-0.0030680818017572165,-0.02123987302184105,0.01760750263929367,-0.003651647362858057,-0.055009596049785614
0.0391918420791626,-0.002953480463474989,-0.02181895449757576,0.017107445746660233,-0.0037101919297128916,-0.054652441293001175
0.038435179740190506,-0.0029922458343207836,-0.02133510634303093,0.017579633742570877,-0.003750362666323781,-0.05420081317424774
0.03916167840361595,-0.0035366537049412727,-0.021238071843981743,0.017397591844201088,-0.0038765789940953255,-0.05488545820116997
0.03946898132562637,-0.0033630752004683018,-0.02199515514075756,0.017327694222331047,-0.004024257883429527,-0.055187735706567764
0.03940799832344055,-0.0035699447616934776,-0.022037679329514503,0.01742083951830864,-0.004114835988730192,-0.05531042441725731
0.03969106450676918,-0.0031668762676417828,-0.021733885630965233,0.0175721887499094,-0.003718198277056217,-0.05529223009943962
0.03985585644841194,-0.003204748732969165,-0.021333100274205208,0.018548278138041496,-0.003476071869954467,-0.055211734026670456
0.03977782651782036,-0.0033222229685634375,-0.02180102840065956,0.019328638911247253,-0.003627334488555789,-0.055824317038059235
0.04047495871782303,-0.003594129579141736,-0.021289173513650894,0.01868407055735588,-0.0038036066107451916,-0.05493877828121185
0.03969081863760948,-0.0033771672751754522,-0.021249588578939438,0.01834074966609478,-0.0038585567381232977,-0.056102801114320755
0.04013688117265701,-0.0031340024434030056,-0.021358797326683998,0.017203375697135925,-0.0035472929012030363,-0.05681077390909195
0.040322840213775635,-0.0034728478640317917,-0.021918868646025658,0.016866911202669144,-0.0033698256593197584,-0.05817779526114464
0.04003731161355972,-0.003714509541168809,-0.021901728585362434,0.017147038131952286,-0.0034724101424217224,-0.05539641156792641
0.04003731161355972,-0.003714509541168809,-0.021901728585362434,0.017147038131952286,-0.0034724101424217224,-0.05539641156792641
0.04069296270608902,-0.003789139213040471,-0.022158589214086533,0.017497876659035683,-0.0037112326826900244,-0.05537445843219757
0.04044518619775772,-0.0033404307905584574,-0.021455207839608192,0.018467288464307785,-0.0038286459166556597,-0.057690177112817764
0.040651705116033554,-0.003307991661131382,-0.02193894051015377,0.018164297565817833,-0.0038447780534625053,-0.05819873884320259
0.041001830250024796,-0.0034703565761446953,-0.021738363429903984,0.017390286549925804,-0.0038263921160250902,-0.055360689759254456
0.04060759022831917,-0.0034550167620182037,-0.021526457741856575,0.017747577279806137,-0.003607650753110647,-0.05655830353498459
0.040016546845436096,-0.0034794651437550783,-0.02135712467133999,0.017411110922694206,-0.0035676956176757812,-0.05651156231760979
0.041015028953552246,-0.00323443952947855,-0.022051449865102768,0.01827458292245865,-0.00361178838647902,-0.056754689663648605
0.042596664279699326,-0.0034796223044395447,-0.02213636040687561,0.018098922446370125,-0.0041439165361225605,-0.05661061406135559
0.039952896535396576,-0.003655306762084365,-0.021877765655517578,0.01774994283914566,-0.004148109350353479,-0.05752035975456238
0.04024796560406685,-0.004250156227499247,-0.02211311273276806,0.0186613779515028,-0.00428531551733613,-0.05717651546001434
0.04174529388546944,-0.0039732493460178375,-0.022246070206165314,0.01764577068388462,-0.004062092397361994,-0.05698917806148529
0.04239124804735184,-0.003597082570195198,-0.02213745377957821,0.01821259781718254,-0.0038859229534864426,-0.05696287378668785
0.040919650346040726,-0.003451255615800619,-0.022014740854501724,0.018639279529452324,-0.003812389215454459,-0.057235199958086014
0.040261927992105484,-0.0036183262709528208,-0.022118544206023216,0.018735526129603386,-0.00384625350125134,-0.056682080030441284
0.04164126515388489,-0.003899173578247428,-0.02273544855415821,0.018711816519498825,-0.004365609493106604,-0.05888914316892624
0.04058108478784561,-0.004392933566123247,-0.023342259228229523,0.01855398155748844,-0.004145507235080004,-0.05860019475221634
0.04255824536085129,-0.004248528741300106,-0.02254832349717617,0.01916428841650486,-0.004134237766265869,-0.05673225224018097
0.042793285101652145,-0.003988087177276611,-0.022442487999796867,0.01970946229994297,-0.0037355965469032526,-0.057275716215372086
0.041338544338941574,-0.003885910613462329,-0.022396448999643326,0.019334236159920692,-0.003525001462548971,-0.05985071137547493
0.04185657575726509,-0.004160214681178331,-0.023060394451022148,0.0195404514670372,-0.0036603750195354223,-0.05833395943045616
0.04130029305815697,-0.004052972886711359,-0.022970976307988167,0.019430536776781082,-0.003856937400996685,-0.057868096977472305
0.0416710264980793,-0.0037760206032544374,-0.022862590849399567,0.01902208849787712,-0.003933677449822426,-0.059188362210989
0.041916437447071075,-0.004310413263738155,-0.022569876164197922,0.019404081627726555,-0.0034627949353307486,-0.060227569192647934
0.041700735688209534,-0.004660257138311863,-0.022592775523662567,0.019388748332858086,-0.0035273367539048195,-0.059976883232593536
0.041716694831848145,-0.004429757595062256,-0.02276703156530857,0.018531974405050278,-0.0033149593509733677,-0.05957980081439018
0.041716694831848145,-0.004429757595062256,-0.02276703156530857,0.018531974405050278,-0.0033149593509733677,-0.05957980081439018
0.043548956513404846,-0.004574250429868698,-0.023025168105959892,0.01898760348558426,-0.0038605278823524714,-0.06000189110636711
0.04225293546915054,-0.0043294611386954784,-0.02260531112551689,0.01895763911306858,-0.0042322780936956406,-0.0601804181933403
0.041136063635349274,-0.0040961322374641895,-0.02278803288936615,0.018200332298874855,-0.0043713743798434734,-0.060247600078582764
0.0428290069103241,-0.003935955464839935,-0.023048674687743187,0.018799442797899246,-0.004298239015042782,-0.06028885021805763
0.04237661883234978,-0.0043893735855817795,-0.022707631811499596,0.018999062478542328,-0.004280197899788618,-0.06088597699999809
0.04363222047686577,-0.004249997902661562,-0.02314925380051136,0.018920624628663063,-0.004318388178944588,-0.0612226240336895
0.04324733093380928,-0.003847756190225482,-0.022792112082242966,0.01918155327439308,-0.004773335997015238,-0.06090116128325462
0.041105251759290695,-0.0030982468742877245,-0.02270541712641716,0.019249202683568,-0.004783628974109888,-0.06110934540629387
0.04287414252758026,-0.0021792729385197163,-0.023104747757315636,0.019169384613633156,-0.00447688065469265,-0.06230247765779495
0.04313678666949272,-0.0020253213588148355,-0.023343529552221298,0.01949196308851242,-0.004093495197594166,-0.05972801521420479
0.04287373274564743,-0.0022359720896929502,-0.023265555500984192,0.019421830773353577,-0.003848954103887081,-0.06040984019637108
0.042886365205049515,-0.0034859899897128344,-0.022577350959181786,0.018909739330410957,-0.003891037544235587,-0.06264658272266388
0.04311588034033775,-0.002914245706051588,-0.02316266857087612,0.01955532468855381,-0.0035960343666374683,-0.06055941432714462
0.04327995330095291,-0.0027319020591676235,-0.023244665935635567,0.019570713862776756,-0.003677011700347066,-0.06175202503800392
0.043653711676597595,-0.002462113741785288,-0.02311263419687748,0.020047897472977638,-0.0038433484733104706,-0.06190931797027588
0.04381939396262169,-0.002988223684951663,-0.022565454244613647,0.020132606849074364,-0.0038732567336410284,-0.061816148459911346
0.043879177421331406,-0.0028469031676650047,-0.022465743124485016,0.019841859117150307,-0.0038204356096684933,-0.062146641314029694
0.04401577264070511,-0.003080668393522501,-0.022664103657007217,0.019924206659197807,-0.003716986859217286,-0.06225648149847984
0.04396077245473862,-0.003033699933439493,-0.022884666919708252,0.020449070259928703,-0.004167678765952587,-0.06227239593863487
0.04355601593852043,-0.0028861353639513254,-0.022738512605428696,0.020191174000501633,-0.004123132210224867,-0.06260444968938828
0.04484155774116516,-0.002859021071344614,-0.022701909765601158,0.01984037272632122,-0.004336528945714235,-0.0628354474902153
0.04412844032049179,-0.0028015815187245607,-0.02333623729646206,0.02009899728000164,-0.004627421498298645,-0.06229033321142197
0.04431922733783722,-0.00274326978251338,-0.023220732808113098,0.02029101736843586,-0.004592203069478273,-0.06369300186634064
0.044118814170360565,-0.002885008230805397,-0.022933075204491615,0.02021653577685356,-0.0047839246690273285,-0.0628829300403595
0.044486820697784424,-0.002803750801831484,-0.023433497175574303,0.02064712531864643,-0.004394247196614742,-0.062308892607688904
0.04467492178082466,-0.0029748063534498215,-0.023213254287838936,0.020239679142832756,-0.0040112747810781,-0.06377489119768143
0.04473723843693733,-0.0031875649001449347,-0.022023353725671768,0.020034614950418472,-0.004169468302279711,-0.06498675048351288
0.04473723843693733,-0.0031875649001449347,-0.022023353725671768,0.020034614950418472,-0.004169468302279711,-0.06498675048351288
0.04399687796831131,-0.003076863707974553,-0.0237902719527483,0.02016085386276245,-0.004014428239315748,-0.06312041729688644
0.04429593309760094,-0.003430507378652692,-0.024213196709752083,0.021063465625047684,-0.0038270994555205107,-0.0635954961180687
0.046240467578172684,-0.003254273207858205,-0.024726485833525658,0.020834404975175858,-0.004082351457327604,-0.06456149369478226
0.0440959706902504,-0.003476810874417424,-0.024010710418224335,0.020451579242944717,-0.0041574034839868546,-0.06438721716403961
0.04391806200146675,-0.0031239332165569067,-0.023816462606191635,0.020078739151358604,-0.004012989345937967,-0.06476116180419922
0.04421503096818924,-0.0032217660918831825,-0.023286210373044014,0.019731882959604263,-0.004329478833824396,-0.06460676342248917
0.045897044241428375,-0.003320290008559823,-0.023618297651410103,0.019575025886297226,-0.004196851048618555,-0.06556008756160736
0.04675335809588432,-0.0031205257400870323,-0.02470667101442814,0.020541220903396606,-0.0043756961822509766,-0.06470759212970734
0.04413694888353348,-0.0035002382937818766,-0.024687403813004494,0.02097131870687008,-0.004135679919272661,-0.06386298686265945
0.04570779576897621,-0.003595029003918171,-0.02383042499423027,0.020718902349472046,-0.004239206667989492,-0.06528178602457047
0.04579867795109749,-0.0037503885105252266,-0.024559270590543747,0.022185198962688446,-0.004626504145562649,-0.06554218381643295
0.04548164829611778,-0.0038038352504372597,-0.024302609264850616,0.022076835855841637,-0.004716252442449331,-0.06409426778554916
0.04523511976003647,-0.0034129132982343435,-0.023886071518063545,0.02107563056051731,-0.0046034823171794415,-0.06654298305511475
0.04543469846248627,-0.003270561806857586,-0.02332928404211998,0.02039402164518833,-0.004204884171485901,-0.06461526453495026
