davideferrari95/blind_handover_controller/data/Test 274 - [2024-02-08 -- 12-55-49]/joint_states_data.csv
shoulder_pan_joint,shoulder_lift_joint,elbow_joint,wrist_1_joint,wrist_2_joint,wrist_3_joint
0.009025146253407001,0.010222092270851135,-0.013299456797540188,0.0044989981688559055,0.00017281551845371723,0.008245700970292091
0.009002086706459522,0.01126142032444477,-0.013329656794667244,0.004628208465874195,0.00017133077199105173,0.008696158416569233
0.008553712628781796,0.010632828809320927,-0.01333756372332573,0.004491851665079594,0.00016751623479649425,0.009259493090212345
0.008553712628781796,0.010632828809320927,-0.01333756372332573,0.004491851665079594,0.00016751623479649425,0.009259493090212345
0.008986221626400948,0.010138602927327156,-0.013406772166490555,0.004538717679679394,0.0001637181849218905,0.009344234131276608
0.008867651224136353,0.00990868080407381,-0.013029152527451515,0.004531778395175934,0.00016007894009817392,0.008865179494023323
0.008532539010047913,0.01013208832591772,-0.01347065344452858,0.004162294324487448,0.0002098869445035234,0.009360747411847115
0.009758159518241882,0.00987873412668705,-0.012815234251320362,0.003901477437466383,0.0002171408268623054,0.009394092485308647
0.009110724553465843,0.01031562127172947,-0.013704728335142136,0.0042847925797104836,0.00020822820079047233,0.009290485642850399
0.008479038253426552,0.009752686135470867,-0.01342080719769001,0.004184257704764605,0.00019908773538190871,0.009524019435048103
0.008719971403479576,0.01003389060497284,-0.01346558053046465,0.003976941108703613,0.0001906560646602884,0.009233248420059681
0.009222731925547123,0.010100220330059528,-0.012968960218131542,0.004267338663339615,0.00020994395890738815,0.00882177148014307
0.00930808112025261,0.010053482837975025,-0.01416014414280653,0.004161785822361708,0.00021028920309618115,0.00930721964687109
0.008859455585479736,0.010680503211915493,-0.013816880993545055,0.003405896248295903,0.00019562507804948837,0.008880757726728916
0.00874777976423502,0.009844026528298855,-0.013567933812737465,0.00343379401601851,0.000188787656952627,0.008855042979121208
0.008277423679828644,0.009360427036881447,-0.013653447851538658,0.003734803991392255,0.00018240991630591452,0.00930052436888218
0.009011357091367245,0.009238817729055882,-0.013709464110434055,0.003943094052374363,0.00020387173572089523,0.008898808620870113
0.008744465187191963,0.009741258807480335,-0.013641211204230785,0.0039032520726323128,0.00019921273633372039,0.008767868392169476
0.008566093631088734,0.00956903025507927,-0.013660762459039688,0.003907129168510437,0.00019321939907968044,0.009100720286369324
0.008002122864127159,0.009752709418535233,-0.013178741559386253,0.004104026593267918,0.00018747667490970343,0.008990736678242683
0.008002122864127159,0.009752709418535233,-0.013178741559386253,0.004104026593267918,0.00018747667490970343,0.008990736678242683
0.008660241030156612,0.009723295457661152,-0.012048894539475441,0.004332009702920914,0.00018205861852038652,0.009206882677972317
0.008664043620228767,0.009132330305874348,-0.013735068030655384,0.004042635206133127,0.00017694506095722318,0.009508980438113213
0.008721820078790188,0.009303716942667961,-0.013784191571176052,0.00383174535818398,0.0001934550964506343,0.009206075221300125
0.008633149787783623,0.010294701904058456,-0.012367495335638523,0.004190499894320965,0.00019125515245832503,0.00876998994499445
0.008503705263137817,0.00937691144645214,-0.013139506801962852,0.004595265723764896,0.00018649293633643538,0.00941865611821413
0.008748375810682774,0.0096152788028121,-0.013113078661262989,0.004235369618982077,0.00018179649487137794,0.008685091510415077
0.008599360473453999,0.010641505010426044,-0.01408050674945116,0.0042474158108234406,0.00017731980187818408,0.00864203367382288
0.00883207842707634,0.009946858510375023,-0.013099084608256817,0.004154703579843044,0.0001730574731482193,0.009201538749039173
0.009262357838451862,0.009824063628911972,-0.012841061688959599,0.0036518771667033434,0.0001689954660832882,0.009189813397824764
0.008500169962644577,0.010181873105466366,-0.012966656126081944,0.00358698982745409,0.00016511954891029745,0.008863368071615696
0.008909999392926693,0.009781992062926292,-0.013633978553116322,0.004183747339993715,0.00016141764353960752,0.008892294019460678
0.00905726570636034,0.009854164905846119,-0.013210735283792019,0.00417695939540863,0.00015787800657562912,0.009161506779491901
0.00862816534936428,0.010001045651733875,-0.012429580092430115,0.003916197456419468,0.00015449029160663486,0.008846262469887733
0.009198307059705257,0.01055438444018364,-0.012967661954462528,0.0037223089020699263,0.00015124490892048925,0.00878475047647953
0.009049811400473118,0.010042979381978512,-0.012494527734816074,0.003649871563538909,0.00014813309826422483,0.008969329297542572
0.00894239917397499,0.009562789462506771,-0.01313829980790615,0.003642881754785776,0.00014514682698063552,0.009157141670584679
0.008654528297483921,0.009410781785845757,-0.012820407748222351,0.003661037888377905,0.00014316175656858832,0.008582612499594688
0.008815023116767406,0.009692314080893993,-0.01343422569334507,0.004104072693735361,0.0001390035467920825,0.008446057327091694
0.008368009701371193,0.009687279351055622,-0.012817388400435448,0.004330623894929886,0.00013093181769363582,0.008791984990239143
0.0088022006675601,0.009972679428756237,-0.012515856884419918,0.004110052715986967,0.00012722972314804792,0.008721403777599335
0.008861007168889046,0.009953871369361877,-0.012109413743019104,0.0037340810522437096,0.00012373109348118305,0.008875885978341103
0.00834703166037798,0.009455084800720215,-0.012762730941176414,0.003446308895945549,0.00012041982699884102,0.008898654021322727
0.008922104723751545,0.010244052857160568,-0.012250091880559921,0.0035842107608914375,0.0001172812917502597,0.009103952907025814
0.009134485386312008,0.010007575154304504,-0.012343281880021095,0.0033972221426665783,0.00011430199083406478,0.00862182304263115
0.009134485386312008,0.010007575154304504,-0.012343281880021095,0.0033972221426665783,0.00011430199083406478,0.00862182304263115
0.00895220972597599,0.009889486245810986,-0.012046336196362972,0.003571690060198307,0.00011147049372084439,0.008517317473888397
0.008897914551198483,0.010042719542980194,-0.012051667086780071,0.0037690154276788235,0.00012907532800454646,0.008822948671877384
0.009219408966600895,0.01036246307194233,-0.012568407692015171,0.003834770992398262,0.00012735510244965553,0.008953808806836605
0.0087027158588171,0.00962064415216446,-0.012289347127079964,0.003984807059168816,0.00012450505164451897,0.009308778680860996
0.008961687795817852,0.010440071113407612,-0.012500124052166939,0.0036372593604028225,0.00012170460831839591,0.008907808922231197
0.009178225882351398,0.009969392791390419,-0.011851444840431213,0.003635294968262315,0.00011902226833626628,0.008922980166971684
0.009129635989665985,0.009434357285499573,-0.012629048898816109,0.004262763075530529,0.00011645530321402475,0.008891057223081589
0.00964117981493473,0.010441840626299381,-0.011999140493571758,0.0038954447954893112,0.0001139969244832173,0.008913778699934483
0.009391509927809238,0.00950841698795557,-0.011758096516132355,0.0035406670067459345,0.00011164005263708532,0.009912879206240177
0.00905325822532177,0.009425018914043903,-0.01187296211719513,0.003609525039792061,0.00010937870683846995,0.008989028632640839
0.008838912472128868,0.010822613723576069,-0.011699803173542023,0.0037112028803676367,0.00010720705904532224,0.008375548757612705
0.009128381498157978,0.010053512640297413,-0.012297529727220535,0.0037400545552372932,0.00010512011067476124,0.008433634415268898
0.00904655922204256,0.009418084286153316,-0.012054888531565666,0.0037308416794985533,0.00010311279766028747,0.00905400700867176
0.008986454457044601,0.01045817881822586,-0.012262185104191303,0.0035623565781861544,0.0001011806889437139,0.008985752239823341
0.008977511897683144,0.009944259189069271,-0.011878409422934055,0.003449956886470318,9.931966633303091e-05,0.008558742702007294
0.009339160285890102,0.00966667477041483,-0.011876211501657963,0.003612919943407178,9.75259390543215e-05,0.009447558782994747
0.009047472849488258,0.010312323458492756,-0.012607080861926079,0.0033085111062973738,0.00010365465277573094,0.009441656991839409
0.009274695068597794,0.010375247336924076,-0.01215134747326374,0.0034383656457066536,0.00010928427946055308,0.009402898140251637
0.009222334250807762,0.009587286040186882,-0.012289836071431637,0.004226471297442913,0.00010789770021801814,0.009289524517953396
0.009238769300282001,0.009914407506585121,-0.011775287799537182,0.0038610808551311493,0.00010435638978378847,0.009193891659379005
0.009143456816673279,0.00986802764236927,-0.012318809516727924,0.0036513202358037233,0.00010265607852488756,0.009141974151134491
0.008949642069637775,0.010339251719415188,-0.011955760419368744,0.003666442120447755,0.00010101014049723744,0.009423620067536831
0.009145944379270077,0.009644798934459686,-0.012506452389061451,0.0037648004945367575,9.941617463482544e-05,0.009216399863362312
0.009529851377010345,0.009270833805203438,-0.012317005544900894,0.0037539040204137564,9.787172893993556e-05,0.008594105020165443
0.009293136186897755,0.010089663788676262,-0.012175971642136574,0.003707613330334425,9.637454786570743e-05,0.009088353253901005
0.009130271151661873,0.009499318897724152,-0.012136299163103104,0.00376340770162642,9.492242679698393e-05,0.00878782756626606
0.009439975023269653,0.009257378987967968,-0.012028173543512821,0.0037563855294138193,9.351348126074299e-05,0.008776860311627388
0.009439975023269653,0.009257378987967968,-0.012028173543512821,0.0037563855294138193,9.351348126074299e-05,0.008776860311627388
0.009535601362586021,0.010529348626732826,-0.012415670789778233,0.0033017550595104694,9.214567398885265e-05,0.008550837635993958
0.009128795005381107,0.009824974462389946,-0.011966940946877003,0.0033441968262195587,9.081739699468017e-05,0.008817949332296848
0.009986680001020432,0.010059524327516556,-0.012030552141368389,0.003370878752321005,8.952682401286438e-05,0.009213472716510296
0.009144721552729607,0.010142059996724129,-0.01171297486871481,0.00347645441070199,8.827243436826393e-05,0.008723285980522633
0.009023791179060936,0.009763840585947037,-0.011863191612064838,0.0036894213408231735,9.786551527213305e-05,0.00900032464414835
0.009741040877997875,0.00974360667169094,-0.01259079109877348,0.0034328617621213198,9.802679414860904e-05,0.00896114856004715
0.008879227563738823,0.00999452080577612,-0.011882586404681206,0.00356932170689106,9.680630319053307e-05,0.009029279462993145
0.00909415539354086,0.009677233174443245,-0.012202231213450432,0.003729459596797824,9.552828123560175e-05,0.009256305173039436
0.009286399930715561,0.009559581987559795,-0.011546527966856956,0.0037568234838545322,9.427790064364672e-05,0.00896089244633913
0.009527086280286312,0.010464092716574669,-0.012318669818341732,0.003469035727903247,9.305935964221135e-05,0.00891849584877491
0.009357557632029057,0.009661807678639889,-0.01238919235765934,0.0030200558248907328,9.187190153170377e-05,0.008814907632768154
0.008860813453793526,0.009419791400432587,-0.012635981664061546,0.002932285889983177,9.071444947039708e-05,0.008994602598249912
0.009324491955339909,0.010493868961930275,-0.013053779490292072,0.0031071347184479237,8.958575926953927e-05,0.008852659724652767
0.008952714502811432,0.009784436784684658,-0.012296526692807674,0.003284891601651907,8.848478319123387e-05,0.008432396687567234
0.009238215163350105,0.009421137161552906,-0.012919686734676361,0.003365838900208473,8.74105462571606e-05,0.008686592802405357
0.009348941035568714,0.009978419169783592,-0.01229408010840416,0.003602618584409356,8.636208804091439e-05,0.008577395230531693
0.009725004434585571,0.009921031072735786,-0.012688305228948593,0.003435396123677492,8.533849177183583e-05,0.00877793226391077
0.00939909741282463,0.009373408742249012,-0.012434876523911953,0.0034645136911422014,8.433886978309602e-05,0.009203819558024406
0.009724890813231468,0.0093369260430336,-0.012595418840646744,0.0033215354196727276,8.24082744657062e-05,0.008968508802354336
0.009174693375825882,0.009023601189255714,-0.01175682246685028,0.003431622637435794,8.147572953021154e-05,0.009214664809405804
0.009956872090697289,0.009609307162463665,-0.012518812902271748,0.003615935333073139,8.056408842094243e-05,0.009363194927573204
0.009694336913526058,0.009695603512227535,-0.012610533274710178,0.003515905700623989,7.967257988639176e-05,0.009166567586362362
0.009146386757493019,0.009558728896081448,-0.012321487069129944,0.0033946093171834946,1.0262770047120284e-05,0.008946348913013935
0.009354239329695702,0.009967641904950142,-0.011741352267563343,0.0038312915712594986,6.70085682941135e-07,0.00909418798983097
0.009832043200731277,0.009197748266160488,-0.01265874132514,0.003887210041284561,4.375181106297532e-08,0.009142161346971989
0.009668754413723946,0.00913227628916502,-0.012563243508338928,0.003593436209484935,2.856680447749227e-09,0.008623333647847176
0.009593251161277294,0.009459203109145164,-0.012220973148941994,0.0033630221150815487,1.8652081268388798e-10,0.009148243814706802
0.009630683809518814,0.009653684683144093,-0.012364516034722328,0.0033377655781805515,1.2178476109514502e-11,0.008683980442583561
0.009630683809518814,0.009653684683144093,-0.012364516034722328,0.0033377655781805515,1.2178476109514502e-11,0.008683980442583561
0.009220628067851067,0.008953212760388851,-0.011996254324913025,0.003534620860591531,7.95167425828025e-13,0.008422395214438438
0.0090855797752738,0.009642284363508224,-0.012482414953410625,0.0036593242548406124,5.191875236481257e-14,0.009460179135203362
0.00996910035610199,0.009327116422355175,-0.011946527287364006,0.0033405148424208164,3.389923687217118e-15,0.00917449127882719
0.009137422777712345,0.009204351343214512,-0.01146549079567194,0.0033764319960027933,2.213377824003272e-16,0.009340137243270874
0.009460600093007088,0.008740534074604511,-0.01196961011737585,0.0034992541186511517,1.4451775052309903e-17,0.009412073530256748
0.009771803393959999,0.0098002590239048,-0.011752690188586712,0.003410580102354288,9.43597701771011e-19,0.009799248538911343
0.009504375979304314,0.008885894902050495,-0.012174096889793873,0.0032777704764157534,6.161018270644825e-20,0.00941385142505169
0.009992352686822414,0.00898012239485979,-0.012354094535112381,0.003291776869446039,4.02270452684825e-21,0.008507128804922104
0.009438041597604752,0.008763025514781475,-0.011885235086083412,0.003601809497922659,2.6265387634420294e-22,0.008760959841310978
0.009596635587513447,0.008493819274008274,-0.0121389701962471,0.0036216420121490955,1.714942113866865e-23,0.009044740349054337
0.009142090566456318,0.008352229371666908,-0.011563785374164581,0.00352086522616446,1.1197347082425107e-24,0.009154402650892735
0.00969782005995512,0.008848292753100395,-0.012266111560165882,0.003576806280761957,7.31106857605826e-26,0.009329772554337978
0.009615211747586727,0.008702391758561134,-0.011935706250369549,0.0031847977079451084,5.3960266086505726e-05,0.009464189410209656
0.009326684288680553,0.008690604008734226,-0.011740896850824356,0.0036247826647013426,5.625765697914176e-05,0.009567809291183949
0.009213163517415524,0.008830564096570015,-0.012421280145645142,0.003925791010260582,5.5754684581188485e-05,0.009772580116987228
0.009129289537668228,0.008808551356196404,-0.01160479336977005,0.0038277171552181244,5.50848817510996e-05,0.00946792308241129
0.009051291272044182,0.00836613867431879,-0.012403133325278759,0.0033111541997641325,5.441956454887986e-05,0.00976236816495657
0.009618299081921577,0.008131253533065319,-0.012459167279303074,0.0030749416910111904,5.376939589041285e-05,0.00984118040651083
0.009789546951651573,0.00893667247146368,-0.012158350087702274,0.0033621934708207846,5.251444599707611e-05,0.008987913839519024
0.009338289499282837,0.008100246079266071,-0.011571584269404411,0.003464403096586466,5.1908664318034425e-05,0.009151305072009563
0.009493933990597725,0.008278299123048782,-0.012381069362163544,0.0035803967621177435,5.1316725148353726e-05,0.009238967671990395
0.009285468608140945,0.008266287855803967,-0.012214372865855694,0.003710607998073101,5.073812644695863e-05,0.009280857630074024
0.009526488371193409,0.008321360684931278,-0.012276964262127876,0.0037200022488832474,5.017241710447706e-05,0.009426870383322239
0.0102121876552701,0.008445849642157555,-0.011802460998296738,0.003745493944734335,2.5151928639388643e-05,0.00910166185349226
0.009119185619056225,0.008245404809713364,-0.011578207835555077,0.0037147391121834517,1.642241272747924e-06,0.009790495038032532
0.009831386618316174,0.008571346290409565,-0.0125639159232378,0.003340649651363492,1.0722662580064934e-07,0.009803078137338161
0.009823886677622795,0.008211282081902027,-0.011467424221336842,0.00340360589325428,7.001132562578505e-09,0.009508585557341576
0.0090645095333457,0.008294792845845222,-0.012075725011527538,0.0036371916066855192,4.5712389429297673e-10,0.009473741985857487
0.009145901538431644,0.008599733002483845,-0.012018189765512943,0.003775389166548848,2.984692354379703e-11,0.009427075274288654
0.009145901538431644,0.008599733002483845,-0.012018189765512943,0.003775389166548848,2.984692354379703e-11,0.009427075274288654
0.009541356936097145,0.007916317321360111,-0.012176195159554482,0.0038220775313675404,1.9487907381571246e-12,0.009560514241456985
0.00925096869468689,0.008102462626993656,-0.012151763774454594,0.0037732189521193504,1.2724211604069752e-13,0.009605643339455128
0.009179266169667244,0.00846354104578495,-0.011719495989382267,0.0033421656116843224,8.307999843366453e-15,0.009508604183793068
0.009757297113537788,0.008854610845446587,-0.012120697647333145,0.003141689347103238,5.424530284323364e-16,0.009854604490101337
0.009487196803092957,0.008972002193331718,-0.011904151178896427,0.0032667575869709253,3.5418308803801695e-17,0.009178003296256065
0.009272752329707146,0.00892335083335638,-0.01246285904198885,0.0031769745983183384,2.3125626937897597e-18,0.00946818757802248
0.009739500470459461,0.00875698309391737,-0.01198909804224968,0.003129121381789446,1.509938075093711e-19,0.009601452387869358
0.009599298238754272,0.008413167670369148,-0.011840969324111938,0.0033775116316974163,9.858816754198616e-21,0.009385352954268456
0.009611696004867554,0.008561474271118641,-0.012324226088821888,0.003650522558018565,6.437102967119539e-22,0.009004227817058563
0.00965937227010727,0.009292182512581348,-0.011812337674200535,0.003771506017073989,4.202968861483408e-23,0.00933698657900095
0.009308069944381714,0.008113136515021324,-0.01245850883424282,0.0037201447412371635,2.7442382383392428e-24,0.009339810349047184
0.009006043896079063,0.008592355996370316,-0.012769618071615696,0.003687856253236532,1.7917914197658728e-25,0.009072573855519295
0.009512831456959248,0.00940783228725195,-0.012222155928611755,0.003233417635783553,1.1699118454706618e-26,0.009559106081724167
0.009732997976243496,0.008824273943901062,-0.012068633921444416,0.0031348441261798143,7.638688345564278e-28,0.009291568771004677
0.009417151100933552,0.008223782293498516,-0.011666100472211838,0.003396017011255026,4.987516980550217e-29,0.009798715822398663
0.009564700536429882,0.008874430321156979,-0.012443055398762226,0.0032862070947885513,3.256492124546269e-30,0.009338874369859695
0.009261642582714558,0.009157233871519566,-0.012080105021595955,0.003583901096135378,2.1262565161600193e-31,0.009633157402276993
0.009667092934250832,0.00864170491695404,-0.012176955118775368,0.003813112387433648,9.064564791911943e-34,0.009185191243886948
0.009698198176920414,0.009462772868573666,-0.013015201315283775,0.004141257610172033,5.918513611316295e-35,0.0093672601506114
0.009237466380000114,0.008813342079520226,-0.012220771051943302,0.004095473326742649,3.8643666493117105e-36,0.009525962173938751
0.009557805024087429,0.008575270883738995,-0.011483780108392239,0.0035583185963332653,2.523155145672328e-37,0.010003725998103619
0.009433556348085403,0.009208019822835922,-0.012655709870159626,0.0035165706649422646,1.6474399026997856e-38,0.009696749970316887
0.009767360053956509,0.008583338931202888,-0.011791162192821503,0.003229728201404214,1.0756605232896231e-39,0.009460031054913998
0.009818575344979763,0.00826779194176197,-0.01250862330198288,0.0032826580572873354,7.023307903195983e-41,0.010234620422124863
0.009476262144744396,0.009162581525743008,-0.01219990849494934,0.0032972649205476046,4.5850485752708015e-42,0.0093966880813241
0.009476262144744396,0.009162581525743008,-0.01219990849494934,0.0032972649205476046,4.5850485752708015e-42,0.0093966880813241
0.008993198163807392,0.009009338915348053,-0.0121195949614048,0.003981204703450203,2.9987787136551085e-43,0.009421625174582005
0.009677029214799404,0.008966514840722084,-0.012417158111929893,0.004081525839865208,1.961817850054744e-44,0.00975775346159935
0.00998020451515913,0.00858385395258665,-0.011953549459576607,0.0038873704615980387,1.401298464324817e-45,0.010131915099918842
0.00957765057682991,0.008523926138877869,-0.012586378492414951,0.003531618043780327,0.0,0.008821213617920876
0.009841141290962696,0.008692744188010693,-0.012127670459449291,0.003459584666416049,0.0,0.008897772058844566
0.009694090113043785,0.008716857060790062,-0.012337812222540379,0.0036245041992515326,0.0,0.009433106519281864
0.009900691919028759,0.008348275907337666,-0.012499415315687656,0.003556351875886321,0.0,0.00941078644245863
0.0097642932087183,0.00873052328824997,-0.011949633248150349,0.003518592333421111,0.0,0.009189131669700146
0.009945621713995934,0.008697248063981533,-0.01246956828981638,0.004004344809800386,0.0,0.009645930491387844
0.009566501714289188,0.008001208305358887,-0.012559482827782631,0.003925064578652382,0.0,0.009823146276175976
0.009843423031270504,0.008566545322537422,-0.013124925084412098,0.003582217963412404,0.0,0.010532272048294544
0.00974979531019926,0.008523735217750072,-0.012659705244004726,0.0034908379893749952,0.0,0.010254203341901302
0.009625091217458248,0.008565005846321583,-0.012827984988689423,0.003644120879471302,0.0,0.009584608487784863
0.009772543795406818,0.008016129955649376,-0.012538398616015911,0.0038500793743878603,0.0,0.009903796948492527
0.009840867482125759,0.008534410037100315,-0.012330606579780579,0.003854628186672926,0.0,0.009819303639233112
0.009657342918217182,0.008526809513568878,-0.012769435532391071,0.003904780140146613,0.0,0.009264182299375534
0.010329958982765675,0.008493907749652863,-0.01258623693138361,0.004129163455218077,0.0,0.009475677274167538
0.009795967489480972,0.008319268934428692,-0.013368191197514534,0.004358177538961172,0.0,0.009882990270853043
0.009839765727519989,0.008316783234477043,-0.01329259853810072,0.003981204237788916,0.0,0.009518592618405819
0.010184158571064472,0.008476540446281433,-0.012428420595824718,0.003451847704127431,0.0,0.009575470350682735
0.010055146180093288,0.008051948621869087,-0.013014271855354309,0.0033967099152505398,0.0,0.009574932977557182
0.010071326978504658,0.007935093715786934,-0.012928018346428871,0.003288759384304285,0.0,0.009586144238710403
0.010642030276358128,0.007897410541772842,-0.013430955819785595,0.003505083965137601,0.0,0.010374829173088074
0.00951350200921297,0.007999596185982227,-0.012839717790484428,0.0038343605119735003,0.0,0.009955511428415775
0.00956198200583458,0.008674705401062965,-0.012847029604017735,0.003986002877354622,0.0,0.009847447276115417
0.010095244273543358,0.007982593029737473,-0.013058421202003956,0.004136309958994389,0.0,0.009322917088866234
0.009627589024603367,0.00784811656922102,-0.012364313937723637,0.0041068862192332745,0.0,0.009416100569069386
0.01031212043017149,0.008170475251972675,-0.01299634575843811,0.003919752314686775,0.0,0.009686539880931377
0.009915505535900593,0.007884862832725048,-0.012773909606039524,0.0038129170425236225,0.0,0.010321671143174171
0.009453639388084412,0.008094321005046368,-0.012994935736060143,0.0041138180531561375,0.0,0.010020159184932709
0.009453639388084412,0.008094321005046368,-0.012994935736060143,0.0041138180531561375,0.0,0.010020159184932709
0.010301090776920319,0.008304155431687832,-0.01229017786681652,0.004142520017921925,0.0,0.009839994832873344
0.009909710846841335,0.00841230247169733,-0.011395079083740711,0.004375002346932888,0.0,0.009835910052061081
0.009741726331412792,0.0082388361915946,-0.013376681134104729,0.004670314956456423,0.0,0.01042721327394247
0.010682922787964344,0.008426887914538383,-0.012670557014644146,0.0045241410844028,0.0,0.01017483975738287
0.01022261194884777,0.00856863521039486,-0.01277147512882948,0.00407602870836854,0.0,0.009913161396980286
0.010569412261247635,0.008280879817903042,-0.012172551825642586,0.003814360359683633,0.0,0.009759915061295033
0.011057638563215733,0.008175765164196491,-0.012950817123055458,0.003763248212635517,0.0,0.009675565175712109
0.008974485099315643,0.007899166084825993,-0.012843635864555836,0.0038084546104073524,0.0,0.009875883348286152
0.010436310432851315,0.008121331222355366,-0.012962843291461468,0.0039477660320699215,0.0,0.010388397611677647
0.011309382505714893,0.008127486333251,-0.012802883982658386,0.004039157647639513,0.0,0.010116050951182842
0.010111643932759762,0.008227468468248844,-0.012036132626235485,0.0038431924767792225,0.0,0.010281333699822426
0.010267934761941433,0.00865958258509636,-0.01262607891112566,0.00377619918435812,0.0,0.010026674717664719
0.010579831898212433,0.008730744011700153,-0.011826538480818272,0.003823799081146717,0.0,0.010164194740355015
0.010423910804092884,0.008093276992440224,-0.01291448250412941,0.0036502659786492586,0.0,0.010577206499874592
0.01105484738945961,0.008210033178329468,-0.01239013671875,0.003578974399715662,0.0,0.01021008100360632
0.010516820475459099,0.008655533194541931,-0.012724907137453556,0.00386855099350214,0.0,0.010186238214373589
0.010289492085576057,0.00813085213303566,-0.012268414720892906,0.004793149419128895,0.0,0.010389949195086956
0.010432586073875427,0.00786340981721878,-0.012356054969131947,0.004961718805134296,0.0,0.010254569351673126
0.010386524721980095,0.007977154105901718,-0.012063802219927311,0.004667036235332489,0.0,0.009919104166328907
0.010692428797483444,0.007916403003036976,-0.01309992279857397,0.0044707185588777065,0.0,0.009892520494759083
0.010350747965276241,0.008278189226984978,-0.012681876309216022,0.004372772760689259,0.0,0.01095766481012106
0.011286330409348011,0.008567668497562408,-0.013096618466079235,0.004083375912159681,0.0,0.010135786607861519
0.010533667169511318,0.008278724737465382,-0.0127759063616395,0.004223243333399296,0.0,0.009269739501178265
0.010080771520733833,0.00781027739867568,-0.012628184631466866,0.004244478885084391,0.0,0.010137474164366722
0.010694442316889763,0.007896121591329575,-0.012540088035166264,0.004121067933738232,0.0,0.010074830614030361
0.01074121706187725,0.008927522227168083,-0.012643334455788136,0.004022623412311077,0.0,0.010544904507696629
0.010627644136548042,0.008040417917072773,-0.013457384891808033,0.003899846225976944,0.0,0.010499900206923485
0.010627644136548042,0.008040417917072773,-0.013457384891808033,0.003899846225976944,0.0,0.010499900206923485
0.010983774438500404,0.0077668302692472935,-0.012470302172005177,0.003864539321511984,0.0,0.010110568255186081
0.01035322155803442,0.0077609592117369175,-0.013084307312965393,0.003915017936378717,0.0,0.010239790193736553
0.010556207038462162,0.007890124805271626,-0.012380151078104973,0.004007110837846994,0.0,0.010854918509721756
0.010904931463301182,0.007472881581634283,-0.013074222952127457,0.004017876926809549,0.0,0.01108501572161913
0.010440711863338947,0.008050937205553055,-0.012630011886358261,0.003948377911001444,0.0,0.010470638051629066
0.011080135591328144,0.007964495569467545,-0.012583477422595024,0.0038937381468713284,0.0,0.010607480071485043
0.011023999191820621,0.008135250769555569,-0.012741653248667717,0.004346206318587065,0.0,0.01016917359083891
0.01072405930608511,0.00779359694570303,-0.012483799830079079,0.004640466067939997,0.0,0.010080152191221714
0.010943005792796612,0.007780238054692745,-0.012864237651228905,0.005002752877771854,0.0,0.010383473709225655
0.01102234423160553,0.007979399524629116,-0.012182681821286678,0.005139379296451807,0.0,0.010271027684211731
0.01134579163044691,0.008103851228952408,-0.012656310573220253,0.005690275225788355,0.0,0.010616151615977287
0.011607649736106396,0.007740672677755356,-0.012656660750508308,0.0054172128438949585,0.0,0.010418698191642761
0.010595793835818768,0.007702185306698084,-0.01260286197066307,0.004753895103931427,0.0,0.010305293835699558
0.010742811486124992,0.008559196256101131,-0.012767890468239784,0.004318468272686005,0.0,0.010304203256964684
0.011149604804813862,0.007870098575949669,-0.012533718720078468,0.004381117876619101,0.0,0.010460174642503262
0.010740349069237709,0.008311966434121132,-0.012845450080931187,0.004760460462421179,0.0,0.010873525403439999
0.011101953685283661,0.00788952223956585,-0.011866636574268341,0.005147202871739864,3.417623929635738e-06,0.011285354383289814
0.011026653461158276,0.008087655529379845,-0.012301978655159473,0.005128511227667332,2.2314640091281035e-07,0.01053723692893982
0.011173352599143982,0.007299616001546383,-0.012751094996929169,0.004803560674190521,9.513079213263609e-10,0.011045349761843681
0.010937478393316269,0.007616005372256041,-0.01298129465430975,0.004319090861827135,6.211360592534021e-11,0.01076937559992075
0.012065993621945381,0.0076974062249064445,-0.012790897861123085,0.004027554765343666,4.05557445265492e-12,0.010641015134751797
0.011507793329656124,0.008101747371256351,-0.012525292113423347,0.004424544516950846,2.6480003628183424e-13,0.01046072132885456
0.010998768731951714,0.007782768923789263,-0.011911165900528431,0.005177485290914774,1.728955012199416e-14,0.010160958394408226
0.011243254877626896,0.00834398902952671,-0.012960315681993961,0.005057725589722395,1.128884007486116e-15,0.010731296613812447
0.011370479129254818,0.0076935430988669395,-0.01208976749330759,0.0047445641830563545,7.370805929879547e-17,0.010622721165418625
0.011367453262209892,0.007454187609255314,-0.013252006843686104,0.004240484442561865,4.8126091821371134e-18,0.010675947181880474
0.01152998860925436,0.007449130993336439,-0.012917404994368553,0.00439093355089426,3.1422900920512616e-19,0.011141040362417698
0.011424391530454159,0.00802228320389986,-0.012971783988177776,0.0046849302016198635,2.05169113155608e-20,0.011121992953121662
0.011602270416915417,0.007909024134278297,-0.012380720116198063,0.004963972605764866,1.339607692919691e-21,0.01122940145432949
0.011602270416915417,0.007909024134278297,-0.012380720116198063,0.004963972605764866,1.339607692919691e-21,0.01122940145432949
0.011525379493832588,0.0075432308949530125,-0.01163664273917675,0.005591666791588068,8.746680195634152e-23,0.01136781182140112
0.011287910863757133,0.007582516875118017,-0.012796120718121529,0.005253176670521498,5.710956551195252e-24,0.010859564878046513
0.011470316909253597,0.008305790834128857,-0.012550551444292068,0.004952199291437864,3.7288463983285044e-25,0.010883771814405918
0.011568551883101463,0.0075455158948898315,-0.013160798698663712,0.004663764964789152,2.434670194024155e-26,0.010692917741835117
0.01203481201082468,0.008048919029533863,-0.012739325873553753,0.0047362251207232475,1.5896657538816327e-27,0.010268166661262512
0.011361326090991497,0.007788653485476971,-0.013017002493143082,0.004960236139595509,1.0379382952924534e-28,0.010777476243674755
0.011551158502697945,0.008095514960587025,-0.012863853015005589,0.005378264002501965,6.776995390230725e-30,0.010850148275494576
0.011794013902544975,0.0078803151845932,-0.012535110116004944,0.0054839965887367725,4.424893636495243e-31,0.010985877364873886
0.011597095057368279,0.0076774596236646175,-0.013663065619766712,0.005069836042821407,2.889139125532237e-32,0.011045482009649277
0.011480197310447693,0.008170519955456257,-0.013421637006103992,0.005081364884972572,1.886401375446944e-33,0.010817041620612144
0.011710437014698982,0.008426899090409279,-0.013576418161392212,0.004720780532807112,1.2316851618846266e-34,0.011089990846812725
0.01206293422728777,0.007787225767970085,-0.012601853348314762,0.004987398162484169,8.042023636583084e-36,0.011204516515135765
0.01227287482470274,0.007613374385982752,-0.013684198260307312,0.004866141360253096,5.250866235972935e-37,0.012180322781205177
0.011858480982482433,0.008203974924981594,-0.012613708153367043,0.004861385561525822,3.428440364631298e-38,0.01149840373545885
0.011949230916798115,0.007937205024063587,-0.013228665105998516,0.004753661807626486,2.2385266526111082e-39,0.010792220011353493
0.012026576325297356,0.008169356733560562,-0.013312009163200855,0.00471851509064436,-0.00013561078230850399,0.011281550861895084
0.01235632598400116,0.007931591011583805,-0.013539476320147514,0.0048034461215138435,-0.00014778936747461557,0.011238530278205872
0.01229269988834858,0.008356240577995777,-0.013604875653982162,0.004935324192047119,-0.00014414198813028634,0.011231099255383015
0.012124564498662949,0.007639850489795208,-0.013182495720684528,0.00550525076687336,-0.0001556061179144308,0.011455667205154896
0.011960090138018131,0.0075757806189358234,-0.012447413988411427,0.0058555095456540585,-0.0001574243069626391,0.011439408175647259
0.012635686434805393,0.00795827992260456,-0.013463483192026615,0.0055051217786967754,-0.00017555976228322834,0.0115983160212636
0.012440045364201069,0.007456295657902956,-0.013343370519578457,0.005757900886237621,-0.00017379825294483453,0.011514410376548767
0.01251242682337761,0.007351599633693695,-0.01343066617846489,0.005727472715079784,-0.0001693280937615782,0.011624019593000412
0.012476036325097084,0.007955944165587425,-0.012739509344100952,0.006034985650330782,-0.00018536280549596995,0.011124752461910248
0.012114515528082848,0.00822465680539608,-0.013118043541908264,0.005797801073640585,-0.00018345734861213714,0.01184419821947813
0.012568432837724686,0.007831073366105556,-0.012877239845693111,0.005322153214365244,-0.00017917928926181048,0.011502289213240147
0.012171722017228603,0.00764568243175745,-0.013557805679738522,0.0049994029104709625,-0.00034260464599356055,0.011200440116226673
0.012171722017228603,0.00764568243175745,-0.013557805679738522,0.0049994029104709625,-0.00034260464599356055,0.011200440116226673
0.012750736437737942,0.008349132724106312,-0.01366445142775774,0.004874865058809519,-0.0003291339671704918,0.011211246252059937
0.01284107007086277,0.007760233711451292,-0.013546803034842014,0.005126957781612873,-0.0003605145902838558,0.011198020540177822
0.012990422546863556,0.007472848054021597,-0.013349255546927452,0.005433395504951477,-0.00034478725865483284,0.011523162946105003
0.013201385736465454,0.007397763896733522,-0.012577583082020283,0.005734403617680073,-0.00036437594098970294,0.011598508805036545
0.012656533159315586,0.008097948506474495,-0.012981618754565716,0.005290865432471037,-0.0003562528290785849,0.011879898607730865
0.013176760636270046,0.007950124330818653,-0.012850512750446796,0.0056744953617453575,-0.0003735594218596816,0.011868149042129517
0.012622099369764328,0.007580026984214783,-0.013590449467301369,0.005433508660644293,-0.0003657924535218626,0.011867733672261238
0.013327489607036114,0.007432888261973858,-0.012920820154249668,0.005833744537085295,-0.00042508801561780274,0.012052400037646294
0.012707016430795193,0.008894880302250385,-0.013207481242716312,0.005536629352718592,-0.0004546321870293468,0.011910355649888515
0.012810948304831982,0.008103713393211365,-0.012712386436760426,0.005915228743106127,-0.00041721362504176795,0.011350693181157112
0.013140635564923286,0.007696842309087515,-0.01318007055670023,0.005533747375011444,-0.00038206554017961025,0.011892327107489109
0.013058525510132313,0.0077665443532168865,-0.013121244497597218,0.0054243095219135284,-0.0003521580365486443,0.011922263540327549
0.012990598566830158,0.008244846016168594,-0.013582069426774979,0.005642441101372242,-0.000374575232854113,0.012189065106213093
0.013360358774662018,0.008165976963937283,-0.013319818302989006,0.00596205797046423,-0.0003642323426902294,0.011950334534049034
0.013470019213855267,0.0077881342731416225,-0.012747712433338165,0.005530293565243483,-0.00034212321043014526,0.011883730068802834
0.01317210029810667,0.008114228025078773,-0.013125221244990826,0.005811677780002356,-0.0003478957514744252,0.012359987013041973
0.013274871744215488,0.007561867590993643,-0.013713479042053223,0.005998104345053434,-0.00033531460212543607,0.01191001944243908
0.013667592778801918,0.007360042538493872,-0.013061263598501682,0.0059102303348481655,-0.000357848679414019,0.012074625119566917
0.013414123095571995,0.007937900722026825,-0.013509467244148254,0.006014584098011255,-0.0003460476000327617,0.012002626433968544
0.013804774731397629,0.00756119517609477,-0.0124318553134799,0.00638235779479146,-0.000330511451466009,0.012095682322978973
0.013392689637839794,0.007751020602881908,-0.012933550402522087,0.006553955376148224,-0.00031602420494891703,0.011944161728024483
0.013735871762037277,0.007619926240295172,-0.012960017658770084,0.006142846308648586,-0.0003030340594705194,0.012111151590943336
0.013566389679908752,0.008236884139478207,-0.013563833199441433,0.005781244952231646,-0.000279237050563097,0.012137370184063911
0.013966494239866734,0.008275083266198635,-0.013693613931536674,0.005651840940117836,-0.00026260659797117114,0.011964836157858372
0.013781998306512833,0.007981355302035809,-0.012946450151503086,0.006299497094005346,-0.00024810017202980816,0.012072558514773846
0.01403755508363247,0.007679663598537445,-0.013299651443958282,0.006267188116908073,-0.0002351309231016785,0.012244485318660736
0.013847488909959793,0.007974561303853989,-0.012522409670054913,0.006080681923776865,-0.00022345125034917146,0.012753666378557682
0.013977990485727787,0.007527969777584076,-0.013156410306692123,0.006346151232719421,-0.00021287749405018985,0.012108762748539448
0.013977990485727787,0.007527969777584076,-0.013156410306692123,0.006346151232719421,-0.00021287749405018985,0.012108762748539448
0.013976695947349072,0.007741539739072323,-0.0133955804631114,0.0059001087211072445,-0.00023318635066971183,0.012327671982347965
0.013976695947349072,0.007741539739072323,-0.0133955804631114,0.0059001087211072445,-0.00023318635066971183,0.012327671982347965
0.013994665816426277,0.008130309171974659,-0.012887686491012573,0.0065172649919986725,-0.00022368588543031365,0.013124518096446991
0.014023528434336185,0.007884277030825615,-0.013304281048476696,0.006678283680230379,-0.00021479710994753987,0.012281389907002449
0.01394461840391159,0.0077838897705078125,-0.012888806872069836,0.006302471738308668,-0.00020657919230870903,0.01190485805273056
0.014053636230528355,0.007748960051685572,-0.01322280615568161,0.006198693532496691,-0.00019896659068763256,0.012470665387809277
0.0145312724635005,0.008105307817459106,-0.013321158476173878,0.006562891416251659,-0.00019189502927474678,0.012577516958117485
0.014289644546806812,0.007799836806952953,-0.013019169680774212,0.006737382151186466,-0.0001853090652730316,0.012806760147213936
0.014331988990306854,0.007627542596310377,-0.013062533922493458,0.006326708011329174,-0.00017916012438945472,0.012924480251967907
0.014299272559583187,0.008131909184157848,-0.012608876451849937,0.006033582147210836,-0.00020035744819324464,0.013274144381284714
0.014781884849071503,0.007850037887692451,-0.013127551414072514,0.006112928036600351,-0.00019588481518439949,0.013021381571888924
0.014172530733048916,0.007499756291508675,-0.01283673569560051,0.0063058738596737385,-0.0001900888019008562,0.013093989342451096
0.01411342527717352,0.007533852942287922,-0.01337925624102354,0.006128295324742794,-0.0001845278311520815,0.012999088503420353
0.01422838680446148,0.008117484860122204,-0.01281457208096981,0.006009500939399004,-0.00017927694716490805,0.01285118144005537
0.014504890888929367,0.007938572205603123,-0.013050420209765434,0.006118456833064556,-0.00019754620734602213,0.013121468015015125
0.014546641148626804,0.007662341929972172,-0.01278643123805523,0.006141273304820061,-0.00019374523253645748,0.012865574099123478
0.014373491518199444,0.008110890164971352,-0.013530082069337368,0.0062001957558095455,-0.000186149452929385,0.012289110571146011
0.014513303525745869,0.007869580760598183,-0.012934282422065735,0.0064635430462658405,-0.00018135881691705436,0.012501996010541916
0.014352348633110523,0.007668349426239729,-0.013608403503894806,0.006072661839425564,-0.00017450186714995652,0.012768984772264957
0.014619280584156513,0.008413991890847683,-0.012820887379348278,0.006069600116461515,-0.00016799801960587502,0.013027194887399673
0.01440285611897707,0.008402284234762192,-0.013508711941540241,0.006673614494502544,-0.0001921478396980092,0.013314660638570786
0.014858951792120934,0.007876432500779629,-0.01342077273875475,0.006931831128895283,-0.00018744631961453706,0.012910264544188976
0.014693000353872776,0.007609989959746599,-0.013721568509936333,0.006330406293272972,-0.00018128154624719173,0.012802126817405224
0.01480831764638424,0.008268452249467373,-0.013027552515268326,0.005940109025686979,-0.00017540101544000208,0.012403946369886398
0.014489839784801006,0.008034569211304188,-0.013654153794050217,0.006170266307890415,-0.00019084590894635767,0.01328570768237114
0.014489839784801006,0.008034569211304188,-0.013654153794050217,0.006170266307890415,-0.00019084590894635767,0.01328570768237114
0.014816371724009514,0.008074174635112286,-0.013446914963424206,0.006353465840220451,-0.00018643203657120466,0.01311416644603014
0.014816371724009514,0.008074174635112286,-0.013446914963424206,0.006353465840220451,-0.00018643203657120466,0.01311416644603014
0.014408404007554054,0.008520296774804592,-0.013885841704905033,0.006192163564264774,-0.00019379844889044762,0.01326830592006445
0.015190931968390942,0.007687051314860582,-0.013697178103029728,0.006035442464053631,-0.00020033046894241124,0.013135775923728943
0.014753615483641624,0.007738493382930756,-0.013391596265137196,0.006541947368532419,-0.00019566512492019683,0.013184573501348495
0.014916893094778061,0.007912595756351948,-0.013822351582348347,0.006797542795538902,-0.0001905376120703295,0.012973539531230927
0.0149680245667696,0.008069963194429874,-0.0140121104195714,0.0064167361706495285,-0.00018562811601441354,0.012929704040288925
0.014954962767660618,0.006943800486624241,-0.013463228940963745,0.006171546410769224,-0.0002668150991667062,0.012717843987047672
0.013359343633055687,0.006122235674411058,-0.013852802105247974,0.006443536374717951,-0.0002635713026393205,0.013043146580457687
0.015399531461298466,0.007131499703973532,-0.013537626713514328,0.006956848781555891,-0.0002740957716014236,0.013079855591058731
0.01568005047738552,0.0077454643324017525,-0.01385441143065691,0.006947788875550032,-0.0002823235117830336,0.013664886355400085
0.015287630259990692,0.007032595109194517,-0.013229236006736755,0.006739413365721703,-0.00026969576720148325,0.013260933570563793
0.014832964166998863,0.006624882109463215,-0.013742098584771156,0.0072024427354335785,-0.00025695504155009985,0.013734180480241776
0.015188667923212051,0.006778591778129339,-0.013462522998452187,0.007026548031717539,-0.0002754779998213053,0.013676843605935574
0.014762312173843384,0.006965163163840771,-0.01415762584656477,0.006927892100065947,-0.00027303339447826147,0.013998069800436497
0.015816854313015938,0.0068115172907710075,-0.01346969697624445,0.006730568129569292,-0.00028061523335054517,0.013888346031308174
0.015350792557001114,0.006964193191379309,-0.01373977493494749,0.0071341414004564285,-0.00028656600625254214,0.013549684546887875
0.015907181426882744,0.006278967019170523,-0.013390506617724895,0.007618951145559549,-0.00027731439331546426,0.013682479970157146
0.015494431369006634,0.0065748430788517,-0.01413952000439167,0.007794239092618227,-0.0003764695720747113,0.013538869097828865
0.015823861584067345,0.006673578172922134,-0.013990752398967743,0.006874205078929663,-0.000392821675632149,0.013698285445570946
0.015247808769345284,0.006751596461981535,-0.014096464030444622,0.0070097725838422775,-0.00036812169128097594,0.015075876377522945
0.015128289349377155,0.006532704923301935,-0.013929727487266064,0.007196823135018349,-0.00037268083542585373,0.013239097781479359
0.015241488814353943,0.006806050892919302,-0.013886124826967716,0.006973680108785629,-0.00037613496533595026,0.01344548910856247
0.0158395916223526,0.0065340083092451096,-0.014163745567202568,0.006087441463023424,-0.0003565254155546427,0.013488814234733582
0.015693144872784615,0.006786847487092018,-0.013890154659748077,0.006353557575494051,-0.0003824192681349814,0.013628659769892693
0.016069700941443443,0.00677293399348855,-0.014145808294415474,0.006555634085088968,-0.0003659141075331718,0.01339966431260109
0.015406479127705097,0.006549833342432976,-0.014049308374524117,0.006384480744600296,-0.00043968023965135217,0.013688861392438412
0.01586734876036644,0.006936713121831417,-0.013884073123335838,0.0065728118643164635,-0.0004904389497824013,0.013843915425240993
0.01586734876036644,0.006936713121831417,-0.013884073123335838,0.0065728118643164635,-0.0004904389497824013,0.013843915425240993
0.015638990327715874,0.006610623560845852,-0.014075102284550667,0.007129192352294922,-0.0005255449214018881,0.014111929573118687
0.016053281724452972,0.006392123177647591,-0.014138703234493732,0.008138895034790039,-0.0005547117907553911,0.014116811566054821
0.016141099855303764,0.007142242975533009,-0.014239483512938023,0.008238672278821468,-0.0009022379526868463,0.014233382418751717
0.0159087385982275,0.006884080357849598,-0.013618538156151772,0.008221443742513657,-0.0008009931189008057,0.01432714331895113
0.016214897856116295,0.0065730782225728035,-0.013897539116442204,0.007758810184895992,-0.000747760059311986,0.01422908529639244
0.016303731128573418,0.0066040209494531155,-0.013677394948899746,0.007931478321552277,-0.0007068297709338367,0.01426790002733469
0.016498232260346413,0.006406101863831282,-0.013797868974506855,0.007538673933595419,-0.000628214271273464,0.014518619515001774
0.01620190404355526,0.007094590924680233,-0.013124333694577217,0.007164166774600744,-0.0006435253308154643,0.01450819056481123
0.016548186540603638,0.007460186257958412,-0.014196686446666718,0.00723386462777853,-0.0005937626701779664,0.014455443248152733
0.016320353373885155,0.0067062051966786385,-0.013954329304397106,0.0074496204033494,-0.000543227419257164,0.014252522960305214
0.016632072627544403,0.006481949705630541,-0.014441125094890594,0.0071853152476251125,-0.0005346977850422263,0.014369639568030834
0.016741305589675903,0.006861245259642601,-0.013757004402577877,0.007167248521000147,-0.0005270835245028138,0.014299970120191574
0.016443796455860138,0.007043836172670126,-0.014261324889957905,0.007433732971549034,-0.0004930366994813085,0.014813042245805264
0.016846681013703346,0.006874511018395424,-0.013738318346440792,0.007011439651250839,-0.0004001862253062427,0.014997001737356186
0.01676430180668831,0.006423888728022575,-0.014117718674242496,0.008632298558950424,-0.00039534823736175895,0.014881077222526073
0.016986297443509102,0.006417654920369387,-0.013828268274664879,0.008461917750537395,-0.00039750448195263743,0.014711436815559864
0.01703265868127346,0.0068229082971811295,-0.014419524930417538,0.007929098792374134,-0.0004257417458575219,0.0149082001298666
0.01648864708840847,0.0061516184359788895,-0.013918853364884853,0.007513286080211401,-0.00044847538811154664,0.014976520091295242
0.016924267634749413,0.006134087685495615,-0.014135748147964478,0.007134166080504656,-0.0006323499837890267,0.014662370085716248
0.017187468707561493,0.0061810617335140705,-0.014425771310925484,0.0073233903385698795,-0.0006845509633421898,0.014914218336343765
0.016845514997839928,0.006743305828422308,-0.013939796015620232,0.007923793978989124,-0.0006214730092324317,0.014301109127700329
0.017166119068861008,0.006411174312233925,-0.014730528928339481,0.007979029789566994,-0.0006381822167895734,0.014191443100571632
0.017098715528845787,0.006285375915467739,-0.014287286438047886,0.0077246627770364285,-0.0005893376073800027,0.014440242201089859
0.017267165705561638,0.006027203984558582,-0.014679061248898506,0.007602726109325886,-0.0006111060502007604,0.014738821424543858
0.017598072066903114,0.006573394872248173,-0.014172201976180077,0.007591771427541971,-0.0005676115397363901,0.01476161740720272
0.01700303889811039,0.00692593352869153,-0.01466713473200798,0.008039710111916065,-0.0005827472195960581,0.015387522988021374
0.01733148656785488,0.006255272775888443,-0.014179866760969162,0.00813338439911604,-0.0005251311813481152,0.01572875678539276
0.017720956355333328,0.006336529739201069,-0.014878311194479465,0.008111270144581795,-0.0005517497775144875,0.015444930642843246
0.017720956355333328,0.006336529739201069,-0.014878311194479465,0.008111270144581795,-0.0005517497775144875,0.015444930642843246
0.017468322068452835,0.006431151181459427,-0.014112750068306923,0.008399578742682934,-0.0005105535965412855,0.014747316017746925
0.01808321662247181,0.007209001109004021,-0.014986207708716393,0.007974214851856232,-0.0005393559113144875,0.01482380647212267
0.017778143286705017,0.00688876723870635,-0.013894112780690193,0.00868088100105524,-0.0005011832108721137,0.0150946956127882
0.01736534759402275,0.006290603429079056,-0.014677826315164566,0.008179644122719765,-0.0004966906853951514,0.015377352014183998
0.018161214888095856,0.006278143264353275,-0.014529417268931866,0.007587824948132038,-0.0004921834915876389,0.015179373323917389
0.017748160287737846,0.006897359155118465,-0.015045246109366417,0.007804356049746275,-0.00046520744217559695,0.014645217917859554
0.017800766974687576,0.0069757564924657345,-0.014374778605997562,0.008360669948160648,-0.00046169734559953213,0.014522524550557137
0.017990954220294952,0.006279678549617529,-0.015101883560419083,0.008363649249076843,-0.0004213344946037978,0.01474736724048853
0.017930541187524796,0.006264412309974432,-0.014547388069331646,0.008444523438811302,-0.0003853989182971418,0.014783271588385105
0.017058974131941795,0.005775951314717531,-0.015336439944803715,0.008771429769694805,-0.0004209425824228674,0.01562778651714325
0.01789296232163906,0.006541493348777294,-0.014722881838679314,0.008520716801285744,-0.00039447867311537266,0.01491630170494318
0.018200144171714783,0.0067052640952169895,-0.01481326948851347,0.008386176079511642,-0.0003678696812130511,0.014655541628599167
0.0184111800044775,0.0062320721335709095,-0.014574982225894928,0.00824661459773779,-0.00037232128670439124,0.01561013050377369
0.018184712156653404,0.006159244105219841,-0.01519106887280941,0.008514664135873318,-0.0003757865633815527,0.015374532900750637
0.01795640029013157,0.0066453926265239716,-0.014920374378561974,0.008893969468772411,-0.0003562122874427587,0.015472464263439178
0.018380949273705482,0.006947471294552088,-0.015053831972181797,0.008238693699240685,-0.0003789410402532667,0.015343939885497093
0.018182823434472084,0.006849114317446947,-0.014931468293070793,0.00869219284504652,-0.00036541864392347634,0.015591616742312908
0.01833363249897957,0.006447564344853163,-0.015015391632914543,0.009196126833558083,-0.0003481191524770111,0.015357956290245056
0.018120164051651955,0.006918872240930796,-0.0153904277831316,0.008518882095813751,-0.00032286596251651645,0.015248080715537071
0.018542468547821045,0.0071498858742415905,-0.01548429299145937,0.00888165645301342,-0.00035363188362680376,0.015615361742675304
0.01818869821727276,0.006592110265046358,-0.015401594340801239,0.009122156538069248,-0.0003385843592695892,0.015907416120171547
0.018058471381664276,0.006292612757533789,-0.01593749411404133,0.009143450297415257,-0.0003582138742785901,0.016055822372436523
0.018503965809941292,0.0070870849303901196,-0.015412097796797752,0.00935711245983839,-0.00035055846092291176,0.016066642478108406
0.018582405522465706,0.007691051810979843,-0.0156805869191885,0.009110559709370136,-0.000377114221919328,0.01595163717865944
0.01926213502883911,0.006580764893442392,-0.014591481536626816,0.00869594607502222,-0.0005396729684434831,0.01614389941096306
0.01852123998105526,0.006495656445622444,-0.015630949288606644,0.009060489945113659,-0.0005343516822904348,0.015955837443470955
0.018351951614022255,0.006974999327212572,-0.015235645696520805,0.009327113628387451,-0.0005702534690499306,0.01636485941708088
0.018706228584051132,0.0069626569747924805,-0.015672409906983376,0.008978718891739845,-0.0005960726994089782,0.015964603051543236
0.01851140893995762,0.0072447024285793304,-0.016080981120467186,0.008724904619157314,-0.0006224691751413047,0.016409428790211678
0.018244246020913124,0.006580614950507879,-0.015980873256921768,0.009579812176525593,-0.000691453053150326,0.0160498209297657
0.018657661974430084,0.00648833392187953,-0.015624008141458035,0.009170210920274258,-0.0006908304640091956,0.01598474383354187
0.018872352316975594,0.006798406597226858,-0.015063396655023098,0.009418433532118797,-0.0007084401440806687,0.016331546008586884
0.018872352316975594,0.006798406597226858,-0.015063396655023098,0.009418433532118797,-0.0007084401440806687,0.016331546008586884
0.018494747579097748,0.007309013046324253,-0.015468322671949863,0.00955884624272585,-0.0007166225695982575,0.016348332166671753
0.01888926699757576,0.006937464699149132,-0.015634998679161072,0.009130913764238358,-0.0006655361503362656,0.01671944558620453
0.01901101879775524,0.006712411530315876,-0.016194041818380356,0.008874163031578064,-0.0006833235966041684,0.016213884577155113
0.018778005614876747,0.006636543665081263,-0.015323048457503319,0.009263786487281322,-0.0007136737112887204,0.016408883035182953
0.01918327435851097,0.006921947002410889,-0.01601472683250904,0.009301385842263699,-0.000738327915314585,0.01665135659277439
0.018916642293334007,0.006908361800014973,-0.01520479004830122,0.00920250453054905,-0.000765669159591198,0.016754770651459694
0.018869202584028244,0.0070653995499014854,-0.015749569982290268,0.009549424983561039,-0.0007885288796387613,0.016836080700159073
0.019502142444252968,0.007068163249641657,-0.015466514974832535,0.009323726408183575,-0.0011100858682766557,0.016772979870438576
0.01913517154753208,0.00760369747877121,-0.01569063402712345,0.008774936199188232,-0.0010923106456175447,0.017078252509236336
0.019087940454483032,0.007076216395944357,-0.01575273834168911,0.009534528478980064,-0.0010641395347192883,0.016759546473622322
0.019650882109999657,0.007462731096893549,-0.015569552779197693,0.009866020642220974,-0.0009554251446388662,0.016814205795526505
0.018962256610393524,0.0069375475868582726,-0.01583418808877468,0.009400857612490654,-0.000898473197594285,0.016498195007443428
0.019675150513648987,0.007426864933222532,-0.015981003642082214,0.010925866663455963,-0.0007762769237160683,0.016798371449112892
0.019350124523043633,0.007213630247861147,-0.015487040393054485,0.00968184880912304,-0.0007648946484550834,0.01655387133359909
0.01916397176682949,0.007038815878331661,-0.015885422006249428,0.009646623395383358,-0.0007047020480968058,0.0170634463429451
0.01966959238052368,0.007129933685064316,-0.014925647526979446,0.010385973379015923,-0.0007193887722678483,0.017002668231725693
0.01975669339299202,0.007009556517004967,-0.015697909519076347,0.009282619692385197,-0.0006670368602499366,0.017339173704385757
0.0192283745855093,0.006621959153562784,-0.015780646353960037,0.00960594043135643,-0.0005947647732682526,0.017469989135861397
0.019274285063147545,0.007007070817053318,-0.015607153996825218,0.010502140037715435,-0.0005261301412247121,0.016974102705717087
0.019274285063147545,0.007007070817053318,-0.015607153996825218,0.010502140037715435,-0.0005261301412247121,0.016974102705717087
0.01995750144124031,0.007449393626302481,-0.01600528322160244,0.00932374782860279,-0.0005111561622470617,0.017217840999364853
0.019977301359176636,0.006763668730854988,-0.016347674652934074,0.009672594256699085,-0.0005048816674388945,0.017351092770695686
0.019977301359176636,0.006763668730854988,-0.016347674652934074,0.009672594256699085,-0.0005048816674388945,0.017351092770695686
0.019963229075074196,0.006655214354395866,-0.015650415793061256,0.009196766652166843,-0.000499073532409966,0.01774062216281891
0.019755203276872635,0.006917594466358423,-0.016288146376609802,0.010085327550768852,-0.00046449751243926585,0.01741928607225418
0.02010265178978443,0.007592734880745411,-0.015681250020861626,0.010226239450275898,-0.00048611470265313983,0.017238089814782143
0.019923429936170578,0.007124040275812149,-0.016163771972060204,0.009884832426905632,-0.0004621927801053971,0.017054883763194084
0.01996138133108616,0.006870572920888662,-0.01542622596025467,0.010335896164178848,-0.0004464713856577873,0.017014123499393463
0.020689230412244797,0.006266643293201923,-0.015526977367699146,0.010024032555520535,-0.0004089499416295439,0.01777348853647709
0.021219661459326744,0.006113171111792326,-0.015840036794543266,0.00935112964361906,-0.0003750339092221111,0.016779566183686256
0.02123136818408966,0.006070561707019806,-0.01642414927482605,0.009692382998764515,-0.0004105067055206746,0.01737777329981327
0.020695503801107407,0.006123555824160576,-0.016015298664569855,0.01014585979282856,-0.00038539175875484943,0.017988573759794235
0.019743479788303375,0.005950381048023701,-0.015571425668895245,0.009798610582947731,-0.0003599610354285687,0.01832137443125248
0.02046983130276203,0.0061814808286726475,-0.016041120514273643,0.010241475887596607,-0.00033747078850865364,0.018503030762076378
0.020492572337388992,0.006617190781980753,-0.01584804616868496,0.01050608977675438,-0.0003176127793267369,0.01758989877998829
0.020642681047320366,0.006224002689123154,-0.016013484448194504,0.00993971899151802,-0.00033681452623568475,0.016829263418912888
0.020986618474125862,0.006210435647517443,-0.015365001745522022,0.010441942140460014,-0.0003306743165012449,0.016719862818717957
0.02095816470682621,0.006024883594363928,-0.015983540564775467,0.010723728686571121,-0.0003148967516608536,0.017742954194545746
0.02089684270322323,0.006000990513712168,-0.015606323257088661,0.010128944180905819,-0.0002999491698574275,0.018307136371731758
0.02142588049173355,0.005965870339423418,-0.016034895554184914,0.010326888412237167,-0.00031229277374222875,0.01787342131137848
0.021633386611938477,0.0059234327636659145,-0.01609518751502037,0.010226934216916561,-0.0002999036223627627,0.017957884818315506
0.02093367464840412,0.0054048942402005196,-0.0162064116448164,0.010717790573835373,-0.0002879480889532715,0.018187986686825752
0.02085023745894432,0.0058451248332858086,-0.015568921342492104,0.010098844766616821,-0.0002731753047555685,0.019482724368572235
0.021295927464962006,0.006391962058842182,-0.01631750352680683,0.010396185331046581,-0.0002545202733017504,0.01966407336294651
0.021730193868279457,0.006033714860677719,-0.015570513904094696,0.010481375269591808,-0.00024069211212918162,0.01856745220720768
0.02157786302268505,0.005604865029454231,-0.016017507761716843,0.01002562791109085,-0.0002284549700561911,0.018078560009598732
0.021754015237092972,0.005570373963564634,-0.015771539881825447,0.010147588327527046,-0.0002579119463916868,0.017821503803133965
0.021952325478196144,0.006181615404784679,-0.016163628548383713,0.010831254534423351,-0.00024867377942427993,0.018147533759474754
0.02192690409719944,0.00669061066582799,-0.016460416838526726,0.010299542918801308,-0.00023788846738170832,0.018903302028775215
0.021811671555042267,0.006221518851816654,-0.016405440866947174,0.010289677418768406,-0.0002278598549310118,0.019127916544675827
0.021955594420433044,0.006223862059414387,-0.016936058178544044,0.010581523180007935,-0.00025021680630743504,0.01909031718969345
0.021955594420433044,0.006223862059414387,-0.016936058178544044,0.010581523180007935,-0.00025021680630743504,0.01909031718969345
0.022344259545207024,0.005996816325932741,-0.016184231266379356,0.010312984697520733,-0.0002448274753987789,0.019019249826669693
0.022056879475712776,0.0059240213595330715,-0.01678372360765934,0.01024676114320755,-0.00023594072263222188,0.01877436600625515
0.020361416041851044,0.006696447730064392,-0.016331452876329422,0.009936763904988766,-0.0002577303966972977,0.018941350281238556
0.022733377292752266,0.006054272875189781,-0.016675615683197975,0.009629208594560623,-0.00025073063443414867,0.01895778812468052
0.022485889494419098,0.005893820431083441,-0.01663101091980934,0.010342803783714771,-0.00032580384868197143,0.018628746271133423
0.022184869274497032,0.006213726941496134,-0.016369545832276344,0.010200698859989643,-0.0003152803110424429,0.018655750900506973
0.022390205413103104,0.006019380874931812,-0.017038242891430855,0.010433881543576717,-0.0003240956866648048,0.01877317950129509
0.022018980234861374,0.0065680150873959064,-0.01679251901805401,0.011037415824830532,-0.0003306895960122347,0.01870563067495823
0.022477276623249054,0.006274682004004717,-0.016952361911535263,0.011259008198976517,-0.0003386653261259198,0.01918649673461914
0.023198597133159637,0.005839943885803223,-0.016438698396086693,0.010580808855593204,-0.00034377194242551923,0.019071359187364578
0.022832747548818588,0.006110796704888344,-0.01668391190469265,0.010796393267810345,-0.00032744239433668554,0.018678689375519753
0.022612202912569046,0.006555455736815929,-0.016821948811411858,0.010703819803893566,-0.0003498688747640699,0.01880418136715889
0.022784549742937088,0.006259237416088581,-0.016917644068598747,0.01084024365991354,-0.0003386906464584172,0.019277166575193405
0.02304702065885067,0.006345097441226244,-0.017038464546203613,0.01116499025374651,-0.00032380069023929536,0.019084248691797256
0.023252634331583977,0.005948338191956282,-0.017018599435687065,0.010654847137629986,-0.00038254071841947734,0.0193683672696352
0.023225922137498856,0.0062305680476129055,-0.016577471047639847,0.010634875856339931,-0.00035340507747605443,0.019346345216035843
0.02267654612660408,0.006324307527393103,-0.01665232703089714,0.01047206949442625,-0.00038429483538493514,0.01945878006517887
0.023450836539268494,0.0061899712309241295,-0.01696794293820858,0.010659693740308285,-0.0003659591602627188,0.019423509016633034
0.023806696757674217,0.006237053778022528,-0.01671089604496956,0.010615653358399868,-0.00038530054735019803,0.019208192825317383
0.023418638855218887,0.0059195817448198795,-0.01707223616540432,0.010977874509990215,-0.0003755066718440503,0.019481318071484566
0.02340932935476303,0.006193405482918024,-0.016795244067907333,0.011167374439537525,-0.00035519051016308367,0.019425347447395325
0.023467423394322395,0.005914336536079645,-0.016999423503875732,0.011089500039815903,-0.0003717071667779237,0.019150907173752785
0.02348572388291359,0.005840146914124489,-0.016846712678670883,0.011252856813371181,-0.0003640193317551166,0.019347721710801125
0.02414812706410885,0.00592245627194643,-0.016709771007299423,0.01121381763368845,-0.00040396745316684246,0.01908520795404911
0.024129293859004974,0.00591601338237524,-0.017155038192868233,0.011013627052307129,-0.00038891538861207664,0.0190080925822258
0.023795904591679573,0.006099164951592684,-0.016281187534332275,0.01135226059705019,-0.00042113036033697426,0.01930098794400692
0.02367211878299713,0.006407827604562044,-0.016802875325083733,0.011262931860983372,-0.00039855786599218845,0.020054493099451065
0.024058748036623,0.00569857656955719,-0.01703503355383873,0.011233068071305752,-0.0004172218614257872,0.019844060763716698
0.024058748036623,0.00569857656955719,-0.01703503355383873,0.011233068071305752,-0.0004172218614257872,0.019844060763716698
0.024218982085585594,0.005764851346611977,-0.016730785369873047,0.010692531242966652,-0.0004046431859023869,0.01949339173734188
0.024894671514630318,0.005884649232029915,-0.017139820381999016,0.010471021756529808,-0.00038108695298433304,0.019008664414286613
0.025068821385502815,0.006282811518758535,-0.016543155536055565,0.011154016479849815,-0.00040718636591918766,0.01859317719936371
0.024005301296710968,0.006261806469410658,-0.016923243179917336,0.011485127732157707,-0.00038833761936984956,0.018788309767842293
0.023509297519922256,0.0059718238189816475,-0.016467997804284096,0.011311786249279976,-0.000421548931626603,0.01928570494055748
0.024744389578700066,0.006049615330994129,-0.01674644462764263,0.011155742220580578,-0.0004317310231272131,0.01978054642677307
0.02434006705880165,0.006398518569767475,-0.017310883849859238,0.010621996596455574,-0.0003969424869865179,0.019587324932217598
0.024009710177779198,0.006210366263985634,-0.01662018522620201,0.01167750358581543,-0.0004184860154055059,0.019562335684895515
0.024706074967980385,0.006263446528464556,-0.016986960545182228,0.011892611160874367,-0.00040379579877480865,0.019853120669722557
0.025052106007933617,0.0054321992211043835,-0.016423558816313744,0.011314423754811287,-0.00040718226227909327,0.02012842334806919
0.0255618616938591,0.005971215665340424,-0.0168619342148304,0.01134356390684843,-0.0004087761335540563,0.01979622058570385
0.024407414719462395,0.0060756937600672245,-0.016963105648756027,0.011078701354563236,-0.0003855821560136974,0.01952388323843479
0.023615049198269844,0.0060010505840182304,-0.016687411814928055,0.011597872711718082,-0.000401707278797403,0.019652975723147392
0.02345910668373108,0.006020908709615469,-0.017102442681789398,0.011959297582507133,-0.0003918218717444688,0.019160278141498566
0.024535909295082092,0.0054060425609350204,-0.01635829359292984,0.01114323828369379,-0.00037243645056150854,0.019550245255231857
0.024556003510951996,0.0057871234603226185,-0.01686558686196804,0.011141921393573284,-0.0003690823505166918,0.02095823921263218
0.02472480945289135,0.0061304871924221516,-0.017015039920806885,0.011324351653456688,-0.0003914475382771343,0.020865963771939278
0.02426849491894245,0.005780540872365236,-0.017103377729654312,0.011531181633472443,-0.0003795184602495283,0.020417260006070137
0.02458171173930168,0.005750348791480064,-0.01675398461520672,0.011040245182812214,-0.0004067534173373133,0.020143242552876472
0.02428276278078556,0.0054938532412052155,-0.017238067463040352,0.01157784927636385,-0.0003887068305630237,0.020444974303245544
0.025048570707440376,0.005968107841908932,-0.016956929117441177,0.011529398150742054,-0.0003665443800855428,0.02038906328380108
0.025106901302933693,0.006151712033897638,-0.017071928828954697,0.01172769907861948,-0.00039247903623618186,0.020500201731920242
0.024667616933584213,0.0059025404043495655,-0.01773671992123127,0.011820285581052303,-0.0004399334720801562,0.020626423880457878
0.024737412109971046,0.005513301119208336,-0.017175154760479927,0.011456062085926533,-0.00045715091982856393,0.020596276968717575
0.024693239480257034,0.005500896368175745,-0.017763638868927956,0.012125974521040916,-0.00047998561058193445,0.02035144343972206
0.02480074018239975,0.006130677182227373,-0.01749967783689499,0.011896737851202488,-0.00045841102837584913,0.020766040310263634
0.024791305884718895,0.0054989284835755825,-0.01735140196979046,0.011561879888176918,-0.00047551622265018523,0.02097965031862259
0.024791305884718895,0.0054989284835755825,-0.01735140196979046,0.011561879888176918,-0.00047551622265018523,0.02097965031862259
0.025398552417755127,0.005220767110586166,-0.0175502710044384,0.011256888508796692,-0.0004272065416444093,0.02106674574315548
0.025398552417755127,0.005220767110586166,-0.0175502710044384,0.011256888508796692,-0.0004272065416444093,0.02106674574315548
0.025715315714478493,0.005667702294886112,-0.01826607994735241,0.012278475798666477,-0.0004495344765018672,0.021245921030640602
0.025288989767432213,0.005305451340973377,-0.017949555069208145,0.011814580298960209,-0.00043097868910990655,0.02101631835103035
0.025211693719029427,0.005274718161672354,-0.017044641077518463,0.011722622439265251,-0.00048237835289910436,0.02104196511209011
0.02380223013460636,0.005494387820363045,-0.017842041328549385,0.011957990005612373,-0.0005234248237684369,0.020714836195111275
0.02586916647851467,0.005541423801332712,-0.017836153507232666,0.011533040553331375,-0.0004823996569029987,0.020524557679891586
0.025908196344971657,0.005259690340608358,-0.018623393028974533,0.012068729847669601,-0.0005117607652209699,0.020878877490758896
0.026507273316383362,0.004884801339358091,-0.017877835780382156,0.011687521822750568,-0.00047745194751769304,0.02087957039475441
0.02596869133412838,0.0054611037485301495,-0.017657039687037468,0.012095711193978786,-0.0005030534812249243,0.021171296015381813
0.025030499324202538,0.005292609799653292,-0.01881135068833828,0.012437216006219387,-0.00047380002797581255,0.021205954253673553
0.025905583053827286,0.004935841541737318,-0.018042070791125298,0.011593634262681007,-0.00044476985931396484,0.021410247310996056
0.026381371542811394,0.0053419629111886024,-0.01740395464003086,0.01177111268043518,-0.0004935479373671114,0.02122517302632332
0.02640959620475769,0.005050654523074627,-0.017856264486908913,0.011445174925029278,-0.00045584430336020887,0.021115947514772415
0.02596001885831356,0.004817822948098183,-0.01771867647767067,0.011987393721938133,-0.0004146048449911177,0.021293286234140396
0.02669348195195198,0.0053459093905985355,-0.018002092838287354,0.011865141801536083,-0.0004187746380921453,0.021138260141015053
0.026433002203702927,0.005331018008291721,-0.017598098143935204,0.01273296121507883,-0.0003896663838531822,0.021012740209698677
0.02609461173415184,0.005266095045953989,-0.018123697489500046,0.012327786535024643,-0.0003929214144591242,0.021352872252464294
0.026150260120630264,0.005009975749999285,-0.017770150676369667,0.01294234860688448,-0.00039528729394078255,0.021406074985861778
0.026186693459749222,0.005116126500070095,-0.017806941643357277,0.012417377904057503,-0.00037360607529990375,0.02145272120833397
0.02681000903248787,0.005437914282083511,-0.01811155304312706,0.012761523947119713,-0.0003527914232108742,0.021527810022234917
0.027111100032925606,0.005132725462317467,-0.017667753621935844,0.012976549565792084,-0.0003785191511269659,0.021610204130411148
0.027082663029432297,0.005517446901649237,-0.017931466922163963,0.012550408020615578,-0.0003623614611569792,0.021735182031989098
0.027147917076945305,0.0051736109890043736,-0.01779198832809925,0.012729679234325886,-0.0003470522060524672,0.021797029301524162
0.027098115533590317,0.004656178876757622,-0.01782025396823883,0.012317669577896595,-0.0003297919174656272,0.021994246169924736
0.026760894805192947,0.004840080626308918,-0.0178984347730875,0.0130629763007164,-0.0003609354025684297,0.022313127294182777
0.026760894805192947,0.004840080626308918,-0.0178984347730875,0.0130629763007164,-0.0003609354025684297,0.022313127294182777
0.02700798027217388,0.005349020007997751,-0.017667176201939583,0.013190374709665775,-0.0003451499796938151,0.0221343282610178
0.026949334889650345,0.004972477443516254,-0.018206099048256874,0.012521740980446339,-0.0003512069524731487,0.02179303765296936
0.02719060704112053,0.005031175911426544,-0.018424110487103462,0.013596685603260994,-0.00035570102045312524,0.021009385585784912
0.027163390070199966,0.005199451465159655,-0.017670655623078346,0.0140979690477252,-0.0003738311061169952,0.02135724201798439
0.0270408783107996,0.004980298690497875,-0.01791352592408657,0.013763139955699444,-0.0003660943475551903,0.021793710067868233
0.02739006280899048,0.005381918046623468,-0.017483849078416824,0.013946308754384518,-0.00044987432193011045,0.02234005741775036
0.02783534862101078,0.005191833712160587,-0.017644809558987617,0.013610213063657284,-0.0004947033594362438,0.022237325087189674
0.027227770537137985,0.004851942416280508,-0.018148504197597504,0.013871105387806892,-0.0005172892124392092,0.02186150848865509
0.02743539959192276,0.0053119664080441,-0.017739979550242424,0.01348678395152092,-0.0004909577546641231,0.022359484806656837
0.028115445747971535,0.005171728786081076,-0.018424931913614273,0.012740897946059704,-0.0004512535233516246,0.023109039291739464
0.02774990163743496,0.005357259418815374,-0.018478503450751305,0.013066793791949749,-0.0004165059654042125,0.022485624998807907
0.0276953112334013,0.005523047409951687,-0.01765352301299572,0.01296152826398611,-0.00043402815936133265,0.02194899320602417
0.027415702119469643,0.00522581534460187,-0.018057851120829582,0.013324625790119171,-0.0004198330861981958,0.021384308114647865
0.0280552189797163,0.005355889908969402,-0.01809931918978691,0.012923882342875004,-0.00039449549512937665,0.02239736169576645
0.028350187465548515,0.005178696475923061,-0.01803099550306797,0.013137402012944221,-0.00041717017302289605,0.022743765264749527
0.02828669361770153,0.004885274916887283,-0.017905576154589653,0.013295704498887062,-0.00037955300649628043,0.02291254512965679
0.02875351719558239,0.005403776653110981,-0.018332751467823982,0.013100627809762955,-0.0003627906844485551,0.022563381120562553
0.028619971126317978,0.004875057376921177,-0.018310217186808586,0.01318717934191227,-0.000340241938829422,0.022631866857409477
0.028819626197218895,0.004982789978384972,-0.018052786588668823,0.013207458890974522,-0.0003473438846413046,0.02265688218176365
0.02886164002120495,0.0053711230866611,-0.01829768344759941,0.013424593955278397,-0.00035283726174384356,0.02262759394943714
0.02906215749680996,0.005030432716012001,-0.01796141266822815,0.013640162535011768,-0.0003845691680908203,0.022940292954444885
0.028873717412352562,0.004978766664862633,-0.017957793548703194,0.013207067735493183,-0.0004109476285520941,0.022607572376728058
0.028765518218278885,0.005224575288593769,-0.018356556072831154,0.013454694300889969,-0.0005586706683970988,0.02255347929894924
0.02866855449974537,0.004685495980083942,-0.018094899132847786,0.013302029110491276,-0.0006938358419574797,0.02274141274392605
0.029096849262714386,0.004988734610378742,-0.018586311489343643,0.013613368384540081,-0.0006716659991070628,0.022714855149388313
0.030077829957008362,0.005372960586100817,-0.018706735223531723,0.01348082348704338,-0.0006938833394087851,0.022882556542754173
0.029839161783456802,0.004959552548825741,-0.017908722162246704,0.014040408656001091,-0.0007082467200234532,0.023001788184046745
0.02850889414548874,0.004905992187559605,-0.018563639372587204,0.013488521799445152,-0.0007537572528235614,0.023389708250761032
0.02850889414548874,0.004905992187559605,-0.018563639372587204,0.013488521799445152,-0.0007537572528235614,0.023389708250761032
0.028750693425536156,0.004859469830989838,-0.0180777907371521,0.013750395737588406,-0.0007306688348762691,0.02307712286710739
0.029751362279057503,0.005061278119683266,-0.01745464839041233,0.013453521765768528,-0.0007513091550208628,0.02346603013575077
0.029144948348402977,0.005639709532260895,-0.01853230595588684,0.014023136347532272,-0.0006665032124146819,0.023401230573654175
0.02961065247654915,0.005388263612985611,-0.01951703242957592,0.013543788343667984,-0.0006658065831288695,0.023558657616376877
0.02999092824757099,0.005063030868768692,-0.018863264471292496,0.01375418622046709,-0.0006221532821655273,0.02297421172261238
0.02903902903199196,0.005179444327950478,-0.01889028400182724,0.01333351619541645,-0.0005675021093338728,0.023304656147956848
0.02876077964901924,0.005444647278636694,-0.01831686682999134,0.013674567453563213,-0.0005897319642826915,0.024169743061065674
0.028613071888685226,0.005446478258818388,-0.018114663660526276,0.013713845983147621,-0.0005502535495907068,0.02402436174452305
0.028997426852583885,0.005714799277484417,-0.018819838762283325,0.013914575800299644,-0.0004968995344825089,0.023773185908794403
0.02978786639869213,0.00532926432788372,-0.018423903733491898,0.01462160237133503,-0.0004909886047244072,0.02344910055398941
0.028944529592990875,0.00497429957613349,-0.01933095045387745,0.014790096320211887,-0.00048573160893283784,0.02357589825987816
0.029767412692308426,0.00522262929007411,-0.0189440306276083,0.015047159977257252,-0.0004840855544898659,0.0238029807806015
0.030040938407182693,0.005618385039269924,-0.018217314034700394,0.015765713527798653,-0.0004802193434443325,0.024476604536175728
0.03012104146182537,0.005239903461188078,-0.018912604078650475,0.01518197264522314,-0.0005035119247622788,0.024506190791726112
0.02937954291701317,0.005274664144963026,-0.019179262220859528,0.014855540357530117,-0.0006073026452213526,0.023993218317627907
0.02984202280640602,0.00515639828518033,-0.01913272961974144,0.014138707891106606,-0.0006591362180188298,0.023237742483615875
0.029992900788784027,0.005253405775874853,-0.01921619102358818,0.01373597327619791,-0.0006405600579455495,0.024570120498538017
0.03034074790775776,0.0051217395812273026,-0.018052000552415848,0.014393020421266556,-0.0006560053443536162,0.024314027279615402
0.030593253672122955,0.005330728832632303,-0.02066922001540661,0.014344294555485249,-0.0006103170453570783,0.02382391318678856
0.030911270529031754,0.005496568512171507,-0.01835496537387371,0.014669319614768028,-0.0006861164583824575,0.024347517639398575
0.030454011633992195,0.005485632456839085,-0.01817091554403305,0.01406756229698658,-0.0006138007156550884,0.025195714086294174
0.03030669316649437,0.00510989548638463,-0.01991737075150013,0.014222173020243645,-0.0006200462230481207,0.02435505948960781
0.030320748686790466,0.004882541485130787,-0.019552381709218025,0.013690599240362644,-0.0005777950282208622,0.02424241043627262
0.03177694231271744,0.005179496482014656,-0.01880769245326519,0.014520489610731602,-0.0005653469124808908,0.024466047063469887
0.03120063804090023,0.005746443755924702,-0.019280288368463516,0.014310024678707123,-0.0005536949611268938,0.024167275056242943
0.029666608199477196,0.005889225285500288,-0.019419867545366287,0.01475998479872942,-0.0005112273502163589,0.025259938091039658
0.030291901901364326,0.005374065600335598,-0.018911050632596016,0.014697334729135036,-0.0005357770132832229,0.025769731029868126
0.03183850273489952,0.0053032622672617435,-0.019546179100871086,0.014266077429056168,-0.0005199673469178379,0.0252681951969862
0.03183850273489952,0.0053032622672617435,-0.019546179100871086,0.014266077429056168,-0.0005199673469178379,0.0252681951969862
0.03072979487478733,0.0052035716362297535,-0.019773390144109726,0.013980994001030922,-0.0005431146710179746,0.024968961253762245
0.031203165650367737,0.005724853835999966,-0.01895950362086296,0.014485402032732964,-0.000576105376239866,0.02490902878344059
0.03178039938211441,0.005773012991994619,-0.01920408010482788,0.014063936658203602,-0.0005847218562848866,0.02500954270362854
0.03176861256361008,0.005484533961862326,-0.01952684484422207,0.014206965453922749,-0.0005780615611001849,0.02472822554409504
0.030674925073981285,0.004970469046384096,-0.019289787858724594,0.01426253467798233,-0.0009303888655267656,0.025033719837665558
0.03092966042459011,0.0048286751843988895,-0.01965269446372986,0.014400019310414791,-0.0009640351054258645,0.025505367666482925
0.032198529690504074,0.005468449555337429,-0.019757287576794624,0.014719467610120773,-0.0009419427951797843,0.025645973160862923
0.03208870813250542,0.005250880494713783,-0.018980661407113075,0.01580909825861454,-0.000857794948387891,0.025388594716787338
0.031058626249432564,0.005505627952516079,-0.0194080900400877,0.015534063801169395,-0.0008313721045851707,0.025426553562283516
0.03161001205444336,0.005599658004939556,-0.019587915390729904,0.01575266756117344,-0.0007560920203104615,0.025319548323750496
0.031849849969148636,0.005143032409250736,-0.019528575241565704,0.015191789716482162,-0.0007709687924943864,0.025256959721446037
0.03183617815375328,0.005408589728176594,-0.01970248483121395,0.015741368755698204,-0.0007868077955208719,0.02533000148832798
0.031242508441209793,0.005183827131986618,-0.0197466891258955,0.01571284607052803,-0.0007543388055637479,0.02590424381196499
0.03216376155614853,0.004977536853402853,-0.01911265030503273,0.01608770526945591,-0.0007224346045404673,0.02581825852394104
0.032252442091703415,0.005145631264895201,-0.019742529839277267,0.016232863068580627,-0.0007182417321018875,0.026356345042586327
0.032252442091703415,0.005145631264895201,-0.019742529839277267,0.016232863068580627,-0.0007182417321018875,0.026356345042586327
0.03266022354364395,0.005241475533694029,-0.019662082195281982,0.016137028113007545,-0.0007327063358388841,0.025887465104460716
0.03202778100967407,0.005222187843173742,-0.019683536142110825,0.016408618539571762,-0.0007086027180776,0.026030952110886574
0.0323832705616951,0.005590628366917372,-0.019771430641412735,0.015368284657597542,-0.0008298743050545454,0.026188090443611145
0.03255729749798775,0.005229818169027567,-0.019304661080241203,0.015905069187283516,-0.0008466227445751429,0.02626221254467964
0.0328269898891449,0.00488749984651804,-0.019533200189471245,0.015292142517864704,-0.0008296630694530904,0.02668360434472561
0.03118404932320118,0.0051155597902834415,-0.01978200301527977,0.015602484345436096,-0.0007575793424621224,0.02581212855875492
0.033407196402549744,0.005109348334372044,-0.01980847865343094,0.015203926712274551,-0.0007610006723552942,0.027118612080812454
0.03333704173564911,0.005692770704627037,-0.020401326939463615,0.015517648309469223,-0.0006984836654737592,0.02672329545021057
0.03270483762025833,0.005410981830209494,-0.020176108926534653,0.01565273478627205,-0.000651707174256444,0.02661859802901745
0.03294650465250015,0.005029486957937479,-0.019488641992211342,0.015850143507122993,-0.0006723856786265969,0.027582496404647827
0.032780200242996216,0.00522953923791647,-0.01940944232046604,0.015922175720334053,-0.0006588262040168047,0.027508433908224106
0.03347010910511017,0.005418569780886173,-0.01999097503721714,0.015553086996078491,-0.0006368081085383892,0.026407454162836075
0.03378143534064293,0.005571163725107908,-0.019676072522997856,0.01588497683405876,-0.0006210039719007909,0.025856103748083115
0.03390670195221901,0.005257153417915106,-0.020323460921645164,0.015676060691475868,-0.0006052296375855803,0.026165032759308815
0.03374174237251282,0.005377304274588823,-0.020260032266378403,0.016422616317868233,-0.0006598027539439499,0.02748214825987816
0.03374174237251282,0.005377304274588823,-0.020260032266378403,0.016422616317868233,-0.0006598027539439499,0.02748214825987816
0.03339793533086777,0.005517145618796349,-0.019506189972162247,0.016460275277495384,-0.0006922084139660001,0.02689877524971962
0.03328404203057289,0.005090273451060057,-0.01993529684841633,0.016739260405302048,-0.0007164540002122521,0.027191633358597755
0.0338054820895195,0.0051367012783885,-0.020976101979613304,0.01670750230550766,-0.000735590816475451,0.028305158019065857
0.035149894654750824,0.005049502477049828,-0.020556000992655754,0.016197970137000084,-0.0008876986103132367,0.027551306411623955
0.03482559323310852,0.005843800958245993,-0.019648456946015358,0.016427377238869667,-0.0009408646146766841,0.027098532766103745
0.03290069103240967,0.005335961934179068,-0.020795699208974838,0.01604044996201992,-0.0008208875660784543,0.026642968878149986
0.032902270555496216,0.0048120454885065556,-0.020091066136956215,0.016412410885095596,-0.0008155187824741006,0.026520157232880592
0.03418935090303421,0.004792184568941593,-0.019391896203160286,0.01587342843413353,-0.0007341653690673411,0.027621986344456673
0.0342881865799427,0.004816360305994749,-0.020270373672246933,0.015907125547528267,-0.0007454178994521499,0.027800505980849266
0.0350944921374321,0.005003416910767555,-0.020869731903076172,0.015666814520955086,-0.0006825187592767179,0.027757912874221802
0.034957531839609146,0.005581025965511799,-0.020146187394857407,0.01635025441646576,-0.000604763044975698,0.027361946180462837
0.03323845937848091,0.004737903364002705,-0.020368169993162155,0.016861630603671074,-0.0005689443787559867,0.0273663941770792
0.034888945519924164,0.004864224698394537,-0.020330604165792465,0.01734798587858677,-0.0005804852698929608,0.027406709268689156
0.03514416515827179,0.005301466211676598,-0.020386917516589165,0.016681360080838203,-0.000587495684158057,0.02790483646094799
0.03477141261100769,0.0049645681865513325,-0.02037595771253109,0.016665562987327576,-0.0005762649234384298,0.027776136994361877
0.03483978286385536,0.005061028990894556,-0.020394830033183098,0.016546450555324554,-0.0006234836182557046,0.027760952711105347
0.03486412763595581,0.005228084046393633,-0.020084230229258537,0.016601886600255966,-0.0006305182469077408,0.027689507231116295
0.03502115234732628,0.00488743232563138,-0.020177515223622322,0.01692272163927555,-0.0006594134029000998,0.027821365743875504
0.03509530797600746,0.004888209979981184,-0.02064659632742405,0.01639622077345848,-0.0006839520647190511,0.028054988011717796
0.03443500027060509,0.004887375049293041,-0.020722705870866776,0.016880717128515244,-0.00066953751957044,0.027793213725090027
0.03423696756362915,0.0049082329496741295,-0.02052360400557518,0.01652238890528679,-0.0008072705822996795,0.026880556717514992
0.03423696756362915,0.0049082329496741295,-0.02052360400557518,0.01652238890528679,-0.0008072705822996795,0.026880556717514992
0.034806109964847565,0.005178316030651331,-0.020673179998993874,0.017195330932736397,-0.0007260196725837886,0.028508849442005157
0.0348920002579689,0.004605370108038187,-0.020049892365932465,0.01718742586672306,-0.0006914598634466529,0.028239505365490913
0.0348920002579689,0.004605370108038187,-0.020049892365932465,0.01718742586672306,-0.0006914598634466529,0.028239505365490913
0.035200584679841995,0.004996531642973423,-0.020983861759305,0.016856331378221512,-0.0006034619291312993,0.028640324249863625
0.035200584679841995,0.004996531642973423,-0.020983861759305,0.016856331378221512,-0.0006034619291312993,0.028640324249863625
0.034133266657590866,0.004867712035775185,-0.020903686061501503,0.017170581966638565,-0.0006238928181119263,0.02887139469385147
0.03512038663029671,0.005214573349803686,-0.020142899826169014,0.01721901260316372,-0.0005793937598355114,0.028459912165999413
0.034814704209566116,0.0053719873540103436,-0.02037649042904377,0.01668502949178219,-0.0005051824846304953,0.027927251532673836
0.03504538908600807,0.004938895348459482,-0.020341316238045692,0.017449432983994484,-0.0005376945482566953,0.029175857082009315
0.03620804473757744,0.004917975980788469,-0.01983489654958248,0.017452357336878777,-0.0005542384460568428,0.029538536444306374
0.03538530692458153,0.005237779580056667,-0.02042718417942524,0.01804106868803501,-0.000526845920830965,0.028815321624279022
0.03413155674934387,0.004969502333551645,-0.020942246541380882,0.017697805538773537,-0.000552007753867656,0.02755201980471611
0.03494809567928314,0.005446876399219036,-0.02041374146938324,0.01720511168241501,-0.0006363778957165778,0.027835138142108917
0.03570830076932907,0.005150311626493931,-0.019940072670578957,0.017863022163510323,-0.0007524396642111242,0.02886764146387577
0.035854022949934006,0.004357630852609873,-0.01997680962085724,0.01796511560678482,-0.0006924681947566569,0.02884526364505291
0.035668712109327316,0.0038426814135164022,-0.020081058144569397,0.01849399507045746,-0.0007108619320206344,0.02921168878674507
0.03523239865899086,0.004079489037394524,-0.0202768724411726,0.017070608213543892,-0.0006568878889083862,0.02882792241871357
0.035701945424079895,0.004192703869193792,-0.02081846073269844,0.0179830901324749,-0.0006109070964157581,0.028472386300563812
0.03606761246919632,0.004303715657442808,-0.02050742693245411,0.017990536987781525,-0.00056368118384853,0.028256185352802277
0.03544867783784866,0.004080947022885084,-0.020226795226335526,0.017558325082063675,-0.000531945435795933,0.029103094711899757
0.03546163812279701,0.003776814788579941,-0.020205426961183548,0.017461998388171196,-0.00048762199003249407,0.029734961688518524
0.03582607954740524,0.003699744585901499,-0.02110002003610134,0.017728468403220177,-0.0004831393889617175,0.029584938660264015
0.03633851930499077,0.003776170779019594,-0.021718235686421394,0.01829417236149311,-0.000478675909107551,0.02959531918168068
0.036012351512908936,0.004318478982895613,-0.021781165152788162,0.01811678521335125,-0.0004960419610142708,0.030605142936110497
0.03565661981701851,0.004149571061134338,-0.021450961008667946,0.01791609823703766,-0.0004755043191835284,0.03015247732400894
0.036101773381233215,0.004008979070931673,-0.021702071651816368,0.01842845045030117,-0.0005020152311772108,0.02953827753663063
0.036101773381233215,0.004008979070931673,-0.021702071651816368,0.01842845045030117,-0.0005020152311772108,0.02953827753663063
0.03679586201906204,0.003970910329371691,-0.020799122750759125,0.018340984359383583,-0.0006740941316820681,0.02939736470580101
0.03622934967279434,0.0039028374012559652,-0.021423373371362686,0.01792026497423649,-0.0007208110764622688,0.029201941564679146
0.036282431334257126,0.004209940787404776,-0.02215966396033764,0.01781282015144825,-0.0007419980247505009,0.029511692002415657
0.03634725883603096,0.004243182018399239,-0.021733921021223068,0.017194854095578194,-0.000714691705070436,0.029649512842297554
0.037173014134168625,0.00406039459630847,-0.02066223695874214,0.017794307321310043,-0.0008583154994994402,0.029792580753564835
0.03663802519440651,0.00431434903293848,-0.02161198854446411,0.01801704615354538,-0.0008947995374910533,0.030169745907187462
0.03673756495118141,0.004299851134419441,-0.022233037278056145,0.017307600006461143,-0.0008006622665561736,0.030450496822595596
0.03733055293560028,0.004347583279013634,-0.021963171660900116,0.017661599442362785,-0.0008071026531979442,0.030593978241086006
0.0371549092233181,0.004112921189516783,-0.021291187033057213,0.01723216287791729,-0.00077116081956774,0.030193904414772987
0.03724855184555054,0.004432355053722858,-0.021579736843705177,0.017507268115878105,-0.0007368822698481381,0.030430519953370094
0.037663377821445465,0.004179599694907665,-0.021326489746570587,0.01796119101345539,-0.0006978166638873518,0.03033672459423542
0.03748714178800583,0.004459009505808353,-0.020992331206798553,0.017558354884386063,-0.0007240248378366232,0.030296562239527702
0.0370369553565979,0.004157472401857376,-0.021069083362817764,0.017790718004107475,-0.0007376506109721959,0.030297117307782173
0.038485873490571976,0.004253988154232502,-0.02214965783059597,0.01764785870909691,-0.0007545137777924538,0.03046356327831745
0.03888348117470741,0.004264877177774906,-0.021943939849734306,0.017672544345259666,-0.0008925379952415824,0.030746540054678917
0.03681567683815956,0.0044050076976418495,-0.02086782641708851,0.018154818564653397,-0.0009529043454676867,0.030763676390051842
0.036664098501205444,0.004611524753272533,-0.020978152751922607,0.018298210576176643,-0.0009485993650741875,0.030173640698194504
0.038667403161525726,0.004257467575371265,-0.02161397598683834,0.01864650659263134,-0.0009341609547846019,0.031790684908628464
0.03827326372265816,0.004446058999747038,-0.02163785696029663,0.018522009253501892,-0.0009115335415117443,0.03254979848861694
0.03971650451421738,0.004358053673058748,-0.021378764882683754,0.01821954734623432,-0.0008206869242712855,0.029612937942147255
0.03709784150123596,0.004609707742929459,-0.02178199216723442,0.018240440636873245,-0.0008145223837345839,0.030756551772356033
0.03776026889681816,0.004996977746486664,-0.021743083372712135,0.018035264685750008,-0.0008236244902946055,0.03134606406092644
0.0388677716255188,0.004950383678078651,-0.021075177937746048,0.018280470743775368,-0.0008186261402443051,0.031469255685806274
0.03860650584101677,0.0044160992838442326,-0.021233147010207176,0.018157970160245895,-0.0008137160912156105,0.032351087778806686
0.038465987890958786,0.0044859047047793865,-0.021690433844923973,0.018218521028757095,-0.0007639508694410324,0.03195052966475487
0.0380728505551815,0.004929784219712019,-0.021503053605556488,0.018150852993130684,-0.0006728803855367005,0.0311272069811821
0.03848183900117874,0.004963668994605541,-0.021447060629725456,0.017958009615540504,-0.000690855726134032,0.030211299657821655
0.038431279361248016,0.0047235009260475636,-0.021378200501203537,0.018492821604013443,-0.0007131767924875021,0.03043435327708721
0.03871135413646698,0.0045978301204741,-0.021570788696408272,0.019569138064980507,-0.0007902173674665391,0.031845979392528534
0.03871135413646698,0.0045978301204741,-0.021570788696408272,0.019569138064980507,-0.0007902173674665391,0.031845979392528534
0.03878864273428917,0.004541193600744009,-0.02133777178823948,0.01865530200302601,-0.0008203564211726189,0.03175106644630432
0.03878864273428917,0.004541193600744009,-0.02133777178823948,0.01865530200302601,-0.0008203564211726189,0.03175106644630432
0.04026678204536438,0.004229863174259663,-0.021291255950927734,0.01836336776614189,-0.0007848681998439133,0.03145267441868782
0.03783627226948738,0.004392757546156645,-0.021596165373921394,0.017850223928689957,-0.0009169394033960998,0.030127666890621185
0.037609778344631195,0.00448413984850049,-0.021417148411273956,0.01904408074915409,-0.0009210683638229966,0.03185166046023369
0.039163101464509964,0.004320126958191395,-0.021307356655597687,0.019215231761336327,-0.0009091264801099896,0.03257140889763832
0.03911894932389259,0.004305118229240179,-0.02165880985558033,0.019009465351700783,-0.0008922864217311144,0.032457903027534485
0.039975639432668686,0.0040148235857486725,-0.021606551483273506,0.01902746595442295,-0.0008644650224596262,0.032277338206768036
0.03978755697607994,0.004373384173959494,-0.021424369886517525,0.0189211368560791,-0.0008456897339783609,0.03219585120677948
0.0378146730363369,0.004133760463446379,-0.021293390542268753,0.0192838404327631,-0.0007892510620877147,0.03232237324118614
0.03902699053287506,0.004408120643347502,-0.02153404802083969,0.020150411874055862,-0.0007912147557362914,0.032047729939222336
0.04003104194998741,0.004569843411445618,-0.02153424173593521,0.01960017904639244,-0.0008096864330582321,0.03244902566075325
0.039323221892118454,0.004366583656519651,-0.021807990968227386,0.01863151788711548,-0.0008622854365967214,0.03218095004558563
0.03899146243929863,0.004328770097345114,-0.02174321562051773,0.018757598474621773,-0.0008819611975923181,0.03219039738178253
0.03909309580922127,0.004477447830140591,-0.022231895476579666,0.018740594387054443,-0.0008852812461555004,0.032214079052209854
0.0389305055141449,0.004357877187430859,-0.0220062006264925,0.018777726218104362,-0.0008794543100520968,0.03247126564383507
0.03979731723666191,0.004584519192576408,-0.021515535190701485,0.019246604293584824,-0.0008036518120206892,0.03222288936376572
0.0392460823059082,0.004495506640523672,-0.020663509145379066,0.019269397482275963,-0.0008803597302176058,0.03186755254864693
0.03909306600689888,0.004698445089161396,-0.02209908328950405,0.01902167685329914,-0.000887545756995678,0.0332782007753849
0.03948148712515831,0.004753203596919775,-0.022712284699082375,0.018930237740278244,-0.0008484619320370257,0.03213600441813469
0.03979000076651573,0.004323203582316637,-0.0215048436075449,0.018877416849136353,-0.0009837046964094043,0.03235531970858574
0.039866745471954346,0.004404318518936634,-0.022340519353747368,0.019427835941314697,-0.0010160919046029449,0.03306841850280762
0.03930597007274628,0.004434921778738499,-0.023096056655049324,0.019013751298189163,-0.0010024567600339651,0.03265761211514473
0.039913956075906754,0.0044642239809036255,-0.022664835676550865,0.018669838085770607,-0.0009070737869478762,0.03293490782380104
0.03963857889175415,0.004810316022485495,-0.021978378295898438,0.01876721903681755,-0.0008954557706601918,0.03395150974392891
0.03969290852546692,0.004357649013400078,-0.021784143522381783,0.01857413910329342,-0.0009029882494360209,0.03301868215203285
0.04021090641617775,0.004294510930776596,-0.022561566904187202,0.018709639087319374,-0.0008938862010836601,0.032567091286182404
0.040156617760658264,0.004112735856324434,-0.022153561934828758,0.01914900168776512,-0.0009018097189255059,0.032340534031391144
0.040156617760658264,0.004112735856324434,-0.022153561934828758,0.01914900168776512,-0.0009018097189255059,0.032340534031391144
0.04024168476462364,0.004321619402617216,-0.02271042950451374,0.01854468509554863,-0.0009324239217676222,0.0330517403781414
0.04041299223899841,0.004606925882399082,-0.022808585315942764,0.018823856487870216,-0.0009078378207050264,0.0338866300880909
0.04033106192946434,0.0047596897929906845,-0.0225437730550766,0.019652996212244034,-0.0008077069651335478,0.033575478941202164
0.04120856896042824,0.0046454742550849915,-0.02241872251033783,0.01958806999027729,-0.0007897501927800477,0.03339482471346855
0.03974981606006622,0.004318583756685257,-0.0221354179084301,0.019681235775351524,-0.0007248644833453,0.0333266481757164
0.04022402688860893,0.004366003442555666,-0.02300875261425972,0.01970970816910267,-0.0006515022250823677,0.03282126411795616
0.040126983076334,0.004495698492974043,-0.022813599556684494,0.01936151273548603,-0.0006687412387691438,0.03279922902584076
0.04013460874557495,0.00435853935778141,-0.022526707500219345,0.019329886883497238,-0.0006165413651615381,0.03426661714911461
0.04226848483085632,0.0044110119342803955,-0.02276715449988842,0.020089691504836082,-0.0005319510237313807,0.03427518531680107
0.041481658816337585,0.004375521093606949,-0.0230135228484869,0.019842060282826424,-0.0004727811028715223,0.03405018895864487
0.039961181581020355,0.004523992072790861,-0.023133179172873497,0.019501056522130966,-0.0005069214385002851,0.033174529671669006
0.04059024527668953,0.004489574581384659,-0.022672690451145172,0.019905805587768555,-0.0005406059208326042,0.033234547823667526
0.04036105424165726,0.004110787063837051,-0.022619809955358505,0.02008233591914177,-0.0005724973743781447,0.03398329019546509
0.041953109204769135,0.004443742334842682,-0.023072553798556328,0.019648253917694092,-0.0008401729282923043,0.0338563397526741
0.041689977049827576,0.004666537512093782,-0.023216890171170235,0.019692957401275635,-0.0008634697878733277,0.03409412130713463
0.04013804718852043,0.004899681080132723,-0.02300005406141281,0.019352905452251434,-0.0009669238934293389,0.03474181890487671
0.041651464998722076,0.004808100871741772,-0.022965628653764725,0.019588051363825798,-0.0011565996101126075,0.03431873768568039
0.041618309915065765,0.004351405892521143,-0.02314693108201027,0.019411472603678703,-0.001175801153294742,0.034037601202726364
0.041025832295417786,0.004485052544623613,-0.02328586019575596,0.01960129849612713,-0.0012062698369845748,0.034517817199230194
0.041609033942222595,0.004396782256662846,-0.023272983729839325,0.02031029388308525,-0.0012335306964814663,0.03410528227686882
0.04140797257423401,0.0042831264436244965,-0.023171618580818176,0.02023656852543354,-0.0010492801666259766,0.03470035269856453
0.040831271559000015,0.004423156846314669,-0.022775279358029366,0.01997164636850357,-0.0010164385894313455,0.03534772992134094
0.04154602810740471,0.004578341729938984,-0.022851020097732544,0.020480386912822723,-0.0009427710901945829,0.03604082390666008
0.04273612052202225,0.004640317056328058,-0.023398416116833687,0.020589035004377365,-0.000880836567375809,0.03495310619473457
0.04273612052202225,0.004640317056328058,-0.023398416116833687,0.020589035004377365,-0.000880836567375809,0.03495310619473457
0.04072892665863037,0.004279940389096737,-0.023235240951180458,0.02051769383251667,-0.0007885243976488709,0.033604152500629425
0.04029935970902443,0.004065280314534903,-0.02290012128651142,0.020649462938308716,-0.0006331851473078132,0.03418982774019241
0.04128569737076759,0.004210800398141146,-0.02288700081408024,0.021610619500279427,-0.0006470078369602561,0.034286484122276306
0.0415780246257782,0.004808342549949884,-0.023062091320753098,0.021086474880576134,-0.000673430971801281,0.03507748618721962
0.04287704452872276,0.004855145700275898,-0.023314831778407097,0.020377475768327713,-0.0007016276940703392,0.03616039454936981
0.04152795672416687,0.004969825968146324,-0.023428643122315407,0.020158950239419937,-0.001031343126669526,0.035671159625053406
0.040781598538160324,0.004383981227874756,-0.02332070842385292,0.0207570418715477,-0.0010681456187739968,0.03422068431973457
0.042104899883270264,0.004314421210438013,-0.02318611741065979,0.02069908007979393,-0.0010563366813585162,0.034043457359075546
0.04264029860496521,0.004615051206201315,-0.023616641759872437,0.0211636945605278,-0.001291765132918954,0.0354933924973011
0.04212239757180214,0.00464853597804904,-0.023839524015784264,0.021034056320786476,-0.0012276067864149809,0.03514345735311508
