davideferrari95/blind_handover_controller/data/Test 18 - [2024-02-07 -- 14-16-00]/joint_states_data.csv
shoulder_pan_joint,shoulder_lift_joint,elbow_joint,wrist_1_joint,wrist_2_joint,wrist_3_joint
0.006365158595144749,0.004245448857545853,-0.005428037606179714,0.0018878511618822813,2.313694070072579e-18,0.006168182473629713
0.006365158595144749,0.004245448857545853,-0.005428037606179714,0.0018878511618822813,2.313694070072579e-18,0.006168182473629713
0.006614752113819122,0.003977201879024506,-0.005361063871532679,0.0017941119149327278,1.510676980025268e-19,0.005940823350101709
0.006614752113819122,0.003977201879024506,-0.005361063871532679,0.0017941119149327278,1.510676980025268e-19,0.005940823350101709
0.006140503101050854,0.004110507667064667,-0.005232527852058411,0.0018259381176903844,9.863642512967553e-21,0.0055396780371665955
0.00623484468087554,0.004580577835440636,-0.004947255831211805,0.001851184875704348,6.440253866901609e-22,0.0056204525753855705
0.005756537429988384,0.004212494008243084,-0.0048414599150419235,0.0019391239620745182,4.205025264091138e-23,0.006030355580151081
0.006111725699156523,0.0043699368834495544,-0.005059028044342995,0.0017894881311804056,2.7455810768151553e-24,0.00589088536798954
0.006092455238103867,0.003984306938946247,-0.005220689810812473,0.0016748757334426045,1.1704843859245292e-26,0.006133366376161575
0.006069479510188103,0.0042559364810585976,-0.005223474930971861,0.0014846492558717728,7.64242705706882e-28,0.006361648440361023
0.006167146842926741,0.004277381114661694,-0.004840987268835306,0.0015290789306163788,4.9899586986078353e-29,0.00548523711040616
0.0060919770039618015,0.004342102911323309,-0.004941235762089491,0.0014376003528013825,3.25808628296508e-30,0.005524140316992998
0.006221164483577013,0.00412004766985774,-0.004842174705117941,0.0014273556880652905,2.1272975339571075e-31,0.005843449383974075
0.006393948569893837,0.0038640741258859634,-0.0052232700400054455,0.0013763121096417308,1.3889732350128338e-32,0.00587719539180398
0.005683315452188253,0.0037745351437479258,-0.005531098693609238,0.001337209832854569,9.069003201441259e-34,0.005632981192320585
0.005808092653751373,0.004199628252536058,-0.0050506992265582085,0.0013862026389688253,5.921410447248228e-35,0.005966733209788799
0.006043586879968643,0.0040567610412836075,-0.004775748588144779,0.0014702652115374804,3.866257886560714e-36,0.006283123977482319
0.006096831057220697,0.0043133036233484745,-0.005125981289893389,0.0016148061258718371,2.5243905303984766e-37,0.006430936511605978
0.005622044671326876,0.0043160137720406055,-0.005099475849419832,0.0015669995918869972,1.6482466302256974e-38,0.005767896771430969
0.0056244502775371075,0.004439465701580048,-0.0060461401008069515,0.0014908231096342206,1.0761874115122092e-39,0.005317335017025471
0.006140001118183136,0.004319534637033939,-0.005690784193575382,0.0014812182635068893,7.026671019510363e-41,0.005796564277261496
0.006227181293070316,0.0042734285816550255,-0.00522011099383235,0.001481665880419314,9.424022573512048e-05,0.005657997447997332
0.006171123590320349,0.004123051185160875,-0.005337547976523638,0.0014163530431687832,0.00011258247104706243,0.006038081366568804
0.006171123590320349,0.004123051185160875,-0.005337547976523638,0.0014163530431687832,0.00011258247104706243,0.006038081366568804
0.00565418740734458,0.0041853999719023705,-0.005459293257445097,0.0014293612912297249,0.00010856021253857762,0.0057951402850449085
0.005884548183530569,0.004469744861125946,-0.005484477151185274,0.0013973253080621362,0.00010600854875519872,0.005643436685204506
0.005884548183530569,0.004469744861125946,-0.005484477151185274,0.0013973253080621362,0.00010600854875519872,0.005643436685204506
0.006335331592708826,0.0046580517664551735,-0.005851822439581156,0.001402487512677908,0.00010356897109886631,0.005782789550721645
0.005952358711510897,0.004353614524006844,-0.005268990993499756,0.0013560520019382238,0.0001012389111565426,0.005648015532642603
0.006034309510141611,0.0041135442443192005,-0.005350079387426376,0.0012383782304823399,9.901127486955374e-05,0.0056791165843605995
0.0058382172137498856,0.0039053934160619974,-0.005087161436676979,0.0012789634056389332,0.00010640746040735394,0.005510809365659952
0.005603725556284189,0.004436766263097525,-0.005016985349357128,0.0012800692347809672,0.0001131622921093367,0.005523594096302986
0.00590432109311223,0.004252706188708544,-0.005663370247930288,0.0014250995591282845,0.00011141425056848675,0.005182544235140085
0.00592933502048254,0.004707253072410822,-0.005050498526543379,0.0013259958941489458,0.00010703756561269984,0.005718220490962267
0.005847050342708826,0.004222680814564228,-0.005594006739556789,0.0012048105709254742,0.00010495718015590683,0.005927585065364838
0.006307054776698351,0.004131142981350422,-0.005396900698542595,0.0011573490919545293,0.00010295598622178659,0.005372431129217148
0.00641709053888917,0.003980408888310194,-0.005324420519173145,0.0011877055512741208,0.00010102979285875335,0.005175046622753143
0.005978046450763941,0.004411374218761921,-0.005011965520679951,0.0010970860021188855,9.917421994032338e-05,0.005428088828921318
0.006156489253044128,0.004189963452517986,-0.0051721916534006596,0.0011418688809499145,9.738570952322334e-05,0.005690834950655699
0.005914268083870411,0.004505775403231382,-0.0054872725158929825,0.0012028214987367392,9.566047810949385e-05,0.005597415380179882
0.005884845741093159,0.0045698960311710835,-0.005222942680120468,0.0012871986255049706,9.399530972586945e-05,0.005464113783091307
0.006195412017405033,0.004354648757725954,-0.005684885662049055,0.0014484226703643799,9.238719940185547e-05,0.0055610788986086845
0.006075388751924038,0.004051269497722387,-0.0054975165985524654,0.0014129297342151403,9.083314216695726e-05,0.005917316768318415
0.006051312666386366,0.0038347605150192976,-0.005245264619588852,0.0015308574074879289,8.933048229664564e-05,0.0057224612683057785
0.005739004351198673,0.003757215104997158,-0.005005254410207272,0.0014678349252790213,8.787673141341656e-05,0.00543890381231904
0.005792960058897734,0.003973609767854214,-0.0054315379820764065,0.0013851886615157127,8.646957576274872e-05,0.005297443829476833
0.006210760213434696,0.003939661663025618,-0.00555475102737546,0.0012276079505681992,8.510678162565455e-05,0.005557076074182987
0.005983015522360802,0.0038847429677844048,-0.005475405603647232,0.0011557684047147632,8.378622442251071e-05,0.005216906778514385
0.006176760885864496,0.0043116286396980286,-0.005660935305058956,0.0012372725177556276,9.534522541798651e-05,0.004920712672173977
0.006176760885864496,0.0043116286396980286,-0.005660935305058956,0.0012372725177556276,9.534522541798651e-05,0.004920712672173977
0.006304718088358641,0.004098927136510611,-0.0051589226350188255,0.0013887647073715925,9.474893886363134e-05,0.0052295285277068615
0.0058060986921191216,0.0039024665020406246,-0.005374502390623093,0.0013627387816086411,9.339902317151427e-05,0.00527803972363472
0.006465999409556389,0.0037636489141732454,-0.005279510281980038,0.0013380206655710936,9.203814988723025e-05,0.005643692333251238
0.006061236839741468,0.0037510914262384176,-0.005525441840291023,0.0014840031508356333,9.071308886632323e-05,0.0053742085583508015
0.005869702436029911,0.004152079112827778,-0.005784719251096249,0.0014789685374125838,8.942547719925642e-05,0.005312089808285236
0.006033180747181177,0.0042997379787266254,-0.005289143417030573,0.0013985185651108623,8.817389607429504e-05,0.005468858405947685
0.005945408716797829,0.004048629198223352,-0.005619429517537355,0.00146242487244308,8.69568539201282e-05,0.005421685520559549
0.006405790336430073,0.004182804375886917,-0.0053609940223395824,0.0014060911489650607,8.577298285672441e-05,0.005332786124199629
0.005602145567536354,0.004097340162843466,-0.005185408983379602,0.0014269201783463359,8.349931886186823e-05,0.004592243116348982
0.005940611939877272,0.003976145759224892,-0.00597564410418272,0.0014360304921865463,8.240708848461509e-05,0.004973418544977903
0.005518048070371151,0.0039024825673550367,-0.005410036072134972,0.0013888366520404816,8.134313975460827e-05,0.005086462013423443
0.006066341884434223,0.00388272013515234,-0.005076906643807888,0.0013456704327836633,8.0306243035011e-05,0.0052750492468476295
0.006132816430181265,0.003941416274756193,-0.005141715053468943,0.0012899459106847644,7.929549610707909e-05,0.00495953019708395
0.006092796102166176,0.00432540150359273,-0.005264028906822205,0.0012939595617353916,7.830980757717043e-05,0.004707265179604292
0.005532729905098677,0.00448758015409112,-0.006158462725579739,0.0012975124409422278,7.734838436590508e-05,0.004772114101797342
0.0056029739789664745,0.004506342113018036,-0.00545525923371315,0.001258975244127214,7.641028787475079e-05,0.004646965768188238
0.006662725005298853,0.0043341852724552155,-0.004836976993829012,0.0013765832409262657,7.549463771283627e-05,0.005155875347554684
0.0062353527173399925,0.004088663030415773,-0.0052518099546432495,0.0013145084958523512,7.4600669904612e-05,0.0050093503668904305
0.005934395361691713,0.004001385532319546,-0.005617098417133093,0.0012547035003080964,7.372762047452852e-05,0.004599608946591616
0.006064606364816427,0.004120178520679474,-0.005935315974056721,0.0012486682971939445,7.287484186235815e-05,0.0045280251652002335
0.005480316001921892,0.0044425856322050095,-0.00533044571056962,0.0012348362943157554,7.204147550510243e-05,0.004893390461802483
0.005480316001921892,0.0044425856322050095,-0.00533044571056962,0.0012348362943157554,7.204147550510243e-05,0.004893390461802483
0.006425799801945686,0.004334366414695978,-0.004158086143434048,0.0012156633893027902,7.12269902578555e-05,0.004841301124542952
0.00623319810256362,0.004179211333394051,-0.004172928165644407,0.0013968396233394742,7.043073128443211e-05,0.0048149023205041885
0.005943243857473135,0.0040340181440114975,-0.004818349611014128,0.0014115350786596537,6.965208740439266e-05,0.0049298726953566074
0.005859658122062683,0.003861715318635106,-0.005121100228279829,0.0013747545890510082,4.547783191810595e-06,0.005299897864460945
0.005680567119270563,0.0036111746449023485,-0.005190371070057154,0.0013216945808380842,2.9693774195038714e-07,0.004808717407286167
0.006434985902160406,0.003540468169376254,-0.005067381076514721,0.0012637692270800471,1.938791172051424e-08,0.004400982521474361
0.00602269871160388,0.003744931425899267,-0.004766608122736216,0.0012307163560763001,1.265892279889158e-09,0.004389921203255653
0.005901916418224573,0.003840303048491478,-0.004621338564902544,0.0012730471789836884,8.265371720383996e-11,0.004606983624398708
0.005970347672700882,0.003774649929255247,-0.004747721832245588,0.0013467551907524467,5.3966974118691e-12,0.004837484564632177
0.005866832099854946,0.003782035084441304,-0.005031612701714039,0.0014167746994644403,3.5236576026789757e-13,0.004568655509501696
0.0062833623960614204,0.00381480623036623,-0.004751119762659073,0.0015276129124686122,2.3006968305852062e-14,0.004498856607824564
0.006185996811836958,0.004192144609987736,-0.004784900229424238,0.0012718252837657928,9.808232571109952e-17,0.00422376673668623
0.0057755340822041035,0.004072906449437141,-0.004715807270258665,0.0013495158636942506,6.4040744885967805e-18,0.00439533730968833
0.005722702015191317,0.0040253205224871635,-0.005041124299168587,0.0013242033310234547,4.181402907840442e-19,0.0046503059566020966
0.00625773286446929,0.003954646177589893,-0.004858535248786211,0.0014642182504758239,2.730157433110431e-20,0.004360288381576538
0.006180866155773401,0.004321170970797539,-0.0043984055519104,0.0013816809514537454,1.782597646065216e-21,0.004301882814615965
0.006041903514415026,0.0042722770012915134,-0.0047482457011938095,0.0013071568682789803,1.1639088560636202e-22,0.003962122369557619
0.006034790072590113,0.004519847221672535,-0.005657907109707594,0.0012608279939740896,7.599493108168428e-24,0.0037229980807751417
0.0062592122703790665,0.004242483992129564,-0.005221920553594828,0.0011950094485655427,4.9619262191549805e-25,0.0036424067802727222
0.006398844067007303,0.004025838803499937,-0.004803873132914305,0.0011833622120320797,3.239783328711071e-26,0.003605745267122984
0.006544078234583139,0.00396326370537281,-0.004673809744417667,0.0011634003603830934,2.1153468877546704e-27,0.003427323652431369
0.006488037761300802,0.003952269442379475,-0.004652908071875572,0.0012362098786979914,1.381170307743855e-28,0.003688311902806163
0.006302913650870323,0.004115696530789137,-0.0051598623394966125,0.0011853192700073123,9.018055621768322e-30,0.004035268910229206
0.0062582469545304775,0.0039855726063251495,-0.0055484171025455,0.0011949409963563085,5.888145713014644e-31,0.004028492607176304
0.006279175169765949,0.004304622765630484,-0.005191607866436243,0.0013169161975383759,2.476966801623348e-05,0.003759843297302723
0.006279175169765949,0.004304622765630484,-0.005191607866436243,0.0013169161975383759,2.476966801623348e-05,0.003759843297302723
0.006661019753664732,0.004195105284452438,-0.005637355148792267,0.0013055414892733097,2.36256073549157e-05,0.0034978059120476246
0.006617490202188492,0.004485622514039278,-0.0053335921838879585,0.0014969721669331193,2.3266758944373578e-05,0.00331660034134984
0.0063274516724050045,0.00421090517193079,-0.005027655977755785,0.0014785121893510222,2.2966381948208436e-05,0.0031272834166884422
0.006514677312225103,0.003980402834713459,-0.0056745074689388275,0.0013941505458205938,2.267683703394141e-05,0.0030309753492474556
0.006675605196505785,0.004385645966976881,-0.005359132774174213,0.0014343459624797106,2.2394675397663377e-05,0.0033765954431146383
0.006875970400869846,0.0041404166258871555,-0.005237143952399492,0.0013545474503189325,2.2119485947769135e-05,0.0037200204096734524
0.006279475521296263,0.004065998364239931,-0.0051072100177407265,0.0013027170207351446,2.1850972188985907e-05,0.003810021560639143
0.006384167354553938,0.004046028014272451,-0.005778458900749683,0.0013417534064501524,2.1588895833701827e-05,0.003702926216647029
0.006516344379633665,0.003941909410059452,-0.005446725524961948,0.0013850083341822028,2.133303860318847e-05,0.0036176566500216722
0.006556112784892321,0.004425402265042067,-0.005322600249201059,0.0013675607042387128,2.108317130478099e-05,0.0032110437750816345
0.006204294506460428,0.0042007239535450935,-0.005312065128237009,0.00153029290959239,2.083908475469798e-05,0.0030349448788911104
0.007557782810181379,0.004167431499809027,-0.005744028836488724,0.0016167202265933156,2.0367495380924083e-05,0.0025425865314900875
0.006174521055072546,0.004317976534366608,-0.005755855701863766,0.0015806846786290407,2.0139610569458455e-05,0.0026302330661565065
0.006096636410802603,0.004312917590141296,-0.005843948107212782,0.0014402432134374976,1.9916766177630052e-05,0.002774676540866494
0.006397611927241087,0.004283962305635214,-0.0054526180028915405,0.0014658207073807716,2.5655156150605762e-06,0.0033152103424072266
0.007312534376978874,0.00415085768327117,-0.005470601841807365,0.0014068400487303734,1.6750985309954558e-07,0.0033487265463918447
0.006988737266510725,0.004466606304049492,-0.0051816231571137905,0.0013279158156365156,1.0937196037730246e-08,0.003140591084957123
0.006328801158815622,0.004126269835978746,-0.00571380415931344,0.0014207311905920506,7.141207625238621e-10,0.002920298371464014
0.006571669597178698,0.003897113958373666,-0.006640191189944744,0.0013562444364652038,4.662698005475363e-11,0.00267531955614686
0.006657914724200964,0.004210260231047869,-0.00588306225836277,0.001517601776868105,3.044408475316729e-12,0.002437451621517539
0.00736449146643281,0.004266182892024517,-0.0052221110090613365,0.0015491480007767677,1.9877811419447e-13,0.00250564469024539
0.007564929313957691,0.0044777123257517815,-0.005390142556279898,0.0017210993682965636,1.2978791083312e-14,0.002681247191503644
0.006662952248007059,0.0042048003524541855,-0.005141910165548325,0.00179336778819561,8.474222647726821e-16,0.002779086120426655
0.006662661675363779,0.004018120933324099,-0.005679558962583542,0.0016694797668606043,5.5330624025651804e-17,0.0026897769421339035
0.007337816990911961,0.00409310357645154,-0.005854062736034393,0.0015458945417776704,3.612694781713097e-18,0.0026683553587645292
0.007631964515894651,0.0038342853076756,-0.005716178100556135,0.0015138068702071905,2.3588314032444313e-19,0.002666390733793378
0.0074256728403270245,0.0037175104953348637,-0.005373513791710138,0.001361548900604248,1.5401484235865094e-20,0.002469758503139019
0.0069490536116063595,0.0038142388220876455,-0.005479955580085516,0.0013791393721476197,1.005606863413697e-21,0.0025396612472832203
0.0069490536116063595,0.0038142388220876455,-0.005479955580085516,0.0013791393721476197,1.005606863413697e-21,0.0025396612472832203
0.007417058106511831,0.004484056960791349,-0.006120727397501469,0.001361207920126617,6.565893786901115e-23,0.0023066934663802385
0.007732369005680084,0.0047256434336304665,-0.005660519935190678,0.0015722651733085513,4.287059461827705e-24,0.0021809390746057034
0.007491890341043472,0.004468086175620556,-0.005241071805357933,0.001579103758558631,2.7991434996844976e-25,0.002318254206329584
0.006925149355083704,0.004559083376079798,-0.005516751669347286,0.0016861121403053403,1.8276408030102133e-26,0.0023343549109995365
0.0074040512554347515,0.004194425884634256,-0.005240277852863073,0.0016103590605780482,1.1933189046799643e-27,0.00254059792496264
0.007911869324743748,0.003987476229667664,-0.005768018774688244,0.001500472309999168,7.791519914448019e-29,0.0022749125491827726
0.007548836059868336,0.003946598619222641,-0.005573122762143612,0.0015319719677791,5.087305956121465e-30,0.001972649712115526
0.008036515675485134,0.004196493420749903,-0.005344856530427933,0.0015235679456964135,3.3216470492654546e-31,0.0018188494723290205
0.007954028435051441,0.004116154741495848,-0.004825394134968519,0.001454256009310484,2.1687980975266594e-32,0.0015274384059011936
0.007523249834775925,0.004440878517925739,-0.005191559437662363,0.0015758798690512776,1.4160701981421114e-33,0.0015402826247736812
0.007328108884394169,0.0046959188766777515,-0.005730672273784876,0.0014978408580645919,9.245926580677033e-35,0.0016591434832662344
0.007308947388082743,0.004368568770587444,-0.0063748955726623535,0.0017528219614177942,6.036929743893515e-36,0.0019822807516902685
0.00781412422657013,0.003591277403756976,-0.005784945096820593,0.0018820270197466016,2.573637651524831e-38,0.0022387714125216007
0.007548352237790823,0.004158992785960436,-0.005222311243414879,0.0018122358014807105,1.6804020859567125e-39,0.0021214138250797987
0.007494516205042601,0.003877878189086914,-0.005296711344271898,0.0018473091768100858,1.0971886715970453e-40,0.0019280650885775685
0.007824325934052467,0.0032740775495767593,-0.00559139484539628,0.0018501754384487867,7.163437749628465e-42,0.0016117130871862173
0.007656984496861696,0.0027926454786211252,-0.00609991792589426,0.0018551187822595239,4.680336870844889e-43,0.0012118000304326415
0.007465314120054245,0.00277892779558897,-0.005447618663311005,0.0018862332217395306,3.0828566215145976e-44,0.0010258961701765656
0.0076471250504255295,0.0034541322384029627,-0.005236486438661814,0.0020878256764262915,1.401298464324817e-45,0.0009230236755684018
0.007750694174319506,0.0037816762924194336,-0.005438283085823059,0.001913864747621119,0.0,0.0009049104410223663
0.007826656103134155,0.0033072037622332573,-0.005120758432894945,0.0018577674636617303,0.0,0.0009032720699906349
0.007593798916786909,0.0028563274536281824,-0.0052001336589455605,0.0018401737324893475,0.0,0.0008293664432130754
0.007407665252685547,0.0029575771186500788,-0.005606099497526884,0.0017359481425955892,0.0,0.0008321719360537827
0.007687630131840706,0.003053283551707864,-0.005919600371271372,0.001612989348359406,0.0,0.000840856577269733
0.007967652752995491,0.0035408027470111847,-0.005424046888947487,0.0016482664505019784,0.0,0.0008479231619276106
0.007483168505132198,0.0033044719602912664,-0.00529348012059927,0.0018816424999386072,0.0,0.000979870674200356
0.008100359700620174,0.0030067770276218653,-0.005464391317218542,0.0020802528597414494,0.0,0.0009899504948407412
0.007840916514396667,0.002992121037095785,-0.006105652078986168,0.0019424126949161291,0.0,0.0009772339835762978
0.007840916514396667,0.002992121037095785,-0.006105652078986168,0.0019424126949161291,0.0,0.0009772339835762978
0.0079716257750988,0.0033023457508534193,-0.005438590422272682,0.0017992935609072447,0.0,0.0009424277232028544
0.0077457185834646225,0.003284056670963764,-0.005311513785272837,0.0017351279966533184,0.0,0.0008575264364480972
0.007944555953145027,0.0031302222050726414,-0.005240252707153559,0.0016483933432027698,0.0,0.0007849562680348754
0.008838429115712643,0.0029378077015280724,-0.005927368067204952,0.0016475450247526169,0.0,0.0006793644279241562
0.007948462851345539,0.002969268709421158,-0.006038917228579521,0.0016895282315090299,0.0,0.0006920152227394283
0.007413238752633333,0.003204378532245755,-0.006200952921062708,0.0019827394280582666,0.0,0.0006254491745494306
0.008077684789896011,0.003189771668985486,-0.005618051625788212,0.0019351309165358543,-0.00020792114082723856,0.0006416801479645073
0.00806423183530569,0.003519445890560746,-0.005638713948428631,0.002157028764486313,-0.0003333587374072522,0.0005922553245909512
0.007629854138940573,0.0032997573725879192,-0.005275891162455082,0.0022776240948587656,-0.00034997117472812533,0.0005419725785031915
0.008149777539074421,0.0031593707390129566,-0.005839858204126358,0.002240929752588272,-0.0003559306787792593,0.0004990477464161813
0.008494366891682148,0.0031840058509260416,-0.006390472408384085,0.002136862836778164,-0.00033569661900401115,0.0004623918212018907
0.008149782195687294,0.0033550518564879894,-0.005576008465141058,0.002058805897831917,-0.0003161576751153916,0.0004307560157030821
0.007793866563588381,0.0034089034888893366,-0.005871648900210857,0.0020672129467129707,-0.00029867133707739413,0.0004031728603877127
0.007946520112454891,0.0034810693468898535,-0.005469088442623615,0.0020256165880709887,-0.00031780311837792397,0.00042928275070153177
0.008497188799083233,0.0034942326601594687,-0.0056986515410244465,0.00204403605312109,-0.0002987934276461601,0.0003415283572394401
0.008034182712435722,0.0034260263200849295,-0.0060445466078817844,0.002082343213260174,-0.00028530522831715643,0.00032118987292051315
0.007794984616339207,0.003411894431337714,-0.005417031701654196,0.0019312385702505708,-0.0003092754341196269,0.0003054229891858995
0.008059513755142689,0.003200545208528638,-0.0054314881563186646,0.002014277270063758,-0.00029880693182349205,0.00029128542519174516
0.008085425943136215,0.003171087708324194,-0.00567551888525486,0.0020547485910356045,-0.00032596010714769363,0.00027840997790917754
0.007810089271515608,0.0031957735773175955,-0.006051671225577593,0.0022284947335720062,-0.0003634008171502501,0.000266623857896775
0.008765590377151966,0.003401888534426689,-0.0058523062616586685,0.0022375485859811306,-0.00038378796307370067,0.00025579624343663454
0.008160882629454136,0.003202359192073345,-0.0055461060255765915,0.002221673959866166,-0.0003876810078509152,0.0002458135422784835
0.007804186083376408,0.003050390165299177,-0.005384615156799555,0.0023484088014811277,-0.0004122457467019558,0.0002365814580116421
0.008057255297899246,0.0033235910814255476,-0.0055168853141367435,0.0022956018801778555,-0.000718685972969979,0.0002280179032823071
0.00846545398235321,0.0030058471020311117,-0.005887171253561974,0.0022633448243141174,-0.0009109593229368329,0.00015012787480372936
0.008483407087624073,0.003093395847827196,-0.006292362231761217,0.0022644430864602327,-0.0008614913676865399,7.884897058829665e-05
0.008184710517525673,0.0033783523831516504,-0.006057440768927336,0.0021545961499214172,-0.0008628710638731718,7.14727066224441e-05
0.008421934209764004,0.003672112710773945,-0.005653039552271366,0.002196023939177394,-0.000892174371983856,5.1716840971494094e-05
0.008414100855588913,0.003399690380319953,-0.005446546245366335,0.002179308794438839,-0.0008404492982663214,3.41154336638283e-05
0.008414100855588913,0.003399690380319953,-0.005446546245366335,0.002179308794438839,-0.0008404492982663214,3.41154336638283e-05
0.008374566212296486,0.0032478426583111286,-0.0058524939231574535,0.002205591183155775,-0.0007142433314584196,3.188253685948439e-05
0.008061939850449562,0.0033345837146043777,-0.006218910217285156,0.0021030486095696688,-0.0007305339095182717,7.991445272637066e-06
0.00847584754228592,0.0031158137135207653,-0.006500795483589172,0.002089269459247589,-0.0007018157630227506,5.217842726779054e-07
0.008250890299677849,0.003170409705489874,-0.006162330042570829,0.0019885131623595953,-0.0006734803901053965,3.406878334999419e-08
0.008130003698170185,0.0032544326968491077,-0.00597416190430522,0.002128993161022663,-0.0006750239408574998,2.2244484032540868e-09
0.008291536010801792,0.0035101950634270906,-0.006700712721794844,0.002279964042827487,-0.0006352969794534147,1.4524058344900226e-10
0.008379875682294369,0.003459232859313488,-0.006777469534426928,0.002524895127862692,-0.000557674269657582,9.483171192758988e-12
0.008063173852860928,0.0033963380847126245,-0.006128299981355667,0.0026869396679103374,-0.0005667177611030638,6.191834154775644e-13
0.008478399366140366,0.003138749860227108,-0.006317909341305494,0.0026772506535053253,-0.0005327622639015317,4.042824899180321e-14
0.008796378038823605,0.0029055047780275345,-0.005903464742004871,0.00239235395565629,-0.0005614203400909901,-0.000959327386226505
0.008931809104979038,0.003134613623842597,-0.006490255706012249,0.002297020284458995,-0.0005200451123528183,-0.0011708366218954325
0.008408539928495884,0.003312160959467292,-0.006438137497752905,0.002394320908933878,-0.0005444769049063325,-0.001800570753403008
0.008613858371973038,0.003185514360666275,-0.006014508660882711,0.0026168469339609146,-0.0005728242103941739,-0.0019348282366991043
0.008487239480018616,0.0030378566589206457,-0.006294996477663517,0.0024742481764405966,-0.0005907173035666347,-0.0019182314863428473
0.008668341673910618,0.0033600989263504744,-0.007222287356853485,0.002358431229367852,-0.0005536754615604877,-0.001635481370612979
0.008622771129012108,0.003129322314634919,-0.0064006103202700615,0.0023911811877042055,-0.0005035355570726097,-0.0016368675278499722
0.008568250574171543,0.003214402124285698,-0.006262792740017176,0.0023391826543956995,-0.0005169145879335701,-0.0015681205550208688
0.00904750730842352,0.003247742308303714,-0.004960058722645044,0.0024819530081003904,-0.0004937993362545967,-0.0016674376092851162
0.008709131740033627,0.003114346880465746,-0.006162061356008053,0.002648948458954692,-0.0004907480906695127,-0.001618238165974617
0.00885106436908245,0.0030261718202382326,-0.007223879918456078,0.0028803814202547073,-0.0004867454990744591,-0.0018818492535501719
0.009081372059881687,0.0029182664584368467,-0.006074174307286739,0.002837015315890312,-0.0005374642205424607,-0.0032580525148659945
0.009081372059881687,0.0029182664584368467,-0.006074174307286739,0.002837015315890312,-0.0005374642205424607,-0.0032580525148659945
0.009249359369277954,0.002888778690248728,-0.006407974287867546,0.002904740860685706,-0.000576324004214257,-0.004362769424915314
0.008552304469048977,0.002877668011933565,-0.006853529717773199,0.0028787998016923666,-0.0005891849286854267,-0.004223362542688847
0.009875585325062275,0.0028008916415274143,-0.006566612981259823,0.0027047032490372658,-0.0005615516565740108,-0.003985018935054541
0.009248162619769573,0.0030240528285503387,-0.006625537760555744,0.002370639471337199,-0.0007739205611869693,-0.0034268214367330074
0.008881578221917152,0.0031847425270825624,-0.006327454000711441,0.0022214455530047417,-0.0007760021835565567,-0.003033105283975601
0.008881578221917152,0.0031847425270825624,-0.006327454000711441,0.0022214455530047417,-0.0007760021835565567,-0.003033105283975601
0.008920491673052311,0.0030562826432287693,-0.006796627771109343,0.002278199652209878,-0.0007055088062770665,-0.0032581763807684183
0.00927765667438507,0.0029058982618153095,-0.007118292152881622,0.002604538341984153,-0.0007151888567022979,-0.0037757866084575653
0.008592840284109116,0.002782268449664116,-0.006699287798255682,0.0030175247229635715,-0.0006531918770633638,-0.004324469715356827
0.008504481986165047,0.0029724740888923407,-0.00658524502068758,0.0030320773366838694,-0.0006332959746941924,-0.004509397782385349
0.009529553353786469,0.0029563354328274727,-0.006211876403540373,0.0032316057477146387,-0.0006160485791042447,-0.00411509582772851
0.0095070144161582,0.0027510093059390783,-0.007111669983714819,0.003242179285734892,-0.0005733327125199139,-0.004196121357381344
0.009258517995476723,0.0025621296372264624,-0.007031197194010019,0.0031216987408697605,-0.0005134906386956573,-0.0042655146680772305
0.009116091765463352,0.002758744638413191,-0.0067977383732795715,0.0026884402614086866,-0.0005466790753416717,-0.004089427646249533
0.009823004715144634,0.0034351113718003035,-0.006892193108797073,0.0027095640543848276,-0.0005790956201963127,-0.004175060894340277
0.009774981066584587,0.0031217203941196203,-0.007111900951713324,0.002888849237933755,-0.0009121905895881355,-0.005398090463131666
0.009740408509969711,0.002840290078893304,-0.006311957258731127,0.003104428295046091,-0.0009273141622543335,-0.0057922848500311375
0.009270009584724903,0.003001138102263212,-0.006809602957218885,0.002922478597611189,-0.000955797266215086,-0.0053467596881091595
0.009390205144882202,0.0033115611877292395,-0.007134362123906612,0.0030313513707369566,-0.0008735280716791749,-0.004752800799906254
0.009747072122991085,0.003310528816655278,-0.00768236955627799,0.003220596117898822,-0.0009275114862248302,-0.0048344735987484455
0.009357253089547157,0.0033489789348095655,-0.006784210912883282,0.0033412883058190346,-0.0009257033816538751,-0.005585845559835434
0.009070012718439102,0.0027520726434886456,-0.00656533008441329,0.0035923458635807037,-0.000912750547286123,-0.006021271925419569
0.010451572947204113,0.0027647141832858324,-0.006858887616544962,0.003365471726283431,-0.0009232257725670934,-0.0063149514608085155
0.009909999556839466,0.0030714685562998056,-0.007473146542906761,0.00343608227558434,-0.0010649494361132383,-0.006050191354006529
0.00932866521179676,0.0035877705086022615,-0.007287303917109966,0.003201859537512064,-0.001066863420419395,-0.005905224476009607
0.009837648831307888,0.0033869915641844273,-0.007383683696389198,0.0029865845572203398,-0.0010697180405259132,-0.0060194022953510284
0.009682098403573036,0.003125523217022419,-0.006862442009150982,0.0028578618075698614,-0.0013200935209169984,-0.00630721403285861
0.009894353337585926,0.002811217913404107,-0.007113778963685036,0.003381389891728759,-0.0012775857467204332,-0.006768757943063974
0.01029170025140047,0.0029173926450312138,-0.007016700692474842,0.0035644248127937317,-0.0012151827104389668,-0.006148882210254669
0.009691723622381687,0.003133601974695921,-0.006792129948735237,0.0034567909315228462,-0.0011061409022659063,-0.005901257041841745
0.009762176312506199,0.003384147770702839,-0.007136660162359476,0.0032230473589152098,-0.0011622554156929255,-0.006152302958071232
0.010211855173110962,0.0031599183566868305,-0.007996751926839352,0.003132318612188101,-0.0010532382875680923,-0.006510626059025526
0.010398335754871368,0.0029501088429242373,-0.0076228780671954155,0.003175618126988411,-0.0010285874595865607,-0.006708499975502491
0.010398335754871368,0.0029501088429242373,-0.0076228780671954155,0.003175618126988411,-0.0010285874595865607,-0.006708499975502491
0.009888564236462116,0.0032346269581466913,-0.006971399299800396,0.003038260620087385,-0.0010511097498238087,-0.006678216625005007
0.009791368618607521,0.0031586987897753716,-0.007453231606632471,0.002857054118067026,-0.0010858190944418311,-0.007098034955561161
0.012315493077039719,0.0030461458954960108,-0.0074288444593548775,0.0028927468229085207,-0.0013200911926105618,-0.007184832356870174
0.010060385800898075,0.002910216571763158,-0.007294108159840107,0.0032939701341092587,-0.0014408307615667582,-0.007177308201789856
0.010060385800898075,0.002910216571763158,-0.007294108159840107,0.0032939701341092587,-0.0014408307615667582,-0.007177308201789856
0.009223398752510548,0.003066072938963771,-0.007051815278828144,0.003247971646487713,-0.0017226538620889187,-0.006648804992437363
0.009810729883611202,0.0032227092888206244,-0.00774006312713027,0.003484132932499051,-0.001622354961000383,-0.007016290444880724
0.010610286146402359,0.003124804235994816,-0.0073882341384887695,0.0032652339432388544,-0.0015010929200798273,-0.007371219806373119
0.009906765073537827,0.002910608658567071,-0.007063709665089846,0.0035028858110308647,-0.0012464552419260144,-0.007501557469367981
0.009998136200010777,0.0026992426719516516,-0.00681941956281662,0.0032744838390499353,-0.001128783798776567,-0.00708008324727416
0.010553047992289066,0.002989856991916895,-0.007587706204503775,0.0029802368953824043,-0.001105970935896039,-0.0071397749707102776
0.010095126926898956,0.0033194588031619787,-0.0073017249815166,0.0031754993833601475,-0.0011926732258871198,-0.007859705947339535
0.010415262542665005,0.003050469560548663,-0.007188946940004826,0.003858516225591302,-0.0011465915013104677,-0.007599149830639362
0.009896835312247276,0.002789442427456379,-0.007620643824338913,0.004148665815591812,-0.0010719348210841417,-0.007530840113759041
0.01081942580640316,0.0028285381849855185,-0.007076444569975138,0.003985606133937836,-0.0009868618799373507,-0.008132711052894592
0.01019683014601469,0.003070612670853734,-0.00693017290905118,0.0038128935266286135,-0.0009083875338546932,-0.008337244391441345
0.009563928470015526,0.003504444845020771,-0.007257957477122545,0.003579305252060294,-0.0007663239375688136,-0.008326463401317596
0.010160097852349281,0.003280090633779764,-0.007686566095799208,0.003460463834926486,-0.000767220975831151,-0.008748556487262249
0.010625561699271202,0.003061278024688363,-0.0074500045739114285,0.0033669560216367245,-0.0006848546909168363,-0.0084812818095088
0.00990898534655571,0.002735588001087308,-0.007307516410946846,0.00336173246614635,-0.0007024845690466464,-0.008036427199840546
0.010178213939070702,0.0030037176329642534,-0.007050523068755865,0.0036086374893784523,-0.0007159064989537001,-0.00827320758253336
0.010278529487550259,0.003140401793643832,-0.007391741499304771,0.004082356579601765,-0.0006741280667483807,-0.008569248020648956
0.01017374824732542,0.003100442700088024,-0.0076423222199082375,0.00422704266384244,-0.0006869774661026895,-0.008652974851429462
0.010489390231668949,0.0027664576191455126,-0.007205711677670479,0.003635284025222063,-0.0007110198494046926,-0.008635000325739384
0.009857752360403538,0.0025125204119831324,-0.007104699499905109,0.0035872270818799734,-0.0007309262873604894,-0.008902842178940773
0.010417012497782707,0.002168335486203432,-0.007709017489105463,0.003732025623321533,-0.000946992717217654,-0.008807629346847534
0.009826155379414558,0.002144178608432412,-0.0077200997620821,0.003897803369909525,-0.0011425460688769817,-0.008680547587573528
0.010157500393688679,0.0024970541708171368,-0.006991725880652666,0.003651691833510995,-0.0011426217388361692,-0.00899942871183157
0.010157500393688679,0.0024970541708171368,-0.006991725880652666,0.003651691833510995,-0.0011426217388361692,-0.00899942871183157
0.010156787000596523,0.0024436789099127054,-0.006811066064983606,0.0035251674707978964,-0.00149678741581738,-0.008779252879321575
0.010669901967048645,0.0025755641981959343,-0.007558854296803474,0.003528027329593897,-0.001388246426358819,-0.00853683426976204
0.009960854426026344,0.002535340841859579,-0.00793052464723587,0.0036655303556472063,-0.0011771286372095346,-0.008858884684741497
0.010572747327387333,0.00231222459115088,-0.007357507478445768,0.004187844227999449,-0.0011150565696880221,-0.009330922737717628
0.010557486675679684,0.0021021130960434675,-0.006914085708558559,0.004064895678311586,-0.0009861794533208013,-0.009460256434977055
0.01069328561425209,0.00207934039644897,-0.007314344402402639,0.003925907891243696,-0.0007800998282618821,-0.009850527159869671
0.012069442309439182,0.0020871683955192566,-0.007391809020191431,0.003910121973603964,-0.0008476393995806575,-0.010568681173026562
0.012526853010058403,0.0020137352403253317,-0.007243163418024778,0.003932984545826912,-0.0008865754352882504,-0.010104231536388397
0.011912520974874496,0.0022090442944318056,-0.007207708898931742,0.003929405007511377,-0.001162926317192614,-0.009903552941977978
0.011921781115233898,0.002027146751061082,-0.007589708082377911,0.004350102040916681,-0.0013493507867679,-0.010235857218503952
0.012207605876028538,0.002033890224993229,-0.007625370752066374,0.003949540201574564,-0.0017763266805559397,-0.0105671351775527
0.01202449481934309,0.0021867507603019476,-0.007099941838532686,0.003972497768700123,-0.0016167318681254983,-0.011021073907613754
0.0126004908233881,0.0021949512884020805,-0.00778264831751585,0.0042764050886034966,-0.0013419719180092216,-0.01131998561322689
0.01227350439876318,0.002100237412378192,-0.007546197157353163,0.004327423870563507,-0.0011318634497001767,-0.011940076015889645
0.012564928270876408,0.002064524218440056,-0.007156169041991234,0.004059100057929754,-0.0009831879287958145,-0.010469608940184116
0.012707190588116646,0.0020048562437295914,-0.00692397728562355,0.003937446512281895,-0.0007220378029160202,-0.010676220990717411
0.012341244146227837,0.0021047526970505714,-0.007971596904098988,0.004221712239086628,-0.0006745487917214632,-0.011336163617670536
0.01242111437022686,0.0020409852731972933,-0.008294056169688702,0.00410450529307127,-0.0006452090456150472,-0.011540181934833527
0.012223459780216217,0.0022592900786548853,-0.007216128520667553,0.0042936974205076694,-0.0006687961285933852,-0.011896607466042042
0.012567264959216118,0.0020361915230751038,-0.0068085044622421265,0.004452045541256666,-0.000690939836204052,-0.01191665418446064
0.012517288327217102,0.0020752607379108667,-0.007636894006282091,0.00438823364675045,-0.0007294120732694864,-0.011882674880325794
0.012613319791853428,0.0018787086009979248,-0.008154196664690971,0.004518961068242788,-0.0007535411277785897,-0.012098178267478943
0.012900258414447308,0.0019671344198286533,-0.007764327805489302,0.005053511820733547,-0.0007723348680883646,-0.012220248579978943
0.012364134192466736,0.0018066596239805222,-0.00748218409717083,0.005083918571472168,-0.0007868914981372654,-0.0122443288564682
0.012941718101501465,0.0020187462214380503,-0.008074654266238213,0.004868536256253719,-0.0008531069615855813,-0.012453749775886536
0.012367071583867073,0.0020856615155935287,-0.007099343929439783,0.004698483739048243,-0.0009394574444741011,-0.012161585502326488
0.012364075519144535,0.002098717261105776,-0.007368747610598803,0.004661835730075836,-0.0009570094989612699,-0.012574505060911179
0.012865052558481693,0.002291787648573518,-0.007787015289068222,0.004276494029909372,-0.0009591357666067779,-0.012808122672140598
0.01252666674554348,0.0019889504183083773,-0.008298639208078384,0.004486485384404659,-0.0010642283596098423,-0.012630290351808071
0.01252666674554348,0.0019889504183083773,-0.008298639208078384,0.004486485384404659,-0.0010642283596098423,-0.012630290351808071
0.013011530973017216,0.0018355738138779998,-0.007916539907455444,0.004635428544133902,-0.001056225155480206,-0.012255276553332806
0.012499035336077213,0.002026708796620369,-0.007113510277122259,0.0043142689391970634,-0.0008940912084653974,-0.012053817510604858
0.01309901662170887,0.0018627162789925933,-0.00744505925104022,0.0043976642191410065,-0.0008856104104779661,-0.012110634706914425
0.012612810358405113,0.0018450558418408036,-0.008196027018129826,0.004540329333394766,-0.0008790801512077451,-0.012367320246994495
0.0128302788361907,0.0017866004491224885,-0.00764101929962635,0.004517571534961462,-0.0007859672768972814,-0.012784851714968681
0.01231855433434248,0.001827056403271854,-0.007539635989814997,0.004331283271312714,-0.0007957329507917166,-0.01257371436804533
0.01263106893748045,0.0018445000750944018,-0.007839701138436794,0.004509724676609039,-0.0008087093010544777,-0.011970498599112034
0.01305208820849657,0.0018882285803556442,-0.007890000939369202,0.004842572379857302,-0.0009233322343789041,-0.01211300678551197
0.013764738105237484,0.0019337036646902561,-0.0074725341983139515,0.0047009228728711605,-0.000962699530646205,-0.012328394688665867
0.013190822675824165,0.002195678884163499,-0.007655392866581678,0.004944028332829475,-0.0009654689347371459,-0.012276943773031235
0.012955927290022373,0.002168275648728013,-0.008090031333267689,0.005046243313699961,-0.0009573568822816014,-0.012488847598433495
0.012589504010975361,0.0021450240164995193,-0.008176278322935104,0.00540803512558341,-0.0010013700230047107,-0.012806583195924759
0.013346477411687374,0.0020622522570192814,-0.007880334742367268,0.0051934015937149525,-0.0009989440441131592,-0.01290164701640606
0.012727763503789902,0.0020037638023495674,-0.00849984958767891,0.005640468560159206,-0.0009556705481372774,-0.013012674637138844
0.013157982379198074,0.0019579497165977955,-0.007994028739631176,0.0053605856373906136,-0.0008571465732529759,-0.013198508881032467
0.01309945248067379,0.001983474940061569,-0.007458783686161041,0.005453134886920452,-0.0008561518043279648,-0.013044934719800949
0.013215873390436172,0.002049976959824562,-0.007356561720371246,0.004980667494237423,-0.0007839865866117179,-0.013052291236817837
0.012815253809094429,0.0024191243574023247,-0.008226761594414711,0.004556211642920971,-0.0007823783671483397,-0.013068970292806625
0.013452228158712387,0.002526592230424285,-0.008228874765336514,0.005036062560975552,-0.000868890667334199,-0.013072214089334011
0.013586614280939102,0.002314809011295438,-0.00821250956505537,0.005382047966122627,-0.0010873721912503242,-0.013386368751525879
0.013400502502918243,0.0020790763664990664,-0.008062927052378654,0.005199463572353125,-0.0013705913443118334,-0.01362006925046444
0.013511406257748604,0.001998992869630456,-0.008430100046098232,0.005318116396665573,-0.0013448870740830898,-0.013987800106406212
0.01321597583591938,0.001979253953322768,-0.007806799374520779,0.005202308762818575,-0.001282953075133264,-0.013835514895617962
0.013773796148598194,0.0020107992459088564,-0.0076104747131466866,0.0050390311516821384,-0.0012748806038871408,-0.01401356142014265
0.013306082226336002,0.0023567895404994488,-0.007825865410268307,0.005141670349985361,-0.0013016487937420607,-0.014160552993416786
0.013442277908325195,0.00228706793859601,-0.008568383753299713,0.004878697916865349,-0.0011769222328439355,-0.014386193826794624
0.013314605690538883,0.0021996244322508574,-0.008427191525697708,0.004780577030032873,-0.0011655606795102358,-0.014537655748426914
0.013872244395315647,0.0019693982321769,-0.007955795153975487,0.005374054424464703,-0.0011611947556957603,-0.0147557919844985
0.01378388237208128,0.0019333197269588709,-0.007909873500466347,0.005344007164239883,-0.0011420383816584945,-0.014494136907160282
0.01378388237208128,0.0019333197269588709,-0.007909873500466347,0.005344007164239883,-0.0011420383816584945,-0.014494136907160282
0.013986822217702866,0.0018883170560002327,-0.00825993437319994,0.0051766871474683285,-0.0012786543229594827,-0.01468117069453001
0.013549002818763256,0.0019258250249549747,-0.008092290721833706,0.00524279335513711,-0.001259837532415986,-0.014446496963500977
0.014068475924432278,0.0019203155534341931,-0.008434181101620197,0.005310213193297386,-0.0012013597879558802,-0.014780230820178986
0.013772629201412201,0.0019611497409641743,-0.008545642718672752,0.005455226171761751,-0.0011461478425189853,-0.014550130814313889
0.013997072353959084,0.001939144218340516,-0.008390811271965504,0.005146385636180639,-0.001212598755955696,-0.01506848819553852
0.01391888502985239,0.0019511703867465258,-0.006902937311679125,0.005261548794806004,-0.0011660539312288165,-0.01501217670738697
0.014052835293114185,0.0018340374808758497,-0.008323762565851212,0.005688663572072983,-0.0011799382045865059,-0.015105103142559528
0.013915352523326874,0.001649015350267291,-0.008453838527202606,0.005668936297297478,-0.0012564250500872731,-0.014460970647633076
0.014069698750972748,0.0016198419034481049,-0.00791250355541706,0.005581615027040243,-0.0011525480076670647,-0.015042555518448353
0.014453789219260216,0.0016081682406365871,-0.008520231582224369,0.0055458564311265945,-0.0012725668493658304,-0.015094026923179626
0.014336512424051762,0.001774428179487586,-0.008695628494024277,0.0058221169747412205,-0.0012339906534180045,-0.014985853806138039
0.014627862721681595,0.001653720741160214,-0.008455011993646622,0.005892141256481409,-0.001205771928653121,-0.01515263132750988
0.014559241011738777,0.0016736822435632348,-0.008399641141295433,0.005644270218908787,-0.0013043953804299235,-0.015947451815009117
0.014505811035633087,0.0015416510868817568,-0.00857224315404892,0.005783864762634039,-0.0012578507885336876,-0.016194341704249382
0.014361557550728321,0.001579712494276464,-0.008847190998494625,0.0055809482000768185,-0.0013386789942160249,-0.015845496207475662
0.014873169362545013,0.0016094660386443138,-0.008163375779986382,0.005544552579522133,-0.0014520694967359304,-0.015379304066300392
0.014709954150021076,0.0016544685931876302,-0.008939818479120731,0.005744673311710358,-0.0014133761869743466,-0.015820978209376335
0.014572247862815857,0.0015771699836477637,-0.009084828197956085,0.005817654076963663,-0.001557428389787674,-0.016201404854655266
0.014869697391986847,0.0016288802726194263,-0.008533095009624958,0.0060421014204621315,-0.0015204802621155977,-0.016772158443927765
0.014864753000438213,0.0015361728146672249,-0.008735794574022293,0.005631383042782545,-0.001404554583132267,-0.016291175037622452
0.01460176333785057,0.0015776794170960784,-0.009136463515460491,0.005899055395275354,-0.001251227455213666,-0.014911696314811707
0.014643555507063866,0.0015778339002281427,-0.008882519789040089,0.006152914371341467,-0.0013210830511525273,-0.014549661427736282
0.014712600037455559,0.0015146515797823668,-0.008733637630939484,0.0060938685201108456,-0.0012760644312947989,-0.014784019440412521
0.015173260122537613,0.0015838983235880733,-0.009378137066960335,0.006148691289126873,-0.0013347689528018236,-0.015428915619850159
0.014897756278514862,0.0015026746550574899,-0.008979850448668003,0.005766453221440315,-0.0012631923891603947,-0.015706991776823997
0.014894839376211166,0.001536533352918923,-0.008341205306351185,0.006262549199163914,-0.001239633304066956,-0.01606602407991886
0.014968116767704487,0.0014620926231145859,-0.009677223861217499,0.005948488134890795,-0.0012060425942763686,-0.016382234171032906
0.01545952819287777,0.0015261548105627298,-0.009542232379317284,0.005711217876523733,-0.001317786518484354,-0.016606394201517105
0.01545952819287777,0.0015261548105627298,-0.009542232379317284,0.005711217876523733,-0.001317786518484354,-0.016606394201517105
0.014995591714978218,0.001598502742126584,-0.008998209610581398,0.005308664869517088,-0.0013147955760359764,-0.016346240416169167
0.015702810138463974,0.0015136918518692255,-0.009641853161156178,0.005700747482478619,-0.0016421122709289193,-0.01622845232486725
0.015569403767585754,0.0016339945141226053,-0.00954592227935791,0.006095876917243004,-0.0016231618355959654,-0.01618044450879097
0.015621020458638668,0.001678910688497126,-0.009297999553382397,0.006499897688627243,-0.0017405992839485407,-0.016106558963656425
0.015483291819691658,0.0015494909603148699,-0.009366266429424286,0.006398891564458609,-0.0017285397043451667,-0.01630541682243347
0.015894033014774323,0.0015547237126156688,-0.009792391210794449,0.005886927712708712,-0.001503335195593536,-0.016485445201396942
0.015645653009414673,0.001488294336013496,-0.009463951922953129,0.0057792142033576965,-0.0014819641364738345,-0.016792884096503258
0.01567123457789421,0.0015718567883595824,-0.00995748583227396,0.0064408318139612675,-0.0012953525874763727,-0.01704762876033783
0.01564461551606655,0.0017046896973624825,-0.008911947719752789,0.006533943582326174,-0.0013160547241568565,-0.017469676211476326
0.015947427600622177,0.001749433926306665,-0.009715386666357517,0.006404384505003691,-0.0012573590502142906,-0.017261505126953125
0.01610170491039753,0.001621464965865016,-0.009765278548002243,0.005816615652292967,-0.0012926349882036448,-0.017471205443143845
0.01677255518734455,0.001652599312365055,-0.009304779581725597,0.006098973099142313,-0.0013568297727033496,-0.017279282212257385
0.016237646341323853,0.0015373764326795936,-0.009475293569266796,0.006631794385612011,-0.0013675226364284754,-0.01723061501979828
0.015924081206321716,0.0015234124148264527,-0.009524349123239517,0.006566590629518032,-0.0017876973142847419,-0.017204543575644493
0.01618054322898388,0.001433636643923819,-0.00962770450860262,0.006232184823602438,-0.0019279065309092402,-0.017427528277039528
0.016198670491576195,0.00134767044801265,-0.010136962868273258,0.0064977738074958324,-0.0019626969005912542,-0.017914455384016037
0.016159383580088615,0.0014290357939898968,-0.010158665478229523,0.007315169554203749,-0.0017142229480668902,-0.018151860684156418
0.015889672562479973,0.0013377639697864652,-0.009320895187556744,0.007260018493980169,-0.0014625740004703403,-0.018148543313145638
0.016796160489320755,0.0014593783998861909,-0.009387882426381111,0.007214623503386974,-0.0011960346018895507,-0.01815277896821499
0.01649334654211998,0.001561092445626855,-0.009647338651120663,0.007302414625883102,-0.0011642496101558208,-0.017981968820095062
0.01649460941553116,0.0014857519418001175,-0.00965438224375248,0.007821050472557545,-0.001155204838141799,-0.01823916845023632
0.016422023996710777,0.0015592292184010148,-0.009777436964213848,0.00750765111297369,-0.0015085677150636911,-0.018268093466758728
0.016885461285710335,0.0014622893650084734,-0.009801055304706097,0.006937193218618631,-0.0014949056785553694,-0.018473904579877853
0.016885461285710335,0.0014622893650084734,-0.009801055304706097,0.006937193218618631,-0.0014949056785553694,-0.018473904579877853
0.01694926619529724,0.001355344895273447,-0.009614035487174988,0.006759210489690304,-0.001719042775221169,-0.01897365227341652
0.016614876687526703,0.0012035088147968054,-0.00968947820365429,0.006579305976629257,-0.001769288326613605,-0.018590101972222328
0.016699127852916718,0.0012698331847786903,-0.009660410694777966,0.006939448416233063,-0.001755181816406548,-0.018180519342422485
0.018226614221930504,0.0012756113428622484,-0.009271221235394478,0.006733949761837721,-0.0016509221168234944,-0.018190858885645866
0.016924183815717697,0.0016951836878433824,-0.009227849543094635,0.006398170255124569,-0.0014984597219154239,-0.018237370997667313
0.016555361449718475,0.00157797837164253,-0.00974760390818119,0.006998091470450163,-0.0012362278066575527,-0.01838342286646366
0.0166214257478714,0.0016760195139795542,-0.009428324177861214,0.006865723989903927,-0.001142293680459261,-0.018630128353834152
0.017062930390238762,0.0015460888389497995,-0.009207990020513535,0.007162186317145824,-0.0012239200295880437,-0.018753530457615852
0.016890479251742363,0.001449787407182157,-0.010212784633040428,0.007141989190131426,-0.0014714188873767853,-0.018805338069796562
0.017352711409330368,0.0013435438740998507,-0.009489779360592365,0.006832920480519533,-0.00209479546174407,-0.019338713958859444
0.016938194632530212,0.0014214841648936272,-0.010593860410153866,0.007343417499214411,-0.002036486752331257,-0.019444197416305542
0.01722763106226921,0.0013640124816447496,-0.010784462094306946,0.006971759255975485,-0.0022232632618397474,-0.01965061016380787
0.01704009436070919,0.0014349858975037932,-0.011109767481684685,0.007357481867074966,-0.0020930261816829443,-0.019663909450173378
0.01760747656226158,0.0013837884180247784,-0.010742897167801857,0.007911109365522861,-0.0019815415143966675,-0.019930390641093254
0.017448890954256058,0.001429785043001175,-0.010693925432860851,0.007828980684280396,-0.0018091711681336164,-0.020093197003006935
0.017377490177750587,0.0013696500100195408,-0.01119090523570776,0.007467189803719521,-0.0015859780833125114,-0.019870592281222343
0.01752515137195587,0.0012623785296455026,-0.011024069041013718,0.007186268921941519,-0.001507022650912404,-0.019790787249803543
0.017529863864183426,0.0013229841133579612,-0.010934832505881786,0.007712190039455891,-0.0015138479648157954,-0.02023790404200554
0.018074655905365944,0.0012857549590989947,-0.011252423748373985,0.006990578956902027,-0.0015588972019031644,-0.020206060260534286
0.017817916348576546,0.0014071912737563252,-0.010277429595589638,0.006606156472116709,-0.00149304058868438,-0.020052678883075714
0.017349334433674812,0.0013510826975107193,-0.010644856840372086,0.006839303765445948,-0.0015402513090521097,-0.02041587233543396
0.017900576815009117,0.0012708359863609076,-0.011788693256676197,0.007027511019259691,-0.001498752855695784,-0.02038959413766861
0.01778458245098591,0.0011810401920229197,-0.011474099941551685,0.007404884323477745,-0.0015529199736192822,-0.02010018192231655
0.018055569380521774,0.0010993065079674125,-0.01171143352985382,0.007661398500204086,-0.0017051218310371041,-0.020195692777633667
0.01804235577583313,0.0010637214872986078,-0.011433244682848454,0.007151343859732151,-0.0017911788308992982,-0.02054116502404213
0.01803293265402317,0.0010701901046559215,-0.010152649134397507,0.0072537316009402275,-0.0019125890685245395,-0.020529448986053467
0.018755091354250908,0.001018248382024467,-0.01061573438346386,0.00759935611858964,-0.0017497276421636343,-0.020686399191617966
0.018157754093408585,0.0010156158823519945,-0.010505854152143002,0.007685917429625988,-0.001865874626673758,-0.020498918369412422
0.017804592847824097,0.001009068451821804,-0.01092040166258812,0.007308172527700663,-0.001957335975021124,-0.020430026575922966
0.01843894086778164,0.0009975774446502328,-0.011033743619918823,0.007590700406581163,-0.0019839296583086252,-0.020933831110596657
0.01843894086778164,0.0009975774446502328,-0.011033743619918823,0.007590700406581163,-0.0019839296583086252,-0.020933831110596657
0.01827271282672882,0.0010462794452905655,-0.010351425036787987,0.008038442581892014,-0.001847035251557827,-0.021464446559548378
0.018307264894247055,0.0010343424510210752,-0.010708940215408802,0.007730898447334766,-0.0018350682221353054,-0.021924972534179688
0.018274419009685516,0.0010008871322497725,-0.01064898632466793,0.008097969926893711,-0.001978453481569886,-0.02135375887155533
0.018024327233433723,0.0009866952896118164,-0.010111836716532707,0.007979084737598896,-0.00225429586134851,-0.021232793107628822
0.018419299274683,0.0009402901050634682,-0.010869455523788929,0.008048580028116703,-0.0023255017586052418,-0.020442282781004906
0.01820957288146019,0.0010710535570979118,-0.010739382356405258,0.007633833680301905,-0.0017611768562346697,-0.021347196772694588
0.01855345256626606,0.0012889195932075381,-0.011205073446035385,0.00773682352155447,-0.0016513074515387416,-0.022332176566123962
0.018800264224410057,0.0012447757180780172,-0.011112037114799023,0.008146599866449833,-0.001541626057587564,-0.022254085168242455
0.018435804173350334,0.0011752462014555931,-0.011441508308053017,0.008153504692018032,-0.0015025085303932428,-0.02271968685090542
0.018454894423484802,0.0009956394787877798,-0.00932974275201559,0.008157283067703247,-0.0014603591989725828,-0.02255920320749283
0.018384702503681183,0.0008596988045610487,-0.010615551844239235,0.007964872755110264,-0.0015178847825154662,-0.02295929379761219
0.018375881016254425,0.0007563948747701943,-0.01128200814127922,0.008109930902719498,-0.0016104740789160132,-0.02205611765384674
0.01913442090153694,0.0006752602639608085,-0.010605909861624241,0.007739385589957237,-0.0015470709186047316,-0.02198483608663082
0.01929701864719391,0.0006956879515200853,-0.009936276823282242,0.008114619180560112,-0.0015379907563328743,-0.022357340902090073
0.019108103588223457,0.0005709134857170284,-0.010852805338799953,0.00846683606505394,-0.0014920709654688835,-0.02284846268594265
0.01904982514679432,0.0005621052696369588,-0.010214012116193771,0.008037390187382698,-0.0015324015403166413,-0.022863412275910378
0.01856621354818344,0.0005939723923802376,-0.010358409024775028,0.007577930577099323,-0.0016807096544653177,-0.02267133630812168
0.018438830971717834,0.0005515235243365169,-0.01104272622615099,0.008031507954001427,-0.0017953187925741076,-0.022572077810764313
0.018930673599243164,0.0005786350811831653,-0.010235794819891453,0.008265208452939987,-0.001933786552399397,-0.02295687235891819
0.01869872771203518,0.0005364725366234779,-0.010190916247665882,0.008052820339798927,-0.0017953161150217056,-0.02264915034174919
0.01869872771203518,0.0005364725366234779,-0.010190916247665882,0.008052820339798927,-0.0017953161150217056,-0.02264915034174919
0.01884339191019535,0.0005606760387308896,-0.010147081688046455,0.008477109484374523,-0.0016600709641352296,-0.02268245443701744
0.01884339191019535,0.0005606760387308896,-0.010147081688046455,0.008477109484374523,-0.0016600709641352296,-0.02268245443701744
0.018513184040784836,0.0005397267523221672,-0.010315993800759315,0.008484061807394028,-0.0016094986349344254,-0.02276960201561451
0.019289439544081688,0.0004357204888947308,-0.010196298360824585,0.007888033986091614,-0.0015868109185248613,-0.023174239322543144
0.01903752237558365,0.00047551942407153547,-0.010841899551451206,0.007725714240223169,-0.0017349442932754755,-0.023118680343031883
0.019069558009505272,0.000437993643572554,-0.010198005475103855,0.008043822832405567,-0.001613880624063313,-0.02284208871424198
0.019399922341108322,0.00046453322283923626,-0.009992276318371296,0.007839002646505833,-0.0016756999539211392,-0.023172790184617043
0.019399922341108322,0.00046453322283923626,-0.009992276318371296,0.007839002646505833,-0.0016756999539211392,-0.023172790184617043
0.018920861184597015,0.00043955777073279023,-0.010931783355772495,0.008293756283819675,-0.0016510944114997983,-0.022711997851729393
0.019388604909181595,0.000440888135926798,-0.01099951658397913,0.008114672265946865,-0.0014984167646616697,-0.023715874180197716
0.019634945318102837,0.00043494327110238373,-0.011584238149225712,0.00825051125138998,-0.0014302936615422368,-0.023738058283925056
0.01810171641409397,0.00046761485282331705,-0.010209859348833561,0.008558757603168488,-0.0014405285473912954,-0.023239491507411003
0.019938847050070763,0.0004383746418170631,-0.010218731127679348,0.008245832286775112,-0.0014074114151299,-0.024056073278188705
0.01980135403573513,0.0004703291051555425,-0.010830402374267578,0.008070597425103188,-0.001575198257341981,-0.022441919893026352
0.019520645961165428,0.00044005512609146535,-0.01057878602296114,0.00907166302204132,-0.0019435398280620575,-0.022475171834230423
0.019520645961165428,0.00044005512609146535,-0.01057878602296114,0.00907166302204132,-0.0019435398280620575,-0.022475171834230423
0.019362637773156166,0.0006394537631422281,-0.010861523449420929,0.00852938648313284,-0.002195287961512804,-0.023673469200730324
0.019675498828291893,0.0005829315632581711,-0.010691086761653423,0.00890862662345171,-0.002015345264226198,-0.023809274658560753
0.019958149641752243,0.0006180558702908456,-0.011089649982750416,0.008892280980944633,-0.0017870260635390878,-0.024236014112830162
0.019935492426156998,0.0005557906697504222,-0.01081207487732172,0.008800365030765533,-0.0016160368686541915,-0.02451998181641102
0.020042939111590385,0.000503918097820133,-0.01091606356203556,0.008497847244143486,-0.0012979991734027863,-0.024076221510767937
0.01991286315023899,0.0005284093203954399,-0.011209899559617043,0.008544706739485264,-0.001335039851255715,-0.023521361872553825
0.020117400214076042,0.000495283689815551,-0.01075405441224575,0.008498340845108032,-0.0014923365088179708,-0.02334996685385704
0.01970886066555977,0.0005170045769773424,-0.01164121925830841,0.008186728693544865,-0.0017054846975952387,-0.023823505267500877
0.02037358097732067,0.00048911536578089,-0.01111118495464325,0.008167307823896408,-0.0018245814135298133,-0.024679547175765038
0.02037358097732067,0.00048911536578089,-0.01111118495464325,0.008167307823896408,-0.0018245814135298133,-0.024679547175765038
0.02030288800597191,0.0004723964666482061,-0.010866221971809864,0.008680528961122036,-0.0019560845103114843,-0.024460697546601295
0.020215954631567,0.0004843726346734911,-0.012016115710139275,0.008381222374737263,-0.001866256119683385,-0.024242985993623734
0.020282568410038948,0.00046914583072066307,-0.011632820591330528,0.00751438457518816,-0.001808604341931641,-0.024344710633158684
0.02004704810678959,0.0004952737363055348,-0.01140647567808628,0.008042887784540653,-0.0016590752638876438,-0.024037625640630722
0.01991499774158001,0.0004665128653869033,-0.011568853631615639,0.00858471728861332,-0.0016215862706303596,-0.024517914280295372
0.020000554621219635,0.0004344426852185279,-0.011555299162864685,0.008965421468019485,-0.0016116388142108917,-0.02470419742166996
0.020373765379190445,0.00044437989708967507,-0.012258182279765606,0.008876346983015537,-0.001858880277723074,-0.024457454681396484
0.020312247797846794,0.00043605020618997514,-0.011219052597880363,0.00879401434212923,-0.0019158461363986135,-0.024661101400852203
0.019849762320518494,0.0004113814502488822,-0.01194588653743267,0.00893107894808054,-0.0022201822139322758,-0.024435980245471
0.020584233105182648,0.0004235789238009602,-0.011535716243088245,0.008842266164720058,-0.002413529669865966,-0.025219742208719254
0.020312394946813583,0.0004376570286694914,-0.011977247893810272,0.009233352728188038,-0.0022391872480511665,-0.02546018175780773
0.02050868049263954,0.0004274224629625678,-0.011802412569522858,0.008539801463484764,-0.0021277128253132105,-0.0248514786362648
0.02047576569020748,0.00039636960718780756,-0.012260984629392624,0.00875043123960495,-0.002150376792997122,-0.02538817562162876
0.02039281278848648,0.000423424324253574,-0.011874588206410408,0.009221444837749004,-0.002091520233079791,-0.025473041459918022
0.020303349941968918,0.0004031275457236916,-0.011311438865959644,0.008761005476117134,-0.0019231099868193269,-0.025381820276379585
0.02084101364016533,0.0004266385512892157,-0.011965062469244003,0.008259478956460953,-0.0018906723707914352,-0.02523043192923069
0.020438386127352715,0.0004084412066731602,-0.011712533421814442,0.008489331230521202,-0.0018900075228884816,-0.025548651814460754
0.020353199914097786,0.00045962256263010204,-0.012457477860152721,0.008762135170400143,-0.001954171573743224,-0.025890562683343887
0.020821956917643547,0.0004201386182103306,-0.011845619417726994,0.00911321397870779,-0.00207597971893847,-0.02590617537498474
0.021263420581817627,0.0004600210231728852,-0.012214996851980686,0.008744556456804276,-0.002028906950727105,-0.026083657518029213
0.021403612568974495,0.0004248419136274606,-0.012260175310075283,0.008789077401161194,-0.0018575568683445454,-0.0262545645236969
0.02103377878665924,0.00045160905574448407,-0.011619310826063156,0.008623120374977589,-0.0016891463892534375,-0.026112228631973267
0.021447066217660904,0.0004281533765606582,-0.012472376227378845,0.00859992578625679,-0.001655744039453566,-0.026290472596883774
0.021447066217660904,0.0004281533765606582,-0.012472376227378845,0.00859992578625679,-0.001655744039453566,-0.026290472596883774
0.020900363102555275,0.0004009944386780262,-0.012404529377818108,0.008976707234978676,-0.0017327627865597606,-0.026304934173822403
0.0209826473146677,0.00037699582753703,-0.012263959273695946,0.008720558136701584,-0.0021125897765159607,-0.026697810739278793
0.021945448592305183,0.00038478299393318594,-0.012012079358100891,0.009546867571771145,-0.002492815488949418,-0.026567336171865463
0.021945448592305183,0.00038478299393318594,-0.012012079358100891,0.009546867571771145,-0.002492815488949418,-0.026567336171865463
0.02161332406103611,0.0003652698069345206,-0.01246989332139492,0.01026601530611515,-0.0022139556240290403,-0.027031295001506805
0.02132182940840721,0.0003476327401585877,-0.012016601860523224,0.009376151487231255,-0.0020644068717956543,-0.027279198169708252
0.021767595782876015,0.00033161885221488774,-0.01240443903952837,0.009480604901909828,-0.0018948891665786505,-0.0273608211427927
0.022134410217404366,0.0003262201207689941,-0.011974232271313667,0.009461970999836922,-0.0019825322087854147,-0.027507470920681953
0.021863378584384918,0.00030569391674362123,-0.012869180180132389,0.009321489371359348,-0.0018867634935304523,-0.02734408527612686
0.021458996459841728,0.0002691418631002307,-0.012304103001952171,0.010019727051258087,-0.0023020205553621054,-0.027676111087203026
0.021519994363188744,0.0003026494523510337,-0.012527062557637691,0.009664734825491905,-0.002212018007412553,-0.027694446966052055
0.021732190623879433,0.0002884321438614279,-0.012390855699777603,0.010253407061100006,-0.00206849817186594,-0.028511468321084976
0.022824347019195557,0.00027383011183701456,-0.011975223198533058,0.010170887224376202,-0.0018434276571497321,-0.028750183060765266
0.022322505712509155,0.00026061455719172955,-0.012736915610730648,0.010532497428357601,-0.0016565887490287423,-0.029005490243434906
0.022249523550271988,0.00024861496058292687,-0.013356362469494343,0.010336318984627724,-0.0014854046748951077,-0.028657937422394753
0.022710304707288742,0.000272591772954911,-0.012303445488214493,0.010164997540414333,-0.0015994129935279489,-0.027583712711930275
0.022642547264695168,0.00026553039788268507,-0.012550212442874908,0.010299825109541416,-0.002074399497359991,-0.027410324662923813
0.022598689422011375,0.0002548479533288628,-0.012785330414772034,0.010449028573930264,-0.002456394489854574,-0.028548909351229668
0.022244585677981377,0.000244940078118816,-0.012674244120717049,0.010428173467516899,-0.0024496233090758324,-0.029019521549344063
0.022785810753703117,0.00023577394313178957,-0.012753642164170742,0.010803496465086937,-0.002291937591508031,-0.028633061796426773
0.022680850699543953,0.00025590488803572953,-0.0124122966080904,0.010183596052229404,-0.0020655065309256315,-0.029672393575310707
0.022835826501250267,0.0002506394521333277,-0.013346054591238499,0.009599018841981888,-0.0019069607369601727,-0.029697144404053688
0.022602243348956108,0.00024225514789577574,-0.012845033779740334,0.010245605371892452,-0.00187389284837991,-0.029010718688368797
0.022602243348956108,0.00024225514789577574,-0.012845033779740334,0.010245605371892452,-0.00187389284837991,-0.029010718688368797
0.022792482748627663,0.00023533464991487563,-0.012903230264782906,0.01013185828924179,-0.0019385539926588535,-0.027777452021837234
0.0227511003613472,0.00024354489869438112,-0.012691260315477848,0.009667123667895794,-0.0019457691814750433,-0.028218841180205345
0.02278931252658367,0.00023130637418944389,-0.013023036532104015,0.00991645734757185,-0.0021098474971950054,-0.029269404709339142
0.022954313084483147,0.00022000166063662618,-0.013305463828146458,0.009842565283179283,-0.0020909421145915985,-0.029713351279497147
0.023143531754612923,0.00020974662038497627,-0.013067657127976418,0.009803268127143383,-0.00207720510661602,-0.029766984283924103
0.023249926045536995,0.00020040504750795662,-0.013344046659767628,0.010135612450540066,-0.0020159240812063217,-0.029817260801792145
0.02316337078809738,0.00019186003191862255,-0.012748013250529766,0.01064385287463665,-0.0018948313081637025,-0.029481586068868637
0.023376112803816795,0.00014870795712340623,-0.013115564361214638,0.010288667865097523,-0.00194653426297009,-0.029269468039274216
0.02344617433845997,0.00014144777378533036,-0.012873866595327854,0.010821562260389328,-0.0023863096721470356,-0.029573209583759308
0.023376431316137314,0.00013608182780444622,-0.013435348868370056,0.010669994167983532,-0.002765550510957837,-0.029929855838418007
0.023461321368813515,0.00012651673750951886,-0.013369598425924778,0.010783808305859566,-0.0023425861727446318,-0.02994292415678501
0.02345561981201172,0.00012222127406857908,-0.013272526673972607,0.010013287886977196,-0.0023622193839401007,-0.030048036947846413
0.02380877360701561,0.00011820777581306174,-0.013575460761785507,0.010672184638679028,-0.0022625825367867947,-0.02953696809709072
0.022991232573986053,0.0001144499474321492,-0.01342179998755455,0.010614828206598759,-0.002118926728144288,-0.02983963117003441
0.02341022528707981,0.00011092362547060475,-0.01359041128307581,0.010486779734492302,-0.0021259975619614124,-0.031025271862745285
0.023879675194621086,0.00010760792065411806,-0.01333293505012989,0.010082906112074852,-0.002061935141682625,-0.03154977411031723
0.02456880360841751,0.00010448497050674632,-0.013020016252994537,0.01052899844944477,-0.0020012587774544954,-0.03128110244870186
0.024396993219852448,0.00010153774928767234,-0.013693819753825665,0.010046995244920254,-0.001827990636229515,-0.0294207576662302
0.02361915074288845,9.875243267742917e-05,-0.013338099233806133,0.01070387102663517,-0.0018858042312785983,-0.029548143967986107
0.021240102127194405,9.611591667635366e-05,-0.013682037591934204,0.010548473335802555,-0.0021416086237877607,-0.031091010197997093
0.02445792593061924,9.361633419757709e-05,-0.012866588309407234,0.010280052199959755,-0.002250159392133355,-0.031467363238334656
0.02477956935763359,9.124381904257461e-05,-0.013580321334302425,0.01033000461757183,-0.002438106806948781,-0.03200007230043411
0.02393559366464615,8.898821397451684e-05,-0.01339294295758009,0.010055539198219776,-0.0024467804469168186,-0.032498907297849655
0.024703538045287132,8.684174827067181e-05,-0.014105952344834805,0.010401553474366665,-0.0022986435797065496,-0.03141385689377785
0.024659892544150352,8.479622192680836e-05,-0.0137026971206069,0.010169317945837975,-0.0020835893228650093,-0.030563674867153168
0.024552982300519943,8.28448319225572e-05,-0.013876398093998432,0.010028557851910591,-0.0020052753388881683,-0.031080344691872597
0.0242613572627306,8.098814578261226e-05,-0.013284428045153618,0.01003026682883501,-0.0019451152766123414,-0.03222281485795975
0.0242613572627306,8.098814578261226e-05,-0.013284428045153618,0.01003026682883501,-0.0019451152766123414,-0.03222281485795975
0.023978764191269875,7.920061034383252e-05,-0.01417970284819603,0.010793371126055717,-0.001975275808945298,-0.03274635598063469
0.023940397426486015,7.750117947580293e-05,-0.013840355910360813,0.011000985279679298,-0.00225699320435524,-0.032554809004068375
0.02426253631711006,7.586868741782382e-05,-0.014076653867959976,0.010257305577397346,-0.002367411507293582,-0.03209291025996208
0.0251308660954237,7.430292316712439e-05,-0.01367620937526226,0.01069564651697874,-0.0023092839401215315,-0.03156088665127754
0.025018636137247086,7.280031422851607e-05,-0.013852543197572231,0.010906009003520012,-0.002267247997224331,-0.032313793897628784
0.024921486154198647,5.5604890803806484e-05,-0.013576740399003029,0.010543057695031166,-0.0021743723191320896,-0.033178046345710754
0.02492639794945717,5.250586036709137e-05,-0.01369217038154602,0.010767565108835697,-0.002279404317960143,-0.03327410668134689
0.02440614253282547,5.147774572833441e-05,-0.014273487962782383,0.010003622621297836,-0.0021855675149708986,-0.0325477235019207
0.025286437943577766,5.051426342106424e-05,-0.014224371872842312,0.010438072495162487,-0.002161395037546754,-0.03300746530294418
0.025335540995001793,4.9586578825255856e-05,-0.014361880719661713,0.010822751559317112,-0.002268055221065879,-0.03306176885962486
0.025377849116921425,4.7829777031438425e-05,-0.014609499834477901,0.011241896077990532,-0.0025306676980108023,-0.03299103304743767
0.02538832277059555,-3.4162072552135214e-05,-0.014399880543351173,0.010964429005980492,-0.0026011730078607798,-0.03322426229715347
0.025342967361211777,-4.369919406599365e-05,-0.014843919314444065,0.011143038049340248,-0.002555164974182844,-0.03372419625520706
0.025846285745501518,-4.27993836638052e-05,-0.014597127214074135,0.01176734734326601,-0.0025931589771062136,-0.033751048147678375
0.025529908016324043,-4.1807139496086165e-05,-0.014578822068870068,0.011174914427101612,-0.002505594864487648,-0.03362007066607475
0.025531616061925888,-4.0858194552129135e-05,-0.015618043020367622,0.011267815716564655,-0.0024045263417065144,-0.0339609831571579
0.02579989843070507,-3.9951442886376753e-05,-0.015130640007555485,0.01097917277365923,-0.0024055454414337873,-0.03426241874694824
0.02601480484008789,-3.908389408024959e-05,-0.015036432072520256,0.011679517105221748,-0.002187643200159073,-0.03467709198594093
0.02592153288424015,-3.825335807050578e-05,-0.014910273253917694,0.011465877294540405,-0.002352140611037612,-0.034687601029872894
0.025962024927139282,-3.745732828974724e-05,-0.015095716342329979,0.011204665526747704,-0.0023376645985990763,-0.03487260267138481
0.02669704146683216,-3.6693745641969144e-05,-0.014749615453183651,0.011421211995184422,-0.002332598203793168,-0.03461149334907532
0.0261416994035244,-3.596067472244613e-05,-0.015037624165415764,0.011421335861086845,-0.002501492388546467,-0.03484552726149559
0.02596963569521904,-5.217928264755756e-05,-0.014758093282580376,0.01134934090077877,-0.002915236633270979,-0.03498956561088562
0.02673572674393654,-5.18591477884911e-05,-0.015578220598399639,0.011551049537956715,-0.003035009140148759,-0.03529660403728485
0.02663934975862503,-5.0890881539089605e-05,-0.014806615188717842,0.011348148807883263,-0.0028187448624521494,-0.03494198992848396
0.02589849941432476,-4.994961273041554e-05,-0.015245776623487473,0.011546884663403034,-0.002538442611694336,-0.035263821482658386
0.02665225975215435,-4.904226079815999e-05,-0.014414945617318153,0.012356139719486237,-0.0022542267106473446,-0.03676733002066612
0.026771431788802147,-4.816739965463057e-05,-0.01503306906670332,0.012230616994202137,-0.0021419369149953127,-0.0360078327357769
0.026501376181840897,-4.732322850031778e-05,-0.014718877151608467,0.011470440775156021,-0.002347502624616027,-0.03434845060110092
0.026501376181840897,-4.732322850031778e-05,-0.014718877151608467,0.011470440775156021,-0.002347502624616027,-0.03434845060110092
0.025550318881869316,-5.6711713114054874e-05,-0.015984036028385162,0.012283788062632084,-0.002396992640569806,-0.03523232415318489
0.02743738889694214,-6.088970258133486e-05,-0.015026643872261047,0.012512870132923126,-0.0026678694412112236,-0.03489584103226662
0.02752022258937359,-5.9944715758319944e-05,-0.01501940842717886,0.012707111425697803,-0.00258836941793561,-0.036627959460020065
0.027342744171619415,-5.896386574022472e-05,-0.014900214970111847,0.01207777764648199,-0.002473351312801242,-0.03790012001991272
0.027648432180285454,-5.801369115943089e-05,-0.015141994692385197,0.012155337259173393,-0.002270662458613515,-0.03676876798272133
0.027185164391994476,-5.7093660871032625e-05,-0.01481588277965784,0.01155263464897871,-0.002230476588010788,-0.03511679917573929
0.027314942330121994,-6.755816139047965e-05,-0.015221920795738697,0.011804559268057346,-0.002879341598600149,-0.036662787199020386
0.027628298848867416,-6.81042656651698e-05,-0.015103944577276707,0.01197600644081831,-0.0025368784554302692,-0.03678511828184128
0.02687906287610531,-6.710962043143809e-05,-0.015619979240000248,0.01245334092527628,-0.002279186388477683,-0.03678471967577934
0.027701254934072495,-6.612384459003806e-05,-0.01526434812694788,0.012381390668451786,-0.002215846674516797,-0.03669461980462074
0.028456036001443863,-6.516632129205391e-05,-0.015094312839210033,0.012699414975941181,-0.0021800510585308075,-0.03687260299921036
0.02738906815648079,-6.423611921491101e-05,-0.01490657590329647,0.012358724139630795,-0.0024173797573894262,-0.037349458783864975
0.027185318991541862,-6.333208148134872e-05,-0.015551521442830563,0.012633628211915493,-0.0025717138778418303,-0.03714088350534439
0.02687603421509266,-6.245316762942821e-05,-0.014677670784294605,0.012174509465694427,-0.0025488296523690224,-0.037403739988803864
0.027135135605931282,-0.00012542227341327816,-0.015305555425584316,0.011919597163796425,-0.002855604747310281,-0.0376192070543766
0.027869656682014465,-0.0001299865252804011,-0.01512405276298523,0.012305409647524357,-0.0027401181869208813,-0.03791384771466255
0.027805913239717484,-0.00012644394882954657,-0.015449968166649342,0.011750264093279839,-0.002612322336062789,-0.0380575954914093
0.02785985730588436,-0.00012298976071178913,-0.014856480062007904,0.012321784161031246,-0.002654989715665579,-0.03822540119290352
0.02778339944779873,-0.00011971764615736902,-0.015294782817363739,0.012237342074513435,-0.0028131227008998394,-0.039475757628679276
0.028221113607287407,-0.00011661531607387587,-0.014974532648921013,0.012204071506857872,-0.0029918041545897722,-0.03920407220721245
0.027931123971939087,-0.0001286169426748529,-0.01565471664071083,0.012488354928791523,-0.002798491856083274,-0.0371367447078228
0.027858609333634377,-0.00013293878873810172,-0.015315419062972069,0.012644415721297264,-0.0027386851143091917,-0.03735048323869705
0.028153754770755768,-0.00012984250497538596,-0.015268427319824696,0.01305633969604969,-0.0025684835854917765,-0.03903800621628761
0.027764637023210526,-0.00012679533392656595,-0.014800629578530788,0.01277162879705429,-0.002448149723932147,-0.04018465429544449
0.027909817174077034,-0.00014370573626365513,-0.015402695164084435,0.013285854831337929,-0.002402758691459894,-0.04021497443318367
0.02781217359006405,-0.00014128156180959195,-0.015426614321768284,0.013010873459279537,-0.0024433829821646214,-0.03800863027572632
0.028049258515238762,-0.0001381932379445061,-0.015029774978756905,0.013196742162108421,-0.0024046399630606174,-0.03805755823850632
0.028049258515238762,-0.0001381932379445061,-0.015029774978756905,0.013196742162108421,-0.0024046399630606174,-0.03805755823850632
0.02837790548801422,-0.0001479349157307297,-0.015338978730142117,0.012588413432240486,-0.002456420799717307,-0.03950374573469162
0.026698879897594452,-0.00015120914031285793,-0.015007000416517258,0.01242267806082964,-0.0026882688980549574,-0.04002898931503296
0.029225068166851997,-0.00014818306954111904,-0.014952421188354492,0.012371081858873367,-0.0030394447967410088,-0.039907585829496384
0.028862709179520607,-0.0002655624703038484,-0.014578929170966148,0.012486488558351994,-0.003107089316472411,-0.039409808814525604
0.028553355485200882,-0.0002554651873651892,-0.015558075159788132,0.0131139000877738,-0.0030952682718634605,-0.04004935920238495
0.028302855789661407,-0.00022947225079406053,-0.016123035922646523,0.013597259297966957,-0.0027645460795611143,-0.040275655686855316
0.02877265214920044,-0.00021833779464941472,-0.015208711847662926,0.013284973800182343,-0.0026613527443259954,-0.03973972052335739
0.029959872364997864,-0.0002492943312972784,-0.01595163904130459,0.013809239491820335,-0.0028969391714781523,-0.04033089056611061
0.02984665334224701,-0.00023881936795078218,-0.015607086941599846,0.01320736575871706,-0.0029922400135546923,-0.040211133658885956
0.028980009257793427,-0.00022871400869917125,-0.01575734280049801,0.013455177657306194,-0.002865890972316265,-0.04000772163271904
0.0282781682908535,-0.0002554778184276074,-0.015356689691543579,0.013238530606031418,-0.0026817694306373596,-0.03915275260806084
0.029216747730970383,-0.00024598732125014067,-0.015905339270830154,0.013459580950438976,-0.002748019527643919,-0.04135682433843613
0.02955373376607895,-0.00023674932890571654,-0.01636364497244358,0.01413428783416748,-0.002665887353941798,-0.04179907217621803
0.02922549657523632,-0.00026031691231764853,-0.016233345493674278,0.01395812164992094,-0.0025658849626779556,-0.04105575382709503
0.029964003711938858,-0.00025165016995742917,-0.01645730994641781,0.013722934760153294,-0.0027014848310500383,-0.041372016072273254
0.03010053001344204,-0.0002431568136671558,-0.015436297282576561,0.013770941644906998,-0.0028303300496190786,-0.04154440388083458
0.030427228659391403,-0.00029577655368484557,-0.016441602259874344,0.01389836985617876,-0.0028595835901796818,-0.041562750935554504
0.029246032238006592,-0.0002851266472134739,-0.016602417454123497,0.012956742197275162,-0.0028290259651839733,-0.04172554612159729
0.029321113601326942,-0.00030334689654409885,-0.01714038848876953,0.012834704481065273,-0.002986687468364835,-0.04156218841671944
0.030310912057757378,-0.0003035280969925225,-0.016641175374388695,0.012548769824206829,-0.0031837569549679756,-0.04125900939106941
0.030591949820518494,-0.00031898930319584906,-0.016226833686232567,0.013810448348522186,-0.0030187456868588924,-0.04213162511587143
0.030591949820518494,-0.00031898930319584906,-0.016226833686232567,0.013810448348522186,-0.0030187456868588924,-0.04213162511587143
0.03052373416721821,-0.0003183391527272761,-0.01695266179740429,0.013731494545936584,-0.00288939056918025,-0.04308495670557022
0.03034823015332222,-0.00033161669853143394,-0.01597750559449196,0.014059239067137241,-0.002648354507982731,-0.04202858731150627
0.02997748740017414,-0.0003304299316368997,-0.016884827986359596,0.013493278995156288,-0.0028704588767141104,-0.041012633591890335
0.030101332813501358,-0.00045607489300891757,-0.016628950834274292,0.01359943114221096,-0.0030122629832476377,-0.042708225548267365
0.02926534228026867,-0.0004761441668961197,-0.0167675968259573,0.013536280952394009,-0.0034789233468472958,-0.04112762212753296
0.03063681721687317,-0.0005140209686942399,-0.01624230295419693,0.013974256813526154,-0.003334683831781149,-0.044157322496175766
0.03089742362499237,-0.0004723419842775911,-0.01680784672498703,0.013756456784904003,-0.0029676943086087704,-0.042688947170972824
0.031044483184814453,-0.0004980294033885002,-0.01740560680627823,0.01415693387389183,-0.0025688251480460167,-0.04192887991666794
0.03083990514278412,-0.00046892327372916043,-0.01657077856361866,0.014160936698317528,-0.0026005106046795845,-0.04322449862957001
0.03145879879593849,-0.0005589724169112742,-0.016799019649624825,0.014326841570436954,-0.0030650508124381304,-0.04330168664455414
0.03186320140957832,-0.0006091806571930647,-0.016618376597762108,0.014431221410632133,-0.003108418546617031,-0.04343776777386665
0.03166337311267853,-0.0005778541672043502,-0.01735631376504898,0.014039001427590847,-0.0030063437297940254,-0.043291233479976654
0.031601883471012115,-0.0006081556784920394,-0.016861042007803917,0.013942781835794449,-0.0028574271127581596,-0.04359009116888046
0.031512971967458725,-0.0006254214094951749,-0.016984812915325165,0.014099306426942348,-0.002875027945265174,-0.04386696591973305
0.03128639981150627,-0.0005834423354826868,-0.016578663140535355,0.013981522992253304,-0.002942407503724098,-0.04379090666770935
0.03185524418950081,-0.0007044782978482544,-0.01677829958498478,0.013798043131828308,-0.0029264974873512983,-0.044280439615249634
0.03194047138094902,-0.0007103201351128519,-0.017343832179903984,0.013862617313861847,-0.0027034482918679714,-0.04301484674215317
0.03214164823293686,-0.0006617740145884454,-0.01694723404943943,0.014264981262385845,-0.0025056167505681515,-0.044332217425107956
0.03252808377146721,-0.0006840588757768273,-0.017194323241710663,0.014153546653687954,-0.0024982113391160965,-0.045588474720716476
0.032762039452791214,-0.0006781024858355522,-0.01652493141591549,0.014171449467539787,-0.0026949024759233,-0.046199969947338104
0.032924238592386246,-0.0006499022711068392,-0.017328709363937378,0.013675243593752384,-0.0028488836251199245,-0.044290389865636826
0.0327572338283062,-0.0007921128417365253,-0.017577843740582466,0.014248307794332504,-0.003003770252689719,-0.04417882114648819
0.032567206770181656,-0.0008360036299563944,-0.017030037939548492,0.014646843075752258,-0.0033238460309803486,-0.0449504554271698
0.03324044495820999,-0.0008526330348104239,-0.017030276358127594,0.014923270791769028,-0.0033876888919621706,-0.04656310752034187
0.034624747931957245,-0.0010734741808846593,-0.01693909801542759,0.01414901576936245,-0.003212619572877884,-0.046971529722213745
0.033198464661836624,-0.0010734919924288988,-0.017178930342197418,0.014410491101443768,-0.0034204686526209116,-0.044505488127470016
0.0325542688369751,-0.0010326351039111614,-0.017148541286587715,0.014343993738293648,-0.003221821738407016,-0.04539026692509651
0.0325542688369751,-0.0010326351039111614,-0.017148541286587715,0.014343993738293648,-0.003221821738407016,-0.04539026692509651
0.033965855836868286,-0.0010135411284863949,-0.017060209065675735,0.014613116160035133,-0.0030220504850149155,-0.04586151987314224
0.03340441733598709,-0.000976472336333245,-0.017895393073558807,0.014221720397472382,-0.003034743247553706,-0.04464526101946831
0.03381139412522316,-0.0009941657772287726,-0.017088323831558228,0.01435496099293232,-0.0028429292142391205,-0.046487949788570404
0.035032182931900024,-0.0011070100590586662,-0.0171278677880764,0.014628917910158634,-0.0027758313808590174,-0.046888627111911774
0.034326158463954926,-0.0014883984113112092,-0.01745365373790264,0.015074508264660835,-0.002686440944671631,-0.04622678458690643
0.032624952495098114,-0.0014467769069597125,-0.017320241779088974,0.015244811773300171,-0.0031796451658010483,-0.045539118349552155
0.03357427567243576,-0.001389572978951037,-0.017888711765408516,0.014946884475648403,-0.0035624599549919367,-0.04646841809153557
0.03386632353067398,-0.001541169243864715,-0.017164183780550957,0.014882064424455166,-0.003147678216919303,-0.04660984128713608
0.03420669585466385,-0.0017334657022729516,-0.018003590404987335,0.015258113853633404,-0.00267644040286541,-0.0469244122505188
0.034458059817552567,-0.0017003747634589672,-0.017729466781020164,0.015184090472757816,-0.0025585175026208162,-0.0475509837269783
0.03384193778038025,-0.0018261156510561705,-0.017906691879034042,0.014921209774911404,-0.002784983953461051,-0.04789839684963226
0.033587150275707245,-0.001840410870499909,-0.01741611585021019,0.014435142278671265,-0.0033240430057048798,-0.04632512480020523
0.033897507935762405,-0.001969682052731514,-0.017807094380259514,0.015143097378313541,-0.00324065494351089,-0.048306144773960114
0.03406084328889847,-0.001947815646417439,-0.018143143504858017,0.014889566227793694,-0.0030825056601315737,-0.048321329057216644
0.03415296599268913,-0.001986561343073845,-0.017314577475190163,0.015011373907327652,-0.003048973623663187,-0.048034291714429855
0.034246161580085754,-0.001953801838681102,-0.018254604190587997,0.014775502495467663,-0.0029767993837594986,-0.047359004616737366
0.034138619899749756,-0.002006415743380785,-0.01847708970308304,0.015409897081553936,-0.0028683377895504236,-0.04905804246664047
0.03415701538324356,-0.0020352217834442854,-0.017561543732881546,0.015014471486210823,-0.003129865974187851,-0.048426516354084015
0.03374437615275383,-0.0020483043044805527,-0.018368640914559364,0.01562398113310337,-0.003861749544739723,-0.04669192433357239
0.033360231667757034,-0.001986475894227624,-0.018213706091046333,0.015117562375962734,-0.004302334506064653,-0.04779919609427452
0.03484385833144188,-0.0021941110026091337,-0.018141817301511765,0.015611900947988033,-0.004006948322057724,-0.049558546394109726
0.035641126334667206,-0.001979361055418849,-0.018191998824477196,0.015186644159257412,-0.0034337034448981285,-0.050294507294893265
0.035641126334667206,-0.001979361055418849,-0.018191998824477196,0.015186644159257412,-0.0034337034448981285,-0.050294507294893265
0.035044021904468536,-0.0021651152055710554,-0.018061542883515358,0.01548404898494482,-0.0031340462155640125,-0.04767414927482605
0.03326549008488655,-0.0023920678067952394,-0.018741261214017868,0.01543518342077732,-0.003165991511195898,-0.049518290907144547
0.03452110290527344,-0.002363782376050949,-0.018941093236207962,0.015498661436140537,-0.0031310769263654947,-0.05006657913327217
0.03535964712500572,-0.0025206792633980513,-0.01798524148762226,0.015367332845926285,-0.003505561500787735,-0.0494745634496212
0.0350324884057045,-0.0023541569244116545,-0.018799003213644028,0.015245633199810982,-0.003340790281072259,-0.049650512635707855
0.035715483129024506,-0.0024496428668498993,-0.01912211813032627,0.015144877135753632,-0.0031430807430297136,-0.050037942826747894
0.0358038954436779,-0.002588665811344981,-0.018388044089078903,0.015341446734964848,-0.0029544152785092592,-0.050112251192331314
0.03473755717277527,-0.002450514817610383,-0.018780039623379707,0.015804460272192955,-0.0029664032626897097,-0.050311192870140076
0.034259065985679626,-0.002553387777879834,-0.019166190177202225,0.015326207503676414,-0.003191938390955329,-0.05048419535160065
0.03502761200070381,-0.0024333668407052755,-0.019289862364530563,0.016122888773679733,-0.0031446749344468117,-0.05007678642868996
0.035524528473615646,-0.0023693572729825974,-0.019760113209486008,0.015110124833881855,-0.0030342470854520798,-0.05081886798143387
0.0356791689991951,-0.0026225559413433075,-0.019427616149187088,0.015928193926811218,-0.002931491006165743,-0.050995439291000366
0.03567992523312569,-0.002523930976167321,-0.01867767423391342,0.015364241786301136,-0.002779977163299918,-0.0514119416475296
0.03513423353433609,-0.0024483792949467897,-0.01889343000948429,0.014314408414065838,-0.00326789659447968,-0.04903963953256607
0.035722531378269196,-0.0024799350649118423,-0.019248059019446373,0.01528347097337246,-0.0031653610058128834,-0.049810972064733505
0.03609711304306984,-0.0023839520290493965,-0.020169418305158615,0.015483216382563114,-0.0033401628024876118,-0.05111950635910034
0.03577684983611107,-0.0026547678280621767,-0.019736483693122864,0.01577354036271572,-0.0032778820022940636,-0.05339023843407631
0.03617464751005173,-0.002668876200914383,-0.018686741590499878,0.015423361212015152,-0.003053091000765562,-0.051323045045137405
0.03469846397638321,-0.0028023843187838793,-0.019469695165753365,0.015344283543527126,-0.003109850687906146,-0.04995100572705269
0.036286260932683945,-0.0028743590228259563,-0.02078227512538433,0.01601831056177616,-0.003224845277145505,-0.051481250673532486
0.03657466918230057,-0.0028443282935768366,-0.019590388983488083,0.015630654990673065,-0.0032626769971102476,-0.05194977670907974
0.03612346574664116,-0.0027403701096773148,-0.01952604204416275,0.01591341383755207,-0.003227774053812027,-0.05239758640527725
0.03589838743209839,-0.0025678134988993406,-0.019991856068372726,0.01543907355517149,-0.003163908375427127,-0.051333796232938766
0.03673847019672394,-0.0027752455789595842,-0.01905607432126999,0.01600252464413643,-0.0030174858402460814,-0.05142788961529732
0.03678589314222336,-0.0030216749291867018,-0.018919914960861206,0.015427510254085064,-0.0033808585721999407,-0.05157703906297684
0.03640232980251312,-0.0033547356724739075,-0.019723299890756607,0.016068046912550926,-0.0033377378713339567,-0.050761573016643524
0.036545123904943466,-0.0032148747704923153,-0.020142758265137672,0.014617690816521645,-0.0035234426613897085,-0.05159710347652435
0.036545123904943466,-0.0032148747704923153,-0.020142758265137672,0.014617690816521645,-0.0035234426613897085,-0.05159710347652435
0.03656481206417084,-0.002893787808716297,-0.02013496309518814,0.014866219833493233,-0.003584496444091201,-0.05131326988339424
0.036653559654951096,-0.0029715218115597963,-0.020247871056199074,0.015253730118274689,-0.0036673389840871096,-0.050871092826128006
0.03691727668046951,-0.0031454586423933506,-0.019920948892831802,0.01639479212462902,-0.0032936865463852882,-0.053030334413051605
0.0368289090692997,-0.003318012459203601,-0.019930439069867134,0.016338080167770386,-0.003350204089656472,-0.052638497203588486
0.03616321086883545,-0.003154143923893571,-0.02037118747830391,0.016758060082793236,-0.003433002158999443,-0.05245434492826462
0.03711659833788872,-0.002861177548766136,-0.02048514224588871,0.017134718596935272,-0.0034767878241837025,-0.05116426199674606
0.03853803873062134,-0.0028670690953731537,-0.019792281091213226,0.016902554780244827,-0.003208545269444585,-0.05283748358488083
0.036978840827941895,-0.003359722439199686,-0.02042069286108017,0.01692921668291092,-0.0030983632896095514,-0.053974077105522156
0.036430031061172485,-0.0032966791186481714,-0.020411737263202667,0.01702111028134823,-0.0033950533252209425,-0.051377031952142715
0.03774874657392502,-0.003571614855900407,-0.019987503066658974,0.01660320907831192,-0.003311382606625557,-0.05250071361660957
0.03853803128004074,-0.0034283464774489403,-0.020451702177524567,0.016403209418058395,-0.0034031099639832973,-0.054722126573324203
0.03779992833733559,-0.003120463341474533,-0.020586824044585228,0.016682201996445656,-0.0034151715226471424,-0.05315439775586128
0.037678297609090805,-0.0032173646613955498,-0.02057226561009884,0.01667383313179016,-0.003527065273374319,-0.05403762310743332
0.03715556114912033,-0.0033136724960058928,-0.020732980221509933,0.016726987436413765,-0.0035595267545431852,-0.05412131920456886
0.03855897858738899,-0.0034721496049314737,-0.020260725170373917,0.01693478226661682,-0.0034567860420793295,-0.05422058701515198
0.03695736452937126,-0.0036945200990885496,-0.019775131717324257,0.016894107684493065,-0.00360093149356544,-0.05443588271737099
0.03873793035745621,-0.00400583678856492,-0.020163582637906075,0.017056047916412354,-0.003734881291165948,-0.05424119159579277
0.038206953555345535,-0.0038809587713330984,-0.020508188754320145,0.01659790426492691,-0.0037720741238445044,-0.05427723005414009
0.03793394938111305,-0.0035206067841500044,-0.020364269614219666,0.016981296241283417,-0.0035420674830675125,-0.05459568277001381
0.03851830214262009,-0.0037835314869880676,-0.02079605497419834,0.017098715528845787,-0.003413908649235964,-0.0532238744199276
0.03813258185982704,-0.0040872227400541306,-0.020934641361236572,0.01677664741873741,-0.0035927353892475367,-0.055186886340379715
0.038373857736587524,-0.004364361055195332,-0.020786045119166374,0.01746368780732155,-0.0038233278319239616,-0.055341314524412155
0.038557179272174835,-0.004128689412027597,-0.01967552676796913,0.01732647232711315,-0.0035557930823415518,-0.05391456559300423
0.03833555057644844,-0.0035282536409795284,-0.020120197907090187,0.017177458852529526,-0.003372341627255082,-0.05556371062994003
0.038352325558662415,-0.004211359657347202,-0.020733242854475975,0.01674378104507923,-0.0033788804430514574,-0.05666429176926613
0.038200944662094116,-0.004603072069585323,-0.02080109529197216,0.01666584052145481,-0.003617617767304182,-0.053915075957775116
0.038200944662094116,-0.004603072069585323,-0.02080109529197216,0.01666584052145481,-0.003617617767304182,-0.053915075957775116
0.038713205605745316,-0.004501465242356062,-0.02076936885714531,0.01727062650024891,-0.0035495974589139223,-0.05659870058298111
0.03786086663603783,-0.0042731864377856255,-0.020657256245613098,0.017690612003207207,-0.00367710436694324,-0.0564914345741272
0.039536673575639725,-0.0040100328624248505,-0.020730655640363693,0.01778721623122692,-0.003750587347894907,-0.05286392197012901
0.039536673575639725,-0.0040100328624248505,-0.020730655640363693,0.01778721623122692,-0.003750587347894907,-0.05286392197012901
0.03925354778766632,-0.003928279038518667,-0.021783819422125816,0.017205696552991867,-0.003860041033476591,-0.056202828884124756
0.04014077037572861,-0.004265372641384602,-0.021576909348368645,0.017314709722995758,-0.0034889844246208668,-0.05681188032031059
0.04003976657986641,-0.004523682873696089,-0.021403633058071136,0.017295118421316147,-0.0034523229114711285,-0.05621563643217087
0.03831065818667412,-0.004161003511399031,-0.02071487344801426,0.01788482256233692,-0.003689046483486891,-0.05572669208049774
0.03877408429980278,-0.0044534532353281975,-0.020563719794154167,0.018489181995391846,-0.004234326537698507,-0.055977821350097656
0.04006703943014145,-0.004516798537224531,-0.021236678585410118,0.01808536984026432,-0.004179997835308313,-0.056100014597177505
0.03951902315020561,-0.004080356564372778,-0.021315986290574074,0.017290029674768448,-0.003542795544490218,-0.056465521454811096
0.03964204713702202,-0.004163490142673254,-0.02197875641286373,0.017155028879642487,-0.003354602260515094,-0.0564703568816185
0.039753157645463943,-0.004231881350278854,-0.021721674129366875,0.01764148846268654,-0.0031526873353868723,-0.05641791969537735
0.0400419607758522,-0.004391035996377468,-0.021486513316631317,0.0177655927836895,-0.003412057878449559,-0.05534420534968376
0.039966881275177,-0.003397084306925535,-0.021135825663805008,0.018374010920524597,-0.0037221305537968874,-0.05664719268679619
0.03976442664861679,-0.0020409526769071817,-0.021700361743569374,0.017904290929436684,-0.0038942890241742134,-0.05793191120028496
0.04039038345217705,-0.0020703724585473537,-0.022030282765626907,0.017210502177476883,-0.0038531103637069464,-0.05905363708734512
0.0406956672668457,-0.0023237885907292366,-0.02183282934129238,0.017648080363869667,-0.003738170489668846,-0.05585968866944313
0.04027070477604866,-0.002951039932668209,-0.021552318707108498,0.01755397394299507,-0.0037124871741980314,-0.05605010315775871
0.04050392284989357,-0.0035229690838605165,-0.021272078156471252,0.01851552166044712,-0.0034452087711542845,-0.05864855274558067
0.04014246165752411,-0.003142177825793624,-0.021725192666053772,0.018106922507286072,-0.0033654230646789074,-0.05816246196627617
0.04061472788453102,-0.002875217702239752,-0.022024711593985558,0.017637772485613823,-0.0034688145387917757,-0.056293826550245285
0.041224442422389984,-0.002379645826295018,-0.02201460301876068,0.018202807754278183,-0.0036063091829419136,-0.05753447860479355
0.04052956774830818,-0.0023058948572725058,-0.022056644782423973,0.01746547780930996,-0.0034627236891537905,-0.057527050375938416
0.04052956774830818,-0.0023058948572725058,-0.022056644782423973,0.01746547780930996,-0.0034627236891537905,-0.057527050375938416
0.040188372135162354,-0.0027314305771142244,-0.02182719297707081,0.01789187826216221,-0.0031637861393392086,-0.057669270783662796
0.041182391345500946,-0.0030487277545034885,-0.021497076377272606,0.01882540062069893,-0.0037741970736533403,-0.05825897306203842
0.04121140390634537,-0.0027953130193054676,-0.021590497344732285,0.018985480070114136,-0.004272616468369961,-0.058279428631067276
0.04121140390634537,-0.0027953130193054676,-0.021590497344732285,0.018985480070114136,-0.004272616468369961,-0.058279428631067276
0.041161973029375076,-0.0027408183086663485,-0.02197161316871643,0.019239455461502075,-0.004213058855384588,-0.058450572192668915
0.04108726978302002,-0.0025147597771137953,-0.022144963964819908,0.01861247792840004,-0.0036419040989130735,-0.05787091329693794
0.040178973227739334,-0.002955416915938258,-0.021571239456534386,0.018785467371344566,-0.0035060567315667868,-0.05741511285305023
0.04221935570240021,-0.0027474474627524614,-0.021243274211883545,0.01909882389008999,-0.0037346866447478533,-0.057363640516996384
0.04167664423584938,-0.002700859447941184,-0.021617062389850616,0.019083017483353615,-0.0039643882773816586,-0.05746923014521599
0.040177278220653534,-0.002703604754060507,-0.022164182737469673,0.019400805234909058,-0.004048772156238556,-0.059999532997608185
0.041342273354530334,-0.0028449881356209517,-0.021695783361792564,0.0180477574467659,-0.004286354873329401,-0.05802825465798378
0.04241710156202316,-0.00328584061935544,-0.021794281899929047,0.01850101724267006,-0.004056345671415329,-0.058955032378435135
0.04248906672000885,-0.003277186071500182,-0.021936411038041115,0.018837885931134224,-0.0037772690411657095,-0.060961853712797165
0.040498629212379456,-0.003148720134049654,-0.021404678001999855,0.018511490896344185,-0.003914198372513056,-0.05832165107131004
0.04088826850056648,-0.002960516605526209,-0.021522538736462593,0.018997376784682274,-0.003954491578042507,-0.058304738253355026
0.04272705316543579,-0.002985805505886674,-0.022057093679904938,0.018909567967057228,-0.0038459820207208395,-0.06019086018204689
0.0420956015586853,-0.0032444088719785213,-0.022206377238035202,0.018505385145545006,-0.0037925681099295616,-0.06096223369240761
0.04224945232272148,-0.0034915166907012463,-0.022285839542746544,0.018996044993400574,-0.0038351789116859436,-0.06093095242977142
0.04207649454474449,-0.0033724107779562473,-0.02217007428407669,0.019106730818748474,-0.0038383447099477053,-0.060510579496622086
0.042499542236328125,-0.003412640653550625,-0.022306064143776894,0.01922006718814373,-0.00384328979998827,-0.06074785441160202
0.042161744087934494,-0.003228874411433935,-0.02248355746269226,0.01973341777920723,-0.0038634957745671272,-0.06131387874484062
0.04234181344509125,-0.003452717326581478,-0.022859228774905205,0.019450239837169647,-0.0039002730045467615,-0.06142324581742287
