davideferrari95/blind_handover_controller/data/Test 145 - [2024-02-07 -- 17-27-37]/joint_states_data.csv
shoulder_pan_joint,shoulder_lift_joint,elbow_joint,wrist_1_joint,wrist_2_joint,wrist_3_joint
0.003917239140719175,-0.004482615739107132,-0.008957581594586372,0.01184450276196003,0.0,0.00460831681266427
0.0045866211876273155,-0.0037942028138786554,-0.008499893359839916,0.011994675733149052,0.0,0.004393346142023802
0.0046163760125637054,-0.003327921498566866,-0.008744870312511921,0.011896411888301373,0.0,0.004519474692642689
0.0046163760125637054,-0.003327921498566866,-0.008744870312511921,0.011896411888301373,0.0,0.004519474692642689
0.004342546220868826,-0.002511597005650401,-0.00913374125957489,0.011760232038795948,0.0,0.0047814976423978806
0.004318436607718468,-0.002263179514557123,-0.008669021539390087,0.011284634470939636,0.0,0.00489019975066185
0.00412427494302392,-0.0024083175230771303,-0.00823437049984932,0.010939676314592361,0.0,0.004755442030727863
0.003906453028321266,-0.002881852677091956,-0.009010646492242813,0.011399277485907078,0.0,0.004621644504368305
0.0043143522925674915,-0.002953907009214163,-0.008536175824701786,0.010888227261602879,0.0,0.004584087990224361
0.004573501646518707,-0.0031240563839673996,-0.008325953967869282,0.010950036346912384,0.0,0.004752644803375006
0.004414594266563654,-0.002843026537448168,-0.009760415181517601,0.011583821848034859,0.0,0.004742428660392761
0.0045218318700790405,-0.0023752981796860695,-0.008794126100838184,0.011604162864387035,0.0,0.004809787962585688
0.004269039258360863,-0.002391630783677101,-0.008275757543742657,0.012148039415478706,0.0,0.004989927168935537
0.004257212392985821,-0.0024009698536247015,-0.008527401834726334,0.012225623242557049,0.0,0.004940914921462536
0.004140114411711693,-0.0023768243845552206,-0.008816057816147804,0.012751149944961071,0.0,0.004806170240044594
0.004406341351568699,-0.0026316801086068153,-0.008496359921991825,0.01263492926955223,0.0,0.004551257472485304
0.00462600402534008,-0.00247951433993876,-0.00763848889619112,0.01275699958205223,0.0,0.004410035442560911
0.0044464049860835075,-0.002279635751619935,-0.008436639793217182,0.012869654223322868,0.0,0.004557461943477392
0.004499898292124271,-0.002246149582788348,-0.00871987733989954,0.012498874217271805,0.0,0.005240969825536013
0.004209673032164574,-0.002064293948933482,-0.00849987380206585,0.011680232360959053,0.0,0.005027969367802143
0.0042903549037873745,-0.0021914730314165354,-0.00781489908695221,0.011373847723007202,0.0,0.00476399390026927
0.004557781387120485,-0.002324191154912114,-0.00877467729151249,0.012160849757492542,0.0,0.004639070946723223
0.004630330950021744,-0.0022998075000941753,-0.008603834547102451,0.012181487865746021,0.0,0.004837479908019304
0.004630330950021744,-0.0022998075000941753,-0.008603834547102451,0.012181487865746021,0.0,0.004837479908019304
0.004706268198788166,-0.0026533580385148525,-0.008441729471087456,0.011937710456550121,0.0,0.00486673042178154
0.004480158444494009,-0.0026366976089775562,-0.008918139152228832,0.01204718928784132,0.0,0.005149961914867163
0.004236812703311443,-0.0024823748972266912,-0.008271761238574982,0.011856439523398876,0.0,0.004538616631180048
0.004383208230137825,-0.0022051455453038216,-0.008734041824936867,0.01146866288036108,0.0,0.00439206138253212
0.004477045964449644,-0.0022128631826490164,-0.009321835823357105,0.011167862452566624,0.0,0.004794818814843893
0.004364099353551865,-0.002382242353633046,-0.0091985072940588,0.011571954935789108,0.0,0.004820861853659153
0.004520210903137922,-0.0023284011986106634,-0.008390793576836586,0.011407389305531979,0.0,0.004890326410531998
0.004572246223688126,-0.0024890683125704527,-0.009276129305362701,0.011818959377706051,0.0,0.005203575361520052
0.004719814285635948,-0.0025280602276325226,-0.00889224000275135,0.011398384347558022,0.0,0.005035664886236191
0.004320467356592417,-0.002415328286588192,-0.008877026848495007,0.0110275037586689,0.0,0.00483135599642992
0.004496902693063021,-0.002516136970371008,-0.009618484415113926,0.01142982579767704,0.0,0.004738800693303347
0.0044853659346699715,-0.002729246625676751,-0.00966538954526186,0.011255885474383831,0.0,0.005133918020874262
0.004388735629618168,-0.003271115245297551,-0.008564931340515614,0.011481603607535362,0.0,0.005012185778468847
0.004507104866206646,-0.003019575960934162,-0.00946849212050438,0.011449898593127728,0.0,0.005074085667729378
0.004647534806281328,-0.003054722212255001,-0.00970366783440113,0.011691058054566383,0.0,0.004887098912149668
0.004654443357139826,-0.0026572004426270723,-0.009537119418382645,0.011580205522477627,0.0,0.004751070402562618
0.004723408259451389,-0.002435456495732069,-0.008883342146873474,0.011319245211780071,0.0,0.004736762959510088
0.004474841523915529,-0.0026640635915100574,-0.00910601019859314,0.011452578008174896,0.0,0.0046607558615505695
0.004090195056051016,-0.0029140503611415625,-0.008623874746263027,0.0120463278144598,0.0,0.005125323310494423
0.004067639354616404,-0.0030018265824764967,-0.008307854644954205,0.011271384544670582,0.0,0.005230265203863382
0.004127628169953823,-0.0027516265399754047,-0.00972826313227415,0.011620968580245972,0.0,0.004805997014045715
0.004425839986652136,-0.0026375818997621536,-0.008804678916931152,0.011240318417549133,0.0,0.004469532985240221
0.004426040221005678,-0.002733857836574316,-0.008587566204369068,0.011470113880932331,0.0,0.004388716071844101
0.004426040221005678,-0.002733857836574316,-0.008587566204369068,0.011470113880932331,0.0,0.004388716071844101
0.004459121264517307,-0.002688320353627205,-0.008947916328907013,0.011464168317615986,0.0,0.004547059070318937
0.0035659358836710453,-0.0032822347711771727,-0.009059776552021503,0.012396378442645073,0.0,0.004859073553234339
0.0035659358836710453,-0.0032822347711771727,-0.009059776552021503,0.012396378442645073,0.0,0.004859073553234339
0.004319910891354084,-0.0027001623529940844,-0.00864024180918932,0.011425496079027653,0.0,0.0049723293632268906
0.004744268488138914,-0.002777291927486658,-0.008368104696273804,0.011542881838977337,0.0,0.004757129121571779
0.004252335987985134,-0.0028511746786534786,-0.008769109845161438,0.011462339200079441,0.0,0.005065333563834429
0.0039257509633898735,-0.0028921854682266712,-0.009213853627443314,0.012260982766747475,0.0,0.005080779083073139
0.004002787172794342,-0.0026942549739032984,-0.008508837781846523,0.011385858990252018,0.0,0.004955704789608717
0.004003651440143585,-0.002731223590672016,-0.008316220715641975,0.011424019932746887,0.0,0.0052739959210157394
0.00392651604488492,-0.002847164636477828,-0.009185012429952621,0.011858430691063404,0.0,0.0051038023084402084
0.0042433105409145355,-0.0033587757498025894,-0.0091028967872262,0.011266986839473248,0.0,0.004720176104456186
0.004608077462762594,-0.0032803493086248636,-0.008810384199023247,0.011759575456380844,0.0,0.004423798993229866
0.004626123234629631,-0.003014679066836834,-0.008030417375266552,0.011703765951097012,0.0,0.004417580086737871
0.004277514759451151,-0.0029606542084366083,-0.008654912002384663,0.011538241058588028,0.0,0.004447076469659805
0.003988170064985752,-0.0030769582372158766,-0.008937535807490349,0.011306151747703552,0.0,0.004835138097405434
0.004123495426028967,-0.0030615110881626606,-0.008235592395067215,0.01111603807657957,0.0,0.004912621341645718
0.004567330237478018,-0.0031215318012982607,-0.008789789862930775,0.01155943889170885,0.0,0.00501991854980588
0.004186617210507393,-0.0032964684069156647,-0.008821764960885048,0.011589937843382359,0.0,0.004852626007050276
0.004461197182536125,-0.0029260937590152025,-0.008205483667552471,0.011575767770409584,0.0,0.004471234045922756
0.004059717524796724,-0.0030302980449050665,-0.008476167917251587,0.011971446685492992,0.0,0.004123757593333721
0.004354235716164112,-0.0030464986339211464,-0.00911281444132328,0.011316493153572083,0.0,0.004168750252574682
0.004198228009045124,-0.003067346755415201,-0.00812782533466816,0.0115553829818964,0.0,0.004812415223568678
0.00424499437212944,-0.002898922422900796,-0.008039958775043488,0.01153285801410675,0.0,0.0048244912177324295
0.004127319902181625,-0.003017522394657135,-0.008843895047903061,0.011230060830712318,0.0,0.004717818461358547
0.00439325300976634,-0.003035750240087509,-0.008445213548839092,0.011810418218374252,0.0,0.004702332429587841
0.004678213503211737,-0.0028948544058948755,-0.008180410601198673,0.011606808751821518,0.0,0.004627215210348368
0.004195189569145441,-0.0031115501187741756,-0.0090056536719203,0.01139154564589262,0.0,0.004534599371254444
0.004478083457797766,-0.0028211891185492277,-0.008652729913592339,0.011339484713971615,0.0,0.00487208878621459
0.004408081993460655,-0.0030480108689516783,-0.00820249505341053,0.011069918982684612,0.0,0.004518370144069195
0.004797512199729681,-0.003067794954404235,-0.00798780471086502,0.011396810412406921,0.0,0.0044464669190347195
0.004787108860909939,-0.0031266999430954456,-0.009151726961135864,0.011163895949721336,0.0,0.004512756131589413
0.004787108860909939,-0.0031266999430954456,-0.009151726961135864,0.011163895949721336,0.0,0.004512756131589413
0.004161108750849962,-0.0030409558676183224,-0.009208500385284424,0.011420643888413906,0.0,0.00442376546561718
0.004161108750849962,-0.0030409558676183224,-0.009208500385284424,0.011420643888413906,0.0,0.00442376546561718
0.0042988755740225315,-0.003051304491236806,-0.008522509597241879,0.011477252468466759,0.0,0.004428434651345015
0.00443566869944334,-0.0032676919363439083,-0.00843546912074089,0.01169975008815527,0.0,0.004351860843598843
0.004464326426386833,-0.0031832768581807613,-0.008385675959289074,0.011707295663654804,0.0,0.004456141963601112
0.004351360723376274,-0.0030342736281454563,-0.008565458469092846,0.011526579968631268,0.0,0.0046304273419082165
0.004536738619208336,-0.003094692714512348,-0.00848731305450201,0.010723065584897995,0.0,0.0046021584421396255
0.0045461817644536495,-0.0032137578818947077,-0.00783894956111908,0.011257589794695377,0.0,0.004482108633965254
0.004239317495375872,-0.0032168126199394464,-0.008810422383248806,0.011495224200189114,0.0,0.004784502554684877
0.004776425659656525,-0.0033692538272589445,-0.00859679002314806,0.011576114222407341,0.0,0.004723124671727419
0.0045275138691067696,-0.0031814121175557375,-0.008324936032295227,0.011752940714359283,0.0,0.004364264663308859
0.004561563488095999,-0.002938376273959875,-0.00813970621675253,0.010671474039554596,0.0,0.004404664505273104
0.004650978837162256,-0.0032822974026203156,-0.00841094832867384,0.01172460988163948,0.0,0.0042526028119027615
0.005199158564209938,-0.0032634802628308535,-0.008583562448620796,0.011461380869150162,0.0,0.004284732975065708
0.004574786406010389,-0.0032875346951186657,-0.008477974683046341,0.011626692488789558,0.0,0.004207389894872904
0.004548361990600824,-0.003347105113789439,-0.008644687943160534,0.011960174888372421,0.0,0.004399528261274099
0.004545324947685003,-0.0031560726929455996,-0.008406063541769981,0.01158757135272026,0.0,0.004590566735714674
0.004743669182062149,-0.0030384163837879896,-0.008199131116271019,0.012028518132865429,0.0,0.004693754483014345
0.004784149117767811,-0.003016445320099592,-0.00833071954548359,0.011652305722236633,0.0,0.004543612711131573
0.004883012734353542,-0.0031525655649602413,-0.008576828986406326,0.011435911059379578,0.0,0.004437278490513563
0.00435634795576334,-0.003076760098338127,-0.008000883273780346,0.011856629513204098,0.0,0.004378961864858866
0.0043435003608465195,-0.003460989100858569,-0.007789249066263437,0.011505626142024994,0.0,0.00452258437871933
0.00508005078881979,-0.003684123046696186,-0.007889543659985065,0.012144471518695354,0.0,0.0046962252818048
0.004603882320225239,-0.0037732503842562437,-0.008786222897469997,0.012361736968159676,0.0,0.00429932214319706
0.0045473226346075535,-0.0033249282278120518,-0.008024834096431732,0.011536089703440666,0.0,0.004311984404921532
0.004494992084801197,-0.002968917600810528,-0.007603486068546772,0.011343222111463547,0.0,0.004520944319665432
0.005288039334118366,-0.0029320477042347193,-0.008611335419118404,0.011073844507336617,0.0,0.004573669284582138
0.004574224352836609,-0.0033287249971181154,-0.008104654960334301,0.011572100222110748,0.0,0.00478334492072463
0.0045922123827040195,-0.003481136402115226,-0.007968817837536335,0.010900666937232018,0.0,0.005030642729252577
0.004617711529135704,-0.003262164071202278,-0.008349057286977768,0.011308129876852036,0.0,0.005071207880973816
0.004617711529135704,-0.003262164071202278,-0.008349057286977768,0.011308129876852036,0.0,0.005071207880973816
0.004762541968375444,-0.002508321078494191,-0.007665231823921204,0.011899063363671303,0.0,0.0045976159162819386
0.005039279814809561,-0.002296954859048128,-0.008048963733017445,0.011353731155395508,0.0,0.004268184769898653
0.005039279814809561,-0.002296954859048128,-0.008048963733017445,0.011353731155395508,0.0,0.004268184769898653
0.004817631561309099,-0.0024881907738745213,-0.008787610568106174,0.011692802421748638,0.0,0.004099227488040924
0.004675173666328192,-0.0030315807089209557,-0.007905583828687668,0.012110861018300056,0.0,0.004497115965932608
0.0045852274633944035,-0.0031065011862665415,-0.007873800583183765,0.011712943203747272,0.0,0.00510504562407732
0.005168382544070482,-0.002656669821590185,-0.008410108275711536,0.011802311055362225,0.0,0.004856911487877369
0.00519748916849494,-0.0023758644238114357,-0.008234835229814053,0.01169982273131609,0.0,0.004630408249795437
0.005046993028372526,-0.0023579865228384733,-0.008159356191754341,0.01120977383106947,0.0,0.00429082615301013
0.00521375797688961,-0.0022750510834157467,-0.008382277563214302,0.011260775849223137,0.0,0.0043923258781433105
0.005097301676869392,-0.0025173958856612444,-0.008528903126716614,0.011243213899433613,0.0,0.004959193058311939
0.004444161895662546,-0.002638248261064291,-0.008077679201960564,0.011404639109969139,0.0,0.005030347965657711
0.004437027499079704,-0.0024800249375402927,-0.008227722719311714,0.011555478908121586,0.0,0.00493779918178916
0.004948446527123451,-0.0024513062089681625,-0.008745304308831692,0.011410458013415337,0.0,0.0046950438991189
0.005060823634266853,-0.00225618714466691,-0.008343656547367573,0.011857233010232449,0.0,0.004822904709726572
0.004811258986592293,-0.0023683987092226744,-0.007576437201350927,0.0112638920545578,0.0,0.00441682618111372
0.004654077813029289,-0.0023404392413794994,-0.008849749341607094,0.011066034436225891,0.0,0.004507552366703749
0.004656070377677679,-0.0022888751700520515,-0.00831536017358303,0.011302206665277481,0.0,0.0049703349359333515
0.004600641783326864,-0.0023843764793127775,-0.007945505902171135,0.010944963432848454,0.0,0.0049730692990124226
0.004372113384306431,-0.0024174058344215155,-0.007849093526601791,0.011083641089498997,0.0,0.004565385635942221
0.004372113384306431,-0.0024174058344215155,-0.007849093526601791,0.011083641089498997,0.0,0.004565385635942221
0.004861680790781975,-0.0020374623127281666,-0.00814743060618639,0.010878857225179672,0.0,0.004733352921903133
0.004831267055124044,-0.0020515520591288805,-0.007887959480285645,0.010690630413591862,0.0,0.004938168451189995
0.004831267055124044,-0.0020515520591288805,-0.007887959480285645,0.010690630413591862,0.0,0.004938168451189995
0.0050045158714056015,-0.002001717919483781,-0.00894775241613388,0.010588804259896278,0.0,0.005096080247312784
0.004998980090022087,-0.0024367545265704393,-0.00859444122761488,0.010734791867434978,0.0,0.004826874006539583
0.004945340100675821,-0.002211274579167366,-0.008047868497669697,0.010942897759377956,0.0,0.004425220191478729
0.005077247973531485,-0.002294298494234681,-0.008379735983908176,0.011225546710193157,0.0,0.004667509347200394
0.0050337729044258595,-0.0020656289998441935,-0.009073720313608646,0.01102279219776392,0.0,0.005026254337280989
0.004745324607938528,-0.0020051586907356977,-0.00811068993061781,0.010850817896425724,0.0,0.005281304474920034
0.0047164540737867355,-0.0018976120045408607,-0.008128675632178783,0.010925019159913063,0.0,0.004990078508853912
0.004804891999810934,-0.0020973903592675924,-0.009553436189889908,0.010866597294807434,0.0,0.004793892148882151
0.004983792081475258,-0.0022532350849360228,-0.008649326860904694,0.011162767186760902,0.0,0.004740335512906313
0.005069686099886894,-0.0021503206808120012,-0.008534624241292477,0.010546939447522163,0.0,0.004808918572962284
0.0050819446332752705,-0.0022996258921921253,-0.00914859864860773,0.009970124810934067,0.0,0.004567080643028021
0.004778948146849871,-0.0020197266712784767,-0.00925179198384285,0.0102170929312706,0.0,0.004517459776252508
0.004500292707234621,-0.0018910655053332448,-0.0088120112195611,0.01039155013859272,0.0,0.004927278030663729
0.004995263647288084,-0.0018451953073963523,-0.008200920186936855,0.01053882110863924,0.0,0.005077101290225983
0.005331047810614109,-0.0020396453328430653,-0.008717278018593788,0.010805596597492695,0.0,0.004736267030239105
0.0049416422843933105,-0.0024755666963756084,-0.00810337346047163,0.01107252947986126,0.0,0.004831344820559025
0.0048960973508656025,-0.0024777366779744625,-0.00835468154400587,0.011030164547264576,0.0,0.004782412201166153
0.00534081319347024,-0.0026208441704511642,-0.009111729450523853,0.011044538579881191,0.0,0.004699311684817076
0.00534081319347024,-0.0026208441704511642,-0.009111729450523853,0.011044538579881191,0.0,0.004699311684817076
0.0046795448288321495,-0.0023265716154128313,-0.008800388313829899,0.010704560205340385,0.0,0.004560237284749746
0.005025752820074558,-0.002194105414673686,-0.00814708974212408,0.011095223017036915,0.0,0.0049964189529418945
0.004919090308248997,-0.002311855321750045,-0.00860991608351469,0.011587164364755154,0.0,0.004883124027401209
0.004978843033313751,-0.002243880880996585,-0.009200263768434525,0.011242819018661976,0.0,0.004881678614765406
0.004998251795768738,-0.002298404462635517,-0.008255946449935436,0.011211534962058067,0.0,0.004808799829334021
0.004805894568562508,-0.0024041542783379555,-0.008476783521473408,0.01171904057264328,0.0,0.0049901665188372135
0.004610361997038126,-0.0022311715874820948,-0.008131145499646664,0.011394362896680832,0.0,0.005284675396978855
0.00528284627944231,-0.002183161210268736,-0.008089631795883179,0.010924110189080238,0.0,0.005056542810052633
0.005351040046662092,-0.0022854639682918787,-0.009226824156939983,0.011023500002920628,0.0,0.004799973219633102
0.004968122113496065,-0.0023076857905834913,-0.0074896058067679405,0.010721827857196331,0.0,0.0047459970228374004
0.005208603106439114,-0.0024529211223125458,-0.008673050440847874,0.010854391381144524,0.0,0.004664002452045679
0.004992290399968624,-0.0024281202349811792,-0.00906082708388567,0.010676763951778412,0.0,0.004989722743630409
0.004515769891440868,-0.0023310845717787743,-0.008676202036440372,0.01076747290790081,0.0,0.005113940220326185
0.004622437059879303,-0.0022955669555813074,-0.008221457712352276,0.011734265834093094,0.0,0.005067147314548492
0.005698992870748043,-0.0024389021564275026,-0.007635792251676321,0.011473511345684528,0.0,0.005625782534480095
0.00519036129117012,-0.002295129932463169,-0.008974667638540268,0.011524960398674011,0.0,0.005431399680674076
0.0048864190466701984,-0.002539867302402854,-0.00873381644487381,0.01213049329817295,0.0,0.005370334722101688
0.004742187913507223,-0.002400027122348547,-0.008312146179378033,0.011505517177283764,0.0,0.005016844253987074
0.0046926094219088554,-0.0024826230946928263,-0.008281068876385689,0.011030352674424648,0.0,0.00459421519190073
0.0049825734458863735,-0.002321327803656459,-0.008718068711459637,0.0109306825324893,0.0,0.00452412897720933
0.005105979274958372,-0.0022470159456133842,-0.008519578725099564,0.010532660409808159,0.0,0.004674206953495741
0.004812282510101795,-0.002340484643355012,-0.008241750299930573,0.011025953106582165,0.0,0.005041510798037052
0.005158059764653444,-0.002122778445482254,-0.008432494476437569,0.010954066179692745,0.0,0.0049942354671657085
0.005021969322115183,-0.0021883880253881216,-0.008275045081973076,0.010246887803077698,0.0,0.0054118032567203045
0.004885429050773382,-0.002300726715475321,-0.008262223564088345,0.011190274730324745,0.0,0.005049220286309719
0.005089700687676668,-0.0022710792254656553,-0.009017101489007473,0.011507187969982624,0.0,0.004559422843158245
0.005089700687676668,-0.0022710792254656553,-0.009017101489007473,0.011507187969982624,0.0,0.004559422843158245
0.005459050182253122,-0.0025291871279478073,-0.008647016249597073,0.011179463937878609,0.0,0.004506079480051994
0.005413699429482222,-0.002456664340570569,-0.008928606286644936,0.010542348958551884,0.0,0.005290665663778782
0.00506478501483798,-0.0022674554493278265,-0.008998880162835121,0.01059675496071577,0.0,0.005413603037595749
0.005076020490378141,-0.0022097299806773663,-0.00882949773222208,0.010453426279127598,0.0,0.005423878785222769
0.005436353851109743,-0.0023276812862604856,-0.008457677438855171,0.009921391494572163,0.0,0.0050410921685397625
0.005378242582082748,-0.0020792086143046618,-0.00852145254611969,0.01087472029030323,0.0,0.004904250148683786
0.005347009748220444,-0.002112216781824827,-0.00950292032212019,0.010792171582579613,0.0,0.005512129049748182
0.005148937925696373,-0.002099791308864951,-0.008525443263351917,0.00997182447463274,0.0,0.005258725490421057
0.005294470582157373,-0.0022821908351033926,-0.008424864150583744,0.011620071716606617,0.0,0.005231646820902824
0.005084413569420576,-0.0024110060185194016,-0.009069856256246567,0.011312555521726608,0.0,0.005040314979851246
0.005397580564022064,-0.002271662699058652,-0.008618393912911415,0.010534405708312988,0.0,0.004823051393032074
0.0056748162023723125,-0.0023023264948278666,-0.008272669278085232,0.010790529660880566,0.0,0.005098146852105856
0.005493457894772291,-0.002502866555005312,-0.009058796800673008,0.010666724294424057,0.0,0.0050639803521335125
0.005493457894772291,-0.002502866555005312,-0.009058796800673008,0.010666724294424057,0.0,0.0050639803521335125
0.005172972101718187,-0.0025355727411806583,-0.00873536802828312,0.011663519777357578,0.0,0.005035622976720333
0.005366500001400709,-0.002263133879750967,-0.008778589777648449,0.011522677727043629,0.0,0.005415397230535746
0.005501702427864075,-0.002288132905960083,-0.00928063876926899,0.011543798260390759,0.0,0.005426154471933842
0.0055342563427984715,-0.0020744644571095705,-0.0083307521417737,0.01111112255603075,0.0,0.005142091307789087
0.00554822850972414,-0.0022270914632827044,-0.008484307676553726,0.011046267114579678,0.0,0.004967587534338236
0.00551487784832716,-0.0023006529081612825,-0.009341358207166195,0.010911757126450539,0.0,0.005258939228951931
0.005339637864381075,-0.002273055026307702,-0.008782438933849335,0.01089051179587841,0.0,0.005252641625702381
0.005705238785594702,-0.002622332889586687,-0.008779577910900116,0.011325201019644737,0.0,0.005913392174988985
0.005257338751107454,-0.0025572003796696663,-0.008877433836460114,0.011279202997684479,0.0,0.005474141798913479
0.005257338751107454,-0.0025572003796696663,-0.008877433836460114,0.011279202997684479,0.0,0.005474141798913479
0.005716876592487097,-0.0023378704208880663,-0.008841505274176598,0.01113973744213581,0.0,0.0048209563829004765
0.005882097873836756,-0.0021042025182396173,-0.00838896818459034,0.010550298728048801,0.0,0.005275667179375887
0.0057491944171488285,-0.0021766237914562225,-0.008900080807507038,0.010444133542478085,0.0,0.005442510824650526
0.005668005906045437,-0.002053133212029934,-0.008769234642386436,0.010682539083063602,0.0,0.00576800387352705
0.005322956945747137,-0.002233803039416671,-0.00834694504737854,0.0106646828353405,0.0,0.005249996203929186
0.005832023918628693,-0.0023124152794480324,-0.009148437529802322,0.011096279136836529,0.0,0.004934096708893776
0.005744608119130135,-0.002289781579747796,-0.008591798134148121,0.010196196846663952,0.0,0.005210295785218477
0.005744608119130135,-0.002289781579747796,-0.008591798134148121,0.010196196846663952,0.0,0.005210295785218477
0.005761844106018543,-0.0021640462800860405,-0.00910894013941288,0.01064442191272974,0.0,0.005895325448364019
0.006073285825550556,-0.002110737608745694,-0.009129414334893227,0.010374685749411583,0.0,0.005371328443288803
0.0056359656155109406,-0.002300816588103771,-0.009292428381741047,0.010455695912241936,0.0,0.004953973460942507
0.005717271473258734,-0.002242581220343709,-0.008301380090415478,0.01047428883612156,0.0,0.005384046118706465
0.006390866823494434,-0.0024907353799790144,-0.008741548284888268,0.010311844758689404,0.0,0.0052380370907485485
0.005901062861084938,-0.0023178195115178823,-0.00919349119067192,0.010036407969892025,0.0,0.005720971617847681
0.005838862620294094,-0.0024137257132679224,-0.008447913452982903,0.010717205703258514,0.0,0.005700692534446716
0.00578265218064189,-0.002303185174241662,-0.009538514539599419,0.010043449699878693,0.0,0.0056821866892278194
0.006017753854393959,-0.002188936108723283,-0.0090709887444973,0.010319194756448269,0.0,0.005226499866694212
0.005718818865716457,-0.0023665796034038067,-0.008523335680365562,0.010199596174061298,0.0,0.005427628289908171
0.006009147968143225,-0.002672465518116951,-0.00912866834551096,0.0099896639585495,0.0,0.005601712502539158
0.0061803110875189304,-0.0025673103518784046,-0.008775540627539158,0.010636385530233383,0.0,0.005589293781667948
0.005919312592595816,-0.0027348133735358715,-0.008359957486391068,0.010628479532897472,0.0,0.005148034077137709
0.005672534927725792,-0.002414449816569686,-0.008933383971452713,0.009529695846140385,0.0,0.005224803928285837
0.005603665020316839,-0.0022915902081876993,-0.008945203386247158,0.010427169501781464,0.0,0.005650928709656
0.005603665020316839,-0.0022915902081876993,-0.008945203386247158,0.010427169501781464,0.0,0.005650928709656
0.005786851979792118,-0.002523218048736453,-0.009096941910684109,0.0102873919531703,0.0,0.005548524204641581
0.005835551302880049,-0.002822766313329339,-0.009347056970000267,0.010296579450368881,0.0,0.0055646696127951145
0.005835551302880049,-0.002822766313329339,-0.009347056970000267,0.010296579450368881,0.0,0.0055646696127951145
0.005956857930868864,-0.0025267410092055798,-0.008858392015099525,0.010409383103251457,0.0,0.005529368761926889
0.006208404898643494,-0.0025431152898818254,-0.009108562022447586,0.010846702381968498,0.0,0.005537526216357946
0.006554337218403816,-0.0024171776603907347,-0.009272250346839428,0.010870364494621754,0.0,0.005467636976391077
0.00591665506362915,-0.002366953529417515,-0.008945951238274574,0.011048385873436928,0.0,0.005556272808462381
0.005889006890356541,-0.0026569655165076256,-0.008760910481214523,0.011054109781980515,0.0,0.005532273557037115
0.0062272134236991405,-0.002509850775822997,-0.009425665251910686,0.010637195780873299,0.0,0.005451838485896587
0.006230553612112999,-0.002330451039597392,-0.008639674633741379,0.010971475392580032,0.0,0.005527408793568611
0.0064773885533213615,-0.0023206889163702726,-0.008432441391050816,0.01096580270677805,0.0,0.005559711251407862
0.006825289689004421,-0.0020980113185942173,-0.009809574112296104,0.010687152855098248,0.0,0.005690472666174173
0.005987719167023897,-0.0021090395748615265,-0.009020508266985416,0.01108531467616558,0.0,0.0056800381280481815
0.006068337708711624,-0.0024646143428981304,-0.008979227393865585,0.010240352712571621,0.0,0.005511963739991188
0.006181235425174236,-0.0023825610987842083,-0.009025725536048412,0.010049441829323769,0.0,0.005537880584597588
0.006171479821205139,-0.002462799893692136,-0.008995315060019493,0.010753714479506016,0.0,0.005570327863097191
0.0061073340475559235,-0.00248509319499135,-0.00882682390511036,0.010343716479837894,0.0,0.005974803119897842
0.006066253408789635,-0.0022847410291433334,-0.00909049715846777,0.010492192581295967,0.0,0.005794913042336702
0.007052119355648756,-0.002219115849584341,-0.009171132929623127,0.010600836016237736,0.0,0.0056740292347967625
0.00607221620157361,-0.002130350796505809,-0.008542300201952457,0.009789850562810898,0.0,0.005470809526741505
0.005798725411295891,-0.0022223852574825287,-0.008353039622306824,0.010656066238880157,0.0,0.005637839436531067
0.005884506739675999,-0.0021601421758532524,-0.009128354489803314,0.010833555832505226,0.0,0.005534868221729994
0.006225657183676958,-0.0023245487827807665,-0.009043199941515923,0.01001760084182024,0.0,0.005713376682251692
0.006803987082093954,-0.0023324997164309025,-0.008672473020851612,0.010306796990334988,0.0,0.0059449318796396255
0.0067954156547784805,-0.0022004148922860622,-0.009297924116253853,0.010199294425547123,0.0,0.0055348812602460384
0.006215950008481741,-0.0023199059069156647,-0.00914295855909586,0.010703560896217823,0.0,0.005739622749388218
0.006215950008481741,-0.0023199059069156647,-0.00914295855909586,0.010703560896217823,0.0,0.005739622749388218
0.006658522412180901,-0.0024487909395247698,-0.009189039468765259,0.010179522447288036,0.0,0.006190249230712652
0.006662452593445778,-0.002549838274717331,-0.009464342147111893,0.009760078974068165,0.0,0.005800033453851938
0.006276452448219061,-0.002662376035004854,-0.00926741398870945,0.010030600242316723,0.0,0.005303201265633106
0.006531891413033009,-0.0025152722373604774,-0.00957793090492487,0.010653386823832989,0.0,0.005077333655208349
0.0067033362574875355,-0.002141182776540518,-0.009070390835404396,0.011060917750000954,0.0,0.00577057059854269
0.0074022612534463406,-0.001863662269897759,-0.008392831310629845,0.01116359606385231,0.0,0.005895606242120266
0.006224396172910929,-0.0016611495520919561,-0.0083119822666049,0.01087023876607418,0.0,0.006289482116699219
0.0060699377208948135,-0.0014192761154845357,-0.009062356315553188,0.01102476567029953,0.0,0.005774082615971565
0.006158396136015654,-0.001501851249486208,-0.009890961460769176,0.010545549914240837,0.0,0.005930878221988678
0.006562772206962109,-0.0021000877022743225,-0.008629469200968742,0.010323379188776016,0.0,0.006197190377861261
0.006865832023322582,-0.0024456260725855827,-0.009355584159493446,0.011058980599045753,0.0,0.006294312886893749
0.006425301544368267,-0.002361955586820841,-0.008811930194497108,0.011125338263809681,0.0,0.0061505455523729324
0.0062276441603899,-0.001891531515866518,-0.008502633310854435,0.010467370972037315,0.0,0.006156380288302898
0.006135108415037394,-0.001792373601347208,-0.00867055170238018,0.010980375111103058,0.0,0.005933203734457493
0.006770863197743893,-0.0016972868470475078,-0.008899341337382793,0.01077968254685402,0.0,0.0061984555795788765
0.006786197889596224,-0.0018261328805238008,-0.008891850709915161,0.011012686416506767,0.0,0.006674625910818577
0.006786197889596224,-0.0018261328805238008,-0.008891850709915161,0.011012686416506767,0.0,0.006674625910818577
0.006483846809715033,-0.0019846283830702305,-0.008875367231667042,0.010960547253489494,0.0,0.006059222389012575
0.006125880405306816,-0.002032212447375059,-0.009052171371877193,0.011558622121810913,7.044337166917103e-07,0.005814197473227978
0.00694842915982008,-0.0019160453230142593,-0.008331958204507828,0.011175120249390602,3.0031117592699275e-09,0.006179063580930233
0.0073622907511889935,-0.0017062093829736114,-0.00927715003490448,0.011065506376326084,1.9608174806062806e-10,0.006362458225339651
0.006505937781184912,-0.0015849414048716426,-0.008738442324101925,0.01088119950145483,1.2802737169026468e-11,0.006021412089467049
0.006261174567043781,-0.0015843455912545323,-0.008633187040686607,0.010544531047344208,8.359272475610968e-13,0.005643613636493683
0.007204060908406973,-0.001711467164568603,-0.009224622510373592,0.010351690463721752,5.4580075674976955e-14,0.0057264044880867004
0.007027086801826954,-0.0017517346423119307,-0.009155409410595894,0.010553480125963688,3.563688684698075e-15,0.006283024791628122
0.006643509026616812,-0.0019275861559435725,-0.008436566218733788,0.010547218844294548,2.3268341815188413e-16,0.006867734715342522
0.006260915193706751,-0.0019199299858883023,-0.008565292693674564,0.010712984949350357,1.5192564921687893e-17,0.006292430683970451
0.006615575402975082,-0.0017387474654242396,-0.009033164009451866,0.010507897473871708,9.919659507167071e-19,0.0059760264120996
0.006899465341120958,-0.0016922256909310818,-0.008948232047259808,0.010457954369485378,6.476828719934182e-20,0.005443097557872534
0.00666968896985054,-0.0015889456262812018,-0.00879229512065649,0.01068822480738163,4.228906355611585e-21,0.005807600449770689
0.006633899174630642,-0.0017597656697034836,-0.009220127016305923,0.010348627343773842,2.761173717244972e-22,0.0067976429127156734
0.006458481773734093,-0.0016768998466432095,-0.008771030232310295,0.010675058700144291,1.8028488288401685e-23,0.006918252911418676
0.0069100335240364075,-0.0020442090462893248,-0.008532795123755932,0.010222682729363441,1.1771314388454863e-24,0.006396215874701738
0.006810479331761599,-0.002049642615020275,-0.008829654194414616,0.010151127353310585,7.685826193547235e-26,0.006253350060433149
0.007231858558952808,-0.0020459776278585196,-0.009227672591805458,0.010198664851486683,5.018295507732712e-27,0.007085694465786219
0.006540156435221434,-0.0018388481112197042,-0.008871320635080338,0.010238390415906906,3.276588466245893e-28,0.006185892969369888
0.006492098793387413,-0.0018816906958818436,-0.008961324580013752,0.010314315557479858,2.139377901321412e-29,0.005698395427316427
0.006917999591678381,-0.0017808295087888837,-0.009258733130991459,0.010923624038696289,1.396860907901343e-30,0.005593159236013889
0.006731274537742138,-0.0020086457952857018,-0.00876538548618555,0.010617983527481556,9.120503739534294e-32,0.006143105681985617
0.007147864438593388,-0.0019940687343478203,-0.008709643967449665,0.009783580899238586,5.955037116192431e-33,0.006598633248358965
0.007420671638101339,-0.0019430506508797407,-0.009261077269911766,0.01050172932446003,3.888213888283574e-34,0.006399495992809534
0.0068847909569740295,-0.00174145947676152,-0.009766466915607452,0.010206394828855991,2.5387257105529525e-35,0.006270479876548052
0.007049770560115576,-0.001407383824698627,-0.008893360383808613,0.010391111485660076,1.6576066705804813e-36,0.006057544611394405
0.007049770560115576,-0.001407383824698627,-0.008893360383808613,0.010391111485660076,1.6576066705804813e-36,0.006057544611394405
0.007092643994837999,-0.0014035177882760763,-0.009131316095590591,0.010305392555892467,7.066637453011371e-39,0.006475305650383234
0.007092643994837999,-0.0014035177882760763,-0.009131316095590591,0.010305392555892467,7.066637453011371e-39,0.006475305650383234
0.007322118617594242,-0.0015896987169981003,-0.009134100750088692,0.010020057670772076,3.012651568451924e-41,0.006636979524046183
0.007252741605043411,-0.0019714769441634417,-0.009543911553919315,0.009855670854449272,1.9674230439120432e-42,0.006678139790892601
0.007031693123281002,-0.0017711366526782513,-0.009325862862169743,0.009926057420670986,1.2891945871788317e-43,0.006591067649424076
0.007252747658640146,-0.001742216176353395,-0.00938056968152523,0.010492773726582527,8.407790785948902e-45,0.006802048999816179
0.007299171760678291,-0.0016079401830211282,-0.00945600401610136,0.010430934838950634,0.0,0.006801709067076445
0.007176549173891544,-0.0015127266524359584,-0.008479131385684013,0.01045263186097145,0.0,0.006427844054996967
0.007224164437502623,-0.0015924203908070922,-0.008554751053452492,0.011099150404334068,0.0,0.0065391333773732185
0.0072883074171841145,-0.0015326582361012697,-0.00913180597126484,0.010234439745545387,-9.303665137849748e-05,0.0068520233035087585
0.0075875637121498585,-0.0019178736256435513,-0.009016722440719604,0.009554003365337849,-0.00011857016943395138,0.006920507177710533
0.00709719629958272,-0.0017837091581895947,-0.008748373948037624,0.01031055673956871,-0.00011730662663467228,0.006607453338801861
0.007210478186607361,-0.0018153887940570712,-0.009201545268297195,0.010185126215219498,-0.00011444252595538273,0.006889349315315485
0.007026660721749067,-0.001738726976327598,-0.00886818952858448,0.010735079646110535,-0.00011161181464558467,0.006749225314706564
0.007857236079871655,-0.0014963867142796516,-0.008391235023736954,0.010770542547106743,-0.00010891096462728456,0.006962744519114494
0.007983091287314892,-0.0015536448918282986,-0.009093099273741245,0.009888378903269768,-0.000106337211036589,0.006600141525268555
0.0076805283315479755,-0.001474248943850398,-0.009779983200132847,0.010283430106937885,-0.00011928777530556545,0.006419713143259287
0.0070856609381735325,-0.001530744368210435,-0.008888649754226208,0.010413115844130516,-0.000121495351777412,0.006814500316977501
0.007985283620655537,-0.0015440789284184575,-0.009860399179160595,0.01027262955904007,-0.00011913432535948232,0.006844279821962118
0.007969161495566368,-0.0014191647060215473,-0.00912523828446865,0.010906562209129333,-0.00011658319999696687,0.00706777349114418
0.007027722895145416,-0.0014772418653592467,-0.00887641217559576,0.011099952273070812,-0.0001141207103501074,0.006543320138007402
0.007148555479943752,-0.001411622972227633,-0.009081250056624413,0.01053454726934433,-0.00011175883992109448,0.006500336341559887
0.007507456466555595,-0.001615762012079358,-0.01008746400475502,0.010550486855208874,-0.00010949259012704715,0.0065493034198880196
0.0075622303411364555,-0.0016121731605380774,-0.009597261436283588,0.010072406381368637,-0.00012285735283512622,0.0069069708697497845
0.00809963047504425,-0.001546630752272904,-0.009398944675922394,0.010704997926950455,-0.00012260979565326124,0.006985353771597147
0.007929867133498192,-0.0016074854647740722,-0.009627290070056915,0.010738172568380833,-0.00012040649744449183,0.006878825835883617
0.007809131406247616,-0.001510085305199027,-0.009019620716571808,0.01027917955070734,-0.00011815743346232921,0.007236855570226908
0.007946554571390152,-0.0016180803067982197,-0.009727287106215954,0.010619868524372578,-0.00011388614802854136,0.007218868471682072
0.007946554571390152,-0.0016180803067982197,-0.009727287106215954,0.010619868524372578,-0.00011388614802854136,0.007218868471682072
0.007687886245548725,-0.0016942607471719384,-0.009113185107707977,0.010515734553337097,-0.00010991214367095381,0.0068505010567605495
0.0077234175987541676,-0.0016496812459081411,-0.009391555562615395,0.010505199432373047,-0.00010802755423355848,0.007024804130196571
0.008173100650310516,-0.0015045619802549481,-0.009107385762035847,0.010302005335688591,-0.00011746878590201959,0.007191424258053303
0.008173100650310516,-0.0015045619802549481,-0.009107385762035847,0.010302005335688591,-0.00011746878590201959,0.007191424258053303
0.007948512211441994,-0.0015043471939861774,-0.009025572799146175,0.010504435747861862,-0.00011911106412298977,0.006941941566765308
0.008203444071114063,-0.0015841948334127665,-0.009680261835455894,0.010093305259943008,-0.00011740306217689067,0.007069663144648075
0.007960141636431217,-0.0014911370817571878,-0.009621396660804749,0.010861304588615894,-0.00011553442163858563,0.006982469465583563
0.007614948786795139,-0.0016340725123882294,-0.009020736441016197,0.010535859502851963,-0.00011371079017408192,0.007200812455266714
0.008043530397117138,-0.001706115435808897,-0.010044226422905922,0.01028309017419815,-0.00011194289254490286,0.007002726662904024
0.007776651065796614,-0.0015825462760403752,-0.009212852455675602,0.010422972962260246,-0.00011022913531633094,0.006858662702143192
0.007890375331044197,-0.0016111241420730948,-0.00861454103142023,0.010158817283809185,-0.00010856704466277733,0.006871353834867477
0.00824176799505949,-0.0014982350403442979,-0.00952901877462864,0.010266834869980812,-0.00010695428500184789,0.0073595792055130005
0.00831504538655281,-0.0014237056020647287,-0.009842789731919765,0.010837465524673462,-0.0001053887972375378,0.0073831574991345406
0.008066520094871521,-0.0014529890613630414,-0.009302167221903801,0.010421873070299625,-0.00013020205369684845,0.006914885248988867
0.0077200583182275295,-0.0015097801806405187,-0.009748042561113834,0.010504952631890774,-0.0001302218734053895,0.007130415178835392
0.008785341866314411,-0.0017512742197141051,-0.009648874402046204,0.010994724929332733,-0.0001267997722607106,0.007464142516255379
0.008618268184363842,-0.0017147358739748597,-0.008926321752369404,0.01021596696227789,-0.0001233402726938948,0.0071018775925040245
0.007724171970039606,-0.0015654959715902805,-0.009036172181367874,0.010364390909671783,-0.00014089590695220977,0.007127704098820686
0.008089459501206875,-0.0015953475376591086,-0.00949668139219284,0.010862966999411583,-0.000140110743814148,0.006846058648079634
0.008372921496629715,-0.0015109232626855373,-0.009479982778429985,0.010021738708019257,-0.00013674986257683486,0.007362678647041321
0.00844983197748661,-0.0015085964696481824,-0.009059247560799122,0.010658484883606434,-0.00013338432472664863,0.0074423206970095634
0.00836279708892107,-0.0014401960652321577,-0.01021279115229845,0.011109319515526295,-0.00013016953016631305,0.007961388677358627
0.008417438715696335,-0.0013821240281686187,-0.009172169491648674,0.010205389000475407,-0.0001271055225515738,0.0071792141534388065
0.0083550363779068,-0.001424321555532515,-0.009661111049354076,0.010188101790845394,-0.00012418240658007562,0.007251922506839037
0.008209644816815853,-0.001418773434124887,-0.009429874829947948,0.010087213478982449,-0.00011872173490701243,0.007344985846430063
0.008209644816815853,-0.001418773434124887,-0.009429874829947948,0.010087213478982449,-0.00011872173490701243,0.007344985846430063
0.00893597211688757,-0.0014583804877474904,-0.009342361241579056,0.01104267779737711,-0.00013423692143987864,0.007385869976133108
0.009290516376495361,-0.001406245632097125,-0.009707367047667503,0.010604046285152435,-0.00013259034312795848,0.008026465773582458
0.008074415847659111,-0.001465767272748053,-0.009955698624253273,0.010091356933116913,-0.00012993272684980184,0.007900607772171497
0.00834287516772747,-0.001393495942465961,-0.008833536878228188,0.010750457644462585,-0.00012731198512483388,0.00710701011121273
0.008462252095341682,-0.0012127376394346356,-0.01077275536954403,0.010294254869222641,-0.00012236661859788,0.007581586483865976
0.008462252095341682,-0.0012127376394346356,-0.01077275536954403,0.010294254869222641,-0.00012236661859788,0.007581586483865976
0.00831463560461998,-0.0011543745640665293,-0.009908010251820087,0.01060236431658268,-0.00012003510346403345,0.007484386675059795
0.009263269603252411,-0.0012165032094344497,-0.009630003944039345,0.010383402928709984,-0.0001177908488898538,0.00743803521618247
0.009492440149188042,-0.0011024359846487641,-0.00890029314905405,0.010744311846792698,-0.00012998371676076204,0.0073847416788339615
0.008613573387265205,-0.0011871116003021598,-0.008922585286200047,0.011041631922125816,-0.00012962422624696046,0.008016823790967464
0.008923226967453957,-0.0011496992083266377,-0.010837565176188946,0.010085738264024258,-0.00012745893036480993,0.007651538588106632
0.009236017242074013,-0.0011354601010680199,-0.009997781366109848,0.009816654026508331,-0.00012525016791187227,0.007401433773338795
0.008371595293283463,-0.0013026489177718759,-0.00907917134463787,0.010147711262106895,-0.00012310923193581402,0.007385586388409138
0.008378769271075726,-0.0013603854458779097,-0.009445296600461006,0.009944381192326546,-0.00012103945482522249,0.008007960394024849
0.009545826353132725,-0.001355446525849402,-0.009288385510444641,0.010898664593696594,-0.000119038435514085,0.008083795197308064
0.008769290521740913,-0.0013252216158434749,-0.009245770052075386,0.010819021612405777,-0.00011710230319295079,0.007637732196599245
0.008539820089936256,-0.00124689273070544,-0.00978236086666584,0.01028349343687296,-0.00011522830027388409,0.007366509642452002
0.009055661968886852,-0.0011910477187484503,-0.01001167856156826,0.011123863980174065,-0.0001427510433131829,0.007534952834248543
0.009131200611591339,-0.001229930086992681,-0.00939150806516409,0.011122980155050755,-0.0001424462243448943,0.00755239138379693
0.008924021385610104,-0.001167204580269754,-0.00965137965977192,0.010754735209047794,-0.00013834211858920753,0.0074546742253005505
0.009019901044666767,-0.0011573390802368522,-0.00963817909359932,0.011445114389061928,-0.0001342329487670213,0.00744224525988102
0.009019901044666767,-0.0011573390802368522,-0.00963817909359932,0.011445114389061928,-0.0001342329487670213,0.00744224525988102
0.008980878628790379,-0.0012230600696057081,-0.00951781589537859,0.01065289881080389,-0.0001266761391889304,0.00809177104383707
0.008980878628790379,-0.0012230600696057081,-0.00951781589537859,0.01065289881080389,-0.0001266761391889304,0.00809177104383707
0.009370315819978714,-0.001558304182253778,-0.009681180119514465,0.010240724310278893,-0.0001436964957974851,0.007976828143000603
0.009453311562538147,-0.0014580088900402188,-0.010324612259864807,0.01070159487426281,-0.0001535025076009333,0.007571854162961245
0.009453311562538147,-0.0014580088900402188,-0.010324612259864807,0.01070159487426281,-0.0001535025076009333,0.007571854162961245
0.009401475079357624,-0.0012573705753311515,-0.009865463711321354,0.010393686592578888,-0.00015169438847806305,0.007924842648208141
0.009401475079357624,-0.0012573705753311515,-0.009865463711321354,0.010393686592578888,-0.00015169438847806305,0.007924842648208141
0.009229552000761032,-0.0011969392653554678,-0.010691076517105103,0.010396202094852924,-0.00014814994938205928,0.008012247271835804
0.00952591560781002,-0.0010484651429578662,-0.009750821627676487,0.01069752499461174,-0.000144747449667193,0.007608864456415176
0.009010015055537224,-0.001017474103718996,-0.010191855020821095,0.010530810803174973,-0.0001414962753187865,0.00738342572003603
0.009449418634176254,-0.000998593750409782,-0.010229839943349361,0.009979578666388988,-0.00013838792801834643,0.008018085733056068
0.009587422013282776,-0.0009884849423542619,-0.009834804572165012,0.009961473755538464,-0.00013541351654566824,0.008270605467259884
0.009919331409037113,-0.0011632046662271023,-0.011139022186398506,0.010526427067816257,-0.00015023858577478677,0.008042608387768269
0.008517246693372726,-0.0011745973024517298,-0.010360905900597572,0.010465089231729507,-0.0001482970837969333,0.007534378208220005
0.00990523211658001,-0.0014031268656253815,-0.009332428686320782,0.009947714395821095,-0.00014537812967319041,0.007516501005738974
0.009798092767596245,-0.0013796440325677395,-0.010307245887815952,0.010486782528460026,-0.0001425054797437042,0.007468718104064465
0.009256795980036259,-0.0012969935778528452,-0.00989613402634859,0.010199136100709438,-0.00018947159696836025,0.00784549955278635
0.009634244255721569,-0.001228837645612657,-0.009280058555305004,0.010122216306626797,-0.0001973067846847698,0.008380042389035225
0.009838694706559181,-0.001080925459973514,-0.010263540782034397,0.01057293638586998,-0.00019002931367140263,0.00851941853761673
0.009473839774727821,-0.0011619783472269773,-0.010827489197254181,0.010046940296888351,-0.00018239427299704403,0.008158314041793346
0.009905614890158176,-0.0011209797812625766,-0.011127299629151821,0.01061591412872076,-0.00017529245815239847,0.008854243904352188
0.010287567041814327,-0.0012181198690086603,-0.010508683510124683,0.010541238822042942,-0.0001687196345301345,0.007957457564771175
0.00932533759623766,-0.0013044960796833038,-0.010239924304187298,0.009875969029963017,-0.0001626218290766701,0.007505856920033693
0.00939104799181223,-0.001271237269975245,-0.009640027768909931,0.01044550258666277,-0.00015694870671723038,0.00799848884344101
0.009714710526168346,-0.0012886422919109464,-0.010400351136922836,0.010661344975233078,-0.0001741067972034216,0.008283382281661034
0.009660197421908379,-0.0013572181342169642,-0.009927215054631233,0.009848721325397491,-0.0001755419361870736,0.00860474444925785
0.009660197421908379,-0.0013572181342169642,-0.009927215054631233,0.009848721325397491,-0.0001755419361870736,0.00860474444925785
0.009954950772225857,-0.0012404602020978928,-0.010288133285939693,0.010259067639708519,-0.00016527611296623945,0.008137690834701061
0.009954950772225857,-0.0012404602020978928,-0.010288133285939693,0.010259067639708519,-0.00016527611296623945,0.008137690834701061
0.010606740601360798,-0.001275611692108214,-0.009731942787766457,0.010666042566299438,-0.000155743706272915,0.008290705271065235
0.010412940755486488,-0.001472675008699298,-0.009814322926104069,0.010655592195689678,-0.00015137731679715216,0.008524147793650627
0.009876709431409836,-0.0014191116206347942,-0.009815974161028862,0.010188853368163109,-0.0001472494623158127,0.008930973708629608
0.010045127011835575,-0.0015360276447609067,-0.010721728205680847,0.010195762850344181,-0.00016408151714131236,0.008344053290784359
0.010071985423564911,-0.0014635517727583647,-0.011149056255817413,0.0103069506585598,-0.0001627006131457165,0.008173658512532711
0.009719094261527061,-0.0013433732092380524,-0.009923550300300121,0.010276591405272484,-0.0001587858860148117,0.00829788576811552
0.010117040015757084,-0.0012647679541260004,-0.009733367711305618,0.010627401992678642,-0.00015489416546188295,0.00867327582091093
0.010121527127921581,-0.0010740995639935136,-0.010431469418108463,0.00997831579297781,-0.00015117772272787988,0.008691691793501377
0.01015537790954113,-0.0010225061560049653,-0.009395817294716835,0.01050207857042551,-0.0001476350735174492,0.00882349256426096
0.009859852492809296,-0.0010024260263890028,-0.010137030854821205,0.010170795023441315,-0.00016215354844462126,0.008548527024686337
0.009770151227712631,-0.0010175692150369287,-0.010326126590371132,0.009748735465109348,-0.00016099483764264733,0.008738765493035316
0.010146874003112316,-0.0014115843223407865,-0.0097627779468894,0.010548307560384274,-0.00015763110422994941,0.008883852511644363
0.009922951459884644,-0.0013641882687807083,-0.010332111269235611,0.0109145762398839,-0.00015426409663632512,0.008608045056462288
0.009701515547931194,-0.0016495278105139732,-0.009439127519726753,0.010252603329718113,-0.00015102890029083937,0.008383621461689472
0.010023889131844044,-0.001480917097069323,-0.009117934852838516,0.010793615132570267,-0.0001479260390624404,0.008446795865893364
0.010447653941810131,-0.0012510160449892282,-0.009974510408937931,0.01023359689861536,-0.00015622279897797853,0.008823268115520477
0.009784345515072346,-0.0011909453896805644,-0.01010098122060299,0.010182090103626251,-0.0001526800770079717,0.008238932117819786
0.010014153085649014,-0.000978163443505764,-0.009271414950489998,0.010814043693244457,-0.00014778041804675013,0.008652882650494576
0.010400236584246159,-0.0009532368858344853,-0.009709140285849571,0.010667437687516212,-0.00014308863319456577,0.008130359463393688
0.00993303582072258,-0.0010366416536271572,-0.009823362343013287,0.010645579546689987,-0.000138678980874829,0.008549218997359276
0.00993303582072258,-0.0010366416536271572,-0.009823362343013287,0.010645579546689987,-0.000138678980874829,0.008549218997359276
0.010235537774860859,-0.0011633025715127587,-0.00950135849416256,0.010050194337964058,-0.00015585767687298357,0.008926453068852425
0.010235537774860859,-0.0011633025715127587,-0.00950135849416256,0.010050194337964058,-0.00015585767687298357,0.008926453068852425
0.00972431618720293,-0.0011219751322641969,-0.00968391913920641,0.010445611551404,-0.0001522717357147485,0.008612783625721931
0.009983433410525322,-0.000954098126385361,-0.009473482146859169,0.010707786306738853,-0.00014814690803177655,0.008856534026563168
0.009797181002795696,-0.0008351515280082822,-0.009588220156729221,0.010350069031119347,-0.00016374602273572236,0.008721374906599522
0.010549668222665787,-0.00074955471791327,-0.009043321013450623,0.010441940277814865,-0.00015969076775945723,0.008701399900019169
0.010211272165179253,-0.0006807934259995818,-0.009563869796693325,0.010565611533820629,-0.00016668098396621644,0.00906413234770298
0.009858432225883007,-0.0005470094038173556,-0.00937861017882824,0.011109198443591595,-0.00017296582518611103,0.008884367533028126
0.01052263006567955,-0.000580296793486923,-0.009309539571404457,0.010283431969583035,-0.00016956454783212394,0.008851616643369198
0.010220645926892757,-0.0006114536663517356,-0.01000495906919241,0.009733269922435284,-0.0002553991216700524,0.009152197279036045
0.01043444313108921,-0.0006371262134052813,-0.010485036298632622,0.010194536298513412,-0.0002691367990337312,0.009207645431160927
0.010821744799613953,-0.0005946574383415282,-0.009120377711951733,0.010057352483272552,-0.00025573663879185915,0.008763343095779419
0.010089552961289883,-0.0007574550691060722,-0.009577778168022633,0.010521074756979942,-0.00024209744879044592,0.00925864465534687
0.010056782513856888,-0.0007652975036762655,-0.00983037892729044,0.010963167063891888,-0.00022974098101258278,0.009084470570087433
0.010691581293940544,-0.0006824941374361515,-0.009620887227356434,0.010127296671271324,-0.00021857880346942693,0.008869679644703865
0.010512374341487885,-0.0006060348241589963,-0.009853611700236797,0.010392561554908752,-0.00020845145627390593,0.008951169438660145
0.011221439577639103,-0.0006039362633600831,-0.010590317659080029,0.010699295438826084,-0.00019922113278880715,0.009478714317083359
0.010478160344064236,-0.0005769510753452778,-0.009695323184132576,0.01013984065502882,-0.00021896570979151875,0.009228425100445747
0.009824610315263271,-0.0005288816755637527,-0.009297255426645279,0.010803047567605972,-0.00021896499674767256,0.009222561493515968
0.010362965054810047,-0.0005566017352975905,-0.009450490586459637,0.010438050143420696,-0.00021098869910929352,0.009310689754784107
0.010545098222792149,-0.0005231898394413292,-0.009027771651744843,0.009886786341667175,-0.0002030902251135558,0.008634069934487343
0.010389240458607674,-0.00044722066377289593,-0.010475970804691315,0.010261038318276405,-0.0001957303611561656,0.008571404963731766
0.010100250132381916,-0.00048657492152415216,-0.01011639554053545,0.009997925721108913,-0.00018888333579525352,0.008873223327100277
0.010635331273078918,-0.0005128758493810892,-0.009234358556568623,0.00982922688126564,-0.00018249881395604461,0.009334736503660679
0.00973484106361866,-0.0004818430752493441,-0.009272229857742786,0.010349278338253498,-0.00017653203394729644,0.009288539178669453
0.00973484106361866,-0.0004818430752493441,-0.009272229857742786,0.010349278338253498,-0.00017653203394729644,0.009288539178669453
0.010070930235087872,-0.0004894913290627301,-0.009940510615706444,0.01019455399364233,-0.0001709432399366051,0.009276047348976135
0.01099354587495327,-0.0004774108820129186,-0.009482664987444878,0.010161761194467545,-0.00017924442363437265,0.009138964116573334
0.010319046676158905,-0.00044797590817324817,-0.009462586604058743,0.01017677877098322,-0.00018663913942873478,0.009487227536737919
0.010167662054300308,-0.0003983951173722744,-0.009798453189432621,0.010227732360363007,-0.00017701310571283102,0.009791103191673756
0.010169055312871933,-0.00042141214362345636,-0.00965899508446455,0.010365643538534641,-0.00017217863933183253,0.009128301404416561
0.010919778607785702,-0.0004051853611599654,-0.00958314910531044,0.010157155804336071,-0.00016759826394263655,0.00897714402526617
0.010346517898142338,-0.00044324208283796906,-0.00935838557779789,0.010092636570334435,-0.00017470995953772217,0.009103445336222649
0.01076176855713129,-0.00041224155575037,-0.00924617424607277,0.01051582582294941,-0.00018108918447978795,0.009734543971717358
0.011223495937883854,-0.0004392026166897267,-0.009929715655744076,0.009982860647141933,-0.00017733272397890687,0.00916940625756979
0.010203470475971699,-0.0004171639448031783,-0.009795228950679302,0.010200507938861847,-0.0001731147785903886,0.009398271329700947
0.010147611610591412,-0.0003913413092959672,-0.010494997724890709,0.010419320315122604,-0.00016905316442716867,0.009534497745335102
0.010685804300010204,-0.00040290129254572093,-0.010258057154715061,0.01010834239423275,-0.0001618092937860638,0.009497566148638725
0.009662052616477013,-0.0003975740692112595,-0.009657120332121849,0.010844575241208076,-0.0001534677139716223,0.010092275217175484
0.010592571459710598,-0.00037698308005928993,-0.010799186304211617,0.010927540250122547,-0.00014822729281149805,0.009370225481688976
0.010273188352584839,-0.0003606482641771436,-0.010171773843467236,0.010721149854362011,-0.00014348846161738038,0.009556866250932217
0.00984366238117218,-0.00039521214785054326,-0.009593219496309757,0.01086708065122366,-0.00013905340165365487,0.009783709421753883
0.010531064122915268,-0.00036411621840670705,-0.010035842657089233,0.010879618115723133,-0.00016004577628336847,0.00966526661068201
0.010445838794112206,-0.00033686403185129166,-0.010115697979927063,0.010178513824939728,-0.0001570322783663869,0.009560796432197094
0.010497271083295345,-0.00037346832687035203,-0.01020881999284029,0.010243297554552555,-0.00015269887808244675,0.009550824761390686
0.010554768145084381,-0.00035155119257979095,-0.010314102284610271,0.010125323198735714,-0.00016999259241856635,0.01075595710426569
0.01087283156812191,-0.000330090057104826,-0.010217567905783653,0.010268454439938068,-0.00016840713215060532,0.009461075067520142
0.01050446555018425,-0.000360781152267009,-0.010244506411254406,0.010710690170526505,-0.00018159658065997064,0.009431056678295135
0.010697143152356148,-0.0003431195509620011,-0.011210199445486069,0.010593126527965069,-0.00018251889559905976,0.010149371810257435
0.010516030713915825,-0.000325420027365908,-0.010488112457096577,0.010828955098986626,-0.0001783585612429306,0.009697678498923779
0.010626615956425667,-0.0003530164249241352,-0.009946067817509174,0.010713706724345684,-0.000174069864442572,0.009320806711912155
0.010947813279926777,-0.00033707369584590197,-0.010866500437259674,0.010478341951966286,-0.00024165553622879088,0.009480975568294525
0.010947813279926777,-0.00033707369584590197,-0.010866500437259674,0.010478341951966286,-0.00024165553622879088,0.009480975568294525
0.010463080368936062,-0.0003543031052686274,-0.010642429813742638,0.010501918382942677,-0.00029336035368032753,0.009663060307502747
0.010501326061785221,-0.00037604226963594556,-0.010502396151423454,0.010247131809592247,-0.0002634636766742915,0.01049366220831871
0.010389764793217182,-0.0003581602650228888,-0.010248556733131409,0.010281854309141636,-0.0002489039034117013,0.010039471089839935
0.01094424445182085,-0.00038526731077581644,-0.01134278904646635,0.01038209069520235,-0.00027977555873803794,0.009908230975270271
0.010602946393191814,-0.00036891261697746813,-0.010634993202984333,0.00994521751999855,-0.00026871365844272077,0.010001907125115395
0.012200135737657547,-0.0003976717998739332,-0.009325199760496616,0.010768045671284199,-0.0002931266790255904,0.010314679704606533
0.010647699236869812,-0.0003774807264562696,-0.011202696710824966,0.01044483482837677,-0.0002849471929948777,0.010067394003272057
0.010437699034810066,-0.0005238042795099318,-0.011093410663306713,0.010119553655385971,-0.00030173943378031254,0.009798642247915268
0.01096920482814312,-0.0004888070980086923,-0.010396833531558514,0.010546829551458359,-0.00029832604923285544,0.009971750900149345
0.010716184973716736,-0.00044115842320024967,-0.010480588302016258,0.010480248369276524,-0.0002870257303584367,0.009991997852921486
0.010710315778851509,-0.0004809260426554829,-0.010355516336858273,0.01063357014209032,-0.0002767573168966919,0.01063104160130024
0.011240271851420403,-0.00044256611727178097,-0.010768109001219273,0.010229600593447685,-0.0003379373229108751,0.010106165893375874
0.010535514913499355,-0.0004090458678547293,-0.011183042079210281,0.010477878153324127,-0.00031932193087413907,0.010217024944722652
0.010900242254137993,-0.0004409708781167865,-0.010435056872665882,0.01028890535235405,-0.0003274886985309422,0.010355266742408276
0.011062086559832096,-0.00041438639163970947,-0.010752672329545021,0.010638050734996796,-0.00033390792668797076,0.010044857859611511
0.010615582577884197,-0.00038883776869624853,-0.010936541482806206,0.010235772468149662,-0.0003161021741107106,0.010293638333678246
0.011063390411436558,-0.0004178040544502437,-0.010523092932999134,0.010813522152602673,-0.00032298456062562764,0.00996815413236618
0.010899199172854424,-0.00039554209797643125,-0.010519346222281456,0.010975637473165989,-0.00032857622136361897,0.0099623529240489
0.010947762988507748,-0.0003749503812287003,-0.010571356862783432,0.010447976179420948,-0.00031368035706691444,0.010892261750996113
0.011204032227396965,-0.0003621531359385699,-0.009885909967124462,0.010515128262341022,-0.0003304124402347952,0.010382900014519691
0.011034833267331123,-0.0003356249362695962,-0.01077469252049923,0.01010171975940466,-0.0003253895847592503,0.010171250440180302
0.011038653552532196,-0.00037219884688965976,-0.01062544621527195,0.010715404525399208,-0.00031268649036064744,0.010279570706188679
0.010950877331197262,-0.0003504329069983214,-0.010304889641702175,0.010930988937616348,-0.00037258840166032314,0.009996497072279453
0.010777362622320652,-0.00037740101106464863,-0.010802218690514565,0.010868184268474579,-0.0003492838586680591,0.009735103696584702
0.011378214694559574,-0.00036180802271701396,-0.010418375954031944,0.011333685368299484,-0.0003244503459427506,0.010586438700556755
0.010956987738609314,-0.00037031451938673854,-0.010222780518233776,0.010577918030321598,-0.0003399959532544017,0.010057018138468266
0.012660793960094452,-0.0003527826629579067,-0.010481389239430428,0.011684915982186794,-0.00036972083034925163,0.010811143554747105
0.012246017344295979,-0.0004431280249264091,-0.010966971516609192,0.010571533814072609,-0.000352291768649593,0.010253516025841236
0.012246017344295979,-0.0004431280249264091,-0.010966971516609192,0.010571533814072609,-0.000352291768649593,0.010253516025841236
0.012590000405907631,-0.00041648748447187245,-0.011109978891909122,0.010293422266840935,-0.00033383123809471726,0.010084611363708973
0.012273827567696571,-0.0004311128577683121,-0.01011163555085659,0.011317274533212185,-0.00035921763628721237,0.010244488716125488
0.012948565185070038,-0.00042152649257332087,-0.011071098037064075,0.01029652077704668,-0.00034476316068321466,0.010424821637570858
0.012449650093913078,-0.0003912982647307217,-0.011056745424866676,0.010289081372320652,-0.00036932999501004815,0.010631076991558075
0.012430357746779919,-0.00040460837772116065,-0.010745421051979065,0.01055279653519392,-0.00037692789919674397,0.010983644053339958
0.012837199494242668,-0.00039843935519456863,-0.010853789746761322,0.010417690500617027,-0.00035011337604373693,0.01042739488184452
0.01267015840858221,-0.0004100373189430684,-0.010546148754656315,0.010975564830005169,-0.0003249756700824946,0.01070422027260065
0.012962899170815945,-0.00040422737947665155,-0.011017363518476486,0.010999783873558044,-0.00035945611307397485,0.01060826238244772
0.01290174201130867,-0.00038295594276860356,-0.010854817926883698,0.01067550852894783,-0.0003404627204872668,0.010166680440306664
0.012825436890125275,-0.00042338843923062086,-0.009783044457435608,0.011245392262935638,-0.0003204868407920003,0.010622725822031498
0.012554962188005447,-0.00039449805626645684,-0.010710117407143116,0.010735097341239452,-0.0003025391197297722,0.010361279360949993
0.012892425991594791,-0.00042659242171794176,-0.010591412894427776,0.01058936957269907,-0.0003097659209743142,0.010727176442742348
0.012872152030467987,-0.00040274637285619974,-0.0103765232488513,0.010789623484015465,-0.0003157893952447921,0.011005526408553123
0.01300453394651413,-0.0004347690846771002,-0.01064675860106945,0.010894584469497204,-0.0003020550066139549,0.010681945830583572
0.013037203811109066,-0.00040893652476370335,-0.010964388027787209,0.01119085494428873,-0.0002883211709558964,0.010869945399463177
0.013042782433331013,-0.0004366320790722966,-0.01059731561690569,0.011132653802633286,-0.00027570564998313785,0.010819250717759132
0.013138473965227604,-0.00041364782373420894,-0.010819947347044945,0.01063704863190651,-0.0002920294355135411,0.010745510458946228
0.012322239577770233,-0.00039119922439567745,-0.010445170104503632,0.010897434316575527,-0.0002890864561777562,0.010823197662830353
0.012680119834840298,-0.0004672003851737827,-0.010683116503059864,0.010340934619307518,-0.0002784772659651935,0.010828330181539059
0.012347686104476452,-0.00042720610508695245,-0.010440942831337452,0.010606002062559128,-0.00026814249577000737,0.011025972664356232
0.012347686104476452,-0.00042720610508695245,-0.010440942831337452,0.010606002062559128,-0.00026814249577000737,0.011025972664356232
0.012646524235606194,-0.00043082801857963204,-0.010730443522334099,0.010179458186030388,-0.00024955434491857886,0.011638768948614597
0.012964557856321335,-0.0004333819088060409,-0.010945919901132584,0.01045159064233303,-0.00022291720961220562,0.010633895173668861
0.012964557856321335,-0.0004333819088060409,-0.010945919901132584,0.01045159064233303,-0.00022291720961220562,0.010633895173668861
0.01288622710853815,-0.00041665908065624535,-0.010555603541433811,0.011049633845686913,-0.00020275467250030488,0.011710701510310173
0.012799352407455444,-0.0004103843530174345,-0.010871626436710358,0.010628188960254192,-0.00019401141616981477,0.011312095448374748
0.013001610524952412,-0.00039103307062759995,-0.010811437852680683,0.010069143958389759,-0.0002041863917838782,0.011152907274663448
0.013001610524952412,-0.00039103307062759995,-0.010811437852680683,0.010069143958389759,-0.0002041863917838782,0.011152907274663448
0.012525533325970173,-0.0004178467206656933,-0.009974841959774494,0.010600047186017036,-0.0002130883513018489,0.011055371724069118
0.012936913408339024,-0.00038311383104883134,-0.010536176152527332,0.010526475496590137,-0.0002060640836134553,0.010890518315136433
0.013010341674089432,-0.00035305635537952185,-0.010987580753862858,0.01007837150245905,-0.00019855851132888347,0.011130407452583313
0.013214071281254292,-0.00032736529828980565,-0.010568218305706978,0.010284892283380032,-0.00021920404105912894,0.011184786446392536
0.01322593167424202,-0.00030516041442751884,-0.01066824235022068,0.010532000102102757,-0.00021550919336732477,0.011468675918877125
0.012813842855393887,-0.0003360944101586938,-0.010492312721908092,0.010103662498295307,-0.00020862107339780778,0.012235626578330994
0.012964019551873207,-0.0003223594685550779,-0.0107529042288661,0.010678860358893871,-0.0002233068662462756,0.01145379152148962
0.012492824345827103,-0.00030427801539190114,-0.011095665395259857,0.010129000060260296,-0.00022314164380077273,0.011422551237046719
0.012679550796747208,-0.0002880461106542498,-0.01111899595707655,0.010288795456290245,-0.0002168619103031233,0.011334612965583801
0.012660684995353222,-0.00031361685250885785,-0.010538781061768532,0.010297801345586777,-0.00021054860553704202,0.011393347755074501
0.012814352288842201,-0.00030358292860910296,-0.010634120553731918,0.009808586910367012,-0.00020524313731584698,0.011580617167055607
0.012554893270134926,-0.0002896906225942075,-0.010567705146968365,0.010402124375104904,-0.0002562754962127656,0.011503743939101696
0.012454751878976822,-0.0002769552811514586,-0.0107269873842597,0.01040293276309967,-0.00024634762667119503,0.01178889349102974
0.01301057543605566,-0.00026529180468060076,-0.010503523051738739,0.009863253682851791,-0.00023381128266919404,0.011751457117497921
0.012758948840200901,-0.0002904303837567568,-0.01033949013799429,0.0103693176060915,-0.00022227670706342906,0.01160863321274519
0.012874523177742958,-0.00027963172760792077,-0.010751175694167614,0.010874700732529163,-0.000248501542955637,0.011349576525390148
0.012987587600946426,-0.00026918324874714017,-0.010276613757014275,0.011231563985347748,-0.00024237530305981636,0.011400005780160427
0.012987587600946426,-0.00026918324874714017,-0.010276613757014275,0.011231563985347748,-0.00024237530305981636,0.011400005780160427
0.012767019681632519,-0.00023087195586413145,-0.010756771080195904,0.011459124274551868,-0.0002322763466509059,0.011130088940262794
0.012715687975287437,-0.00021919964638072997,-0.011261170729994774,0.010510959662497044,-0.00022271614579949528,0.011616972275078297
0.013024549931287766,-0.00022665291908197105,-0.010774293914437294,0.0102465208619833,-0.00023107085144147277,0.011569413356482983
0.013024549931287766,-0.00022665291908197105,-0.010774293914437294,0.0102465208619833,-0.00023107085144147277,0.011569413356482983
0.012952405959367752,-0.000219860696233809,-0.009953371249139309,0.010530136525630951,-0.0002465986181050539,0.011716247536242008
0.0127074820920825,-0.00021334738994482905,-0.010666877962648869,0.011242960579693317,-0.00024563923943787813,0.011286938562989235
0.012428217567503452,-0.0002014109049923718,-0.01013968326151371,0.010403156280517578,-0.0002304202935192734,0.011420072987675667
0.012428217567503452,-0.0002014109049923718,-0.01013968326151371,0.010403156280517578,-0.0002304202935192734,0.011420072987675667
0.013390621170401573,-0.00019592994067352265,-0.010975568555295467,0.010543801821768284,-0.00022327594342641532,0.011229368858039379
0.013203811831772327,-0.0001907393743749708,-0.010646604932844639,0.010947524569928646,-0.0002579820284154266,0.011598533019423485
0.013073118403553963,-0.00018581679614726454,-0.010591192170977592,0.011328654363751411,-0.00024992282851599157,0.011855128221213818
0.013124139979481697,-0.00018114187696482986,-0.011179671622812748,0.010539439506828785,-0.00023715807765256613,0.012070641852915287
0.013533690944314003,-0.0001766965287970379,-0.01131655927747488,0.010612936690449715,-0.0002672705159056932,0.012353564612567425
0.01341326255351305,-0.00017246382776647806,-0.011579186655580997,0.010877201333642006,-0.00025727294269017875,0.012278118170797825
0.01329722534865141,-0.00016842957120388746,-0.011236155405640602,0.010874535888433456,-0.00024574072449468076,0.011925560422241688
0.01356526743620634,-0.00016457961464766413,-0.011097263544797897,0.011696374043822289,-0.0002639947342686355,0.011879951693117619
0.013383060693740845,-0.0001609016617294401,-0.011464242823421955,0.011223078705370426,-0.00026212091324850917,0.011821918189525604
0.013935542665421963,-0.0001573844056110829,-0.010677588172256947,0.010908467695116997,-0.00025222054682672024,0.01212222594767809
0.01504670362919569,-0.00015401773271150887,-0.010703038424253464,0.011179454624652863,-0.00024254723393823951,0.011779626831412315
0.013867180794477463,-0.00015079228614922613,-0.011367986910045147,0.010815171524882317,-0.00023355665325652808,0.011672619730234146
0.01357322558760643,-0.00014769895642530173,-0.011071478016674519,0.010889681056141853,-0.0002252064150525257,0.011895289644598961
0.01451871544122696,-0.00014473008923232555,-0.011008517816662788,0.011164337396621704,-0.00021743314573541284,0.011897101998329163
0.014081645756959915,-0.00014187803026288748,-0.011076237075030804,0.010408978909254074,-0.00021017825929448009,0.012009571306407452
0.014081645756959915,-0.00014187803026288748,-0.011076237075030804,0.010408978909254074,-0.00021017825929448009,0.012009571306407452
0.013711280189454556,-0.00013649855100084096,-0.011299235746264458,0.01152226235717535,-0.0002232804981758818,0.012567124329507351
0.013711280189454556,-0.00013649855100084096,-0.011299235746264458,0.01152226235717535,-0.0002232804981758818,0.012567124329507351
0.014137971214950085,-0.00013395909627433866,-0.011406471952795982,0.010467616841197014,-0.00021822417329531163,0.011592711322009563
0.014361062087118626,-0.0001291532680625096,-0.01216219924390316,0.010874852538108826,-0.00020586077880579978,0.012262336909770966
0.013896332122385502,-0.00012687726120930165,-0.011376485228538513,0.010839153081178665,-0.00020013847097288817,0.012017257511615753
0.014625709503889084,-0.00012468027125578374,-0.011775130406022072,0.011550895869731903,-0.00019472512940410525,0.01241076085716486
0.014040431939065456,-0.0001225580053869635,-0.011644423939287663,0.010453986935317516,-0.00018959717999678105,0.012082654982805252
0.014290883205831051,-0.0001205067164846696,-0.011714927852153778,0.01086293626576662,-0.00019496644381433725,0.012236207723617554
0.013953759334981441,-0.00011852300667669624,-0.011959021911025047,0.010948502458631992,-0.00019038964819628745,0.012377503328025341
0.014194929040968418,-0.00011660360905807465,-0.011292288079857826,0.010730169713497162,-0.00018289024592377245,0.012211054563522339
0.01395171694457531,-0.00011474528582766652,-0.012071269564330578,0.01139239314943552,-0.00017576167010702193,0.012612314894795418
0.01427597925066948,-0.00011294542491668835,-0.011894134804606438,0.010906156152486801,-0.00016915502783376724,0.012413959950208664
0.014202015474438667,-0.00011120104318251833,-0.011914880946278572,0.010810661129653454,-0.0001630256447242573,0.012242390774190426
0.01443945150822401,-0.00010950968135148287,-0.011993796564638615,0.010972194373607635,-0.00015732554311398417,0.011956802569329739
0.0144045390188694,-0.00010786906932480633,-0.011937672272324562,0.010631076991558075,-0.00015201025235000998,0.012694738805294037
0.014738439582288265,-0.00010627692245179787,-0.012494043447077274,0.010907614603638649,-0.0001688112533884123,0.012685642577707767
0.014291369356215,-0.00010473097790963948,-0.011668099090456963,0.01166632492095232,-0.0001703684392850846,0.012461086735129356
0.014681019820272923,-9.473302634432912e-05,-0.01187838800251484,0.010406292043626308,-0.00016559328651055694,0.012437889352440834
0.014428932219743729,-8.910819451557472e-05,-0.012170231901109219,0.012215230613946915,-0.0001606944133527577,0.012306840158998966
0.015066408552229404,-8.780875941738486e-05,-0.011932703666388988,0.010976817458868027,-0.0001560522650834173,0.012494121678173542
0.01443933043628931,-8.660097228130326e-05,-0.012260758318006992,0.010060053318738937,-0.00017524904978927225,0.012691577896475792
0.014842132106423378,-8.542666910216212e-05,-0.011600171215832233,0.01093271654099226,-0.00017200208094436675,0.012483259662985802
0.01424560695886612,-8.428380533587188e-05,-0.01249331422150135,0.011626928113400936,-0.000167528516612947,0.012522888369858265
0.014800270088016987,-8.31711440696381e-05,-0.012378031387925148,0.012207935564219952,-0.00017464584379922599,0.01219688355922699
0.014800270088016987,-8.31711440696381e-05,-0.012378031387925148,0.012207935564219952,-0.00017464584379922599,0.01219688355922699
0.014888097532093525,-8.103162690531462e-05,-0.01187492161989212,0.01129222847521305,-0.00017727125668898225,0.012422535568475723
0.014888097532093525,-8.103162690531462e-05,-0.01187492161989212,0.01129222847521305,-0.00017727125668898225,0.012422535568475723
0.014576432295143604,-8.000264642760158e-05,-0.011772981844842434,0.011464790441095829,-0.00017305626533925533,0.01267909538000822
0.015079805627465248,-7.802117033861578e-05,-0.011646823026239872,0.010997919365763664,-0.00020971363119315356,0.012910276651382446
0.015336619690060616,-7.706679753027856e-05,-0.011831297539174557,0.011019716039299965,-0.00020115767256356776,0.01274628471583128
0.015072403475642204,-7.613544585183263e-05,-0.01197868213057518,0.010631857439875603,-0.00019259960390627384,0.012626049108803272
0.01544046401977539,-7.522631494794041e-05,-0.011846542358398438,0.011201241053640842,-0.0001846962550189346,0.012807351537048817
0.014814957976341248,-7.433870632667094e-05,-0.012098148465156555,0.01091766357421875,-0.00021048443159088492,0.012994423508644104
0.014969490468502045,-7.347176870098338e-05,-0.01175295002758503,0.010784126818180084,-0.00020466242858674377,0.01324241328984499
0.01464954111725092,-7.26248326827772e-05,-0.012336226180195808,0.010970822535455227,-0.0001973235048353672,0.012794671580195427
0.014929940924048424,-7.179719978012145e-05,-0.011697662062942982,0.010781249962747097,-0.00021995673887431622,0.01312096044421196
0.01485573872923851,-7.0988193328958e-05,-0.01136589515954256,0.010936451144516468,-0.00021440030832309276,0.012793625704944134
0.014968959614634514,-3.879937867168337e-05,-0.01220378465950489,0.011052877642214298,-0.00022199582599569112,0.01305329892784357
0.015327061526477337,-2.242657501483336e-05,-0.011669643223285675,0.010564093478024006,-0.00022856585565023124,0.012855003587901592
0.015140872448682785,-2.1939991711406037e-05,-0.012277057394385338,0.010721471160650253,-0.00029075006023049355,0.013170790858566761
0.015359308570623398,-2.1672962247976102e-05,-0.01214616559445858,0.010985410772264004,-0.0003338005335535854,0.013211715035140514
0.014582235366106033,-2.1415087758214213e-05,-0.012251509353518486,0.011308691464364529,-0.00037326288293115795,0.014327188953757286
0.015229050070047379,-2.1163303244975396e-05,-0.012371117249131203,0.011135612614452839,-0.00038156710797920823,0.012752965092658997
0.015179114416241646,-2.0917366782668978e-05,-0.011925607919692993,0.01074951235204935,-0.00038482542731799185,0.012485882267355919
0.015792716294527054,-2.0677101929322816e-05,-0.012288915924727917,0.010898597538471222,-0.00038965814746916294,0.013297459110617638
0.015321038663387299,-2.0442274035303853e-05,-0.011769537813961506,0.010926243849098682,-0.0003919603768736124,0.013278462924063206
0.015456359833478928,-2.021272484853398e-05,-0.012109033763408661,0.010500915348529816,-0.0003731785109266639,0.013466261327266693
0.014900460839271545,-1.9988279746030457e-05,-0.012182994745671749,0.010865071788430214,-0.0005247457302175462,0.013172145932912827
0.015783727169036865,-2.3024313122732565e-06,-0.012104457244277,0.010544106364250183,-0.0004927366971969604,0.013482004404067993
0.015783727169036865,-2.3024313122732565e-06,-0.012104457244277,0.010544106364250183,-0.0004927366971969604,0.013482004404067993
0.015106253325939178,-3.089005673473366e-08,-0.012313181534409523,0.01062366645783186,-0.0004455619491636753,0.013406109064817429
0.015527909621596336,-4.144294907248991e-10,-0.01194717362523079,0.011114670895040035,-0.00047533094766549766,0.013469398953020573
0.015235239639878273,-5.5601009907313426e-12,-0.012301201932132244,0.010583792813122272,-0.0004455852904357016,0.01369441393762827
0.015566091984510422,-1.000798332180281e-15,-0.012247137725353241,0.011076508089900017,-0.0003829598717857152,0.012999030761420727
0.0155578488484025,-1.342698843604347e-17,-0.012787941843271255,0.010937678627669811,-0.00035758386366069317,0.013216346502304077
0.015533754602074623,-1.8014018847692472e-19,-0.01202262844890356,0.011348314583301544,-0.00038368505192920566,0.013627670705318451
0.015028429217636585,-2.4168103099137987e-21,-0.012118936516344547,0.010879658162593842,-0.000367876113159582,0.013365248218178749
0.0157838873565197,-3.242459711895356e-23,-0.012060831300914288,0.010866906493902206,-0.00034798099659383297,0.01379496417939663
0.015528406016528606,-4.35017346184127e-25,-0.012471655383706093,0.01101587526500225,-0.00037056347355246544,0.013349195942282677
0.015802616253495216,-5.8363126811958136e-27,-0.011863894760608673,0.01073775440454483,-0.0003577334282454103,0.013740374706685543
0.015307272784411907,-7.830158282104181e-29,-0.011547173373401165,0.010742558166384697,-0.0003411433135624975,0.013430406339466572
0.01606563851237297,-1.0505156033637658e-30,-0.011872467584908009,0.010393231175839901,-0.00032573024509474635,0.013573704287409782
0.015692783519625664,-1.4094009758414235e-32,-0.011871065013110638,0.01046602800488472,-0.0002985308528877795,0.013464833609759808
0.015809878706932068,-1.890891143977486e-34,-0.012422564439475536,0.010224655270576477,-0.00026976538356393576,0.013813366182148457
0.016197647899389267,-2.5368716379813003e-36,-0.011835412122309208,0.010581821203231812,-0.0002538298722356558,0.013949832879006863
0.01632956601679325,-3.403537048842703e-38,-0.012173525057733059,0.010461744852364063,-0.00024022688739933074,0.013978955335915089
0.016166292130947113,-4.566285188833492e-40,-0.012414655648171902,0.011758504435420036,-0.00022804562468081713,0.01387540902942419
0.015795132145285606,-6.1264768860281e-42,-0.011980749666690826,0.011412037536501884,-0.00021704370738007128,0.014339067041873932
0.016311628744006157,-8.267660939516421e-44,-0.0121045783162117,0.011639916338026524,-0.0002376327756792307,0.01439974457025528
0.01571999117732048,-1.401298464324817e-45,-0.011546630412340164,0.011632928624749184,-0.00023682552273385227,0.014179529622197151
0.016440320760011673,-0.0,-0.0119543531909585,0.011167927645146847,-0.0002274758880957961,0.01409823913127184
0.016315877437591553,0.0,-0.011654630303382874,0.011094394139945507,-0.0002183184988098219,0.014540006406605244
0.016338391229510307,0.0,-0.011584843508899212,0.011109651066362858,-0.00023569512995891273,0.014279723167419434
0.01661158725619316,0.0,-0.012061157263815403,0.011010054498910904,-0.00023505545686930418,0.014190778136253357
0.01661158725619316,0.0,-0.012061157263815403,0.011010054498910904,-0.00023505545686930418,0.014190778136253357
0.016531147062778473,0.0,-0.011886165477335453,0.01084956806153059,-0.00021924366592429578,0.013994758948683739
0.016937121748924255,0.0,-0.011827973648905754,0.010838980786502361,-0.00023374643933493644,0.014372570440173149
0.016937121748924255,0.0,-0.011827973648905754,0.010838980786502361,-0.00023374643933493644,0.014372570440173149
0.016440000385046005,0.0,-0.012547816149890423,0.010753748007118702,-0.0002274933212902397,0.015401084907352924
0.01664835587143898,0.0,-0.011365762911736965,0.011404120363295078,-0.00026066723512485623,0.013873890973627567
0.01635890267789364,0.0,-0.011860501952469349,0.011480886489152908,-0.00024925844627432525,0.013409600593149662
0.01599883660674095,0.0,-0.011566282249987125,0.011642968282103539,-0.00023636114201508462,0.01413394883275032
0.016661465167999268,0.0,-0.0117725795134902,0.011230655014514923,-0.0002464944263920188,0.014614123851060867
0.016639141365885735,0.0,-0.012020113877952099,0.010897659696638584,-0.00025517522590234876,0.014456615783274174
0.016983775421977043,0.0,-0.011873740702867508,0.010890091769397259,-0.00024492855300195515,0.014379462227225304
0.01643039844930172,0.0,-0.012815740890800953,0.011087254621088505,-0.00023438179050572217,0.014125382527709007
0.016460150480270386,0.0,-0.011790329590439796,0.011085902340710163,-0.0002523048024158925,0.014353282749652863
0.01640106365084648,0.0,-0.012207632884383202,0.011431371793150902,-0.00025096884928643703,0.014425969682633877
0.016538243740797043,0.0,-0.012472487986087799,0.011503920890390873,-0.00024190061958506703,0.014650484547019005
0.01709906756877899,0.0,-0.011981964111328125,0.011989695020020008,-0.00023299039457924664,0.014530970714986324
0.016761476173996925,0.0,-0.012370144948363304,0.011696637608110905,-0.00024040679272729903,0.014683414250612259
0.01688927784562111,0.0,-0.012024102732539177,0.011303686536848545,-0.00024686800315976143,0.014665549620985985
0.016972079873085022,0.0,-0.012824845500290394,0.011464468203485012,-0.00023961212718859315,0.014931157231330872
0.01699543558061123,0.0,-0.01232226099818945,0.011237046681344509,-0.00023195486573968083,0.015382981859147549
0.017201993614435196,0.0,-0.013242870569229126,0.01208433322608471,-0.00022471883858088404,0.015357034280896187
0.017148775979876518,0.0,-0.012376206927001476,0.011859718710184097,-0.0002589114010334015,0.015306602232158184
0.017675813287496567,0.0,-0.012407034635543823,0.011173413135111332,-0.0002506498422008008,0.01529533788561821
0.017675813287496567,0.0,-0.012407034635543823,0.011173413135111332,-0.0002506498422008008,0.01529533788561821
0.01737409457564354,0.0,-0.012977485544979572,0.011452719569206238,-0.00023780390620231628,0.01484907977283001
0.017209907993674278,0.00028136203764006495,-0.01257964875549078,0.011171485297381878,-0.00022588847787119448,0.01446769293397665
0.018460094928741455,0.00028914594440720975,-0.012797629460692406,0.010890481062233448,-0.0002523448201827705,0.01507662981748581
0.017669199034571648,0.00025651074247434735,-0.012818306684494019,0.010610349476337433,-0.0002355576289119199,0.015915920957922935
0.017664259299635887,0.00024267575645353645,-0.012612882070243359,0.01122443750500679,-0.0002583348541520536,0.01555719505995512
0.016946665942668915,0.00023025681730359793,-0.013016237877309322,0.011228146962821484,-0.0002524575684219599,0.014967693947255611
0.017711497843265533,0.0002477594534866512,-0.013324909843504429,0.011010948568582535,-0.00024301015946548432,0.014757380820810795
0.018028736114501953,0.0002504520525690168,-0.012754198163747787,0.011356049217283726,-0.00023400170903187245,0.015491360798478127
0.018415622413158417,0.00023953229538165033,-0.012740804813802242,0.01241877768188715,-0.00025357495178468525,0.015197096392512321
0.018067674711346626,0.00026603066362440586,-0.012279720976948738,0.011244354769587517,-0.0002486575103830546,0.015972675755620003
0.017195921391248703,0.0002566631301306188,-0.013099181465804577,0.010130617767572403,-0.00024059809220489115,0.015498330816626549
0.018395021557807922,0.0002466345322318375,-0.012722455896437168,0.010032489895820618,-0.0002854025224223733,0.015214752405881882
0.018721241503953934,0.0002698736498132348,-0.013382973149418831,0.011147597804665565,-0.00028496450977399945,0.015669776126742363
0.01839269883930683,0.0002613822289276868,-0.013255096040666103,0.011535023339092731,-0.00031562414369545877,0.014787253923714161
0.018543146550655365,0.00025224205455742776,-0.012825015932321548,0.011341641657054424,-0.0003042736789211631,0.01460765115916729
0.019023733213543892,0.0002847772848326713,-0.012953799217939377,0.012021003291010857,-0.0003331991611048579,0.015189364552497864
0.0176275335252285,0.00027299916837364435,-0.013076446950435638,0.011250271461904049,-0.00035292873508296907,0.015855439007282257
0.01802157238125801,0.0003068216610699892,-0.013486610725522041,0.011440704576671124,-0.00034669111482799053,0.015688542276620865
0.01847522333264351,0.00029219401767477393,-0.01287239883095026,0.01091792806982994,-0.0005737977335229516,0.01598248817026615
0.01864287443459034,0.00031792858499102294,-0.012941496446728706,0.010938829742372036,-0.0005406853160820901,0.015629541128873825
0.019178777933120728,0.0003075544082093984,-0.012318183667957783,0.011697049252688885,-0.00048471640911884606,0.015677278861403465
0.01899489015340805,0.0003334921202622354,-0.013101435266435146,0.010994984768331051,-0.00043765935697592795,0.015207283198833466
0.019032582640647888,0.000320270424708724,-0.01274015661329031,0.010838953778147697,-0.0003988312091678381,0.015560848638415337
0.019095655530691147,0.0005146889016032219,-0.013113602995872498,0.011606997810304165,-0.00042951328214257956,0.015705257654190063
0.018703963607549667,0.000530966673977673,-0.012848340906202793,0.011272305622696877,-0.0004058211634401232,0.015701688826084137
0.018703963607549667,0.000530966673977673,-0.012848340906202793,0.011272305622696877,-0.0004058211634401232,0.015701688826084137
0.01923324353992939,0.000517169595696032,-0.013102540746331215,0.011611315421760082,-0.0003532565897330642,0.015754789113998413
0.019087934866547585,0.0005005801795050502,-0.012463628314435482,0.011979129165410995,-0.00033155761775560677,0.015681203454732895
0.019002536311745644,0.0004938982892781496,-0.012897871434688568,0.011462591588497162,-0.00034425873309373856,0.015790535137057304
0.019002536311745644,0.0004938982892781496,-0.012897871434688568,0.011462591588497162,-0.00034425873309373856,0.015790535137057304
0.018841257318854332,0.0005720580811612308,-0.013498055748641491,0.01146206259727478,-0.0003266116254962981,0.015739858150482178
0.01937972754240036,0.0006019897409714758,-0.013018639758229256,0.01138144638389349,-0.00034893202246166766,0.015774892643094063
0.01931331679224968,0.0006323795532807708,-0.013096464797854424,0.011653895489871502,-0.0003378191322553903,0.01551482267677784
0.01920684240758419,0.0006382649880833924,-0.012890785001218319,0.011886787600815296,-0.0003230058355256915,0.015865346416831017
0.019245481118559837,0.0006104568019509315,-0.013204560615122318,0.011687463149428368,-0.0002907811140175909,0.01590815745294094
0.019612664356827736,0.0007578032673336565,-0.01297624409198761,0.01179918646812439,-0.0002571642107795924,0.01633593440055847
0.019640201702713966,0.0006712244939990342,-0.013145850040018559,0.011371933855116367,-0.00024220263003371656,0.016004957258701324
0.019520806148648262,0.0006993993301875889,-0.01333783008158207,0.011461572721600533,-0.0002297594619449228,0.01585513912141323
0.01967744156718254,0.0006876984261907637,-0.01311213057488203,0.011723906733095646,-0.00021859051776118577,0.016018396243453026
0.019098646938800812,0.0006488350918516517,-0.013388658873736858,0.011647519655525684,-0.0002445732243359089,0.01590285263955593
0.019419508054852486,0.0006739008240401745,-0.012648865580558777,0.011516693979501724,-0.00023871117446105927,0.016189847141504288
0.019746161997318268,0.0007789253140799701,-0.013335037976503372,0.011305945925414562,-0.00024757342180237174,0.015687139704823494
0.019793832674622536,0.0008234903216362,-0.012531149201095104,0.011425398290157318,-0.00025495351292192936,0.016107795760035515
0.019628755748271942,0.0008413452305831015,-0.013468039222061634,0.011402299627661705,-0.0002721345517784357,0.01723962277173996
0.01997399516403675,0.0011256501311436296,-0.013209991157054901,0.011259003542363644,-0.00027019725530408323,0.01618283800780773
0.019754694774746895,0.001094467588700354,-0.01336590014398098,0.011393467895686626,-0.000327484798617661,0.01597326621413231
0.019625801593065262,0.0010615626815706491,-0.013144484721124172,0.011636792682111263,-0.0003638418857008219,0.015898406505584717
0.019911786541342735,0.0010343539761379361,-0.012929259799420834,0.011609398759901524,-0.0003404247108846903,0.016386013478040695
0.020114334300160408,0.0009433292434550822,-0.01348820049315691,0.011719676665961742,-0.0003714246558956802,0.016534825786948204
0.019828109070658684,0.0009473760146647692,-0.013236702419817448,0.011679806746542454,-0.00035451340954750776,0.0165114626288414
0.019970092922449112,0.0009403485455550253,-0.013490892015397549,0.012285776436328888,-0.0003331229090690613,0.016127614304423332
0.019971655681729317,0.000935032672714442,-0.012555345892906189,0.012041316367685795,-0.0003624614037107676,0.016667867079377174
0.020295362919569016,0.0011265864595770836,-0.013216863386332989,0.012345141731202602,-0.0003715677303262055,0.016749924048781395
0.020746499300003052,0.0011368881678208709,-0.013522657565772533,0.011818629689514637,-0.000418091774918139,0.016858495771884918
0.020130818709731102,0.0013953244779258966,-0.013035880401730537,0.01199254859238863,-0.00043775708763860166,0.016641730442643166
0.020130818709731102,0.0013953244779258966,-0.013035880401730537,0.01199254859238863,-0.00043775708763860166,0.016641730442643166
0.019956305623054504,0.0013620262034237385,-0.013581938110291958,0.0116206593811512,-0.0004773262480739504,0.016747387126088142
0.01961340755224228,0.0013183025876060128,-0.01330091618001461,0.012009885162115097,-0.0004974904004484415,0.01687711291015148
0.019764281809329987,0.0014299299800768495,-0.013584986329078674,0.011493483558297157,-0.0005100647686049342,0.016948701813817024
0.020172154530882835,0.0014917331282049417,-0.013407394289970398,0.011550938710570335,-0.0005056149093434215,0.017185496166348457
0.020435819402337074,0.0016078246990218759,-0.01308854017406702,0.011927977204322815,-0.00047434255247935653,0.01682552881538868
0.01999247819185257,0.0015136139700189233,-0.013645049184560776,0.011618099175393581,-0.000582252920139581,0.016942637041211128
0.019320163875818253,0.001500707701779902,-0.01353556476533413,0.011911533772945404,-0.0006102691404521465,0.017028752714395523
0.020040804520249367,0.0016795545816421509,-0.01376050990074873,0.01188335008919239,-0.0005938741960562766,0.017158422619104385
0.02030624821782112,0.0016146793495863676,-0.013495395891368389,0.011717081069946289,-0.0006151554407551885,0.017312869429588318
0.020253997296094894,0.001899546361528337,-0.014459456317126751,0.01210072636604309,-0.0005701295449398458,0.017435651272535324
0.02012627013027668,0.001773129915818572,-0.013331630267202854,0.011611783877015114,-0.0005928699392825365,0.017590725794434547
0.02063164673745632,0.001965960953384638,-0.013822847977280617,0.012071075849235058,-0.00055606325622648,0.017217867076396942
0.019641999155282974,0.001801388105377555,-0.013517030514776707,0.011925985105335712,-0.0005984079907648265,0.017295807600021362
0.01976948417723179,0.00198325514793396,-0.014281501062214375,0.011812514625489712,-0.0005861311801709235,0.017551150172948837
0.020277267321944237,0.0018520050216466188,-0.01355154998600483,0.0115080326795578,-0.0005704403156414628,0.017200442031025887
0.020617986097931862,0.002109101740643382,-0.01422369759529829,0.011163773946464062,-0.0005186324706301093,0.018520237877964973
0.019592752680182457,0.0023886465933173895,-0.013801010325551033,0.011333177797496319,-0.0005311206914484501,0.017546309158205986
0.021203666925430298,0.002239000052213669,-0.014520366676151752,0.01156542543321848,-0.0005063028074800968,0.01711907424032688
0.020619628950953484,0.0021970842499285936,-0.0142296701669693,0.011731860227882862,-0.000518995919264853,0.017268043011426926
0.020136622712016106,0.002186110010370612,-0.01445253286510706,0.011937960982322693,-0.0004984489642083645,0.01777581125497818
0.01998079940676689,0.0025634735357016325,-0.013377080671489239,0.0119359465315938,-0.0004914364544674754,0.018006471917033195
0.02058655209839344,0.0028684106655418873,-0.014229996129870415,0.011996244080364704,-0.0004513681342359632,0.018642056733369827
0.02058655209839344,0.0028684106655418873,-0.014229996129870415,0.011996244080364704,-0.0004513681342359632,0.018642056733369827
0.02096955105662346,0.0028862864710390568,-0.014077863655984402,0.01166531816124916,-0.00041737008723430336,0.01789906993508339
0.0208286065608263,0.002975374460220337,-0.014262097887694836,0.011728843674063683,-0.00044759688898921013,0.01719280332326889
0.02084995061159134,0.0031911185942590237,-0.01399364322423935,0.01247081346809864,-0.00045083396253176033,0.01740271784365177
0.02084995061159134,0.0031911185942590237,-0.01399364322423935,0.01247081346809864,-0.00045083396253176033,0.01740271784365177
0.02060108073055744,0.002948266454041004,-0.01473014336079359,0.011155078187584877,-0.00044980572420172393,0.0176687128841877
0.020977118983864784,0.0028325864113867283,-0.014022431336343288,0.010902324691414833,-0.0005047093727625906,0.01838245987892151
0.02095082402229309,0.002436440670862794,-0.014044770039618015,0.011392463929951191,-0.00047858955804258585,0.018333040177822113
0.020812034606933594,0.002493693493306637,-0.013673721812665462,0.011708645150065422,-0.0005147580523043871,0.017912935465574265
0.020657259970903397,0.0026823924854397774,-0.014266646467149258,0.012653261423110962,-0.0004748346982523799,0.01804877072572708
0.020760834217071533,0.003137701889500022,-0.014046156778931618,0.012569003738462925,-0.00043674433254636824,0.017702803015708923
0.02047697827219963,0.0035191180650144815,-0.014374702237546444,0.01277086790651083,-0.00046218803618103266,0.018494559451937675
0.02043602429330349,0.003301307326182723,-0.013955775648355484,0.012313710525631905,-0.00043796401587314904,0.01851971261203289
0.02112087421119213,0.003059607930481434,-0.014262791723012924,0.01240616012364626,-0.00046058458974584937,0.018171366304159164
0.0209506768733263,0.002733227564021945,-0.013916915282607079,0.012485208921134472,-0.0004394106799736619,0.01785256899893284
0.020773811265826225,0.0030246281530708075,-0.014094273559749126,0.011975914239883423,-0.00045646834769286215,0.01735684648156166
0.020969178527593613,0.0031197317875921726,-0.013873566873371601,0.013213038444519043,-0.00042822567047551274,0.01728864386677742
0.02132672630250454,0.0031447596848011017,-0.014360833913087845,0.012695970945060253,-0.00046467818901874125,0.018259575590491295
0.021265145391225815,0.002871614182367921,-0.01418648287653923,0.012664217501878738,-0.00043227014248259366,0.01851077750325203
0.020791832357645035,0.002859441563487053,-0.013971147127449512,0.012258326634764671,-0.0004005010996479541,0.01865459606051445
0.021228550001978874,0.002911058021709323,-0.014192196540534496,0.01214598398655653,-0.00037284844438545406,0.020056193694472313
0.02096579782664776,0.0033112652599811554,-0.013648913241922855,0.011580483987927437,-0.0003816690878011286,0.018125129863619804
0.02096579782664776,0.0033112652599811554,-0.013648913241922855,0.011580483987927437,-0.0003816690878011286,0.018125129863619804
0.02110210247337818,0.0030987418722361326,-0.01421185303479433,0.011776048690080643,-0.00037671299651265144,0.018883857876062393
0.02110210247337818,0.0030987418722361326,-0.01421185303479433,0.011776048690080643,-0.00037671299651265144,0.018883857876062393
0.0211637020111084,0.003307079430669546,-0.013750545680522919,0.011782266199588776,-0.0003686716954689473,0.01978200674057007
0.02131825126707554,0.003428660100325942,-0.014274384826421738,0.011942277662456036,-0.0003514097770676017,0.019502492621541023
0.021696485579013824,0.003389926627278328,-0.013562641106545925,0.01205907016992569,-0.0003528711386024952,0.018651561811566353
0.021866053342819214,0.0031625893898308277,-0.014155889861285686,0.012694132514297962,-0.00033375798375345767,0.01864122413098812
0.021799767389893532,0.0034017835278064013,-0.013853023760020733,0.012261319905519485,-0.0003413445083424449,0.01839812844991684
0.02129499986767769,0.0034137326292693615,-0.014537681825459003,0.012307962402701378,-0.0003471421077847481,0.018465988337993622
0.020891420543193817,0.0034409917425364256,-0.013675397261977196,0.01216417457908392,-0.00036813391488976777,0.01901116780936718
0.021742239594459534,0.0036141276359558105,-0.014215055853128433,0.012415913864970207,-0.00035980602842755616,0.018553484231233597
0.021846119314432144,0.003777934703975916,-0.01358203124254942,0.012023668736219406,-0.0003411468933336437,0.018043700605630875
0.021590543910861015,0.0038079472724348307,-0.014341045171022415,0.011415092274546623,-0.0003236678894609213,0.018430789932608604
0.02113635279238224,0.003710854798555374,-0.013770608231425285,0.011808223091065884,-0.0003488095826469362,0.01876516081392765
0.022074967622756958,0.0031799189746379852,-0.014526722021400928,0.012031028978526592,-0.0003352360799908638,0.019100412726402283
0.02216390147805214,0.0031030767131596804,-0.013981420546770096,0.01155081670731306,-0.00032048532739281654,0.019024254754185677
0.022281941026449203,0.0033714210148900747,-0.014970347285270691,0.011802775785326958,-0.00034920030157081783,0.018730567768216133
0.02208619751036167,0.00372829707339406,-0.013943384401500225,0.011656918562948704,-0.0003617970214691013,0.018696803599596024
0.02206912450492382,0.003853260539472103,-0.01463457103818655,0.012539231218397617,-0.00033732905285432935,0.01893061213195324
0.021466141566634178,0.003804935608059168,-0.013730975799262524,0.011861310340464115,-0.00031395352561958134,0.01869375631213188
0.021466141566634178,0.003804935608059168,-0.013730975799262524,0.011861310340464115,-0.00031395352561958134,0.01869375631213188
0.021604156121611595,0.003758416511118412,-0.014586333185434341,0.012016830034554005,-0.00029347732197493315,0.01930803619325161
0.022010769695043564,0.003908941522240639,-0.013896765187382698,0.012618059292435646,-0.0003160744672641158,0.019264141097664833
0.022550536319613457,0.003631437197327614,-0.01457893569022417,0.011966662481427193,-0.0003105707000941038,0.018724452704191208
0.022377189248800278,0.0035464672837406397,-0.014045127667486668,0.012174011208117008,-0.00029446021653711796,0.018126482143998146
0.02235288918018341,0.0037914791610091925,-0.014005453325808048,0.012380333617329597,-0.00030939423595555127,0.01895705983042717
0.022605840116739273,0.0039772349409759045,-0.014644606038928032,0.012281748466193676,-0.0003263956750743091,0.019041741266846657
0.02262476459145546,0.0038364941719919443,-0.01407084334641695,0.012414857745170593,-0.00032162602292373776,0.019338922575116158
0.02260895073413849,0.003720826469361782,-0.014245753176510334,0.012218475341796875,-0.00033671880373731256,0.019009530544281006
0.022388746961951256,0.0036794431507587433,-0.01390499621629715,0.011920388787984848,-0.0003397623950149864,0.019620269536972046
0.022347068414092064,0.0035226636100560427,-0.014540914446115494,0.01280030608177185,-0.0003767225134652108,0.01976492814719677
0.022655587643384933,0.003611819352954626,-0.013974692672491074,0.012656440027058125,-0.0004071531293448061,0.020338134840130806
0.022885775193572044,0.0037774969823658466,-0.014247112907469273,0.012610850855708122,-0.00044106310815550387,0.019697977229952812
