davideferrari95/blind_handover_controller/data/Test 82 - [2024-02-07 -- 16-06-15]/joint_states_data.csv
shoulder_pan_joint,shoulder_lift_joint,elbow_joint,wrist_1_joint,wrist_2_joint,wrist_3_joint
0.005654698703438044,0.006371963303536177,-0.008880768902599812,0.003254211973398924,0.0,0.006014480255544186
0.005305020604282618,0.0067335073836147785,-0.008578003384172916,0.0033519668504595757,0.0,0.005800176411867142
0.005305020604282618,0.0067335073836147785,-0.008578003384172916,0.0033519668504595757,0.0,0.005800176411867142
0.005317098926752806,0.006398053374141455,-0.009251684881746769,0.0034809487406164408,0.0,0.005878412630409002
0.004940459970384836,0.00629425048828125,-0.00884021446108818,0.0031707617454230785,0.0,0.006001701578497887
0.004980012774467468,0.006715848110616207,-0.008494840003550053,0.0026423062663525343,0.0,0.006842772476375103
0.005414250306785107,0.006600766908377409,-0.009236658923327923,0.002517780987545848,0.0,0.005909061525017023
0.00606188690289855,0.006861911155283451,-0.009336811490356922,0.0025505954399704933,0.0,0.005794812925159931
0.0056977542117238045,0.00689880782738328,-0.00906557496637106,0.0027317600324749947,0.0,0.005925688426941633
0.0056977542117238045,0.00689880782738328,-0.00906557496637106,0.0027317600324749947,0.0,0.005925688426941633
0.005848988890647888,0.006442474666982889,-0.009389154613018036,0.002824789844453335,0.0,0.006086674518883228
0.00559206074103713,0.006437121424823999,-0.009326232597231865,0.002941426122561097,0.0,0.005719722714275122
0.0061853681690990925,0.006324119865894318,-0.009295828640460968,0.0025886455550789833,0.0,0.00599063141271472
0.006662093568593264,0.0061637056060135365,-0.008856084197759628,0.002435888396576047,0.0,0.006323669105768204
0.00669714855030179,0.006128251552581787,-0.008979850448668003,0.002514049643650651,0.0,0.006468774285167456
0.006569612771272659,0.00635953014716506,-0.008527486585080624,0.002823640126734972,0.0,0.006120015867054462
0.006527246441692114,0.005974160972982645,-0.008322756737470627,0.0033615371212363243,0.0,0.006114352960139513
0.006876915227621794,0.006107460707426071,-0.00841896515339613,0.0034465384669601917,0.0,0.005944706965237856
0.007118260953575373,0.005493560805916786,-0.008324997499585152,0.003407645272091031,0.0,0.006302271969616413
0.006484938319772482,0.005369118414819241,-0.007806058041751385,0.0036315664183348417,0.0,0.006287104915827513
0.006178829353302717,0.005231185350567102,-0.007727645803242922,0.004276566673070192,0.0,0.005893468391150236
0.0062891156412661076,0.005187467206269503,-0.007111577317118645,0.004065750632435083,0.0,0.0059959557838737965
0.006627787370234728,0.004766725469380617,-0.00719843152910471,0.0033460280392318964,0.0,0.005672032479196787
0.007267476990818977,0.004611213691532612,-0.008071881718933582,0.0030175175052136183,0.0,0.0053940340876579285
0.006323785521090031,0.004607304465025663,-0.00789761170744896,0.002862910507246852,0.0,0.005722461733967066
0.006338580045849085,0.004686310887336731,-0.00787045806646347,0.002879571868106723,0.0,0.006119408179074526
0.00680876849219203,0.004751682747155428,-0.00773618696257472,0.0030242004431784153,0.0,0.00628719013184309
0.0068785506300628185,0.004776534624397755,-0.007653521839529276,0.003182494780048728,0.0,0.005932108033448458
0.0065691000781953335,0.004569630138576031,-0.008269163779914379,0.0029248979408293962,4.714356691692956e-05,0.0061654336750507355
0.0063838348723948,0.004542557522654533,-0.008337623439729214,0.002702810103073716,5.468524977914058e-05,0.0061171893030405045
0.0064695412293076515,0.004974172450602055,-0.008396538905799389,0.002391262911260128,5.393297033151612e-05,0.006043172907084227
0.006186940241605043,0.005600063130259514,-0.008622829802334309,0.002451325999572873,5.329643681761809e-05,0.005845468956977129
0.005899192299693823,0.005436290055513382,-0.008598790504038334,0.002416356699541211,5.267275628284551e-05,0.005699341185390949
0.005600054282695055,0.005274389870464802,-0.007797525729984045,0.0026032901369035244,5.2063376642763615e-05,0.0056479391641914845
0.005788429174572229,0.005288176704198122,-0.007377639878541231,0.0028022516053169966,5.1467934099491686e-05,0.005638617556542158
0.005957253277301788,0.005133896134793758,-0.008240769617259502,0.0033526078332215548,5.088590842206031e-05,0.005860536824911833
0.0055967760272324085,0.005354616791009903,-0.007729439064860344,0.0036833356134593487,5.031692853663117e-05,0.0061535960994660854
0.0057310680858790874,0.0052540791220963,-0.006819122936576605,0.00417536124587059,4.976056516170502e-05,0.006235939916223288
0.0057310680858790874,0.0052540791220963,-0.006819122936576605,0.00417536124587059,4.976056516170502e-05,0.006235939916223288
0.005239356309175491,0.005803962703794241,-0.0067924135364592075,0.004231246188282967,3.249009296268923e-06,0.006095692049711943
0.005887587554752827,0.005305103957653046,-0.0073929778300225735,0.0040093823336064816,2.121370954455415e-07,0.006102703511714935
0.0055832043290138245,0.004897715523838997,-0.007262487430125475,0.003838879521936178,1.3851036761991509e-08,0.005779666360467672
0.005868655163794756,0.005254720337688923,-0.0070710331201553345,0.0033566562924534082,9.043737980718447e-10,0.006056220270693302
0.006102641113102436,0.005226249806582928,-0.007053649052977562,0.002792580286040902,5.904914751608814e-11,0.005645068362355232
0.005999178625643253,0.005744285881519318,-0.0075777932070195675,0.002760606352239847,3.855487543807934e-12,0.005663361866027117
0.006209457293152809,0.005295951850712299,-0.00748411426320672,0.002689678454771638,2.517357795741443e-13,0.005469136405736208
0.006173396483063698,0.005158306565135717,-0.007398545276373625,0.002691652625799179,1.6436548980593504e-14,0.00574802840128541
0.006400225218385458,0.005544942803680897,-0.007458008825778961,0.0026161393616348505,1.0731891559844224e-15,0.00639627780765295
0.006846021395176649,0.005213883705437183,-0.00820869766175747,0.002828417345881462,7.007158142011025e-17,0.0062114158645272255
0.006122230086475611,0.005730470642447472,-0.008375952951610088,0.002961742226034403,4.575173604748667e-18,0.006139324512332678
0.00632153544574976,0.0056043569929897785,-0.008348271250724792,0.0031442842446267605,2.9872614526102217e-19,0.0059447442181408405
0.006357201375067234,0.0053687491454184055,-0.008985315449535847,0.00326479016803205,1.950468135269171e-20,0.005983954761177301
0.006534921005368233,0.005048385821282864,-0.008541720919311047,0.003194031771272421,1.2735162447044526e-21,0.006034738849848509
0.006222548428922892,0.0057450649328529835,-0.008025716990232468,0.0031972022261470556,8.315151823461637e-23,0.006149923428893089
0.006373490206897259,0.005429826211184263,-0.008030892349779606,0.003174923360347748,5.429199890538368e-24,0.0060306149534881115
0.006193384528160095,0.0060264719650149345,-0.009052869863808155,0.003319844137877226,3.5448793513693397e-25,0.005993660073727369
0.005811635870486498,0.005458591505885124,-0.008037356659770012,0.0033928288612514734,2.3145528708062387e-26,0.0061041186563670635
0.00557377003133297,0.0055167763493955135,-0.007534187752753496,0.004187820479273796,9.867301652983165e-29,0.0064435373060405254
0.005947045981884003,0.005221873987466097,-0.007674407213926315,0.003988796379417181,6.442643419455717e-30,0.006174152251332998
0.006430171430110931,0.005728248506784439,-0.0070197382010519505,0.0038123680278658867,4.206585997835671e-31,0.005933369509875774
0.006430171430110931,0.005728248506784439,-0.0070197382010519505,0.0038123680278658867,4.206585997835671e-31,0.005933369509875774
0.00577337434515357,0.005470338277518749,-0.008136792108416557,0.003803597530350089,2.7465998560458773e-32,0.005701192654669285
0.005786202847957611,0.004983617924153805,-0.008018476888537407,0.003425038419663906,1.1709185324318454e-34,0.005613666493445635
0.006325560621917248,0.004835766274482012,-0.007590436842292547,0.0032019000500440598,7.64526128979913e-36,0.005710767116397619
0.006390120834112167,0.005180107895284891,-0.007463896181434393,0.003468229668214917,4.991809422015855e-37,0.006018130574375391
0.006390120834112167,0.005180107895284891,-0.007463896181434393,0.003468229668214917,4.991809422015855e-37,0.006018130574375391
0.006033174693584442,0.005013682879507542,-0.008574895560741425,0.0034005464985966682,3.259294671677121e-38,0.005472708493471146
0.00641451682895422,0.004819979891180992,-0.008485325612127781,0.0032591051422059536,2.1280861167422764e-39,0.00596658606082201
0.006361117586493492,0.0049406178295612335,-0.008013872429728508,0.003145047929137945,1.3894855182705589e-40,0.005620215088129044
0.007181614171713591,0.0048442077822983265,-0.00817162450402975,0.0030664228834211826,9.072006258038866e-42,0.005886698607355356
0.006750171538442373,0.004744314588606358,-0.008517302572727203,0.003441251115873456,5.927492504093976e-43,0.006097237579524517
0.006523560732603073,0.004260608926415443,-0.008429323323071003,0.0033105392940342426,3.923635700109488e-44,0.006020623724907637
0.006578346248716116,0.004209525417536497,-0.007854162715375423,0.003169877687469125,2.802596928649634e-45,0.006119356490671635
0.006628190167248249,0.004764261655509472,-0.007816019468009472,0.0030863231513649225,0.0,0.005704408977180719
0.006490685977041721,0.004319476429373026,-0.00782526470720768,0.0031158027704805136,0.0,0.005985456984490156
0.006807488389313221,0.004316628444939852,-0.007642126176506281,0.003438822226598859,0.0,0.005905479658395052
0.006614740006625652,0.004216728266328573,-0.007559238001704216,0.0037066286895424128,0.0,0.005880122072994709
0.006362336687743664,0.004013868980109692,-0.008580734021961689,0.0035476330667734146,0.0,0.0055669634602963924
0.006060365587472916,0.004379285965114832,-0.007822961546480656,0.0030399139504879713,0.0,0.005923812743276358
0.0068177892826497555,0.004128851927816868,-0.00803402904421091,0.0030993414111435413,0.0,0.005975482054054737
0.006991798523813486,0.0042915306985378265,-0.007735676132142544,0.0034037986770272255,0.0,0.005920469295233488
0.006992037873715162,0.0045320927165448666,-0.008190127089619637,0.003507977118715644,0.0,0.005867681931704283
0.006930140778422356,0.004130414687097073,-0.007910458371043205,0.0030411877669394016,0.0,0.005453211255371571
0.00776786869391799,0.004411087371408939,-0.007591757923364639,0.0027638343162834644,0.0,0.005812372080981731
0.007079282775521278,0.004151216708123684,-0.009015044197440147,0.0030018987599760294,0.0,0.005578367970883846
0.006790101062506437,0.004442389123141766,-0.008742302656173706,0.0033454345539212227,0.0,0.005815477576106787
0.007223865948617458,0.004764075390994549,-0.008177453652024269,0.003568708198145032,0.0,0.006016961298882961
0.007291889283806086,0.004746307153254747,-0.00846131145954132,0.003379975212737918,0.0,0.005631973966956139
0.007291889283806086,0.004746307153254747,-0.00846131145954132,0.003379975212737918,0.0,0.005631973966956139
0.007124737836420536,0.004680586978793144,-0.008105520159006119,0.003307448700070381,0.0,0.005903060082346201
0.006414695642888546,0.004660150967538357,-0.0077164871618151665,0.0034830919466912746,0.0,0.00565620232373476
0.0071140797808766365,0.005110099911689758,-0.00806876365095377,0.00360521930269897,0.0,0.00577847333624959
0.007741174660623074,0.004945579916238785,-0.008747921325266361,0.0035905216354876757,0.0,0.0055610849522054195
0.007742473389953375,0.004810627084225416,-0.008424158208072186,0.003440544242039323,0.0,0.00546850124374032
0.006785058882087469,0.004977287258952856,-0.008015849627554417,0.0032929477747529745,0.0,0.005619056057184935
0.006479467265307903,0.004765951074659824,-0.008662448264658451,0.0034744609147310257,0.0,0.005915551912039518
0.007088195998221636,0.004727477673441172,-0.00850821752101183,0.0035828067921102047,0.0,0.005800788756459951
0.007341764867305756,0.004770589526742697,-0.008074472658336163,0.003628907259553671,0.0,0.005798585247248411
0.006832723505795002,0.005133410450071096,-0.00875365361571312,0.0033054035156965256,0.0,0.005228071939200163
0.006625555455684662,0.005355609580874443,-0.008977750316262245,0.0031175182666629553,0.0,0.0051835644990205765
0.007405897602438927,0.005429071839898825,-0.008970233611762524,0.003055088222026825,0.0,0.005253999959677458
0.00747948233038187,0.005053873639553785,-0.0086003253236413,0.0031239537056535482,0.0,0.005844370927661657
0.0074394745752215385,0.005202306434512138,-0.00884963572025299,0.0035347389057278633,0.0,0.005456448998302221
0.006502216216176748,0.00546029070392251,-0.008760451339185238,0.003466949565336108,0.0,0.005722363479435444
0.006647248286753893,0.005171508062630892,-0.008707488887012005,0.0034736832603812218,0.0,0.005360445939004421
0.006953528616577387,0.005476950202137232,-0.009375502355396748,0.0032068130094558,0.0,0.005089316517114639
0.0069303023628890514,0.005398666486144066,-0.008973467163741589,0.0029426347464323044,0.0,0.005519714206457138
0.007183568086475134,0.004955474752932787,-0.008386674337089062,0.003183426335453987,0.0,0.0054977755062282085
0.007033308036625385,0.0051542059518396854,-0.008463498204946518,0.0033548532519489527,0.0,0.0056069595739245415
0.007405189797282219,0.004897003062069416,-0.008772593922913074,0.0038501855451613665,0.0,0.0054306285455822945
0.006564690265804529,0.005495995748788118,-0.008036335930228233,0.003988184034824371,0.0,0.0052974591962993145
0.006229580845683813,0.00536503829061985,-0.008132935501635075,0.0039011812768876553,0.0,0.005550983361899853
0.007307478226721287,0.005213536787778139,-0.00836699828505516,0.003698238404467702,0.0,0.005307036451995373
0.006660930812358856,0.004988475237041712,-0.007918516173958778,0.00368499755859375,0.0,0.0054889521561563015
0.006660930812358856,0.004988475237041712,-0.007918516173958778,0.00368499755859375,0.0,0.0054889521561563015
0.006760791409760714,0.005002692341804504,-0.008356629870831966,0.003783927299082279,0.0,0.005315440706908703
0.006905191577970982,0.005394371226429939,-0.00838976539671421,0.0036448417231440544,0.0,0.00572439469397068
0.006905191577970982,0.005394371226429939,-0.00838976539671421,0.0036448417231440544,0.0,0.00572439469397068
0.007260610349476337,0.004900688771158457,-0.008054094389081001,0.0035949572920799255,0.0,0.00533629534766078
0.0064591760747134686,0.004910558927804232,-0.008682413026690483,0.003690457670018077,0.0,0.004960464779287577
0.0064591760747134686,0.004910558927804232,-0.008682413026690483,0.003690457670018077,0.0,0.004960464779287577
0.006215113680809736,0.0045131840743124485,-0.008144386112689972,0.0036239181645214558,0.0,0.005207785405218601
0.008087744005024433,0.004533309023827314,-0.008309334516525269,0.0036042160354554653,0.0,0.005558274686336517
0.008427287451922894,0.00461457809433341,-0.009224478155374527,0.0034583236556500196,0.0,0.0052243806421756744
0.00717908563092351,0.005052441265434027,-0.00815983023494482,0.0036007179878652096,0.0,0.005079770926386118
0.007193909492343664,0.004511205479502678,-0.008109461516141891,0.003405212191864848,0.0,0.00495733181014657
0.00740686384961009,0.0045176618732512,-0.00911770574748516,0.0035146200098097324,0.0,0.004877910949289799
0.008032450452446938,0.0044922358356416225,-0.008482791483402252,0.00395716167986393,0.0,0.005106824450194836
0.0071471878327429295,0.004705057479441166,-0.00791316106915474,0.004263147246092558,0.0,0.005103771109133959
0.00765375467017293,0.005371122620999813,-0.008200480602681637,0.004268457181751728,0.0,0.00529753090813756
0.00779756112024188,0.005369151011109352,-0.0083836130797863,0.0037001643795520067,0.0,0.005259884987026453
0.007693621329963207,0.005311117973178625,-0.008295129984617233,0.003565669059753418,0.0,0.004968886263668537
0.007603978738188744,0.004548436496406794,-0.00788668729364872,0.0037384829483926296,0.0,0.004905692767351866
0.006823460105806589,0.004610162228345871,-0.008606389164924622,0.003807582426816225,0.0,0.004772338084876537
0.007249507587403059,0.005077776499092579,-0.008565687574446201,0.003457629354670644,0.0,0.004727818071842194
0.007359679322689772,0.005452479235827923,-0.007832705974578857,0.003456967882812023,0.0,0.004702053032815456
0.007166218478232622,0.005385179538279772,-0.008163277059793472,0.0036713327281177044,0.0,0.004380546975880861
0.007062880787998438,0.005227055866271257,-0.008737652562558651,0.004196809139102697,0.0,0.004356918856501579
0.007006618194282055,0.005061467178165913,-0.008572456426918507,0.003749230643734336,0.0,0.004620888736099005
0.007069642189890146,0.005698158405721188,-0.008544431999325752,0.00326029141433537,0.0,0.004755524452775717
0.007159124128520489,0.005392795894294977,-0.009264418855309486,0.003189429407939315,0.0,0.005112223327159882
0.0073795076459646225,0.005278663244098425,-0.008125999011099339,0.0032208419870585203,0.0,0.004921154119074345
0.0073795076459646225,0.005278663244098425,-0.008125999011099339,0.0032208419870585203,0.0,0.004921154119074345
0.007583555765450001,0.005663124844431877,-0.008435120806097984,0.0034952990245074034,0.0,0.005176322069019079
0.007183691021054983,0.00529567152261734,-0.009596322663128376,0.0035823967773467302,0.0,0.004992608446627855
0.007183691021054983,0.00529567152261734,-0.009596322663128376,0.0035823967773467302,0.0,0.004992608446627855
0.007373422849923372,0.0049814581871032715,-0.008355346508324146,0.003652305342257023,0.0,0.004869089927524328
0.007844395004212856,0.00579804927110672,-0.009035194292664528,0.0037289978936314583,0.0,0.004647676832973957
0.007388568017631769,0.005313985515385866,-0.008884275332093239,0.00344136287458241,0.0,0.004385169595479965
0.00728946179151535,0.005404616240411997,-0.008314521051943302,0.0035777634475380182,0.0,0.004508256912231445
0.007949478924274445,0.005172518081963062,-0.00807200837880373,0.003678848734125495,0.0,0.004360339604318142
0.008505494333803654,0.004894129000604153,-0.008842107839882374,0.004133828915655613,0.0,0.004524218384176493
0.008490217849612236,0.005278374999761581,-0.00817378144711256,0.004188281949609518,0.0,0.004816553555428982
0.008011557161808014,0.005155536811798811,-0.008505966514348984,0.0036031196359544992,0.0,0.004554681479930878
0.007662853226065636,0.005300893448293209,-0.009166186675429344,0.0035944103728979826,0.0,0.004600661341100931
0.00796637125313282,0.005518815480172634,-0.008263600058853626,0.00379364425316453,0.0,0.004176076967269182
0.007819728925824165,0.005217396188527346,-0.00789062213152647,0.004374711308628321,0.0,0.004293903708457947
0.007932038977742195,0.005046215374022722,-0.008052400313317776,0.004164022859185934,0.0,0.004540071822702885
0.008151211775839329,0.005040206480771303,-0.008630497381091118,0.0038170332554727793,0.0,0.004724856466054916
0.008270733058452606,0.00510822469368577,-0.00814827624708414,0.003640674753114581,0.0,0.004700421821326017
0.007996171712875366,0.004918742459267378,-0.008537549525499344,0.003895031288266182,0.0,0.004626760259270668
0.007729994598776102,0.005075900815427303,-0.00904176477342844,0.0040712845511734486,0.0,0.004645205568522215
0.008013840764760971,0.005023274105042219,-0.008130580186843872,0.004373545758426189,0.0,0.0047072540037333965
0.00799434445798397,0.00477275624871254,-0.007713134400546551,0.004232120234519243,0.0,0.004769791848957539
0.007756824139505625,0.004681119229644537,-0.00882525835186243,0.003990847151726484,0.0,0.00482927355915308
0.008153973147273064,0.004639969207346439,-0.008663233369588852,0.0034749123733490705,0.0,0.005612954497337341
0.007742950227111578,0.004692218732088804,-0.008223401382565498,0.0032484284602105618,0.0,0.0047003356739878654
0.007433800492435694,0.0047336481511592865,-0.00822577252984047,0.0032355093862861395,0.0,0.00370620284229517
0.008003267459571362,0.0045161317102611065,-0.008738857693970203,0.003830783534795046,0.0,0.0037780634593218565
0.007718977518379688,0.0046911584213376045,-0.008121668361127377,0.0038373174611479044,0.0,0.004768104292452335
0.007718977518379688,0.0046911584213376045,-0.008121668361127377,0.0038373174611479044,0.0,0.004768104292452335
0.007739265915006399,0.004867760930210352,-0.0086255157366395,0.0038619767874479294,0.0,0.005053495056927204
0.00799628160893917,0.004768809769302607,-0.008522354066371918,0.003978322260081768,5.945758857706096e-06,0.0045077065005898476
0.00883075874298811,0.004268548917025328,-0.008635994046926498,0.0037261112593114376,3.882155681367294e-07,0.004331544972956181
0.008073118515312672,0.004324863664805889,-0.008756238967180252,0.003527234774082899,2.5347700827182962e-08,0.004408504813909531
0.007524790242314339,0.004675701260566711,-0.008930829353630543,0.003650762140750885,1.655023673663436e-09,0.004317603074014187
0.008195462636649609,0.0046530370600521564,-0.008604757487773895,0.003916462883353233,1.080612266335379e-10,0.004320124164223671
0.008286918513476849,0.004321013577282429,-0.008322533220052719,0.004289953503757715,7.055625615010053e-12,0.004336662590503693
0.0079623032361269,0.004505641292780638,-0.008583331480622292,0.00427354546263814,4.60681948317998e-13,0.0044400254264473915
0.008192688226699829,0.004353026859462261,-0.008821796625852585,0.00431805569678545,3.0079237711699847e-14,0.004643253516405821
0.008238701149821281,0.004228578414767981,-0.008580071851611137,0.003999634180217981,1.9639593906240274e-15,0.004656878300011158
0.008342447690665722,0.00494168046861887,-0.008673951961100101,0.003842758946120739,1.2823251640817554e-16,0.004631666466593742
0.008792780339717865,0.004936243407428265,-0.009030659683048725,0.004239839036017656,8.372666739160705e-18,0.004154321271926165
0.008901025168597698,0.004494151100516319,-0.008712004870176315,0.004187329672276974,5.466753433313822e-19,0.003834366798400879
0.008991572074592113,0.004575296770781279,-0.007640914060175419,0.004426243714988232,3.569399049852821e-20,0.0038111312314867973
0.007894636131823063,0.00500840600579977,-0.008299186825752258,0.004208728671073914,2.330562594667724e-21,0.004225298762321472
0.008211185224354267,0.004846952389925718,-0.009556470438838005,0.004182621371001005,1.52169097671922e-22,0.004499389324337244
0.008922955021262169,0.004487294238060713,-0.00874997116625309,0.004065235145390034,9.935554795408462e-24,0.004654472228139639
0.008584403432905674,0.0051244026981294155,-0.008492049761116505,0.0039170533418655396,6.48720702180824e-25,0.004746459890156984
0.008411156944930553,0.004938348196446896,-0.008799390867352486,0.004299258813261986,4.235682935548875e-26,0.004360000137239695
0.008121388033032417,0.004956337623298168,-0.008442948572337627,0.004734008107334375,2.765597844506155e-27,0.003968368750065565
0.00846795178949833,0.005209474824368954,-0.008376440033316612,0.004773248452693224,1.805737832494754e-28,0.0039131068624556065
0.007872690446674824,0.004857228137552738,-0.009176520630717278,0.004469158593565226,1.1790178246092163e-29,0.004170193336904049
0.008138688281178474,0.004663190804421902,-0.00902786385267973,0.0040177395567297935,7.6981432323486425e-31,0.004849334713071585
0.008261177688837051,0.005142848007380962,-0.009114615619182587,0.003845545928925276,5.026336849236123e-32,0.004618077538907528
0.008098024874925613,0.005433803889900446,-0.008787103928625584,0.004315884318202734,3.2818388008317434e-33,0.00440771272405982
0.007949601858854294,0.004914870020002127,-0.008727352134883404,0.004786866717040539,1.3990992911777587e-35,0.004032020457088947
0.008727243170142174,0.00465310737490654,-0.008874834515154362,0.004505265038460493,9.135118947210021e-37,0.004179719369858503
0.008360479958355427,0.004638420883566141,-0.009797814302146435,0.004049275070428848,5.964579829770183e-38,0.004075348377227783
0.008360479958355427,0.004638420883566141,-0.009797814302146435,0.004049275070428848,5.964579829770183e-38,0.004075348377227783
0.00801168568432331,0.004808266181498766,-0.00855999905616045,0.004043474793434143,3.894443850500673e-39,0.0038955716881901026
0.00801168568432331,0.004808266181498766,-0.00855999905616045,0.004043474793434143,3.894443850500673e-39,0.0038955716881901026
0.008553463965654373,0.005140869412571192,-0.008531522005796432,0.004439353011548519,1.6602584205320433e-41,0.004455704241991043
0.008299211040139198,0.004975164774805307,-0.008391830138862133,0.00456719845533371,1.0846050113874084e-42,0.00425763800740242
0.008432868868112564,0.004808690398931503,-0.007643444929271936,0.0046004424802958965,7.146622168056567e-44,0.003981936722993851
0.008422303013503551,0.004728035535663366,-0.009241370484232903,0.004455410875380039,4.203895392974451e-45,0.00389950443059206
0.008248237892985344,0.00450460659340024,-0.009814812801778316,0.004248811397701502,0.0,0.003960050642490387
0.00791838951408863,0.005035250447690487,-0.00878547690808773,0.0043724835850298405,0.0,0.003976340871304274
0.008783586323261261,0.004986092448234558,-0.008629309944808483,0.0046138642355799675,0.0,0.003953258972615004
0.009274757467210293,0.004809768870472908,-0.008942091837525368,0.0048306710086762905,0.0,0.003940816503018141
0.008469062857329845,0.004455654416233301,-0.008126444183290005,0.004771541804075241,0.0,0.004265729337930679
0.009186963550746441,0.004176007583737373,-0.008496849797666073,0.004661040846258402,0.0,0.004325011745095253
0.008525227196514606,0.0044065783731639385,-0.009327415376901627,0.004193822853267193,0.0,0.004051896743476391
0.00860606599599123,0.004663591738790274,-0.00874007772654295,0.0038845662493258715,0.0,0.003843385959044099
0.009105215780436993,0.004715160932391882,-0.008681658655405045,0.0038969528395682573,0.0,0.0037844376638531685
0.009018908254802227,0.005162367131561041,-0.008936483412981033,0.004835858475416899,0.0,0.003393275197595358
0.00884130597114563,0.0048768543638288975,-0.009333648718893528,0.004998504649847746,0.0,0.0035034327302128077
0.00846019759774208,0.004418929107487202,-0.008568544872105122,0.004834047518670559,0.0,0.003780412720516324
0.00862262211740017,0.004040351137518883,-0.008252427913248539,0.004712157417088747,0.0,0.003894404973834753
0.009562274441123009,0.004362381529062986,-0.009909754619002342,0.004393283277750015,0.0,0.0038064776454120874
0.008293998427689075,0.004583402071148157,-0.009344378486275673,0.004068474750965834,0.0,0.0037077057640999556
0.008463112637400627,0.005156057886779308,-0.008563568815588951,0.00433672871440649,0.0,0.0033940488938242197
0.008596427738666534,0.004694705829024315,-0.008892716839909554,0.004369060508906841,0.0,0.0033683846704661846
0.008469941094517708,0.004734514746814966,-0.008548996411263943,0.004790721461176872,0.0,0.003376823617145419
0.008849600329995155,0.004803677089512348,-0.00947634782642126,0.00486381771042943,0.0,0.003491536248475313
0.008604495786130428,0.004856855608522892,-0.009452070109546185,0.004578776191920042,0.0,0.0037351450882852077
0.00846030656248331,0.004830926191061735,-0.008930913172662258,0.004485004115849733,0.0,0.0038575849030166864
0.00846030656248331,0.004830926191061735,-0.008930913172662258,0.004485004115849733,0.0,0.0038575849030166864
0.009298907592892647,0.005522646941244602,-0.0092190932482481,0.004646432586014271,0.0,0.0037810371723026037
0.008518761955201626,0.005299791228026152,-0.009025509469211102,0.004620371386408806,-4.454327790881507e-05,0.003356920089572668
0.008691921830177307,0.00469638966023922,-0.008767449297010899,0.004651220515370369,-7.550319423899055e-05,0.0030855522491037846
0.008931522257626057,0.004934004507958889,-0.00907712522894144,0.00480613624677062,-7.6293021265883e-05,0.003377360524609685
0.009198734536767006,0.004870893899351358,-0.0094120679423213,0.004931593779474497,-7.515404286095873e-05,0.0032481462694704533
0.00913657620549202,0.0048854355700314045,-0.00940998550504446,0.004807022400200367,-7.392818224616349e-05,0.0032926094718277454
0.008639107458293438,0.0059379711747169495,-0.00928015448153019,0.004704425111413002,-7.273389201145619e-05,0.003255167743191123
0.00953687448054552,0.00525039155036211,-0.009729769080877304,0.004657254554331303,-7.157697837101296e-05,0.0035181217826902866
0.008763601072132587,0.004489667247980833,-0.009333249181509018,0.004568241070955992,-7.045634265523404e-05,0.003785747801885009
0.00860732514411211,0.0044561028480529785,-0.009131062775850296,0.004939425271004438,-6.937014404684305e-05,0.0037573401350528
0.008920288644731045,0.005123336799442768,-0.009373277425765991,0.0051794773899018764,-6.831705832155421e-05,0.0033030568156391382
0.009098977781832218,0.005107859615236521,-0.009126202203333378,0.00534683046862483,-6.729537562932819e-05,0.002999895950779319
0.008918628096580505,0.005501202307641506,-0.009167180396616459,0.005027875304222107,-6.63038226775825e-05,0.002693310845643282
0.010386013425886631,0.005066557787358761,-0.009660879150032997,0.004834207706153393,-7.177906081778929e-05,0.0027516596019268036
0.009115582332015038,0.004743342287838459,-0.009392854757606983,0.004689927212893963,-7.685419404879212e-05,0.0027779315132647753
0.008222912438213825,0.004597753752022982,-0.008677798323333263,0.0046960217878222466,-7.616824586875737e-05,0.0030323185492306948
0.008675902150571346,0.00448182737454772,-0.009219053201377392,0.004771948326379061,-7.513445598306134e-05,0.0029951357282698154
0.009247610345482826,0.004538622684776783,-0.00907917320728302,0.004701076075434685,-7.41050680517219e-05,0.0033103039022535086
0.009292121045291424,0.004782823845744133,-0.009176993742585182,0.004564095754176378,-7.310200453503057e-05,0.0034799010027199984
0.009292121045291424,0.004782823845744133,-0.009176993742585182,0.004564095754176378,-7.310200453503057e-05,0.0034799010027199984
0.010003823786973953,0.0047445399686694145,-0.00999306421726942,0.004621361847966909,-7.117495988495648e-05,0.0025296234525740147
0.008740791119635105,0.004187076352536678,-0.009235191158950329,0.005491855554282665,-7.793230179231614e-05,0.0026536991354078054
0.0092683220282197,0.004354582633823156,-0.008962907828390598,0.005390177946537733,-7.968486897880211e-05,0.00303847249597311
0.0092683220282197,0.004354582633823156,-0.008962907828390598,0.005390177946537733,-7.968486897880211e-05,0.00303847249597311
0.00895024836063385,0.005127343349158764,-0.009020897559821606,0.004998370073735714,-7.790262316120788e-05,0.003115228610113263
0.00895024836063385,0.005127343349158764,-0.009020897559821606,0.004998370073735714,-7.790262316120788e-05,0.003115228610113263
0.009798156097531319,0.004871911834925413,-0.009689029306173325,0.004872768651694059,-7.69518519518897e-05,0.0028106842655688524
0.00918914657086134,0.004888021852821112,-0.009167197160422802,0.005221801344305277,-8.137706754496321e-05,0.002547056879848242
0.00882700551301241,0.004365746863186359,-0.008804719895124435,0.005368897225707769,-8.548827463528141e-05,0.0025419474113732576
0.008968102745711803,0.004478200804442167,-0.00932934507727623,0.0056477258913218975,-8.481285476591438e-05,0.0028755730018019676
0.009924600832164288,0.004613854922354221,-0.00908046867698431,0.005302951671183109,-8.38468040456064e-05,0.00316215748898685
0.009356657974421978,0.004315383732318878,-0.008544566109776497,0.004903066903352737,-8.288308163173497e-05,0.0031372220255434513
0.009430338628590107,0.004453909117728472,-0.00915007758885622,0.0046901279129087925,-0.0001359939924441278,0.0030175300780683756
0.009568381123244762,0.00461222929880023,-0.00933186337351799,0.0051336935721337795,-0.00013938406482338905,0.0027855983935296535
0.00925117451697588,0.0045396327041089535,-0.009011472575366497,0.005067367572337389,-0.00013567812857218087,0.0027795876376330853
0.009133156388998032,0.004297817591577768,-0.00904885958880186,0.004930587485432625,-0.00013173813931643963,0.0026844763197004795
0.009594091214239597,0.003997605759650469,-0.009226145222783089,0.00512285390868783,-0.00012799295654986054,0.0026591643691062927
0.00923927128314972,0.004351862706243992,-0.008608014322817326,0.0050796824507415295,-0.0001244529994437471,0.0028137750923633575
0.00888510886579752,0.0044946447014808655,-0.00896304752677679,0.005225506145507097,-0.00012110359966754913,0.002810143865644932
0.009926006197929382,0.0047525945119559765,-0.009276486933231354,0.005287598818540573,-0.00011792959412559867,0.002801405033096671
0.009789238683879375,0.004660580772906542,-0.009117902256548405,0.0050542945973575115,-0.00011491790064610541,0.0026613741647452116
0.00930315162986517,0.00431830296292901,-0.009091310203075409,0.005237055476754904,-0.00013296651013661176,0.002629342721775174
0.009433478116989136,0.00401486549526453,-0.009166969917714596,0.005124787334352732,-0.0001311019150307402,0.0024167648516595364
0.009408349171280861,0.0043685282580554485,-0.008847925812005997,0.00502437399700284,-0.00012808130122721195,0.0024534694384783506
0.00972050428390503,0.004132322035729885,-0.008479110896587372,0.005135383922606707,-0.0001251194771612063,0.002553677186369896
0.009756263345479965,0.004258377011865377,-0.009905573911964893,0.005320533644407988,-0.0001222861756104976,0.0024233893491327763
0.009756263345479965,0.004258377011865377,-0.009905573911964893,0.005320533644407988,-0.0001222861756104976,0.0024233893491327763
0.008912943303585052,0.0045578330755233765,-0.008888399228453636,0.005154842976480722,-0.00011698763410095125,0.0026530756149441004
0.009301806800067425,0.004371686838567257,-0.009366932325065136,0.00490889698266983,-0.00011450685997260734,0.0026792949065566063
0.010557588189840317,0.004430691245943308,-0.009644240140914917,0.005156910512596369,-0.00012132048868807033,0.0025734298396855593
0.009127361699938774,0.004346728324890137,-0.00862034596502781,0.005051020532846451,-0.00012753598275594413,0.0025483150966465473
0.009969792328774929,0.004493914544582367,-0.008611837401986122,0.005814423784613609,-0.00012556047295220196,0.00230777938850224
0.009400465525686741,0.0045801992528140545,-0.009191558696329594,0.0055523705668747425,-0.00012314310879446566,0.002293102443218231
0.00953271146863699,0.004535345826297998,-0.009010174311697483,0.005364238750189543,-0.0001207846071338281,0.002106640487909317
0.009828044101595879,0.004645947832614183,-0.009304886683821678,0.005383806768804789,-0.00011851247836602852,0.0020602077711373568
0.009842880070209503,0.004656247794628143,-0.00997745431959629,0.004282847978174686,-0.00011632429232122377,0.001852715970017016
0.009544777683913708,0.004584698937833309,-0.008752561174333096,0.005219247192144394,-0.00011421533417887986,0.0018363025737926364
0.009512252174317837,0.004607358016073704,-0.008440539240837097,0.0063309562392532825,-0.00012714206241071224,0.0017525074072182178
0.009865967556834221,0.004655312746763229,-0.009209494106471539,0.006128769833594561,-0.00012589481775648892,0.0019299195846542716
0.009831167757511139,0.004709122236818075,-0.008964966051280499,0.005406700074672699,-0.00012379404506646097,0.001856362447142601
0.009833350777626038,0.0046523320488631725,-0.009014856070280075,0.0049796090461313725,-0.00012170560512458906,0.001984924077987671
0.009716758504509926,0.004598995205014944,-0.009545080363750458,0.005190882366150618,-0.00011968275794060901,0.001829922548495233
0.009560339152812958,0.004565490409731865,-0.009159747511148453,0.006021139677613974,-0.00011772589641623199,0.0017133561195805669
0.009517800062894821,0.004389387555420399,-0.008533581160008907,0.005813190247863531,-0.00011583196464926004,0.001738412887789309
0.009550737217068672,0.004239119589328766,-0.009120065718889236,0.005827170796692371,-0.00011399790673749521,0.002100246027112007
0.009551113471388817,0.004231293685734272,-0.009061028249561787,0.0055915433913469315,-0.00011224004265386611,0.0021187819074839354
0.009807273745536804,0.0044497842900455,-0.008595866151154041,0.005694415420293808,-0.0001285268517676741,0.0021368335001170635
0.010258917696774006,0.004096220247447491,-0.00871660839766264,0.005866555962711573,-0.0001261958823306486,0.0019240658730268478
0.009887328371405602,0.004445522092282772,-0.009469927288591862,0.005942097865045071,-0.00012283398245926946,0.0016211126931011677
0.009747828356921673,0.004649771843105555,-0.0090467045083642,0.005966757424175739,-0.00011957537935813889,0.001475925906561315
0.009898142889142036,0.004313109442591667,-0.008675015531480312,0.00586983235552907,-0.00011648035433609039,0.0014280600007623434
0.009771945886313915,0.003979525528848171,-0.009258153848350048,0.005936133209615946,-0.00011354120215401053,0.001455704215914011
0.01082097738981247,0.004215970169752836,-0.00873677060008049,0.005861605517566204,-0.00011074675421696156,0.0014119158731773496
0.009339908137917519,0.004138659685850143,-0.00900902971625328,0.005435692146420479,-0.00012647580297198147,0.0017844284884631634
0.009339908137917519,0.004138659685850143,-0.00900902971625328,0.005435692146420479,-0.00012647580297198147,0.0017844284884631634
0.010229084640741348,0.004561854526400566,-0.008841827511787415,0.005922991316765547,-0.00012098481238353997,0.00187010841909796
0.009638321585953236,0.004380052909255028,-0.00900388415902853,0.005663128104060888,-0.00011833419557660818,0.001528248656541109
0.010194201022386551,0.004361728671938181,-0.00916110910475254,0.005885772407054901,-0.00011579661077121273,0.0012746881693601608
0.009984333999454975,0.004682362545281649,-0.008848816156387329,0.005410768091678619,-0.00012265781697351485,0.0011908242013305426
0.009599498473107815,0.004220143426209688,-0.008980963379144669,0.005781469400972128,-0.00012891317601315677,0.0011990278726443648
0.009599498473107815,0.004220143426209688,-0.008980963379144669,0.005781469400972128,-0.00012891317601315677,0.0011990278726443648
0.010021488182246685,0.004456109832972288,-0.008898237720131874,0.0054963696748018265,-0.00012688931019511074,0.0011992108775302768
0.010040706023573875,0.00473896786570549,-0.008608648553490639,0.005899155046790838,-0.00012442063598427922,0.0013034868752583861
0.009611143730580807,0.004665636457502842,-0.008883976377546787,0.00591565016657114,-0.00012201332719996572,0.0017160882707685232
0.010264229029417038,0.004835052881389856,-0.009950782172381878,0.005705104675143957,-0.0001196952725877054,0.001722749788314104
0.009933951310813427,0.004717335104942322,-0.009568427689373493,0.005777988117188215,-0.00011746353266062215,0.001555785653181374
0.009589499793946743,0.004836319480091333,-0.008678293786942959,0.005842658691108227,-0.00011531350173754618,0.0013018276076763868
0.010489895939826965,0.004532885272055864,-0.009416117332875729,0.006272580474615097,-0.0001252465881407261,0.0010269898921251297
0.009663722477853298,0.004337093327194452,-0.009637863375246525,0.00592318968847394,-0.00012686046829912812,0.0009564653155393898
0.009582582861185074,0.004860915709286928,-0.009642839431762695,0.005873711779713631,-0.0001249090419150889,0.0009629723499529064
0.01035294309258461,0.004894480109214783,-0.009775924496352673,0.005652573890984058,-0.00012279514339752495,0.000967560161370784
0.010294388048350811,0.004701700527220964,-0.009311961941421032,0.005662590730935335,-0.00012073693505953997,0.0010009650141000748
0.009951487183570862,0.004981127101927996,-0.009340883232653141,0.005828848574310541,-0.00011874573101522401,0.0010766738560050726
0.01126642245799303,0.00481518916785717,-0.009908255189657211,0.00620289146900177,-0.00011681900650728494,0.001256449380889535
0.012150256894528866,0.004837540909647942,-0.009700627997517586,0.006195280700922012,-0.0001149539602920413,0.0013722379226237535
0.012348541058599949,0.004779367707669735,-0.009307431988418102,0.005918608978390694,-0.00014598081179428846,0.0012870867503806949
0.011607414111495018,0.004740086384117603,-0.009981459006667137,0.006246673408895731,-0.0001459526683902368,0.0012206017272546887
0.011184405535459518,0.004658404737710953,-0.010003939270973206,0.006577363237738609,-0.00014166519395075738,0.0010637905215844512
0.011777184903621674,0.004698185250163078,-0.009545674547553062,0.0065351203083992004,-0.00013736050459556282,0.0008771069697104394
0.011930177919566631,0.005221870262175798,-0.009841007180511951,0.006323898211121559,-0.0001463737862650305,0.0008599032298661768
0.012136518023908138,0.004993383307009935,-0.010007466189563274,0.0061496589332818985,-0.00015446286124642938,0.0007560992962680757
0.011400632560253143,0.004286204930394888,-0.009913912974298,0.006438955198973417,-0.0001468928821850568,0.0006877995328977704
0.0120840510353446,0.004336254205554724,-0.009902332909405231,0.006401967257261276,-0.00014300618204288185,0.0006978809833526611
0.0120840510353446,0.004336254205554724,-0.009902332909405231,0.006401967257261276,-0.00014300618204288185,0.0006978809833526611
0.011986104771494865,0.0045729950070381165,-0.009469958953559399,0.006228418555110693,-0.00013931645662523806,0.0006457100971601903
0.012046955525875092,0.0047727287746965885,-0.009612331166863441,0.0061955745331943035,-0.00013581248640548438,0.0005605473998002708
0.012363073416054249,0.004761774558573961,-0.00992364902049303,0.006282661110162735,-0.0001324803743045777,0.000496731954626739
0.011888525448739529,0.0042734709568321705,-0.010344243608415127,0.006247460376471281,-0.00012930791126564145,0.0005301148630678654
0.012610758654773235,0.004260259214788675,-0.010034605860710144,0.006457020528614521,-0.00012628384865820408,0.0005471750628203154
0.011741908267140388,0.004245523829013109,-0.010145499370992184,0.006584014743566513,-0.00014258982264436781,0.0005567561602219939
0.012214324437081814,0.0043816701509058475,-0.010662243701517582,0.006169011816382408,-0.00014065798313822597,0.0005484048742800951
0.01218421384692192,0.005004911217838526,-0.011243075132369995,0.006482389289885759,-0.0001376660802634433,0.0006600839551538229
0.011993316933512688,0.0048688254319131374,-0.010415082797408104,0.006910074036568403,-0.0001347273209830746,0.0006990846013650298
0.012133315205574036,0.004551935475319624,-0.01046016626060009,0.007054777350276709,-0.00014117419777903706,0.0006325123249553144
0.01211551483720541,0.004372222814708948,-0.011273215524852276,0.0069001163356006145,-0.0001470335409976542,0.0006546192453242838
0.012893229722976685,0.0045387279242277145,-0.010515064001083374,0.006742033176124096,-0.00014465056301560253,0.0005981827271170914
0.012111196294426918,0.004173967055976391,-0.010603782720863819,0.0065787616185843945,-0.00014183815801516175,0.0005465995636768639
0.012799220159649849,0.0034437186550348997,-0.010755607858300209,0.006932653021067381,-0.0001391003606840968,0.000569697585888207
0.01238806638866663,0.003643268020823598,-0.010629778727889061,0.00666516600176692,-0.00013646400475408882,0.0005319397314451635
0.012718481943011284,0.003920644987374544,-0.010948067530989647,0.006352345459163189,-0.00015749313752166927,0.0004955840995535254
0.012991436757147312,0.003929085563868284,-0.010985218919813633,0.006016693543642759,-0.00017382750229444355,0.00046366924652829766
0.013902365230023861,0.0043440693989396095,-0.010991820134222507,0.006517356727272272,-0.00016877302550710738,0.0004356050631031394
0.01306134182959795,0.004132391419261694,-0.01080548670142889,0.006902154069393873,-0.0001627633027965203,0.0004107430577278137
0.011775816790759563,0.003992455545812845,-0.010621641762554646,0.006803590338677168,-0.00015708687715232372,0.0003885666956193745
0.012897072359919548,0.0036568245850503445,-0.011559396982192993,0.006387580651789904,-0.00015178810281213373,0.00036866351729258895
0.01301253866404295,0.0040296101942658424,-0.01014002226293087,0.00683211162686348,-0.0001561416866024956,0.00033440787228755653
0.013017265126109123,0.004255448468029499,-0.01041198056191206,0.006647746078670025,-0.00016445975052192807,0.00031956302700564265
0.012926318682730198,0.004036350175738335,-0.01047789677977562,0.006324415095150471,-0.00016042774950619787,0.0003059790178667754
0.012926318682730198,0.004036350175738335,-0.01047789677977562,0.006324415095150471,-0.00016042774950619787,0.0003059790178667754
0.012951868586242199,0.003448128467425704,-0.010232041589915752,0.006517474073916674,-0.00015585304936394095,0.00029350334079936147
0.01300350297242403,0.003163577988743782,-0.010313599370419979,0.007075223606079817,-0.00015148438978940248,0.0002820056688506156
0.013164343312382698,0.003251779591664672,-0.010649308562278748,0.007345773745328188,-0.00014735049626324326,0.0002713747089728713
0.012466822750866413,0.0035362730268388987,-0.009979329071938992,0.007066596299409866,-0.00014343639486469328,0.0002615167759358883
0.012877033092081547,0.003718560328707099,-0.010705973953008652,0.006956432014703751,-0.00015698341303505003,0.00025234982604160905
0.012649807147681713,0.004213137086480856,-0.009992219507694244,0.006984676234424114,-0.000158506867592223,0.0002438036462990567
0.013269164599478245,0.0036272197030484676,-0.009899466298520565,0.006771218031644821,-0.00015496522246394306,0.00023581754066981375
0.013088054023683071,0.003436236409470439,-0.010907107032835484,0.006850822363048792,-0.00015126753714866936,0.0002283383801113814
0.01305516716092825,0.003410614561289549,-0.009995901957154274,0.006831360515207052,-0.00014772199210710824,0.00022131857986096293
0.013235142454504967,0.00359617848880589,-0.00992107018828392,0.007025826256722212,-0.00014433756587095559,0.00021471816580742598
0.013124758377671242,0.0037204434629529715,-0.010140066966414452,0.007371303625404835,-0.000141104610520415,0.00020849962311331183
0.013307245448231697,0.0037480799946933985,-0.010630042292177677,0.007079969625920057,-0.00015514019469264895,0.00020263144688215107
0.013025177642703056,0.003656304208561778,-0.011376485228538513,0.006766483187675476,-0.000154179084347561,0.00019708463514689356
0.013774557039141655,0.003654798725619912,-0.01048741489648819,0.006635047495365143,-0.0001510977017460391,0.00019183315453119576
0.013408233411610126,0.003807640401646495,-0.010167889297008514,0.006910005584359169,-0.0001480016071582213,0.000186854405910708
0.013771087862551212,0.003939257003366947,-0.01056386437267065,0.007151692174375057,-0.00014502121484838426,0.00018212778377346694
0.013432653620839119,0.00433378666639328,-0.010600002482533455,0.007224029861390591,-0.00014215792180038989,0.0001583519479027018
0.013453789055347443,0.004141393583267927,-0.010164318606257439,0.006889339070767164,-0.00013951791333965957,0.00015187797544058412
0.01321882102638483,0.004334995523095131,-0.010494113899767399,0.0072862026281654835,-0.00015782425180077553,0.00014813346206210554
0.013604448176920414,0.004251393489539623,-0.010437337681651115,0.007286247797310352,-0.0001539408985991031,0.00014471920439973474
0.013623002916574478,0.0044835833832621574,-0.009747104719281197,0.007051846943795681,-0.00014894426567479968,0.00014146843750495464
0.01374567300081253,0.004256104119122028,-0.010665442794561386,0.006847502198070288,-0.0001441779750166461,0.00013867102097719908
0.013794946484267712,0.004351277835667133,-0.010377774015069008,0.0075325919315218925,-0.00013970196596346796,5.0304795877309516e-05
0.013578380458056927,0.004296632017940283,-0.010522119700908661,0.006938731297850609,-0.00015760737005621195,4.216573870508e-05
0.01377810351550579,0.004546917974948883,-0.010200906544923782,0.007108394522219896,-0.00015334294585045427,3.105680298176594e-05
0.014382106252014637,0.004676447715610266,-0.010731205344200134,0.007074503693729639,-0.00014912190090399235,2.0810997739317827e-05
0.014382106252014637,0.004676447715610266,-0.010731205344200134,0.007074503693729639,-0.00014912190090399235,2.0810997739317827e-05
0.013982088305056095,0.004351469222456217,-0.01031292974948883,0.00714414706453681,-0.00016329083882737905,1.7172352784200484e-07
0.013982088305056095,0.004351469222456217,-0.01031292974948883,0.00714414706453681,-0.00016329083882737905,1.7172352784200484e-07
0.013886677101254463,0.004547068849205971,-0.010536600835621357,0.006949155125766993,-0.00016056200547609478,1.1212319073194976e-08
0.014207578264176846,0.0040992205031216145,-0.01081734336912632,0.00737808970734477,-0.00015666273247916251,7.320843375957509e-10
0.013889468275010586,0.004370911978185177,-0.010301169939339161,0.007536426652222872,-0.00015286737470887601,4.779987516911888e-11
0.01428135670721531,0.0041334121488034725,-0.01052406057715416,0.0075345393270254135,-0.00014924618881195784,3.1209902284085045e-12
0.013581142760813236,0.004429353401064873,-0.010475877672433853,0.00717893335968256,-0.00014579221897292882,-0.0002959127305075526
0.01429122593253851,0.004300830885767937,-0.010585552081465721,0.007046135142445564,-0.00014249453670345247,-0.0010095774196088314
0.013688500970602036,0.004263806622475386,-0.01113311480730772,0.007722495589405298,-0.00013934267917647958,-0.0009926269995048642
0.01371449138969183,0.004439345095306635,-0.010383372195065022,0.007705701515078545,-0.00015324550622608513,-0.0009166703093796968
0.013464957475662231,0.004586902912706137,-0.010509022511541843,0.007407438009977341,-0.00015233556041494012,-0.0008588330238126218
0.014117849990725517,0.004399531986564398,-0.00988045521080494,0.007495175581425428,-0.00014932849444448948,-0.0008110100170597434
0.013940815813839436,0.00455112848430872,-0.01098543033003807,0.007887444458901882,-0.0001463040243834257,-0.0007536195334978402
0.014593265950679779,0.004360651131719351,-0.01197100430727005,0.008202631026506424,-0.0001433909055776894,-0.0008344149100594223
0.0142278503626585,0.004246183671057224,-0.011174025945365429,0.008281843736767769,-0.00016391072131227702,-0.0008900376269593835
0.014294952154159546,0.004933868534862995,-0.010179026052355766,0.008197342045605183,-0.0001796586875570938,-0.0013281714636832476
0.013782902620732784,0.004490284249186516,-0.010955183766782284,0.008513952605426311,-0.00017416213813703507,-0.0014714677818119526
0.014432764612138271,0.004481491167098284,-0.011661728844046593,0.00827641598880291,-0.00016776335542090237,-0.001827340223826468
0.0143976965919137,0.00429838290438056,-0.011737575754523277,0.007866538129746914,-0.00018566942890174687,-0.0017884300323203206
0.015423687174916267,0.00427602231502533,-0.01160925067961216,0.00819055363535881,-0.00018680287757888436,-0.0016367395874112844
0.014716161414980888,0.004441899247467518,-0.011501549743115902,0.008199657313525677,-0.0001810332905733958,-0.0017013272736221552
0.014701904729008675,0.004624456167221069,-0.011424546130001545,0.007540620863437653,-0.00017519165703561157,-0.001586649683304131
0.014096975326538086,0.00472235307097435,-0.01095880102366209,0.007805643603205681,-0.00019606294517870992,-0.001747822156175971
0.015272444114089012,0.004192052409052849,-0.010874527506530285,0.008297299034893513,-0.00019181320385541767,-0.0019304919987916946
0.01453830674290657,0.004177877213805914,-0.011207696981728077,0.0083830701187253,-0.00018625422671902925,-0.002344375243410468
0.014485721476376057,0.004732240457087755,-0.011293424293398857,0.008161724545061588,-0.00020076322834938765,-0.0026854397729039192
0.014828783459961414,0.004848658572882414,-0.011121386662125587,0.008434256538748741,-0.00019551286823116243,-0.0024573947302997112
0.015308019705116749,0.005365677177906036,-0.010916393250226974,0.00796386320143938,-0.000283524306723848,-0.0021730191074311733
0.015308019705116749,0.005365677177906036,-0.010916393250226974,0.00796386320143938,-0.000283524306723848,-0.0021730191074311733
0.015956299379467964,0.005081504117697477,-0.011628222651779652,0.008129220455884933,-0.0002951603091787547,-0.002129186876118183
0.015367358922958374,0.004775702487677336,-0.011253313161432743,0.008024338632822037,-0.0003270825545769185,-0.002369384281337261
0.015062379650771618,0.0043901726603507996,-0.011197920888662338,0.007988563738763332,-0.0003147339157294482,-0.0026795922312885523
0.01518956758081913,0.0049507273361086845,-0.011899116449058056,0.00782313384115696,-0.0003344052820466459,-0.0027399305254220963
0.01575174182653427,0.004929248709231615,-0.01133154146373272,0.008326754905283451,-0.0003284586127847433,-0.0029726007487624884
0.01574893295764923,0.004888090305030346,-0.011268679052591324,0.008019647561013699,-0.0003128933603875339,-0.0031670399475842714
0.015297738835215569,0.00498571153730154,-0.011050823144614697,0.007572622504085302,-0.00031893147388473153,-0.0030780411325395107
0.015575911849737167,0.004315504804253578,-0.011066184379160404,0.00725245475769043,-0.000323903514072299,-0.0030096680857241154
0.015670783817768097,0.004461280535906553,-0.011248198337852955,0.008933297358453274,-0.00031134337768889964,-0.0028606948908418417
0.0160124059766531,0.004726872779428959,-0.010864746756851673,0.009156904183328152,-0.00042252117418684065,-0.003016650676727295
0.015542511828243732,0.004360251594334841,-0.01148807443678379,0.00818142481148243,-0.00039466461748816073,-0.003129595657810569
0.016277385875582695,0.00442124530673027,-0.011951548047363758,0.008272916078567505,-0.0003985479997936636,-0.003293280489742756
0.016334818676114082,0.004969377536326647,-0.011809646151959896,0.008801893331110477,-0.00040103672654367983,-0.0035618420224636793
0.01634959504008293,0.004951037932187319,-0.01167341135442257,0.008524646051228046,-0.0003752574557438493,-0.0032845495734363794
0.016298137605190277,0.004620057996362448,-0.011278104968369007,0.008249166421592236,-0.0003509886737447232,-0.003085580887272954
0.01591425947844982,0.004255649168044329,-0.011821565218269825,0.009317990392446518,-0.0003806737076956779,-0.003073476254940033
0.016186600551009178,0.004864661954343319,-0.011495450511574745,0.00861186720430851,-0.00036211826954968274,-0.0033088154159486294
0.016014888882637024,0.005078221205621958,-0.011797389946877956,0.008000287227332592,-0.0003426341281738132,-0.003408420132473111
0.016598982736468315,0.004954143427312374,-0.012342195957899094,0.00820368342101574,-0.0003651531005743891,-0.003566253697499633
0.016530821099877357,0.004744186997413635,-0.011899291537702084,0.00872035976499319,-0.0003527633671183139,-0.0036455844528973103
0.01673341728746891,0.0046468437649309635,-0.012266838923096657,0.008203866891562939,-0.00033662511850707233,-0.003355378285050392
0.01658305525779724,0.004232059698551893,-0.011879119090735912,0.007828165777027607,-0.00032160873524844646,-0.0030920333229005337
0.017035678029060364,0.004631765186786652,-0.012753451243042946,0.009201970882713795,-0.0003046370984520763,-0.004012775141745806
0.016411708667874336,0.005119191482663155,-0.011829853989183903,0.008266273885965347,-0.00031326254247687757,-0.00484659755602479
0.017010506242513657,0.005007229279726744,-0.012410914525389671,0.00836113654077053,-0.00032024571555666625,-0.005671232007443905
0.016731172800064087,0.004871757701039314,-0.011891735717654228,0.008776995353400707,-0.0003412366786506027,-0.005331669934093952
0.016663894057273865,0.004948270972818136,-0.012429754249751568,0.008754733018577099,-0.00033489681663922966,-0.00451015867292881
0.016821077093482018,0.004952584393322468,-0.012518547475337982,0.008670986630022526,-0.0003611286520026624,-0.00433767307549715
0.016821077093482018,0.004952584393322468,-0.012518547475337982,0.008670986630022526,-0.0003611286520026624,-0.00433767307549715
0.016860676929354668,0.004835670348256826,-0.012472894042730331,0.00889297854155302,-0.00034655805211514235,-0.004564514383673668
0.016954896971583366,0.005308212712407112,-0.012192942202091217,0.009307301603257656,-0.000492782040964812,-0.004850182682275772
0.016716381534934044,0.005224886350333691,-0.011702665127813816,0.00863644015043974,-0.0005110251368023455,-0.004898689687252045
0.017180761322379112,0.004904064349830151,-0.012702947482466698,0.00866110622882843,-0.0005052790511399508,-0.004662162624299526
0.01697436161339283,0.004669677000492811,-0.012329619377851486,0.008849013596773148,-0.0005019715172238648,-0.004902934655547142
0.016877952963113785,0.004585306625813246,-0.012975992634892464,0.00854122918099165,-0.0004965791595168412,-0.004612608812749386
0.017184866592288017,0.004706370644271374,-0.012089886702597141,0.0083994809538126,-0.00046235593617893755,-0.004504815675318241
0.016901381313800812,0.0050918348133563995,-0.01225316897034645,0.009572363458573818,-0.00048403043183498085,-0.004474767483770847
0.017483696341514587,0.005384383723139763,-0.012838163413107395,0.009242646396160126,-0.00046317337546497583,-0.005238278303295374
0.01730320230126381,0.004663809668272734,-0.01246377732604742,0.008993703871965408,-0.0005164376343600452,-0.005281414836645126
0.017569463700056076,0.004626236855983734,-0.012949272990226746,0.008980372920632362,-0.00046950712567195296,-0.004877492785453796
0.017852220684289932,0.0049953702837228775,-0.012578199617564678,0.00893965270370245,-0.000466546363895759,-0.004818175453692675
0.017300298437476158,0.004371753893792629,-0.013046318665146828,0.008826733566820621,-0.0004636113590095192,-0.004309784155339003
0.017642011865973473,0.005206874571740627,-0.012630531564354897,0.009136524982750416,-0.00042917425162158906,-0.00443398579955101
0.017819887027144432,0.006277281325310469,-0.012878987938165665,0.009181494824588299,-0.00045492223580367863,-0.004612988792359829
0.017702428624033928,0.00422771368175745,-0.01283892523497343,0.008931070566177368,-0.00043155622552149,-0.005315769929438829
0.018904944881796837,0.003258159849792719,-0.012618626467883587,0.009271352551877499,-0.00045809303992427886,-0.005748615600168705
0.018240472301840782,0.0037984419614076614,-0.012750303372740746,0.008972955867648125,-0.0004340078739915043,-0.005558766424655914
0.017755620181560516,0.004164451267570257,-0.012426909059286118,0.009363820776343346,-0.00043949027894996107,-0.005448192823678255
0.01778627187013626,0.004281255882233381,-0.013146474026143551,0.009183194488286972,-0.0004108607827220112,-0.005073677748441696
0.017488587647676468,0.004053687676787376,-0.012568000704050064,0.009626864455640316,-0.0004472148430068046,-0.005402593873441219
0.018292326480150223,0.00397959491237998,-0.013040938414633274,0.009435763582587242,-0.00047731370432302356,-0.005769539624452591
0.01849939487874508,0.00391857884824276,-0.012954315170645714,0.009134610183537006,-0.0004515674081631005,-0.005851603578776121
0.01837119087576866,0.0038453612942248583,-0.012885969132184982,0.009468674659729004,-0.0004218658432364464,-0.0054903472773730755
0.01828741282224655,0.004130396526306868,-0.013212338089942932,0.009308100678026676,-0.0004247006436344236,-0.00502222403883934
0.018587524071335793,0.003934206906706095,-0.013159059919416904,0.009181643836200237,-0.0005151510122232139,-0.005816206336021423
0.019517431035637856,0.0034305367153137922,-0.012474109418690205,0.009693888016045094,-0.0004781597526744008,-0.006009494885802269
0.019015707075595856,0.0039031170308589935,-0.012974636629223824,0.009662183001637459,-0.0005136383697390556,-0.006069402676075697
0.019015707075595856,0.0039031170308589935,-0.012974636629223824,0.009662183001637459,-0.0005136383697390556,-0.006069402676075697
0.018838662654161453,0.004319190047681332,-0.012592759914696217,0.00974640715867281,-0.0004738522693514824,-0.005572515074163675
0.019593333825469017,0.0040607028640806675,-0.01334555447101593,0.00912296399474144,-0.0004985748091712594,-0.005206070374697447
0.018138684332370758,0.0043380046263337135,-0.013005917891860008,0.00865880586206913,-0.0004699185083154589,-0.005470665171742439
0.01874559558928013,0.004127350635826588,-0.013560513034462929,0.009346305392682552,-0.0004918256308883429,-0.006030173972249031
0.01926368474960327,0.003961887676268816,-0.013039673678576946,0.009580237790942192,-0.00046730018220841885,-0.006476202979683876
0.01947569102048874,0.004046297166496515,-0.013158273883163929,0.009229093790054321,-0.000439260940765962,-0.006345415487885475
0.019628020003437996,0.003970578778535128,-0.013422302901744843,0.009015298448503017,-0.0004550656012725085,-0.0060929604806005955
0.019657591357827187,0.003898808965459466,-0.013209096156060696,0.00940052978694439,-0.00041984670679084957,-0.005730213597416878
0.019078722223639488,0.003887717379257083,-0.013510200195014477,0.009206747636198997,-0.00038442088407464325,-0.005917122587561607
0.019601458683609962,0.004315327387303114,-0.013136849738657475,0.009824040345847607,-0.0003541663463693112,-0.006447397172451019
0.020116379484534264,0.004088659770786762,-0.013794941827654839,0.009872830472886562,-0.00032830890268087387,-0.007057536393404007
0.019760973751544952,0.003924098331481218,-0.013013020157814026,0.009321269579231739,-0.0003059702576138079,-0.006920442916452885
0.01970529556274414,0.004389756824821234,-0.013269122689962387,0.010169721208512783,-0.00028647956787608564,-0.006274733226746321
0.02022562362253666,0.0040467968210577965,-0.01311929989606142,0.010217932052910328,-0.00031944861984811723,-0.006405141204595566
0.020124521106481552,0.0043173800222575665,-0.013646152801811695,0.009592830203473568,-0.00030468794284388423,-0.0065480563789606094
0.01987665705382824,0.00413172272965312,-0.01319494005292654,0.010138573125004768,-0.0002886108122766018,-0.0062082367949187756
0.02056177332997322,0.003901788266375661,-0.013868551701307297,0.011036108247935772,-0.0002739765914157033,-0.006568013224750757
0.020354855805635452,0.004060566890984774,-0.013546386733651161,0.01041052583605051,-0.000292820914182812,-0.006932658609002829
0.02015571855008602,0.00459667295217514,-0.013395472429692745,0.010846204124391079,-0.00028944251243956387,-0.007064430043101311
0.020278479903936386,0.004724389407783747,-0.013280262239277363,0.010916465893387794,-0.00027735604089684784,-0.007112969644367695
0.02082412876188755,0.004400493111461401,-0.013438439927995205,0.010281210765242577,-0.00028426237986423075,-0.006864572409540415
0.020833084359765053,0.0044308193027973175,-0.013905688188970089,0.010711577720940113,-0.00029010255821049213,-0.006868122145533562
0.020158501341938972,0.004437783267349005,-0.01353247370570898,0.010286977514624596,-0.00027995172422379255,-0.007139608263969421
0.02066202647984028,0.004430160392075777,-0.013758253306150436,0.01056409627199173,-0.0002562016888987273,-0.00788866262882948
0.020689405500888824,0.004252423532307148,-0.01387764047831297,0.01090971753001213,-0.000268282659817487,-0.00709338765591383
0.02051008865237236,0.004485934041440487,-0.013116976246237755,0.010918171145021915,-0.00026074255583807826,-0.007113731931895018
0.020876366645097733,0.004683871753513813,-0.01399281620979309,0.010332724079489708,-0.0002877413062378764,-0.00722442427650094
0.020924558863043785,0.004280454479157925,-0.013705236837267876,0.009699680842459202,-0.00029700258164666593,-0.00759422080591321
0.020688464865088463,0.0042621782049536705,-0.01409640908241272,0.01007259264588356,-0.0003027293423656374,-0.006800921633839607
0.020688464865088463,0.0042621782049536705,-0.01409640908241272,0.01007259264588356,-0.0003027293423656374,-0.006800921633839607
0.02080393396317959,0.004534707870334387,-0.013367249630391598,0.01046818308532238,-0.0004274450184311718,-0.006695966701954603
0.020971830934286118,0.004264703020453453,-0.014361841604113579,0.009602938778698444,-0.000555623322725296,-0.007245045620948076
0.020829878747463226,0.0043904101476073265,-0.013910362496972084,0.009974846616387367,-0.0005515165976248682,-0.0073830923065543175
0.02051439695060253,0.004251321777701378,-0.014458652585744858,0.010137178003787994,-0.0005439953529275954,-0.007490145042538643
0.0206159595400095,0.0044915215112268925,-0.013905066065490246,0.010042136535048485,-0.00053467380348593,-0.0075268829241395
0.020673949271440506,0.004254112020134926,-0.01462687086313963,0.010052399709820747,-0.0005560817662626505,-0.007108577527105808
0.020830301567912102,0.003967543598264456,-0.014068362303078175,0.01022572722285986,-0.0005240566097199917,-0.007030216045677662
0.021082744002342224,0.004016797058284283,-0.01462977472692728,0.010391125455498695,-0.0006180313648656011,-0.00792752020061016
0.021594107151031494,0.003872225759550929,-0.014216136187314987,0.010864362120628357,-0.0005619372241199017,-0.007915765047073364
0.021202243864536285,0.003868063446134329,-0.014746569097042084,0.010266656056046486,-0.0005867304280400276,-0.007572457194328308
0.020694933831691742,0.0044814120046794415,-0.013854733668267727,0.010494952090084553,-0.0006056251586414874,-0.00744925532490015
0.020575575530529022,0.004638827871531248,-0.014430652372539043,0.011113046668469906,-0.0005716768791899085,-0.007717002648860216
0.02104904130101204,0.004364711232483387,-0.014465872198343277,0.010399173945188522,-0.0005900597316212952,-0.007816795259714127
0.021190812811255455,0.004518304951488972,-0.015081377699971199,0.010073132812976837,-0.0005535617819987237,-0.007719310000538826
0.02106752060353756,0.004217540379613638,-0.014186033047735691,0.010490072891116142,-0.0005145558970980346,-0.007999181747436523
0.0209283996373415,0.004203714430332184,-0.01486966386437416,0.010378977283835411,-0.0005164988688193262,-0.008171284571290016
0.020969882607460022,0.004152051173150539,-0.014656138606369495,0.010309593752026558,-0.0004696901305578649,-0.00857022125273943
0.021490266546607018,0.004450633190572262,-0.015019375830888748,0.01063894759863615,-0.0005046706064604223,-0.008348594419658184
0.02187579683959484,0.004736986942589283,-0.014872735366225243,0.010786273516714573,-0.0004662461287807673,-0.008306965231895447
0.021487634629011154,0.004814023617655039,-0.015573999844491482,0.010540819726884365,-0.0004912177100777626,-0.008174863643944263
0.021546410396695137,0.004326096270233393,-0.01452531199902296,0.01078595221042633,-0.000463488744571805,-0.008501100353896618
0.021058350801467896,0.003926465287804604,-0.015202999114990234,0.01061261910945177,-0.00043222197564318776,-0.008313064463436604
0.02093842253088951,0.003770042210817337,-0.015045779757201672,0.011020607315003872,-0.0004582438268698752,-0.008358760736882687
0.02093842253088951,0.003770042210817337,-0.015045779757201672,0.011020607315003872,-0.0004582438268698752,-0.008358760736882687
0.02186187356710434,0.004633342381566763,-0.014452880248427391,0.010958489961922169,-0.00040963158244267106,-0.008299870416522026
0.021030420437455177,0.004213529173284769,-0.014918414875864983,0.011072102002799511,-0.0004119841323699802,-0.008865009061992168
0.022184407338500023,0.004297938197851181,-0.015053351409733295,0.010800597257912159,-0.00038616391248069704,-0.008366016671061516
0.02186352200806141,0.0042334566824138165,-0.0138520747423172,0.010967875830829144,-0.0003906933998223394,-0.008626803755760193
0.02161100134253502,0.003917751833796501,-0.015685878694057465,0.011881615966558456,-0.00039370713056996465,-0.008539291098713875
0.02175954356789589,0.0037820381112396717,-0.014911752194166183,0.011438747867941856,-0.0004219927068334073,-0.008778030052781105
0.021735087037086487,0.004151393659412861,-0.015097030438482761,0.011868579313158989,-0.0004024138324894011,-0.008895101957023144
0.022192131727933884,0.004344302695244551,-0.014892101287841797,0.011212184093892574,-0.0004185453581158072,-0.008975142613053322
0.02188478410243988,0.004057782702147961,-0.01543391589075327,0.011098997667431831,-0.0004073492018505931,-0.008628499694168568
0.022099575027823448,0.003860641270875931,-0.01521525252610445,0.01132305059581995,-0.0004564490809570998,-0.009338729083538055
0.021918710321187973,0.00419103866443038,-0.014923440292477608,0.010739597491919994,-0.0004750490188598633,-0.009062600322067738
0.022270575165748596,0.004533176310360432,-0.014897906221449375,0.011372478678822517,-0.00047544477274641395,-0.00900048203766346
0.022312110289931297,0.004117296077311039,-0.01581249199807644,0.01112308632582426,-0.0004719469870906323,-0.008873150683939457
0.022029906511306763,0.0039421492256224155,-0.014716002158820629,0.010648833587765694,-0.0004362865583971143,-0.009207168594002724
0.021910814568400383,0.0039124442264437675,-0.014866061508655548,0.01126890815794468,-0.00043642352102324367,-0.008726967498660088
0.022359056398272514,0.0044384486973285675,-0.01433548703789711,0.0106340441852808,-0.00043604831444099545,-0.008969932794570923
0.02255074493587017,0.0041915117762982845,-0.015252363868057728,0.011359580792486668,-0.00040963536594063044,-0.009423229843378067
0.022509662434458733,0.004028065595775843,-0.015108469873666763,0.01123129017651081,-0.00038473462336696684,-0.009367749094963074
0.02253054454922676,0.003978838678449392,-0.01587926410138607,0.011032833717763424,-0.0004073947202414274,-0.009100744500756264
0.022456824779510498,0.003835743060335517,-0.01480675209313631,0.011342030018568039,-0.0003913714026566595,-0.009252652525901794
0.022616185247898102,0.0037122091744095087,-0.014674252830445766,0.011177390813827515,-0.00037156944745220244,-0.008911189623177052
0.02273618057370186,0.0037117023020982742,-0.014887144789099693,0.01128858607262373,-0.0003642036463133991,-0.00920850969851017
0.023277003318071365,0.004060233943164349,-0.015484888106584549,0.011739336885511875,-0.00034124014200642705,-0.009247886948287487
0.02288631908595562,0.004199689719825983,-0.015195945277810097,0.011364242061972618,-0.0003641327493824065,-0.00968361645936966
0.022802311927080154,0.003969526384025812,-0.01542932540178299,0.011772883124649525,-0.00037473614793270826,-0.009439093992114067
0.023102831095457077,0.003900001524016261,-0.015181262977421284,0.011885890737175941,-0.0003913472464773804,-0.009588631801307201
0.023052584379911423,0.004006578121334314,-0.015666672959923744,0.011757919564843178,-0.0003943032643292099,-0.009195555001497269
0.02283892221748829,0.0037232961039990187,-0.015338999219238758,0.011406314559280872,-0.0005691905971616507,-0.009380798786878586
0.023080462589859962,0.0035571909975260496,-0.015653617680072784,0.011731584556400776,-0.0006300181266851723,-0.009608603082597256
0.02312253974378109,0.0036184333730489016,-0.01469994056969881,0.011582832783460617,-0.0006412775837816298,-0.009862507693469524
0.02312253974378109,0.0036184333730489016,-0.01469994056969881,0.011582832783460617,-0.0006412775837816298,-0.009862507693469524
0.023485131561756134,0.0041200690902769566,-0.01505920197814703,0.011738349683582783,-0.0006018982967361808,-0.00926879420876503
0.02389673702418804,0.004612185060977936,-0.014599106274545193,0.01216123253107071,-0.0005506699671968818,-0.00943541619926691
0.02375759184360504,0.004747014492750168,-0.015297380276024342,0.011446383781731129,-0.0005064521101303399,-0.00930886808782816
0.02347913198173046,0.004214674700051546,-0.014625824056565762,0.011588772758841515,-0.0005265450454317033,-0.009109251201152802
0.02304673008620739,0.003947718534618616,-0.014980986714363098,0.011629980057477951,-0.000497986504342407,-0.009562636725604534
0.023546146228909492,0.003894752124324441,-0.014527250081300735,0.011678728275001049,-0.0004662385326810181,-0.009932000190019608
0.02398531511425972,0.004026978276669979,-0.01514635980129242,0.011719015426933765,-0.00044788638479076326,-0.009876682423055172
0.024170149117708206,0.0041169533506035805,-0.014387787319719791,0.011350780725479126,-0.00041904684621840715,-0.009663079865276814
0.023565344512462616,0.004039177671074867,-0.01504222210496664,0.012190505862236023,-0.0003840905555989593,-0.00906720943748951
0.02407374233007431,0.004385014995932579,-0.01456376351416111,0.011751921847462654,-0.00041497411439195275,-0.009770970791578293
0.024544615298509598,0.004430909175425768,-0.015383352525532246,0.011696121655404568,-0.0003930721140932292,-0.009982943534851074
0.024937495589256287,0.00411661621183157,-0.015401874668896198,0.011936451308429241,-0.0004118703363928944,-0.009856010787189007
0.024458814412355423,0.0037897261790931225,-0.015171495266258717,0.011698177084326744,-0.0003997784515377134,-0.009692778810858727
0.024063024669885635,0.0036971252411603928,-0.014745033346116543,0.011973490007221699,-0.0004268765915185213,-0.010352006182074547
0.023639438673853874,0.004350295290350914,-0.015250639989972115,0.011872476898133755,-0.0004079833161085844,-0.009472846984863281
0.024311773478984833,0.0046754274517297745,-0.015364965423941612,0.011845991015434265,-0.0004894550074823201,-0.009337390772998333
0.02512691542506218,0.004410520661622286,-0.015436150133609772,0.011744496412575245,-0.00044887306285090744,-0.009159007109701633
0.024784566834568977,0.004503442440181971,-0.01547117717564106,0.011691473424434662,-0.0004844683862756938,-0.00936080515384674
0.02489735744893551,0.004383706022053957,-0.015625806525349617,0.012853310443460941,-0.00044913063175044954,-0.00935120414942503
0.024999745190143585,0.004253346938639879,-0.016156455501914024,0.012509787455201149,-0.0004791817918885499,-0.009170104749500751
0.024879682809114456,0.003984120208770037,-0.01565513201057911,0.012940287590026855,-0.00044920871732756495,-0.009004143066704273
0.024701174348592758,0.004262932576239109,-0.01555698737502098,0.012436576187610626,-0.00047134002670645714,-0.009052266366779804
0.024670468643307686,0.00451273750513792,-0.01607184112071991,0.012928727082908154,-0.0004980122321285307,-0.00947560928761959
0.02501668781042099,0.004766884259879589,-0.015979377552866936,0.01306743361055851,-0.0004541879170574248,-0.009918255731463432
0.025501031428575516,0.004305245820432901,-0.01686827652156353,0.013164556585252285,-0.00048401387175545096,-0.009879166260361671
0.02543809823691845,0.00429165456444025,-0.016100019216537476,0.012852168641984463,-0.00045306599349714816,-0.009457886219024658
0.025210611522197723,0.004477320238947868,-0.015562989749014378,0.013045785017311573,-0.0004697733384091407,-0.009479746222496033
0.024871446192264557,0.004226546734571457,-0.016267143189907074,0.012675377540290356,-0.0004519979120232165,-0.009180898778140545
0.024871446192264557,0.004226546734571457,-0.016267143189907074,0.012675377540290356,-0.0004519979120232165,-0.009180898778140545
0.025319436565041542,0.0044459085911512375,-0.01652267947793007,0.0125017911195755,-0.00044882274232804775,-0.009941156953573227
0.025319436565041542,0.0044459085911512375,-0.01652267947793007,0.0125017911195755,-0.00044882274232804775,-0.009941156953573227
0.025237707421183586,0.004745775368064642,-0.015680324286222458,0.012908455915749073,-0.0004257128166500479,-0.009919950738549232
0.025318745523691177,0.0043295929208397865,-0.01604382134974003,0.012889605015516281,-0.00045182069879956543,-0.010033867321908474
0.02552608959376812,0.004354957491159439,-0.01596960611641407,0.013583340682089329,-0.0004797728033736348,-0.009787766262888908
0.02555379830300808,0.0044972700998187065,-0.015745840966701508,0.013709991239011288,-0.000458514696219936,-0.009549139998853207
0.02597869746387005,0.004145529121160507,-0.017057346180081367,0.013672460801899433,-0.000484729913296178,-0.010327234864234924
0.025384962558746338,0.0044379085302352905,-0.016215350478887558,0.013807544484734535,-0.0004896374884992838,-0.009560798294842243
0.02533581852912903,0.00473830895498395,-0.016252681612968445,0.013024013489484787,-0.0004861922061536461,-0.009901448152959347
0.0249275304377079,0.004336748272180557,-0.01579292304813862,0.013272025622427464,-0.0006493578548543155,-0.010294262319803238
0.02504519745707512,0.004243698436766863,-0.015928933396935463,0.012499509379267693,-0.0006957635632716119,-0.011280836537480354
0.025737673044204712,0.004587090108543634,-0.015331873670220375,0.012768581509590149,-0.0007068960112519562,-0.00976193230599165
0.026628347113728523,0.0047839670442044735,-0.016195552423596382,0.012580066919326782,-0.0006575305596925318,-0.009707074612379074
0.026280120015144348,0.00445368280634284,-0.016037778928875923,0.012630556710064411,-0.0006701865349896252,-0.010163151659071445
0.025248615071177483,0.004521929193288088,-0.016404207795858383,0.012611116282641888,-0.0007000180194154382,-0.010943983681499958
0.02472793497145176,0.004507327917963266,-0.016722386702895164,0.012612267397344112,-0.0006720864330418408,-0.010519839823246002
0.026771998032927513,0.004876264370977879,-0.015988973900675774,0.01291082613170147,-0.0006980182370170951,-0.010118852369487286
0.02639903873205185,0.0048827314749360085,-0.01625063084065914,0.012825578451156616,-0.0007005358929745853,-0.010258452966809273
0.02574262209236622,0.004757721442729235,-0.01583111844956875,0.013135985471308231,-0.0006517142173834145,-0.01004386879503727
0.02651963196694851,0.004323119763284922,-0.016234159469604492,0.013493499718606472,-0.0006169845582917333,-0.01009111013263464
0.02671623043715954,0.004450332373380661,-0.016490038484334946,0.013157032430171967,-0.0006172406719997525,-0.010137796401977539
0.02617242932319641,0.004645379260182381,-0.01671852171421051,0.012887513265013695,-0.0006459548603743315,-0.01058783009648323
0.0258028581738472,0.004635234363377094,-0.016573520377278328,0.012839261442422867,-0.0006606036913581192,-0.011356167495250702
0.02626827359199524,0.004524099174886942,-0.01688137650489807,0.013086735270917416,-0.0006612521829083562,-0.011183816939592361
0.027409782633185387,0.004620151128619909,-0.016210028901696205,0.012965492904186249,-0.000642250815872103,-0.01136008370667696
0.027409782633185387,0.004620151128619909,-0.016210028901696205,0.012965492904186249,-0.000642250815872103,-0.01136008370667696
0.027343494817614555,0.004177595488727093,-0.016826273873448372,0.012330795638263226,-0.0006835254025645554,-0.01126164011657238
0.02723800018429756,0.004392767790704966,-0.016214458271861076,0.012729139998555183,-0.0007344718906097114,-0.01118519064038992
0.026952916756272316,0.00457862950861454,-0.01664728857576847,0.01291015837341547,-0.0007013322901912034,-0.010973569005727768
0.026799466460943222,0.004450149834156036,-0.01687769405543804,0.013915988616645336,-0.0007206317968666553,-0.0108210863545537
0.027195315808057785,0.0040678223595023155,-0.016686122864484787,0.013849003240466118,-0.0007389503298327327,-0.011061305180191994
0.0272542554885149,0.003823739243671298,-0.01721315085887909,0.01437294576317072,-0.0006803458672948182,-0.011459624394774437
0.027375325560569763,0.0038104134146124125,-0.016735052689909935,0.013836914673447609,-0.0007196119404397905,-0.011282053776085377
0.027462024241685867,0.004203156568109989,-0.016818147152662277,0.013946929946541786,-0.0006286813295446336,-0.011032934300601482
0.027348117902874947,0.004452030174434185,-0.0169304721057415,0.013716263696551323,-0.000604822882451117,-0.010926526039838791
0.027498910203576088,0.0041635772213339806,-0.01679855026304722,0.013999136164784431,-0.0005861835670657456,-0.011131517589092255
0.027731383219361305,0.00438086548820138,-0.01700327917933464,0.01349271647632122,-0.0005315134185366333,-0.011160616762936115
0.027534862980246544,0.004280883818864822,-0.01658938266336918,0.013822220265865326,-0.0004840149777010083,-0.010356947779655457
0.027897650375962257,0.0043631549924612045,-0.01725592650473118,0.013948679901659489,-0.0004799848538823426,-0.01082243025302887
0.028048181906342506,0.004280907101929188,-0.016903303563594818,0.014305626973509789,-0.00047629023902118206,-0.011067250743508339
0.02786238119006157,0.004276452586054802,-0.017139717936515808,0.013944006524980068,-0.0004447822575457394,-0.010492466390132904
0.028030386194586754,0.00406064186245203,-0.01741006039083004,0.013758734799921513,-0.00047078324132598937,-0.010657635517418385
0.028272872790694237,0.0038793033454567194,-0.017032137140631676,0.013685086742043495,-0.00044526573037728667,-0.010842589661478996
0.02817697636783123,0.0044042570516467094,-0.017398055642843246,0.013003285974264145,-0.00039960030699148774,-0.011509140022099018
0.028745174407958984,0.004365390632301569,-0.017323341220617294,0.014613076113164425,-0.0003240875084884465,-0.011001179926097393
0.02832677587866783,0.004082551226019859,-0.017322564497590065,0.01428525522351265,-0.0003544503706507385,-0.011073891073465347
0.02875601500272751,0.00391027145087719,-0.016633952036499977,0.01394711248576641,-0.00033929431810975075,-0.01164398342370987
0.02891087345778942,0.004383673891425133,-0.01757480576634407,0.01398110669106245,-0.00036574556725099683,-0.011353254318237305
0.02855963259935379,0.004153584595769644,-0.017148565500974655,0.013823778368532658,-0.0003516556753311306,-0.011428026482462883
0.02722151391208172,0.004320201463997364,-0.017435932531952858,0.01383442897349596,-0.00037468282971531153,-0.011272182688117027
0.02909756638109684,0.004453139845281839,-0.017569206655025482,0.013722356408834457,-0.00036308812559582293,-0.011529326438903809
0.02909756638109684,0.004453139845281839,-0.017569206655025482,0.013722356408834457,-0.00036308812559582293,-0.011529326438903809
0.02919928915798664,0.004301201552152634,-0.018171504139900208,0.014283598400652409,-0.0005224333144724369,-0.011795754544436932
0.02919928915798664,0.004301201552152634,-0.018171504139900208,0.014283598400652409,-0.0005224333144724369,-0.011795754544436932
0.028208492323756218,0.0044147246517241,-0.017763720825314522,0.014206564985215664,-0.0005150252254679799,-0.011780349537730217
0.028208492323756218,0.0044147246517241,-0.017763720825314522,0.014206564985215664,-0.0005150252254679799,-0.011780349537730217
0.028230195865035057,0.004333288874477148,-0.018018579110503197,0.014726895838975906,-0.0005360497743822634,-0.012020397000014782
0.029024628922343254,0.004409330897033215,-0.017328541725873947,0.014391008764505386,-0.0005064252763986588,-0.011761157773435116
0.028853531926870346,0.004526312928646803,-0.01809847354888916,0.014625374227762222,-0.0006226587574928999,-0.01194054912775755
0.029002921655774117,0.0044833021238446236,-0.01818559505045414,0.014423293992877007,-0.0006220911163836718,-0.012141572311520576
0.030201541259884834,0.004357479978352785,-0.017941627651453018,0.014433949254453182,-0.0006025679176673293,-0.01180400513112545
0.029434416443109512,0.004434209316968918,-0.018661143258213997,0.013810834847390652,-0.0005886964499950409,-0.011620874516665936
0.028986435383558273,0.004577178042382002,-0.019137956202030182,0.014416036196053028,-0.000574593199416995,-0.011505823582410812
0.028518037870526314,0.004653215408325195,-0.018302541226148605,0.014801664277911186,-0.0005940773407928646,-0.011458232067525387
0.028622418642044067,0.004833098500967026,-0.018454283475875854,0.015226081013679504,-0.0006052898825146258,-0.012009179219603539
0.029545174911618233,0.0043371571227908134,-0.01811118796467781,0.015240633860230446,-0.0005791187868453562,-0.012098222970962524
0.02959689125418663,0.0041580237448215485,-0.018168829381465912,0.015208513475954533,-0.0005912710912525654,-0.012401164509356022
0.02942584827542305,0.0040093520656228065,-0.018805453553795815,0.014530342072248459,-0.0005538321565836668,-0.012209377251565456
0.02937035821378231,0.003969140350818634,-0.0182937104254961,0.014709378592669964,-0.0005815561162307858,-0.011845177970826626
0.029406381770968437,0.004326393827795982,-0.01906895823776722,0.014822825789451599,-0.0005934055079706013,-0.01202384289354086
0.029383165761828423,0.004468244034796953,-0.01901315152645111,0.015122838318347931,-0.0005646096542477608,-0.011936758644878864
0.029082834720611572,0.004284234717488289,-0.017598340287804604,0.015321582555770874,-0.0006235669716261327,-0.012825033627450466
0.02971956506371498,0.004426867235451937,-0.01836823858320713,0.015282021835446358,-0.0006666591507382691,-0.012085813097655773
0.029545098543167114,0.003962638322263956,-0.01894153654575348,0.015653997659683228,-0.0005406792042776942,-0.012102700769901276
0.029362628236413002,0.004131678491830826,-0.018924545496702194,0.016055762767791748,-0.0005674646818079054,-0.012250560335814953
0.029768547043204308,0.004192932974547148,-0.01894623413681984,0.015513661317527294,-0.0005250924150459468,-0.012363799847662449
0.029768547043204308,0.004192932974547148,-0.01894623413681984,0.015513661317527294,-0.0005250924150459468,-0.012363799847662449
0.030166439712047577,0.00451155798509717,-0.018810540437698364,0.015451074577867985,-0.0004975715419277549,-0.012272877618670464
0.030166439712047577,0.00451155798509717,-0.018810540437698364,0.015451074577867985,-0.0004975715419277549,-0.012272877618670464
0.030404336750507355,0.004259562585502863,-0.018658427521586418,0.0160603579133749,-0.00047915938193909824,-0.012206771411001682
0.03010093979537487,0.004306826274842024,-0.018966900184750557,0.015337757766246796,-0.00045015086652711034,-0.012374797835946083
0.02959890104830265,0.004255820531398058,-0.01979805901646614,0.014888632111251354,-0.00041936090565286577,-0.012416424229741096
0.029818205162882805,0.004326149355620146,-0.01933703012764454,0.015334037132561207,-0.0004214425280224532,-0.012358578853309155
0.03026132844388485,0.004074615426361561,-0.019062155857682228,0.015762265771627426,-0.0004222941061016172,-0.012643651105463505
0.031391821801662445,0.0038974317722022533,-0.019466981291770935,0.01492808572947979,-0.000454726570751518,-0.012761282734572887
0.03132330998778343,0.004322175867855549,-0.019439756870269775,0.01441116165369749,-0.00047294297837652266,-0.012902404181659222
0.02984875999391079,0.004579272586852312,-0.01865924522280693,0.015384369529783726,-0.00045719454647041857,-0.012593608349561691
0.029665512964129448,0.004165740683674812,-0.0195651613175869,0.015200973488390446,-0.0005458092200569808,-0.012995259836316109
0.03064088150858879,0.0038745866622775793,-0.019861789420247078,0.015692101791501045,-0.000639821111690253,-0.012941740453243256
0.03056894615292549,0.004271660465747118,-0.019276363775134087,0.015281695872545242,-0.0006232178420759737,-0.012866710312664509
0.0302580613642931,0.004213724285364151,-0.01976103149354458,0.015903286635875702,-0.0005620349547825754,-0.012521276250481606
0.030957123264670372,0.0042722332291305065,-0.020179295912384987,0.015956005081534386,-0.0005501301493495703,-0.012338235974311829
0.03106268309056759,0.004152318928390741,-0.019441943615674973,0.016029072925448418,-0.0005399754736572504,-0.012792044319212437
0.030808856710791588,0.0043303463608026505,-0.019407477229833603,0.01569494605064392,-0.0005519491387531161,-0.012597084045410156
0.03033772110939026,0.004159800708293915,-0.019739117473363876,0.016158027574419975,-0.000527876487467438,-0.013131750747561455
0.030876152217388153,0.003996528219431639,-0.019433144479990005,0.0160101056098938,-0.0005411854363046587,-0.012709582224488258
0.031481269747018814,0.004410578869283199,-0.020046016201376915,0.015536474995315075,-0.0005385344848036766,-0.01283547468483448
0.031446635723114014,0.004640399012714624,-0.020138166844844818,0.01592710055410862,-0.0005714785656891763,-0.012952436693012714
0.03182157129049301,0.00425051711499691,-0.019638502970337868,0.015668291598558426,-0.0005618642899207771,-0.012913077138364315
0.031609684228897095,0.004403761588037014,-0.019362477585673332,0.01611020229756832,-0.0005821904051117599,-0.013024542480707169
0.03138420730829239,0.004555510822683573,-0.01975167728960514,0.015371312387287617,-0.0005504777655005455,-0.013229211792349815
0.03149748221039772,0.004324468784034252,-0.0200424212962389,0.015624195337295532,-0.0006950938259251416,-0.012751239351928234
0.03149748221039772,0.004324468784034252,-0.0200424212962389,0.015624195337295532,-0.0006950938259251416,-0.012751239351928234
0.032161712646484375,0.0043852548114955425,-0.020067129284143448,0.01596119999885559,-0.0006325140129774809,-0.01337322499603033
0.032039836049079895,0.004364275839179754,-0.019296109676361084,0.015887482091784477,-0.0005939812981523573,-0.013451934792101383
0.032039836049079895,0.004364275839179754,-0.019296109676361084,0.015887482091784477,-0.0005939812981523573,-0.013451934792101383
0.0321209542453289,0.004640735220164061,-0.019476287066936493,0.01576595939695835,-0.000600992061663419,-0.013192296028137207
0.03219673037528992,0.00463126553222537,-0.019850613549351692,0.01567828468978405,-0.0005710147670470178,-0.013217895291745663
0.03261015564203262,0.00402146577835083,-0.020695237442851067,0.015500952489674091,-0.0005041731637902558,-0.012920914217829704
0.03261015564203262,0.00402146577835083,-0.020695237442851067,0.015500952489674091,-0.0005041731637902558,-0.012920914217829704
0.03253396973013878,0.004366726614534855,-0.020492402836680412,0.016236910596489906,-0.0004976823111064732,-0.013312199153006077
0.032481394708156586,0.00446142815053463,-0.019239654764533043,0.016332965344190598,-0.0004917706828564405,-0.013422749936580658
0.032569725066423416,0.004828858654946089,-0.01998862624168396,0.016949623823165894,-0.0005084570730105042,-0.013519102707505226
0.032721541821956635,0.004950779024511576,-0.020574579015374184,0.016665460541844368,-0.00048649724340066314,-0.013361677527427673
0.03307707607746124,0.00482054753229022,-0.019930725917220116,0.0163403432816267,-0.0005084986332803965,-0.013466360978782177
0.033338043838739395,0.0043330867774784565,-0.019708015024662018,0.016455061733722687,-0.00048212287947535515,-0.013402570970356464
0.03325081989169121,0.004141677636653185,-0.020613297820091248,0.016200389713048935,-0.0005119558190926909,-0.013531598262488842
0.03355713188648224,0.0041561610996723175,-0.02039780095219612,0.01676200143992901,-0.00047961348900571465,-0.014077143743634224
0.0334458127617836,0.00449441559612751,-0.01995532400906086,0.016479909420013428,-0.0005095346714369953,-0.013117235153913498
0.033325109630823135,0.004731127060949802,-0.020661186426877975,0.016604982316493988,-0.0005132377264089882,-0.012901687063276768
0.033721674233675,0.0049064382910728455,-0.021113140508532524,0.01681179739534855,-0.0005073193460702896,-0.013334491290152073
0.034947097301483154,0.0045729875564575195,-0.020205622538924217,0.016847118735313416,-0.0005342818913049996,-0.01364139560610056
0.03518661484122276,0.004158491734415293,-0.020527396351099014,0.017239129170775414,-0.0006549753597937524,-0.013713964261114597
0.03122083656489849,0.004316557198762894,-0.020792309194803238,0.017000680789351463,-0.0007325971964746714,-0.013893470168113708
0.03357187286019325,0.004617386031895876,-0.02120741456747055,0.017332997173070908,-0.0007483738008886576,-0.01378357782959938
0.03459920361638069,0.0046997880563139915,-0.02059781737625599,0.017202286049723625,-0.0007275723619386554,-0.01365328673273325
0.03459920361638069,0.0046997880563139915,-0.02059781737625599,0.017202286049723625,-0.0007275723619386554,-0.01365328673273325
0.03498837351799011,0.004331465810537338,-0.020689936354756355,0.01719689555466175,-0.0007926662219688296,-0.013895389623939991
0.03534699231386185,0.004389216657727957,-0.020487502217292786,0.016429467126727104,-0.0007630108157172799,-0.013871733099222183
0.03416142240166664,0.0040868050418794155,-0.02080327644944191,0.01655808836221695,-0.0007208161405287683,-0.014056401327252388
0.03334057331085205,0.004306785762310028,-0.021260662004351616,0.01640680804848671,-0.0007307433406822383,-0.013965386897325516
0.03498043864965439,0.004284754861146212,-0.021240172907710075,0.016861040145158768,-0.0007479319465346634,-0.014097222127020359
0.035101864486932755,0.0042451247572898865,-0.020782900974154472,0.016555283218622208,-0.0006879290449433029,-0.014287929981946945
0.035101864486932755,0.0042451247572898865,-0.020782900974154472,0.016555283218622208,-0.0006879290449433029,-0.014287929981946945
0.03460553288459778,0.004079253878444433,-0.020411808043718338,0.017066361382603645,-0.0006347110029309988,-0.01432791631668806
0.03460553288459778,0.004079253878444433,-0.020411808043718338,0.017066361382603645,-0.0006347110029309988,-0.01432791631668806
0.03502850979566574,0.004377863835543394,-0.020363029092550278,0.016829850152134895,-0.0006560917827300727,-0.01424244325608015
0.03503992408514023,0.004154815338551998,-0.021277230232954025,0.016438443213701248,-0.0006406739703379571,-0.014633466489613056
0.03473847359418869,0.004449060186743736,-0.021030671894550323,0.01631156913936138,-0.0006229261052794755,-0.014414562843739986
0.03488675877451897,0.004590860102325678,-0.020346518605947495,0.017157377675175667,-0.0006180378841236234,-0.014376855455338955
0.03513612225651741,0.004229177255183458,-0.02043323963880539,0.017161067575216293,-0.0006125539657659829,-0.014179026708006859
0.03526129946112633,0.004243793897330761,-0.02085573598742485,0.01762569509446621,-0.0005939762922935188,-0.014567493461072445
0.035240188241004944,0.004090792965143919,-0.020622510462999344,0.016723258420825005,-0.0006211410509422421,-0.014488277956843376
0.034437231719493866,0.004312468226999044,-0.020382774993777275,0.01695883274078369,-0.0006407335749827325,-0.014295939356088638
0.03322175145149231,0.004135421477258205,-0.02079474739730358,0.01675250008702278,-0.0007636300870217383,-0.014274010434746742
0.03589176759123802,0.00397487310692668,-0.02111223340034485,0.015718353912234306,-0.0008062718552537262,-0.014534613117575645
0.03663606941699982,0.004384167492389679,-0.020460303872823715,0.016282405704259872,-0.0007900356431491673,-0.014346146024763584
0.035884663462638855,0.0045457882806658745,-0.020236415788531303,0.016284961253404617,-0.0007497988408431411,-0.01457145158201456
0.03418548405170441,0.004407295025885105,-0.020713917911052704,0.016864940524101257,-0.0007433317368850112,-0.014478655532002449
0.03510114550590515,0.004072398412972689,-0.021047204732894897,0.01708715781569481,-0.0006936417776159942,-0.014647528529167175
0.03633100539445877,0.003962223418056965,-0.020155582576990128,0.01680355705320835,-0.0007098485366441309,-0.014313440769910812
0.03598504140973091,0.004019740968942642,-0.020501958206295967,0.01734269969165325,-0.0007102079107426107,-0.014553708955645561
0.03630456328392029,0.004014811012893915,-0.02079513669013977,0.01700691133737564,-0.0007043883670121431,-0.01443311758339405
0.03653906285762787,0.004183370154350996,-0.020873958244919777,0.018009575083851814,-0.0006769933388568461,-0.014479447156190872
0.03546266257762909,0.004788093734532595,-0.021126193925738335,0.01704726368188858,-0.0007575744530186057,-0.015988802537322044
0.03583739697933197,0.004388118162751198,-0.021001778542995453,0.017486484721302986,-0.0007814263808541,-0.014023556374013424
0.03627721220254898,0.004302978515625,-0.02072271704673767,0.016367990523576736,-0.0007969631114974618,-0.013945839367806911
0.03618195280432701,0.004221119452267885,-0.021130956709384918,0.016476718708872795,-0.0007202874403446913,-0.014557592570781708
0.036012936383485794,0.004081509076058865,-0.02155749686062336,0.016056016087532043,-0.0007146804709918797,-0.014908702112734318
0.035700734704732895,0.004215579014271498,-0.020884990692138672,0.016961554065346718,-0.0006690392619930208,-0.014750839211046696
0.03614913299679756,0.004257223568856716,-0.019346747547388077,0.017109815031290054,-0.0006663057138212025,-0.014977065846323967
0.036307789385318756,0.004840589594095945,-0.021830696612596512,0.017519837245345116,-0.0007011663401499391,-0.014714797958731651
0.036307789385318756,0.004840589594095945,-0.021830696612596512,0.017519837245345116,-0.0007011663401499391,-0.014714797958731651
0.036392100155353546,0.004025867208838463,-0.022323397919535637,0.017919905483722687,-0.0006609858828596771,-0.015235016122460365
0.0368993878364563,0.003912578336894512,-0.021582001820206642,0.017613304778933525,-0.0006791018531657755,-0.014956769533455372
0.0368993878364563,0.003912578336894512,-0.021582001820206642,0.017613304778933525,-0.0006791018531657755,-0.014956769533455372
0.03506724536418915,0.004264126531779766,-0.021531539037823677,0.017709756270051003,-0.0007604401907883584,-0.01493515633046627
0.036958128213882446,0.004297369159758091,-0.02115359716117382,0.0172688327729702,-0.0007925998652353883,-0.015049911104142666
0.0370541475713253,0.004009027499705553,-0.021156882867217064,0.017586221918463707,-0.00072030647424981,-0.0153336301445961
0.03669782355427742,0.004152226727455854,-0.021050408482551575,0.017394356429576874,-0.0007357094436883926,-0.015447279438376427
0.03692749887704849,0.004079840146005154,-0.02161119505763054,0.01703783869743347,-0.0007462436333298683,-0.015303844586014748
0.03691397234797478,0.004268612712621689,-0.020900994539260864,0.017767149955034256,-0.0006939152372069657,-0.014808154664933681
0.037071239203214645,0.003999379463493824,-0.02100910060107708,0.01812821626663208,-0.0007590440800413489,-0.015153400599956512
0.03740646317601204,0.00428916746750474,-0.021232420578598976,0.018578046932816505,-0.0007804209017194808,-0.014789873734116554
0.03713761270046234,0.004284491762518883,-0.02230055443942547,0.01842595264315605,-0.0007437063613906503,-0.014928264543414116
0.03729841858148575,0.004058636724948883,-0.022430235520005226,0.01772664114832878,-0.0007568841683678329,-0.015562313608825207
0.037864070385694504,0.004382198676466942,-0.02192506194114685,0.01823134534060955,-0.0008678295998834074,-0.015629364177584648
0.03732478618621826,0.004214258398860693,-0.020703589543700218,0.018224991858005524,-0.0008926239679567516,-0.015318186022341251
0.03717125579714775,0.0041410187259316444,-0.0211331769824028,0.01809501089155674,-0.0008859516819939017,-0.015357494354248047
0.03783416002988815,0.0038879208732396364,-0.021739043295383453,0.01843397133052349,-0.0008724704966880381,-0.014867192134261131
0.038660742342472076,0.003737726015970111,-0.021912580356001854,0.018161065876483917,-0.0008086762973107398,-0.015160131268203259
0.0385185107588768,0.0037428662180900574,-0.021791918203234673,0.018021536991000175,-0.0007804936030879617,-0.015197470784187317
0.03832360357046127,0.0043612136505544186,-0.022059449926018715,0.01843838021159172,-0.000784772913902998,-0.014862103387713432
0.03832360357046127,0.0043612136505544186,-0.022059449926018715,0.01843838021159172,-0.000784772913902998,-0.014862103387713432
0.03941886126995087,0.004400952719151974,-0.021547846496105194,0.018902987241744995,-0.0008141585276462138,-0.014752289280295372
0.03941886126995087,0.004400952719151974,-0.021547846496105194,0.018902987241744995,-0.0008141585276462138,-0.014752289280295372
0.037806205451488495,0.004011944867670536,-0.022050946950912476,0.01833481341600418,-0.0007775685517117381,-0.015267978422343731
0.03742724657058716,0.003970560617744923,-0.022016756236553192,0.018449168652296066,-0.0008433143375441432,-0.014946735464036465
0.038531314581632614,0.003908158745616674,-0.022065460681915283,0.01882501319050789,-0.0008065496804192662,-0.015718599781394005
0.03703153878450394,0.004279934335500002,-0.021844273433089256,0.019071022048592567,-0.0009607331594452262,-0.01495586521923542
0.038620322942733765,0.0041685570031404495,-0.022084131836891174,0.018939686939120293,-0.0008894222555682063,-0.015113070607185364
0.038620322942733765,0.0041685570031404495,-0.022084131836891174,0.018939686939120293,-0.0008894222555682063,-0.015113070607185364
0.039146240800619125,0.003970612771809101,-0.02241700328886509,0.018526218831539154,-0.0008778746705502272,-0.015370604582130909
0.037873998284339905,0.004004706162959337,-0.02190738171339035,0.018533144146203995,-0.000783606490585953,-0.015333488583564758
0.038751449435949326,0.003882537130266428,-0.022205805405974388,0.01782737858593464,-0.0007832850096747279,-0.01491610798984766
0.038924846798181534,0.0037791316863149405,-0.022022932767868042,0.017969351261854172,-0.0007422789349220693,-0.01514696516096592
0.03782595321536064,0.0037937748711556196,-0.022150995209813118,0.018382081761956215,-0.0006624495727010071,-0.014722311869263649
0.03887740150094032,0.003770797047764063,-0.022144734859466553,0.018329180777072906,-0.0006860977155156434,-0.015148547478020191
0.0387318953871727,0.0037780164275318384,-0.022027181461453438,0.018969185650348663,-0.0006897507701069117,-0.015625687316060066
0.03813939541578293,0.004223180003464222,-0.02227148599922657,0.018640317022800446,-0.000686972460243851,-0.015932150185108185
0.03828664496541023,0.004021818749606609,-0.022130081430077553,0.017743254080414772,-0.0006661807419732213,-0.01589551381766796
0.03971336781978607,0.0038243888411670923,-0.022474339231848717,0.01840016432106495,-0.0007195754442363977,-0.015484637580811977
0.03888155147433281,0.003787719877436757,-0.022882375866174698,0.01876991055905819,-0.0007458053296431899,-0.015194539912045002
0.03817985579371452,0.0038224286399781704,-0.02266022190451622,0.018706543371081352,-0.0007647544261999428,-0.015446401201188564
0.03951640799641609,0.004271414130926132,-0.02298472262918949,0.018607959151268005,-0.0007728674681857228,-0.015492165461182594
0.039072006940841675,0.004244343843311071,-0.022828392684459686,0.018491778522729874,-0.000810696801636368,-0.01542635913938284
0.03994401916861534,0.004414012655615807,-0.02239140495657921,0.018153199926018715,-0.0008460239041596651,-0.015266546979546547
0.04001183062791824,0.004355116281658411,-0.02229267545044422,0.0180128775537014,-0.0007923332741484046,-0.015377252362668514
0.03891243413090706,0.004235677421092987,-0.023286715149879456,0.018032189458608627,-0.0008019933593459427,-0.015575227327644825
