davideferrari95/blind_handover_controller/data/Test 55 - [2024-02-07 -- 15-39-49]/joint_states_data.csv
shoulder_pan_joint,shoulder_lift_joint,elbow_joint,wrist_1_joint,wrist_2_joint,wrist_3_joint
0.002111968817189336,0.00030783237889409065,-0.0017417140770703554,0.002050885232165456,0.00015008110494818538,0.003196272999048233
0.002378685399889946,0.00028670328902080655,-0.00156627525575459,0.0021603484638035297,0.00016872600826900452,0.002930772490799427
0.002378685399889946,0.00028670328902080655,-0.00156627525575459,0.0021603484638035297,0.00016872600826900452,0.002930772490799427
0.002215589629486203,0.00034446659265086055,-0.0014315800508484244,0.002216961933299899,0.00016576700727455318,0.0026389583945274353
0.0019891615957021713,0.0003931276733055711,-0.0013684142613783479,0.0019060400081798434,0.0001616110239410773,0.002483001444488764
0.0019370561931282282,0.0006389131303876638,-0.001426859525963664,0.0016864266945049167,0.00015757531218696386,0.002374448115006089
0.001891051302663982,0.0007029710104689002,-0.001410552766174078,0.0012768952874466777,0.00015373044880107045,0.0025471055414527655
0.001891051302663982,0.0007029710104689002,-0.001410552766174078,0.0012768952874466777,0.00015373044880107045,0.0025471055414527655
0.001871765241958201,0.0007262238650582731,-0.0020039347000420094,0.001143441186286509,0.00016596232308074832,0.0026759328320622444
0.002238448476418853,0.0007368547958321869,-0.002045456087216735,0.0010962003143504262,0.0001671540376264602,0.0026557629462331533
0.0022087465040385723,0.0006850481149740517,-0.002059037797152996,0.0011584489839151502,0.0001636835077079013,0.002661961829289794
0.0023830675054341555,0.0009102727053686976,-0.0017999731935560703,0.001281126867979765,0.0001600657997187227,0.0025632076431065798
0.0022599557414650917,0.0009114526910707355,-0.0016252166824415326,0.0012910831719636917,0.00021867638861294836,0.002444416983053088
0.0021345398854464293,0.000910090864636004,-0.0016685527516528964,0.0016258585965260863,0.0002278152242070064,0.0020782260689884424
0.0017734351567924023,0.0008555733365938067,-0.0020466891583055258,0.0016264676814898849,0.00021809470490552485,0.002062467625364661
0.0019268653122708201,0.0010460421908646822,-0.0018931220984086394,0.0014863896649330854,0.00020809361012652516,0.0023446043487638235
0.0020688879303634167,0.0011326437816023827,-0.002055184915661812,0.0015034448588266969,0.0001988988951779902,0.0025805379264056683
0.0023713998962193727,0.0013085264945402741,-0.0017415664624422789,0.0017973267240449786,0.0002168019418604672,0.002898791339248419
0.0022176678758114576,0.0013482787180691957,-0.001754161436110735,0.0017462266841903329,0.00021056797413621098,0.0027813457418233156
0.0021327324211597443,0.001313454587943852,-0.001789188478142023,0.0020172486547380686,0.00020280397438909858,0.002476754831150174
0.0019684131257236004,0.0012713605538010597,-0.0018078142311424017,0.0018354837084189057,0.00019547123520169407,0.002275426872074604
0.001949197263456881,0.0013165577547624707,-0.0023078236263245344,0.0017462086398154497,0.00018864267622120678,0.0020285919308662415
0.0021555626299232244,0.001183347194455564,-0.002195098204538226,0.0016863638302311301,0.0001822740596253425,0.0021184938959777355
0.0021225090604275465,0.0012233449378982186,-0.0023266682401299477,0.00155951629858464,0.00020372518338263035,0.0024681254290044308
0.002136379946023226,0.0011778180487453938,-0.00220104749314487,0.0014632405946031213,0.00019907353271264583,0.002715857932344079
0.002057081088423729,0.0013294870732352138,-0.0021856517996639013,0.0013588174479082227,0.00019308891205582768,0.0027005746960639954
0.001967193093150854,0.001456543104723096,-0.0027018599212169647,0.001291137421503663,0.00018735375488176942,0.0026831403374671936
0.0019263108260929585,0.0013963727978989482,-0.002704926300793886,0.0012561061885207891,0.0002011951437452808,0.002404514467343688
0.0019293781369924545,0.0015781710390001535,-0.0025575009640306234,0.0013088808627799153,0.0002016580110648647,0.0024118227884173393
0.0019080573692917824,0.0014967870665714145,-0.0024123890325427055,0.001569257816299796,0.00019655072537716478,0.0022870732937008142
0.002091106027364731,0.0014117939863353968,-0.0024328522849828005,0.0015520760789513588,0.0001913531159516424,0.0022745132446289062
0.002020299667492509,0.0014356225728988647,-0.0023484760895371437,0.001634811400435865,0.0001864005025709048,0.0024734449107199907
0.001991030527278781,0.0013390310341492295,-0.0027589567471295595,0.001777928788214922,0.000181696392246522,0.002553271595388651
0.0018790450412780046,0.0013944102684035897,-0.00271259481087327,0.0016761539736762643,0.000177223831997253,0.0025648665614426136
0.0018790450412780046,0.0013944102684035897,-0.00271259481087327,0.0016761539736762643,0.000177223831997253,0.0025648665614426136
0.0018338854424655437,0.0014135136734694242,-0.0024304224643856287,0.0017039816593751311,0.00018477189587429166,0.002837141277268529
0.0017080819234251976,0.0016751224175095558,-0.002413299400359392,0.0017184119205921888,0.00017764918447937816,0.002921528648585081
0.0017080819234251976,0.0016751224175095558,-0.002413299400359392,0.0017184119205921888,0.00017764918447937816,0.002921528648585081
0.0019469375256448984,0.0017158762784674764,-0.002247986849397421,0.0016914913430809975,0.0001709118951112032,0.00281910109333694
0.00208424124866724,0.0018310397863388062,-0.002478077309206128,0.001542768906801939,0.00016465815133415163,0.0028913947753608227
0.002032375195994973,0.0018457708647474647,-0.0024107510689646006,0.001431565615348518,0.00015884490858297795,0.0025430996902287006
0.0020782228093594313,0.0016577603528276086,-0.0026099062524735928,0.0014243234181776643,0.00018004653975367546,0.0024074148386716843
0.00203420827165246,0.0015229954151436687,-0.0024866906460374594,0.0017096423543989658,0.00016702649008948356,0.00260814162902534
0.00203420827165246,0.0015229954151436687,-0.0024866906460374594,0.0017096423543989658,0.00016702649008948356,0.00260814162902534
0.0018789800815284252,0.0015840298729017377,-0.0025472494307905436,0.0017801180947571993,0.00016201585822273046,0.0030911623034626245
0.001879840507172048,0.0018586490768939257,-0.0027881714049726725,0.0016447139205411077,0.0001572963665239513,0.0030520970467478037
0.002114106435328722,0.0018779525998979807,-0.0033008658792823553,0.001575979171320796,0.00015284368419088423,0.00289295706897974
0.002130555920302868,0.002001943299546838,-0.002947612665593624,0.0015680418582633138,0.00016079939086921513,0.002670096233487129
0.002106076804921031,0.0019707721658051014,-0.0027044538874179125,0.0014505513245239854,0.00016794029215816408,0.002708336804062128
0.0022130771540105343,0.0019868442323058844,-0.0026614388916641474,0.001492263632826507,0.00016430650430265814,0.002811354584991932
0.0021352351177483797,0.0019524056697264314,-0.0025007184594869614,0.001428187475539744,0.00016017767484299839,0.0028790917713195086
0.0021153350826352835,0.0017320711631327868,-0.002830144017934799,0.0013417605077847838,0.0001562089310027659,0.002757593058049679
0.002106045139953494,0.0017796820029616356,-0.003024844918400049,0.0014285522047430277,0.00015242966765072197,0.0029075138736516237
0.002389569068327546,0.0017981689888983965,-0.0029714801348745823,0.0014029432786628604,0.00014882837422192097,0.0029650679789483547
0.00234775198623538,0.0020375256426632404,-0.0027772709727287292,0.0016610276652500033,0.00014539343828801066,0.003002661280333996
0.002705597085878253,0.0022354095708578825,-0.0029366377275437117,0.0016116275219246745,0.00014211366942618042,0.002952375216409564
0.002805159892886877,0.002214528154581785,-0.0030619450844824314,0.001710480428300798,0.00015370262553915381,0.002910155802965164
0.002506424905732274,0.0023580670822411776,-0.0032808780670166016,0.0017356829484924674,0.00015506941417697817,0.0028318362310528755
0.0019720238633453846,0.002109181834384799,-0.0031555460300296545,0.0017071794718503952,0.00015209898992907256,0.002508419333025813
0.0019159149378538132,0.0021319021470844746,-0.002852826379239559,0.00160346704069525,0.0001489717687945813,0.0025048749521374702
0.002113009337335825,0.002104133600369096,-0.0029691499657928944,0.0015198865439742804,0.00014595326501876116,0.00269631901755929
0.002552784513682127,0.00226435880176723,-0.003052391344681382,0.0014876219211146235,0.00014305347576737404,0.002582969143986702
0.0025252997875213623,0.0023498637601733208,-0.002954757772386074,0.0015001485589891672,0.0001402664347551763,0.0026459149084985256
0.0025252997875213623,0.0023498637601733208,-0.002954757772386074,0.0015001485589891672,0.0001402664347551763,0.0026459149084985256
0.002585181500762701,0.0023117992095649242,-0.0028946418315172195,0.0016111595323309302,0.00013758604472968727,0.0026429377030581236
0.002264708746224642,0.002398719545453787,-0.002953946590423584,0.0016929837875068188,0.00013500604836735874,0.0027788381557911634
0.002156111178919673,0.0024352248292416334,-0.003191528841853142,0.0019272277131676674,0.00013252117787487805,0.0027421836275607347
0.0020831862930208445,0.002320413012057543,-0.0034657130017876625,0.0019681286066770554,0.00013012613635510206,0.003001646837219596
0.002246228978037834,0.0024232922587543726,-0.003343723714351654,0.0019898610189557076,0.0001278160634683445,0.002765087876468897
0.002372964285314083,0.0026247925125062466,-0.003368519013747573,0.0018133717821910977,0.00012558672460727394,0.002599840983748436
0.0026833987794816494,0.0026532828342169523,-0.0028678146190941334,0.0017023679101839662,0.00012135312135796994,0.0025500645861029625
0.0027606480289250612,0.0027138576842844486,-0.0031481992918998003,0.0016360090812668204,0.00011944917787332088,0.002431534230709076
0.002396099269390106,0.002499961294233799,-0.0033743116073310375,0.001913499436341226,0.0001166554939118214,0.002315698191523552
0.0023187941405922174,0.0024493085220456123,-0.0035176982637494802,0.0018146776128560305,0.00011372686276445165,0.002188405254855752
0.0024194836150854826,0.0022205428685992956,-0.003312996355816722,0.0020160265266895294,0.0001109248332795687,0.0023790060076862574
0.0023588526528328657,0.0024324895348399878,-0.00345559767447412,0.001863650162704289,0.0001082561066141352,0.0027409661561250687
0.002514882944524288,0.0027461396530270576,-0.0036661529447883368,0.0017887569265440106,0.0001057131594279781,0.0028740905690938234
0.0025532895233482122,0.002542412606999278,-0.0033247710671275854,0.001611908432096243,0.00010328653297619894,0.002727346494793892
0.002401156583800912,0.0026069066952914,-0.003079587360844016,0.0015530551318079233,0.00010096881305798888,0.002724547404795885
0.0024561933241784573,0.0023187159094959497,-0.003088921308517456,0.0014531381893903017,9.875298565020785e-05,0.002550575416535139
0.002361027989536524,0.002245079493150115,-0.0032744824420660734,0.0014421563828364015,9.663240052759647e-05,0.002463568700477481
0.002563800197094679,0.0024240894708782434,-0.0033860579133033752,0.001407100586220622,9.460085129830986e-05,0.0026636796537786722
0.00279668509028852,0.0026109195314347744,-0.0032049089204519987,0.0014916928485035896,9.265298285754398e-05,0.002761762822046876
0.0028304525185376406,0.002514376537874341,-0.003459879430010915,0.0014247263316065073,9.078373113879934e-05,0.002801366848871112
0.0026626111939549446,0.0025795092806220055,-0.0038283029571175575,0.0017013269243761897,8.898844680516049e-05,0.002637202152982354
0.002765817102044821,0.002530019963160157,-0.003422971349209547,0.0016416836297139525,8.726275700610131e-05,0.0025136556942015886
0.00278463214635849,0.0023872849997133017,-0.003138455329462886,0.001967793330550194,8.560276182834059e-05,0.0024047514889389277
0.0028812100645154715,0.0024111145175993443,-0.0030832921620458364,0.0018421068089082837,8.400470687774941e-05,0.002615126548334956
0.0026782918721437454,0.002564183669164777,-0.0032214890234172344,0.001849037827923894,8.246529614552855e-05,0.003008454805240035
0.0026782918721437454,0.002564183669164777,-0.0032214890234172344,0.001849037827923894,8.246529614552855e-05,0.003008454805240035
0.003090610494837165,0.0016330137150362134,-0.0034399456344544888,0.0017256669234484434,7.954965258250013e-05,0.0029371215496212244
0.003090610494837165,0.0016330137150362134,-0.0034399456344544888,0.0017256669234484434,7.954965258250013e-05,0.0029371215496212244
0.0030725770629942417,0.00041082006646320224,-0.0032683967147022486,0.0016009754035621881,7.81678972998634e-05,0.0028157823253422976
0.0028045170474797487,0.00034641585079953074,-0.003502754494547844,0.0018536592833697796,7.683315925532952e-05,0.0028207520954310894
0.0029847610276192427,0.0004884073860011995,-0.003338470822200179,0.001966027310118079,7.554337935289368e-05,0.002800855552777648
0.003023449331521988,0.000566653092391789,-0.003278783056885004,0.0025538771878927946,8.161277219187468e-05,0.003088389290496707
0.003016507485881448,0.0003728429728653282,-0.0031865229830145836,0.0026126205921173096,8.721479389350861e-05,0.002946623833850026
0.0027851208578795195,0.0004592945333570242,-0.003381559858098626,0.002418037038296461,8.627324132248759e-05,0.002934118267148733
0.0027148532681167126,0.00045854755444452167,-0.0035566275473684072,0.0017875356134027243,8.363203232875094e-05,0.002713450463488698
0.0025621328968554735,0.00047282144078053534,-0.0032785458024591208,0.0016265579033643007,8.235665882239118e-05,0.002963040489703417
0.00264447508379817,0.00045633234549313784,-0.003058265894651413,0.0015224043745547533,8.111948409350589e-05,0.003188105532899499
0.0028107587713748217,0.00041468729614280164,-0.003121082205325365,0.0015755901113152504,7.991892925929278e-05,0.0034471440594643354
0.0028795083053410053,0.00037968988181091845,-0.0033856092486530542,0.001792475930415094,7.87534227129072e-05,0.0035290673840790987
0.002693245653063059,0.0005001822137273848,-0.0034781242720782757,0.0017676722491160035,7.762136374367401e-05,0.0033951655495911837
0.0029868432320654392,0.0004557441861834377,-0.0032890108413994312,0.0018317120848223567,7.652149361092597e-05,0.0031833176035434008
0.0030250009149312973,0.0004138897929806262,-0.003320898162201047,0.0017417261842638254,7.545229891547933e-05,0.0029813102446496487
0.003042820608243346,0.0003790183982346207,-0.003327755257487297,0.0016739480197429657,7.441252819262445e-05,0.002827679505571723
0.0028309295885264874,0.00034956555464304984,-0.0028646644204854965,0.0016659005777910352,7.340111187659204e-05,0.003014342626556754
0.0029640982393175364,0.0003865294565912336,-0.0021998242009431124,0.0015715421177446842,7.241670391522348e-05,0.003285599173977971
0.002677715616300702,0.0003630226419772953,-0.0020766430534422398,0.0014177891425788403,7.145847484935075e-05,0.0032851649448275566
0.002608310664072633,0.0003401825961191207,-0.0020210067741572857,0.0014235250419005752,7.052517321426421e-05,0.0031477175652980804
0.002633208641782403,0.0003200199280399829,-0.0025527800898998976,0.001396338688209653,6.961597682675347e-05,0.0031743880826979876
0.0028614746406674385,0.00035174863296560943,-0.00268645235337317,0.001409694436006248,6.87299543642439e-05,0.002998452400788665
0.003199700266122818,0.0003337789385113865,-0.0029030991718173027,0.0014885704731568694,6.786620360799134e-05,0.003211133647710085
0.0031359298154711723,0.00035689445212483406,-0.0025791991502046585,0.0018391781486570835,6.702382233925164e-05,0.003320960095152259
0.0031359298154711723,0.00035689445212483406,-0.0025791991502046585,0.0018391781486570835,6.702382233925164e-05,0.003320960095152259
0.0029539584647864103,0.00034484703792259097,-0.002332718577235937,0.0020196076948195696,6.620217754971236e-05,0.0028610387817025185
0.003251325339078903,0.00035831501008942723,-0.002081402111798525,0.0021639736369252205,6.4617779571563e-05,0.002603626810014248
0.003251325339078903,0.00035831501008942723,-0.002081402111798525,0.0021639736369252205,6.4617779571563e-05,0.002603626810014248
0.003175575751811266,0.0003925796481780708,-0.002114723902195692,0.0020121813286095858,6.385372398653999e-05,0.002859089057892561
0.0033984871115535498,0.00042703983490355313,-0.0023657449055463076,0.0018155849538743496,6.310751632554457e-05,0.003537285141646862
0.0032112039625644684,0.0011089157778769732,-0.0029805710073560476,0.0017362093785777688,6.237847992451862e-05,0.003901981981471181
0.002922689076513052,0.0010949146235361695,-0.0029732289258390665,0.0018830510089173913,6.166615639813244e-05,0.00393616734072566
0.0033712894655764103,0.0009637479670345783,-0.0023337381426244974,0.0023962741252034903,6.02892687311396e-05,0.0034605080727487803
0.0032539963722229004,0.0008539262344129384,-0.0021604178473353386,0.002346575492992997,5.962356590316631e-05,0.003612316446378827
0.003031996311619878,0.0007966862758621573,-0.002407671418040991,0.0020958082750439644,3.892992936016526e-06,0.003406613366678357
0.0034166628029197454,0.0008073399076238275,-0.003255051327869296,0.0020037346985191107,2.5418461291337735e-07,0.0032795609440654516
0.0032551265321671963,0.0007830467075109482,-0.0032757811713963747,0.001764719607308507,1.659643977802716e-08,0.00338006136007607
0.003394592786207795,0.0007285409374162555,-0.002892613410949707,0.0016418668674305081,1.0836289643378905e-09,0.0035297945141792297
0.00343437772244215,0.00074537075124681,-0.002589230891317129,0.0016505713574588299,7.07532227250951e-11,0.003562874160706997
0.003373500192537904,0.0007571018650196493,-0.0025539598427712917,0.001914785010740161,4.6196796388287e-12,0.0036589589435607195
0.0034400559961795807,0.0007802208419889212,-0.002489705802872777,0.001789121306501329,3.016320645945342e-13,0.00377500057220459
0.00337391858920455,0.0008691687253303826,-0.0028805022593587637,0.0017866857815533876,1.9694418960784256e-14,0.0038554598577320576
0.00345044769346714,0.0008093080250546336,-0.002925576874986291,0.0017037338111549616,1.2859047517866317e-15,0.0037699707318097353
0.0032938921358436346,0.0009390763589181006,-0.0027832346968352795,0.0017647672211751342,8.396038065623901e-17,0.003326193895190954
0.0033726103138178587,0.0009336161892861128,-0.002612251555547118,0.0019408133812248707,5.48201295106147e-18,0.0029172867070883512
0.003686342854052782,0.0009139964822679758,-0.00278902193531394,0.002238652901723981,3.579362763448449e-19,0.0027944757603108883
0.0038093579933047295,0.0008105445886030793,-0.0030733863823115826,0.00232627522200346,2.3370681197694478e-20,0.0030677630566060543
0.0038093579933047295,0.0008105445886030793,-0.0030733863823115826,0.00232627522200346,2.3370681197694478e-20,0.0030677630566060543
0.003348490921780467,0.0008193113026209176,-0.002988695167005062,0.00210663047619164,1.5259385067555176e-21,0.0035212677903473377
0.0032726838253438473,0.0007539735524915159,-0.0027076697442680597,0.0019119178177788854,9.963287989392412e-23,0.0038126606959849596
0.003426316427066922,0.0007381108007393777,-0.0027293681632727385,0.001871601096354425,6.5053154224952016e-24,0.004258256405591965
0.003480152226984501,0.0007842770428396761,-0.0028704165015369654,0.0019564686808735132,4.2475061732551495e-25,0.0040622856467962265
0.0036076377145946026,0.0007976784836500883,-0.0029891273006796837,0.0020492379553616047,2.7733181657998247e-26,0.00355389597825706
0.0034185375552624464,0.0010072196600958705,-0.0029309941455721855,0.0021224007941782475,1.1823088928186372e-28,0.0034326440654695034
0.0034185375552624464,0.0010072196600958705,-0.0029309941455721855,0.0021224007941782475,1.1823088928186372e-28,0.0034326440654695034
0.0035347742959856987,0.0010865875519812107,-0.0028114784508943558,0.0021395734511315823,7.719632021398058e-30,0.003501974046230316
0.004192420281469822,0.0011903473641723394,-0.0028036509174853563,0.002261120593175292,5.040368372653583e-31,0.003546162974089384
0.004165059886872768,0.0012041209265589714,-0.0027296561747789383,0.0023088580928742886,3.291000089523274e-32,0.003685006406158209
0.004020710941404104,0.0011487082811072469,-0.0029508539009839296,0.002452473621815443,2.1487880612687947e-33,0.0038214614614844322
0.0034941600169986486,0.001121188746765256,-0.0029361096676439047,0.0022495309822261333,1.4030050835279506e-34,0.003829990280792117
0.003536442993208766,0.0010601317044347525,-0.0027840486727654934,0.002168501727283001,9.1606208752818e-36,0.0038736385758966208
0.003663392271846533,0.0010368834482505918,-0.002826360985636711,0.002115789568051696,5.981230618642676e-37,0.0036182766780257225
0.004192973021417856,0.001194564625620842,-0.003139729145914316,0.0021627747919410467,2.549892368787154e-39,0.003418757813051343
0.00400052685290575,0.001348883961327374,-0.0031040844041854143,0.00214976305142045,1.6648967184489584e-40,0.003273723181337118
0.0038134201895445585,0.0013326604384928942,-0.0029074042104184628,0.0023218821734189987,1.0871273486231931e-41,0.0035443506203591824
0.0037660326343029737,0.0015963560435920954,-0.00326506863348186,0.002314869314432144,7.1045832141268225e-43,0.0040695080533623695
0.003973434679210186,0.0015970770036801696,-0.0031441363971680403,0.0024589071981608868,4.624284932271896e-44,0.0043087489902973175
0.003884353442117572,0.001358573092147708,-0.0033800064120441675,0.0022328952327370644,2.802596928649634e-45,0.0040548755787312984
0.003668581135571003,0.0011411478044465184,-0.003374249441549182,0.0021765106357634068,0.0,0.0042902580462396145
0.003747120965272188,0.0010859951144084334,-0.0033184399362653494,0.002245071344077587,0.0,0.004098524339497089
0.003913023509085178,0.001054419088177383,-0.003532277885824442,0.002127481158822775,0.0,0.003577880095690489
0.00431163189932704,0.0010438993340358138,-0.003374950960278511,0.002461731666699052,0.0,0.0035126847214996815
0.00444110669195652,0.0011080066906288266,-0.0032310551032423973,0.002467784332111478,0.0,0.004346406552940607
0.004256467800587416,0.0010859747417271137,-0.0033303822856396437,0.0023117505479604006,0.0,0.004858567379415035
0.004506336525082588,0.0013388468651100993,-0.0036591647658497095,0.002305911388248205,0.0,0.004144847393035889
0.004158349707722664,0.0013567955465987325,-0.0038687929045408964,0.0022399681620299816,0.0,0.0038146222941577435
0.004192173480987549,0.0013879091711714864,-0.0037875771522521973,0.0024046103935688734,0.0,0.0034207769203931093
0.0040932102128863335,0.0012205358361825347,-0.0037320987321436405,0.0026398077607154846,0.0,0.00408258568495512
0.0043824780732393265,0.001213008537888527,-0.0032766496296972036,0.0027550358790904284,0.0,0.004157738294452429
0.004097760654985905,0.0011936355149373412,-0.0033813773188740015,0.002625825349241495,0.0,0.004192538559436798
0.00438685854896903,0.00115849485155195,-0.003604668891057372,0.002510599559172988,0.0,0.003907419741153717
0.00438685854896903,0.00115849485155195,-0.003604668891057372,0.002510599559172988,0.0,0.003907419741153717
0.004692847840487957,0.0012773254420608282,-0.0036611868999898434,0.0022879233583807945,0.0,0.0037386855110526085
0.004228879231959581,0.0012658314080908895,-0.003652869490906596,0.002343003638088703,0.0,0.0037843419704586267
0.0042650713585317135,0.001494208350777626,-0.0036491521168500185,0.0025675061624497175,0.0,0.003782667452469468
0.004555019550025463,0.0014654133701696992,-0.0036380700767040253,0.0027424339205026627,0.0,0.003741563530638814
0.004253670573234558,0.0014747463865205646,-0.0036498834379017353,0.0025983692612499,0.0,0.003800279926508665
0.0045135654509067535,0.0013523632660508156,-0.0036351450253278017,0.002263584639877081,0.0,0.003951601684093475
0.00465479027479887,0.0013658823445439339,-0.0034417498391121626,0.0019929041154682636,0.0,0.004277180880308151
0.004710763227194548,0.0016180129023268819,-0.003624866483733058,0.0020150986965745687,0.0,0.004160790704190731
0.004771818872541189,0.0016703439177945256,-0.0038097642827779055,0.0022759058047086,0.0,0.0039755674079060555
0.004632818046957254,0.0018107958603650331,-0.003921954892575741,0.0023094064090400934,0.0,0.004167963284999132
0.004377382341772318,0.0016599270747974515,-0.00406854460015893,0.0024915295653045177,0.0,0.004239467903971672
0.004494620021432638,0.001544423634186387,-0.00375374685972929,0.0026186457835137844,0.0,0.004460311960428953
0.005232230760157108,0.0014407652197405696,-0.0034795738756656647,0.002410848392173648,0.0,0.004270145669579506
0.004965669009834528,0.0014650925295427442,-0.003584502963349223,0.0025704975705593824,0.0,0.0041336133144795895
0.00449002580717206,0.0013951740693300962,-0.003924471791833639,0.0023731684777885675,0.0,0.003921691793948412
0.004404542967677116,0.0015248442068696022,-0.003972156904637814,0.0023247585631906986,0.0,0.0038141743279993534
0.004668824840337038,0.0014367550611495972,-0.003622971475124359,0.002490642946213484,0.0,0.0038752236869186163
0.004788970109075308,0.001586676575243473,-0.003936882596462965,0.002561850706115365,0.0,0.004668323788791895
0.004788970109075308,0.001586676575243473,-0.003936882596462965,0.002561850706115365,0.0,0.004668323788791895
0.004703115671873093,0.0014861252857372165,-0.0040008011274039745,0.0022588782012462616,0.0,0.00451438594609499
0.0048099420964717865,0.0015058965655043721,-0.0038876261096447706,0.0021095979027450085,0.0,0.004236496519297361
0.0048075392842292786,0.0014442410320043564,-0.003880694741383195,0.0020739545579999685,0.0,0.004324893467128277
0.0048075392842292786,0.0014442410320043564,-0.003880694741383195,0.0020739545579999685,0.0,0.004324893467128277
0.004742331337183714,0.001550354529172182,-0.003995607607066631,0.0024622557684779167,0.0,0.004630556795746088
0.004410013556480408,0.001607078011147678,-0.003943081479519606,0.002694389084354043,0.0,0.004874656908214092
0.0046028210781514645,0.001823596190661192,-0.004110369831323624,0.002634393749758601,0.0,0.0047872005961835384
0.005181023385375738,0.0017666569910943508,-0.004111321642994881,0.002754970919340849,0.0,0.004281272646039724
0.004908659961074591,0.00156984047498554,-0.0043678684160113335,0.0026344333309680223,0.0,0.004065664019435644
0.005057664588093758,0.0016397280851379037,-0.004117531236261129,0.0029264509212225676,0.0,0.004200217314064503
0.004915398079901934,0.001743747852742672,-0.003977291751652956,0.0028134502936154604,0.0,0.004907188005745411
0.004723027348518372,0.0018450794741511345,-0.004278397187590599,0.0027090422809123993,0.0,0.005016694776713848
0.00517532043159008,0.0017041295068338513,-0.004274852108210325,0.0026726368814706802,0.0,0.004412177950143814
0.005528200883418322,0.0018421278800815344,-0.0036540741566568613,0.0025377636775374413,0.0,0.004307908471673727
0.005105149000883102,0.0016799961449578404,-0.0034876507706940174,0.002565548522397876,0.0,0.004536394961178303
0.005331400781869888,0.001684195944108069,-0.004174914211034775,0.0025757448747754097,0.0,0.004784212447702885
0.0049055335111916065,0.0015594711294397712,-0.004362558480352163,0.00256527797318995,0.0,0.005058071576058865
0.005449729505926371,0.0015318491496145725,-0.003480240236967802,0.002511326689273119,0.0,0.004767447244375944
0.005449729505926371,0.0015318491496145725,-0.003480240236967802,0.002511326689273119,0.0,0.004767447244375944
0.005754481535404921,0.0016029613325372338,-0.0039045093581080437,0.002845280570909381,0.0,0.004748024512082338
0.00514778820797801,0.0014498928794637322,-0.0041749849915504456,0.0028081967029720545,0.0,0.004670240450650454
0.0049185738898813725,0.0013414692366495728,-0.0040196641348302364,0.002716685878112912,0.0,0.004945435095578432
0.005002670921385288,0.0011359038762748241,-0.004036915488541126,0.0026960112154483795,0.0,0.004723687656223774
0.0053423382341861725,0.0009104303899221122,-0.003670794190838933,0.002863879781216383,0.0,0.004663390573114157
0.005629022605717182,0.0008882546098902822,-0.0035421582870185375,0.0031716651283204556,0.0,0.004827752709388733
0.005059062968939543,0.0009001537691801786,-0.00365355983376503,0.0032320301979780197,0.0,0.004830400925129652
0.00476786307990551,0.0010885992087423801,-0.003786768764257431,0.003050092374905944,0.0,0.004520189482718706
0.00476786307990551,0.0010885992087423801,-0.003786768764257431,0.003050092374905944,0.0,0.004520189482718706
0.005086381454020739,0.0011016358621418476,-0.0038820398040115833,0.0024056986439973116,0.0,0.005654019303619862
0.005086381454020739,0.0011016358621418476,-0.0038820398040115833,0.0024056986439973116,0.0,0.005654019303619862
0.005426946096122265,0.0012280195951461792,-0.003567165695130825,0.0026340701151639223,0.0,0.0048403325490653515
0.005426946096122265,0.0012280195951461792,-0.003567165695130825,0.0026340701151639223,0.0,0.0048403325490653515
0.005117709282785654,0.0012217593612149358,-0.0035578596871346235,0.002683783881366253,0.0,0.004761582240462303
0.005140586290508509,0.0011982813011854887,-0.003684791037812829,0.002591056050732732,0.0,0.004484178498387337
0.00503870565444231,0.0013516604667529464,-0.00414733262732625,0.0026740545872598886,0.0,0.004618941340595484
0.005719357170164585,0.001277730567380786,-0.004417065531015396,0.0027901725843548775,0.0,0.005103219300508499
0.005391919985413551,0.0012181478086858988,-0.0042000263929367065,0.002883128123357892,0.0,0.005608339328318834
0.005452722776681185,0.0010962228989228606,-0.004040516912937164,0.003035247325897217,0.0,0.005193524062633514
0.005597589071840048,0.0010456597665324807,-0.004063821863383055,0.0030723598320037127,0.0,0.005260172300040722
0.005239605903625488,0.0010214680805802345,-0.004477537237107754,0.0029091055039316416,0.0,0.00470515014603734
0.005314237903803587,0.0010042748181149364,-0.0041836523450911045,0.0026690552476793528,0.0,0.004580422770231962
0.005733400117605925,0.0009774047648534179,-0.004169256892055273,0.0027312501333653927,0.0,0.005222743842750788
0.00566179258748889,0.0010591181926429272,-0.004203165881335735,0.002957879798486829,0.0,0.005273450631648302
0.0055046603083610535,0.001244593528099358,-0.0041372147388756275,0.0031334864906966686,0.0,0.005465095397084951
0.005442311055958271,0.001335362670943141,-0.0044302442111074924,0.0032418554183095694,0.0,0.005279229953885078
0.005612989421933889,0.0012581531191244721,-0.00448948796838522,0.0030813240446150303,0.0,0.005007048603147268
0.005681296810507774,0.0011129840277135372,-0.004304660949856043,0.003191519994288683,0.0,0.005651629995554686
0.00552003737539053,0.001020784373395145,-0.004465876612812281,0.0032535495702177286,0.0,0.005397468339651823
0.005664647091180086,0.0010001418413594365,-0.004431047476828098,0.003072639461606741,0.0,0.00541631318628788
0.005365883465856314,0.0009802427375689149,-0.004290158860385418,0.002972144866362214,0.0,0.005253809504210949
0.005461689084768295,0.0009727240540087223,-0.0044810413382947445,0.002801382914185524,0.0,0.005096628330647945
0.006107293535023928,0.0010743322782218456,-0.004649270325899124,0.002967338776215911,0.0,0.005614797584712505
0.005895602982491255,0.001085150521248579,-0.004888756666332483,0.003062373725697398,0.0,0.005513835698366165
0.005808538757264614,0.001068947371095419,-0.004361901432275772,0.0031174980103969574,0.0,0.005342711228877306
0.005971943493932486,0.0011769068660214543,-0.004292607307434082,0.0032089664600789547,0.0,0.005144376773387194
0.005432531237602234,0.001249635242857039,-0.004513985943049192,0.0031437918078154325,0.0,0.005398489534854889
0.00603241752833128,0.0011910166358575225,-0.004597620107233524,0.0032315216958522797,0.0,0.005499554332345724
0.006152845453470945,0.0010622827103361487,-0.004848576616495848,0.0032072917092591524,0.0,0.005427449010312557
0.006059311330318451,0.0009681783267296851,-0.0048537408001720905,0.003055944573134184,0.0,0.0055461968295276165
0.0054974933154881,0.0010600549867376685,-0.004681904334574938,0.0033126140478998423,0.0,0.0052622221410274506
0.00570033909752965,0.0010685144225135446,-0.0041753025725483894,0.0032057599164545536,0.0,0.005638171918690205
0.00666608614847064,0.0014034111518412828,-0.004441197030246258,0.0035616797395050526,0.0,0.005426437593996525
0.00666608614847064,0.0014034111518412828,-0.004441197030246258,0.0035616797395050526,0.0,0.005426437593996525
0.0060697440057992935,0.0014484692364931107,-0.004708842374384403,0.0032745010685175657,0.0,0.005383024923503399
0.005938408430665731,0.0015192057471722364,-0.00513428496196866,0.0031513317953795195,0.0,0.005420434754341841
0.006515151355415583,0.0014641251182183623,-0.005414098966866732,0.00300856726244092,0.0,0.005584226455539465
0.006110761314630508,0.0013497532345354557,-0.00485171377658844,0.0033595284912735224,0.0,0.005318520590662956
0.006390593014657497,0.001269943080842495,-0.004402171354740858,0.004058001562952995,0.0,0.0053044711239635944
0.006539568305015564,0.0010436431039124727,-0.004465010017156601,0.003760406281799078,0.0,0.005599288735538721
0.006296213250607252,0.0010081222280859947,-0.004596935119479895,0.0032977331429719925,0.0,0.0060636019334197044
0.006414325907826424,0.000994760193862021,-0.004653592128306627,0.003039965173229575,0.0,0.005915924906730652
0.006465243641287088,0.0011772075667977333,-0.004678227473050356,0.003271674970164895,0.0,0.005854801274836063
0.006242278963327408,0.0011428829748183489,-0.004620099440217018,0.0032752961851656437,0.0,0.006053157150745392
0.006089087575674057,0.0011054762871935964,-0.004695889540016651,0.003436512779444456,0.0,0.005703424569219351
0.006047613453119993,0.0010962698142975569,-0.004326078575104475,0.0037051362451165915,0.0,0.005723297130316496
0.00645408546552062,0.0011902936967089772,-0.004385798238217831,0.004012083634734154,0.0,0.005440979730337858
0.0062162503600120544,0.0011439650552347302,-0.005044784862548113,0.0039485739544034,0.0,0.005918053910136223
0.006441845558583736,0.0010262626456096768,-0.005223594605922699,0.003564072074368596,0.0,0.0056791058741509914
0.0065848627127707005,0.0011151578510180116,-0.005007138475775719,0.0031587823759764433,0.0,0.0059202671982347965
0.006510226987302303,0.0010811123065650463,-0.005093107931315899,0.003484901040792465,0.0,0.006214153487235308
0.006870501209050417,0.0010535557521507144,-0.004932702984660864,0.003326494013890624,0.0,0.006479138042777777
0.006709377281367779,0.0009558094898238778,-0.0048295119777321815,0.003531495574861765,0.0,0.005921476054936647
0.006709377281367779,0.0009558094898238778,-0.0048295119777321815,0.003531495574861765,0.0,0.005921476054936647
0.006628901697695255,0.000920515856705606,-0.005498971790075302,0.0036905331071466208,0.0,0.0054239919409155846
0.006636322010308504,0.0010180446552112699,-0.005412707105278969,0.0037780434358865023,0.0,0.005931411869823933
0.0066817221231758595,0.0009342484991066158,-0.005086743738502264,0.0036689951084554195,0.0,0.00630939519032836
0.0066817221231758595,0.0009342484991066158,-0.005086743738502264,0.0036689951084554195,0.0,0.00630939519032836
0.006241509225219488,0.0010862525086849928,-0.004930182360112667,0.0035905134864151478,0.0,0.006240610033273697
0.006882186979055405,0.0010566869750618935,-0.004845959600061178,0.0036523034796118736,0.0,0.005588159896433353
0.0069925845600664616,0.00103387504350394,-0.0054701236076653,0.0032774375285953283,0.0,0.006270564626902342
0.007278179284185171,0.0010247273603454232,-0.005295522045344114,0.0032141804695129395,0.0,0.0061993105337023735
0.0067922514863312244,0.0010481951758265495,-0.004458659794181585,0.0033367511350661516,0.0,0.006006044801324606
0.006737362593412399,0.001123730093240738,-0.0044587766751646996,0.0037423514295369387,0.0,0.0064118532463908195
0.0068183899857103825,0.0013228233437985182,-0.004974571987986565,0.0035474689211696386,0.0,0.006591341458261013
0.00717229675501585,0.0014009404694661498,-0.00491184601560235,0.003562027821317315,1.358622853331326e-06,0.006315251346677542
0.006913923192769289,0.0011502234265208244,-0.004978095181286335,0.003392997430637479,5.792022861328405e-09,0.006370346061885357
0.0072265989147126675,0.0010102938394993544,-0.0050180088728666306,0.003910967148840427,3.7817771136872125e-10,0.006264619994908571
0.007605604827404022,0.0009720614762045443,-0.005074921064078808,0.004249766003340483,2.469230028778746e-11,0.006556352600455284
0.007402064278721809,0.0009719810332171619,-0.004923608154058456,0.0040764580480754375,1.612230856630481e-12,0.006513089407235384
0.007410177029669285,0.0009624110534787178,-0.004734349902719259,0.0035471084993332624,1.0526715404305526e-13,0.006525747943669558
0.0068971626460552216,0.0010918364860117435,-0.005144466646015644,0.0035344951320439577,6.873192946320501e-15,0.006566978991031647
0.007060242351144552,0.0011006150161847472,-0.005565912462770939,0.0037005962803959846,4.487703903726227e-16,0.006406317465007305
0.008061859756708145,0.0010818943846970797,-0.0053274305537343025,0.003800346050411463,2.930150007987417e-17,0.006422725506126881
0.00791256595402956,0.001331264735199511,-0.0048103597946465015,0.003741400083526969,1.9131783873532316e-18,0.006438595242798328
0.00681392103433609,0.0013118658680468798,-0.005012298468500376,0.003660032758489251,1.2491688699984861e-19,0.006342167966067791
0.007263551466166973,0.0012411962961778045,-0.0051432722248137,0.0036242788191884756,8.156179362151148e-21,0.006196845788508654
0.008279545232653618,0.0013231377815827727,-0.005966679193079472,0.003944392781704664,5.3254023141586385e-22,0.006352115422487259
0.007854598574340343,0.0012420339044183493,-0.005845865234732628,0.004217313136905432,3.47710701924207e-23,0.006604800932109356
0.0076069594360888,0.001218874822370708,-0.005700450856238604,0.004100961145013571,2.270302242180811e-24,0.006707950495183468
0.007742432877421379,0.0011695462744683027,-0.005090987775474787,0.00418733898550272,1.4823449524748265e-25,0.006743970327079296
0.008222699165344238,0.001250977162271738,-0.005286442581564188,0.004281527828425169,-9.629565283830743e-06,0.006668028421700001
0.0077134077437222,0.001240674639120698,-0.005251418333500624,0.004055119585245848,-0.00022777033154852688,0.007095690350979567
0.0077134077437222,0.001240674639120698,-0.005251418333500624,0.004055119585245848,-0.00022777033154852688,0.007095690350979567
0.007399641443043947,0.0014644134789705276,-0.006448203232139349,0.003846700768917799,-0.00023037445498630404,0.007506965193897486
0.008084111846983433,0.0013967190170660615,-0.006137574091553688,0.0037667294964194298,-0.0002200395829277113,0.006705414969474077
0.00793529488146305,0.0013058703625574708,-0.005620475858449936,0.0040125916711986065,-0.00020983752619940788,0.00650932639837265
0.007634575944393873,0.0011923547135666013,-0.005168830510228872,0.004659367259591818,-0.0002378481876803562,0.006769443396478891
0.008216531947255135,0.0012634729500859976,-0.005293457768857479,0.004836038686335087,-0.00023014562611933798,0.007307606749236584
0.008239629678428173,0.001237984630279243,-0.006274613551795483,0.0042769466526806355,-0.00023890142620075494,0.007605619728565216
0.008088797330856323,0.0014897292712703347,-0.006139920558780432,0.004283487796783447,-0.0002463590644765645,0.007523888256400824
0.008020954206585884,0.0015672309091314673,-0.005881218705326319,0.004186911508440971,-0.0002548077027313411,0.007151886820793152
0.008046542294323444,0.001869321335107088,-0.005690081510692835,0.00419527618214488,-0.00026119546964764595,0.007335819769650698
0.008712089620530605,0.00170369993429631,-0.005654487758874893,0.004281471949070692,-0.00038677669363096356,0.007431970443576574
0.007879754528403282,0.0014453587355092168,-0.006198727060109377,0.00441123079508543,-0.0004663199943024665,0.006966674700379372
0.008145618252456188,0.0013446897501125932,-0.005617762450128794,0.004374730866402388,-0.00048076166422106326,0.007102324161678553
0.008730958215892315,0.0013896358432248235,-0.005762349348515272,0.0041114226914942265,-0.0004784963093698025,0.0074496399611234665
0.008052296936511993,0.0014756808523088694,-0.0055405437014997005,0.003960237838327885,-0.0007514403550885618,0.006907615344971418
0.008225166238844395,0.0014522175770252943,-0.0060021416284143925,0.0043404679745435715,-0.0006830336060374975,0.006954045966267586
0.008741682395339012,0.0018485607579350471,-0.006188923958688974,0.004151036962866783,-0.0005954468506388366,0.0074007087387144566
0.008593564853072166,0.0017286919755861163,-0.005474349483847618,0.00422055134549737,-0.0006025239126756787,0.0071908109821379185
0.008075318299233913,0.0017372199799865484,-0.005739810410887003,0.004196051508188248,-0.0005630754749290645,0.007194793317466974
0.008738404139876366,0.0017006084090098739,-0.005805156193673611,0.0043957713060081005,-0.0005112433573231101,0.00730137899518013
0.009103168733417988,0.0014865176053717732,-0.006099109072238207,0.004505959339439869,-0.00046707343426533043,0.007723720278590918
0.008076327852904797,0.001508117071352899,-0.006445866543799639,0.004394231829792261,-0.00042986066546291113,0.007678960915654898
0.00835441704839468,0.001444538007490337,-0.0050871786661446095,0.0043182820081710815,-0.00044689144124276936,0.007446445990353823
0.009616349823772907,0.0015741875395178795,-0.005775416735559702,0.0044781723991036415,-0.00043143349466845393,0.007363836281001568
0.009616349823772907,0.0015741875395178795,-0.005775416735559702,0.0044781723991036415,-0.00043143349466845393,0.007363836281001568
0.008735143579542637,0.001631543505936861,-0.0062841931357979774,0.004719656426459551,-0.0004046969988849014,0.008020608685910702
0.00815388560295105,0.0018492968520149589,-0.0062880609184503555,0.004657338839024305,-0.00038031916483305395,0.007656351663172245
0.0084829768165946,0.001856983290053904,-0.006177994422614574,0.004711716901510954,-0.0004029858100693673,0.007497102953493595
0.008828473277390003,0.0022433798294514418,-0.0054342192597687244,0.004420353565365076,-0.00038735996349714696,0.008134778589010239
0.008492058143019676,0.0019701027777045965,-0.005888686515390873,0.0045375521294772625,-0.00036863679997622967,0.00831072311848402
0.009027848951518536,0.0017500808462500572,-0.006204770412296057,0.004815484397113323,-0.0002907848102040589,0.007786554750055075
0.009322913363575935,0.0015890294453129172,-0.006335046142339706,0.004482091870158911,-0.00026979518588632345,0.007782336324453354
0.009032308124005795,0.001551641384139657,-0.0065223537385463715,0.004516840446740389,-0.0002983057638630271,0.007409826386719942
0.008908407762646675,0.0015799800166860223,-0.00604808097705245,0.004566256422549486,-0.00028837635181844234,0.008324023336172104
0.009808161295950413,0.0015260970685631037,-0.00598551332950592,0.00506972149014473,-0.0003136807354167104,0.008564393036067486
0.009036686271429062,0.0018915296532213688,-0.006104597821831703,0.005155387334525585,-0.00030398566741496325,0.008114642463624477
0.009211011230945587,0.001508413814008236,-0.006517704576253891,0.004839799366891384,-0.00031650002347305417,0.007987996563315392
0.009497147053480148,0.0013593615731224418,-0.006124523468315601,0.00532753998413682,-0.00030495948158204556,0.00867712777107954
0.008946869522333145,0.0013824889902025461,-0.006393068004399538,0.005430789664387703,-0.00044547737343236804,0.008225646801292896
0.009423764422535896,0.0011976714013144374,-0.0061412956565618515,0.0052992613054811954,-0.0004155338683631271,0.008934339508414268
0.009592012502253056,0.001120291999541223,-0.006735322065651417,0.004992281086742878,-0.00038104879786260426,0.008181617595255375
0.009313279762864113,0.0012003228766843677,-0.0068556321784853935,0.004581626504659653,-0.0003513215051498264,0.007404034491628408
0.00987493060529232,0.0013825187925249338,-0.006160936318337917,0.004760639742016792,-0.0003574828151613474,0.007563429418951273
0.009684756398200989,0.001498533645644784,-0.005979094188660383,0.005294347647577524,-0.0003624229575507343,0.008773877285420895
0.009105116128921509,0.0014314756263047457,-0.006555378437042236,0.005323353223502636,-0.0003413972444832325,0.00885028950870037
0.009275616146624088,0.001542186364531517,-0.007316163275390863,0.0052012181840837,-0.00032120381365530193,0.008523640222847462
0.00966218113899231,0.0016005504876375198,-0.0062415506690740585,0.004780798219144344,-0.00030317212804220617,0.00862542912364006
0.009782111272215843,0.0016683711437508464,-0.005950671620666981,0.0044815572910010815,-0.0002870501484721899,0.008507799357175827
0.010042075999081135,0.0017016881611198187,-0.006428902503103018,0.0050360471941530704,-0.00029472439200617373,0.008860919624567032
0.0103224478662014,0.0015912681119516492,-0.00686797546222806,0.005749650299549103,-0.0003011814260389656,0.008821239694952965
0.0103224478662014,0.0015912681119516492,-0.00686797546222806,0.005749650299549103,-0.0003011814260389656,0.008821239694952965
0.009858309291303158,0.001632524305023253,-0.007223478518426418,0.005454284138977528,-0.00028871954418718815,0.008866719901561737
0.010114788077771664,0.0015387914609164,-0.007242348976433277,0.005551483947783709,-0.00027614861028268933,0.008817766793072224
0.010403808206319809,0.0015249076532199979,-0.005996060092002153,0.005367575213313103,-0.0002645560016389936,0.009073818102478981
0.009925962425768375,0.0014521050034090877,-0.0064216190949082375,0.005324283614754677,-0.0002853317419067025,0.009197316132485867
0.010496938601136208,0.001383856637403369,-0.006849934346973896,0.005512845236808062,-0.00027860485715791583,0.009150502271950245
0.010178976692259312,0.001583640812896192,-0.00719106150791049,0.005698534660041332,-0.0002684956125449389,0.009172197431325912
0.010059872642159462,0.0014936961233615875,-0.006759168580174446,0.005449808668345213,-0.0002588601491879672,0.009002488106489182
0.010354818776249886,0.0017194893443956971,-0.006632416509091854,0.005470531992614269,-0.00024987582582980394,0.009349001571536064
0.010706367902457714,0.0017487292643636465,-0.007195820100605488,0.005285181570798159,-0.00021825468866154552,0.009034290909767151
0.011231743730604649,0.0015761350514367223,-0.006764443591237068,0.005607171915471554,-0.00020543472783174366,0.009385860525071621
0.009998983703553677,0.0014936956577003002,-0.0067170727998018265,0.005691186059266329,-0.00022501162311527878,0.008837695233523846
0.010819968767464161,0.001509474590420723,-0.006712277419865131,0.005170095711946487,-0.000247877644142136,0.00882028415799141
0.010088660754263401,0.0015233898302540183,-0.006926633883267641,0.005345779005438089,-0.00024266279069706798,0.009000584483146667
0.010064199566841125,0.0015545195201411843,-0.00630415603518486,0.005476134829223156,-0.0002339348429813981,0.008834573440253735
0.010521234013140202,0.0016251748893409967,-0.006208672188222408,0.005636770743876696,-0.0002255759172840044,0.008616317994892597
0.01067266147583723,0.0015171683626249433,-0.007126669865101576,0.005879423581063747,-0.0002467854064889252,0.009435251355171204
0.009841172024607658,0.0015816467348486185,-0.007003356236964464,0.00556513387709856,-0.00024043484881985933,0.009334921836853027
0.010552800260484219,0.001613513333722949,-0.006572254933416843,0.00553352665156126,-0.00039855382055975497,0.009201880544424057
0.009945180267095566,0.0016680513508617878,-0.0066261738538742065,0.00538508128374815,-0.0004452845314517617,0.009151048958301544
0.010065477341413498,0.0015704771503806114,-0.006482018623501062,0.005494270008057356,-0.0004291427321732044,0.00941431149840355
0.010626550763845444,0.0016099608037620783,-0.0071770367212593555,0.005480205174535513,-0.00039870062028057873,0.009515207260847092
0.010128489695489407,0.0016583353281021118,-0.008085067383944988,0.005829780362546444,-0.0003713446785695851,0.009462481364607811
0.010568918660283089,0.0015474894316866994,-0.007161823101341724,0.005810510832816362,-0.000397491327021271,0.009116990491747856
0.010256202891469002,0.0016032704152166843,-0.006240719463676214,0.005978734698146582,-0.000380322482669726,0.009357145056128502
0.010081282816827297,0.0014933597994968295,-0.006513429339975119,0.006161510478705168,-0.00035908265272155404,0.010169142857193947
0.010358378291130066,0.0013929097913205624,-0.007069991901516914,0.006121138110756874,-0.00038174184737727046,0.009854803793132305
0.010358378291130066,0.0013929097913205624,-0.007069991901516914,0.006121138110756874,-0.00038174184737727046,0.009854803793132305
0.010601246729493141,0.0013722773874178529,-0.007245443761348724,0.005646032746881247,-0.0003679766377899796,0.009451322257518768
0.00982789508998394,0.0013198853703215718,-0.006911951582878828,0.00543499831110239,-0.0003504377673380077,0.009616640396416187
0.010871057398617268,0.0012595374137163162,-0.007554915733635426,0.005620991345494986,-0.0003341919800732285,0.010166083462536335
0.011012246832251549,0.0013309778878465295,-0.0071679046377539635,0.005685196258127689,-0.0003193662560079247,0.009923542849719524
0.010619884356856346,0.0013069103006273508,-0.006905907299369574,0.006216070614755154,-0.0003067800425924361,0.010100558400154114
0.010826975107192993,0.0015061041340231895,-0.007096131332218647,0.0064516812562942505,-0.00030497583793476224,0.010040703229606152
0.01031126081943512,0.0014672536635771394,-0.006869863718748093,0.006039747502654791,-0.00028677619411610067,0.010088958777487278
0.011654150672256947,0.0015206619864329696,-0.007174953818321228,0.0061953142285346985,-0.00026966407313011587,0.009855926968157291
0.010340354405343533,0.0014010395389050245,-0.007176629267632961,0.0065474859438836575,-0.00025441640173085034,0.009509909898042679
0.01045707706362009,0.0014878824586048722,-0.007202428299933672,0.006704915314912796,-0.0002763111551757902,0.009424008429050446
0.01148892380297184,0.0013907905668020248,-0.007175190839916468,0.006294245831668377,-0.0002734500158112496,0.009862735867500305
0.010495476424694061,0.0015694752801209688,-0.006999122444540262,0.006702986545860767,-0.00028491660486906767,0.010012242011725903
0.010951351374387741,0.0019211734179407358,-0.006698450073599815,0.006577423308044672,-0.0002773037413135171,0.010027713142335415
0.01081794686615467,0.001904093660414219,-0.007162915077060461,0.006553203798830509,-0.00026591881760396063,0.010000566020607948
0.01086734514683485,0.0019513315055519342,-0.008116372860968113,0.0066275689750909805,-0.0002891400654334575,0.010824608616530895
0.011224240064620972,0.0019165873527526855,-0.007499788887798786,0.006521149538457394,-0.0002801056543830782,0.010775953531265259
0.010869295336306095,0.0017810281133279204,-0.0071780988946557045,0.0061833965592086315,-0.00027010365738533437,0.00988792534917593
0.011958176270127296,0.0016328670317307115,-0.007301107048988342,0.006667845416814089,-0.00031882093753665686,0.010042467154562473
0.011466847732663155,0.001616752240806818,-0.00825863890349865,0.006861401256173849,-0.00034633249742910266,0.010877520777285099
0.01117793656885624,0.0017005291301757097,-0.008110089227557182,0.006771086249500513,-0.00033875275403261185,0.011047464795410633
0.01136226486414671,0.0018011302454397082,-0.0073409066535532475,0.006263671442866325,-0.00031961925560608506,0.010778962634503841
0.011540343053638935,0.0018842467106878757,-0.0072624897584319115,0.006616033613681793,-0.00034533077268861234,0.010759533382952213
0.011366034857928753,0.001850124797783792,-0.00846766121685505,0.007163346279412508,-0.0003330271574668586,0.010639261454343796
0.012135583907365799,0.0018781638937070966,-0.008510279469192028,0.007127367425709963,-0.00035880383802577853,0.011365312151610851
0.011198451742529869,0.0016711073694750667,-0.007943003438413143,0.006763346493244171,-0.0003444102476350963,0.010672111064195633
0.011597199365496635,0.0015263300156220794,-0.0075791338458657265,0.00614633783698082,-0.00041437221807427704,0.010022158734500408
0.011563357897102833,0.0015822374261915684,-0.007947064004838467,0.006602230481803417,-0.0004969859728589654,0.010693173855543137
0.011674787849187851,0.0015066534979268909,-0.007947031408548355,0.007057263050228357,-0.000496357271913439,0.010926551185548306
0.012088259682059288,0.001773244934156537,-0.007976910099387169,0.006697974633425474,-0.00045725470408797264,0.01068392675369978
0.011671289801597595,0.0020838852506130934,-0.008264308795332909,0.006385241635143757,-0.0004733012174256146,0.01083584688603878
0.011671289801597595,0.0020838852506130934,-0.008264308795332909,0.006385241635143757,-0.0004733012174256146,0.01083584688603878
0.011462493799626827,0.0021891735959798098,-0.008236958645284176,0.006190336775034666,-0.00045512165524996817,0.010662459768354893
0.011611327528953552,0.002469911938533187,-0.008007337339222431,0.006491951644420624,-0.00048194944974966347,0.010352146811783314
0.012161978520452976,0.002160431118682027,-0.00801287591457367,0.006677333731204271,-0.00045522136497311294,0.010724145919084549
0.013957306742668152,0.0019852234981954098,-0.008512899279594421,0.006513264961540699,-0.0005281461635604501,0.010710211470723152
0.013742474839091301,0.0018197580939158797,-0.008355824276804924,0.005898612551391125,-0.0004870382836088538,0.01083346363157034
0.013585764914751053,0.001716857310384512,-0.008344660513103008,0.007084222510457039,-0.0005500642582774162,0.010791298933327198
0.013948620297014713,0.002005457179620862,-0.008962866850197315,0.0069786678068339825,-0.0005148306954652071,0.010975291952490807
0.013685472309589386,0.0018534521805122495,-0.0085894875228405,0.006551297381520271,-0.0004765013582073152,0.011102828197181225
0.014046656899154186,0.002044866094365716,-0.00833004992455244,0.006568368524312973,-0.00044301210436969995,0.011339638382196426
0.013597384095191956,0.0018698381027206779,-0.008824105374515057,0.006967451423406601,-0.0004649848269764334,0.011281023733317852
0.0139447171241045,0.0019742376171052456,-0.008347874507308006,0.0070636640302836895,-0.0004433185386005789,0.011291243135929108
0.01357141975313425,0.001770524075254798,-0.008331161923706532,0.006901992484927177,-0.00041802533087320626,0.011478878557682037
0.014200767502188683,0.001771426759660244,-0.009215711615979671,0.006848535966128111,-0.00039510667556896806,0.011626883409917355
0.013869189657270908,0.0017826567636802793,-0.009017398580908775,0.007181230932474136,-0.00037454679841175675,0.011560481041669846
0.014073415659368038,0.001932371174916625,-0.008768084459006786,0.007292016874998808,-0.0003560208424460143,0.011484595946967602
0.01425202190876007,0.001989377662539482,-0.008799220435321331,0.007435968145728111,-0.00033182211336679757,0.011335271410644054
0.01456811185926199,0.002311513526365161,-0.009534059092402458,0.006819177884608507,-0.00030782545218244195,0.01172146201133728
0.014101597480475903,0.0024166160728782415,-0.008867002092301846,0.0071585699915885925,-0.0002880269312299788,0.011226372793316841
0.013905459083616734,0.0022443009074777365,-0.00906895287334919,0.007211342919617891,-0.00027068675262853503,0.010910993441939354
0.013528809882700443,0.0020751941483467817,-0.009331600740551949,0.00675800908356905,-0.0002553208905737847,0.011756494641304016
0.013528809882700443,0.0020751941483467817,-0.009331600740551949,0.00675800908356905,-0.0002553208905737847,0.011756494641304016
0.014082590118050575,0.002000411506742239,-0.00900318194180727,0.006769094150513411,-0.0002416065544821322,0.011413482949137688
0.01432151161134243,0.0019325546454638243,-0.00927687156945467,0.007249742280691862,-0.00026140434783883393,0.011783560737967491
0.01432151161134243,0.0019325546454638243,-0.00927687156945467,0.007249742280691862,-0.00026140434783883393,0.011783560737967491
0.014103589579463005,0.002018126193434,-0.009288040921092033,0.0072049726732075214,-0.00024967064382508397,0.011747606098651886
0.014518428593873978,0.001982086570933461,-0.009382764808833599,0.007361222058534622,-0.0002386568085057661,0.011932805180549622
0.014274216257035732,0.0020566729363054037,-0.009240714833140373,0.0076926397159695625,-0.0002567024785093963,0.011934854090213776
0.014503756538033485,0.001840283046476543,-0.009126142598688602,0.007709702011197805,-0.00025516829919070005,0.012362836860120296
0.01442702766507864,0.0017453692853450775,-0.008570602163672447,0.007522181142121553,-0.00024579124874435365,0.012781303375959396
0.014596516266465187,0.0017284136265516281,-0.009099570102989674,0.00752963637933135,-0.00023659672297071666,0.01184521708637476
0.01438269391655922,0.00163559359498322,-0.009176232852041721,0.007196755614131689,-0.00025628507137298584,0.011888968758285046
0.014335421845316887,0.0018296681810170412,-0.00861503928899765,0.007137174718081951,-0.0002512237406335771,0.01199151761829853
0.014838261529803276,0.002058030804619193,-0.009238961152732372,0.007460803259164095,-0.00024625231162644923,0.012317980639636517
0.014686048962175846,0.002490827115252614,-0.009706017561256886,0.007998710498213768,-0.00024376108194701374,0.012435832992196083
0.014995605684816837,0.0023867690470069647,-0.009395567700266838,0.007645059376955032,-0.00025453889975324273,0.012409120798110962
0.014254922047257423,0.0021266895346343517,-0.009481037966907024,0.007407079916447401,-0.00026314647402614355,0.012804247438907623
0.014606798067688942,0.0020269516389817,-0.008628031238913536,0.00735953776165843,-0.00028327840846031904,0.012932064943015575
0.014416954480111599,0.001894776476547122,-0.009496234357357025,0.00802405085414648,-0.0002805135154630989,0.012626037001609802
0.014400115236639977,0.0016964426031336188,-0.009898851625621319,0.007527095265686512,-0.00026917061768472195,0.012897838838398457
0.014315900392830372,0.00196837424300611,-0.009259404614567757,0.007102800067514181,-0.0002901472325902432,0.012654022313654423
0.014693320728838444,0.002001972869038582,-0.008758068084716797,0.007219739258289337,-0.00028376400587148964,0.012773435562849045
0.014508751221001148,0.0022213004995137453,-0.009624318219721317,0.007918082177639008,-0.0004711828660219908,0.012397438287734985
0.014647901989519596,0.0021334209013730288,-0.009748049080371857,0.007946981117129326,-0.0005211472162045538,0.012827383354306221
0.014664282090961933,0.002050824696198106,-0.008889494463801384,0.008038638159632683,-0.0005197165883146226,0.012998797930777073
0.014812655746936798,0.0019195948261767626,-0.008868745528161526,0.007721143774688244,-0.0005129335913807154,0.01329890824854374
0.014196577481925488,0.001881622476503253,-0.009578022174537182,0.008042619563639164,-0.0005397261120378971,0.01338814478367567
0.015009266324341297,0.0018702675588428974,-0.009585358202457428,0.007941678166389465,-0.0007257567485794425,0.01304982416331768
0.015009266324341297,0.0018702675588428974,-0.009585358202457428,0.007941678166389465,-0.0007257567485794425,0.01304982416331768
0.014650030992925167,0.002091697882860899,-0.009341050870716572,0.007769295014441013,-0.000776387401856482,0.012970310635864735
0.01545347273349762,0.0028421548195183277,-0.009276362136006355,0.007761751301586628,-0.0007710332865826786,0.012851622886955738
0.014624935574829578,0.0027396578807383776,-0.008854265324771404,0.007434498984366655,-0.0007100985385477543,0.013575535267591476
0.014824731275439262,0.002691045170649886,-0.009272894822061062,0.008768593892455101,-0.0006396116223186255,0.013075044378638268
0.014942876994609833,0.002218110952526331,-0.010607214644551277,0.008418101817369461,-0.0006521320319734514,0.013163375668227673
0.01558526698499918,0.0018933976534754038,-0.009221430867910385,0.008618579246103764,-0.0006129133980721235,0.01350549515336752
0.014692200347781181,0.0018648362020030618,-0.00900936871767044,0.008512657135725021,-0.0005867804866284132,0.013422324322164059
0.014963017776608467,0.0021114640403538942,-0.009599408134818077,0.008145518600940704,-0.0005722116329707205,0.013239155523478985
0.014973237179219723,0.00198237132281065,-0.009527735412120819,0.00817147921770811,-0.0005580157157965004,0.013309136033058167
0.01516740582883358,0.0024745131377130747,-0.009434678591787815,0.00851457193493843,-0.0005870360182598233,0.013709209859371185
0.015133663080632687,0.0023802057839930058,-0.009648365899920464,0.008356300182640553,-0.000598608807194978,0.013132592663168907
0.013492584228515625,0.0022921774070709944,-0.009993134997785091,0.0076368036679923534,-0.0005734094884246588,0.01313842087984085
0.015418135561048985,0.0020027311984449625,-0.009629927575588226,0.008417167700827122,-0.0006681631784886122,0.013569619506597519
0.015138772316277027,0.0018358816159889102,-0.00961074884980917,0.008019057102501392,-0.0006940378807485104,0.013492693193256855
0.015016324818134308,0.0018831815104931593,-0.009293314069509506,0.007619487587362528,-0.000714667490683496,0.013978879898786545
0.015063625760376453,0.0023872414603829384,-0.010284715332090855,0.00773216225206852,-0.0008328121621161699,0.013692515902221203
0.014943009242415428,0.0028103766962885857,-0.009170249104499817,0.008145428262650967,-0.0008956979727372527,0.015351958572864532
0.015344249084591866,0.0025635892525315285,-0.009676002897322178,0.008424697443842888,-0.000873715034686029,0.013473796658217907
0.0154509162530303,0.002102072350680828,-0.010114908218383789,0.00886179693043232,-0.0007929650018922985,0.013580107130110264
0.01604803092777729,0.0017821069341152906,-0.009637952782213688,0.008503480814397335,-0.0007993311737664044,0.013439632020890713
0.015518189407885075,0.0015514182159677148,-0.009102771058678627,0.008490100502967834,-0.0007249683258123696,0.01389994379132986
0.015851514413952827,0.001521544880233705,-0.010063053108751774,0.009044019505381584,-0.000673966365866363,0.0140937315300107
0.015760842710733414,0.0018261793302372098,-0.00950443372130394,0.008735707961022854,-0.0006026042392477393,0.014669147320091724
0.01618163101375103,0.0021577004808932543,-0.009148141369223595,0.008726080879569054,-0.0005324123776517808,0.014598135836422443
0.016379548236727715,0.002287144074216485,-0.009784465655684471,0.008764994330704212,-0.0005579121643677354,0.014584449119865894
0.015688400715589523,0.002107288921251893,-0.009704392403364182,0.008430142886936665,-0.00051567901391536,0.014165205880999565
0.016069313511252403,0.0019536551553756,-0.00939848180860281,0.00849195383489132,-0.000509304110892117,0.014546304941177368
0.016069313511252403,0.0019536551553756,-0.00939848180860281,0.00849195383489132,-0.000509304110892117,0.014546304941177368
0.01580934226512909,0.0017332364805042744,-0.009675883688032627,0.00876654963940382,-0.0005031166365370154,0.014386380091309547
0.016303978860378265,0.0016233047936111689,-0.01015419140458107,0.008585242554545403,-0.00046798313269391656,0.014386769384145737
0.01595115289092064,0.0016985278343781829,-0.009013057686388493,0.009358170442283154,-0.000493623549118638,0.014094850979745388
0.016393667086958885,0.0019195263739675283,-0.010105106979608536,0.008880622684955597,-0.00046548154205083847,0.014359532855451107
0.01604076847434044,0.0022787642665207386,-0.009925044141709805,0.008423457853496075,-0.0004412034177221358,0.014514684677124023
0.01632598787546158,0.002607661532238126,-0.009453000500798225,0.008959170430898666,-0.00040453957626596093,0.01464791689068079
0.016419511288404465,0.0023183543235063553,-0.009559625759720802,0.008581029251217842,-0.0003713246842380613,0.014519603922963142
0.01606753282248974,0.0021557395812124014,-0.009535841643810272,0.008736234158277512,-0.00034300913102924824,0.014636344276368618
0.01681513711810112,0.0019897620659321547,-0.00946752168238163,0.00900401920080185,-0.0003186991671100259,0.014500615186989307
0.01648254692554474,0.0020094974897801876,-0.009639457799494267,0.009661545976996422,-0.00029760878533124924,0.014767608605325222
0.017062710598111153,0.002326024230569601,-0.009809947572648525,0.009724532254040241,-0.0003274007176514715,0.014794545248150826
0.01676393672823906,0.0022011713590472937,-0.009778205305337906,0.009883821941912174,-0.00031489640241488814,0.014870171435177326
0.016917424276471138,0.002218696055933833,-0.009318350814282894,0.010379615239799023,-0.0002979479031637311,0.014581260271370411
0.01708216592669487,0.0022123618982732296,-0.009663494303822517,0.00957729946821928,-0.0003115047875326127,0.015029999427497387
0.017926404252648354,0.0020288745872676373,-0.010894241742789745,0.009742695838212967,-0.0002981495053973049,0.015430312603712082
0.017376990988850594,0.0020047773141413927,-0.011839739978313446,0.009425709955394268,-0.00032266060588881373,0.015024340711534023
0.017431074753403664,0.002268122509121895,-0.010978099890053272,0.009404400363564491,-0.0003111890982836485,0.015486044809222221
0.017978040501475334,0.0023248144425451756,-0.011335943825542927,0.009856058284640312,-0.00029925411217845976,0.015352848917245865
0.017858989536762238,0.002999483607709408,-0.011126496829092503,0.009608808904886246,-0.00029081033426336944,0.01552374754101038
0.0179256834089756,0.0029954102355986834,-0.0111859031021595,0.009400424547493458,-0.00030047621112316847,0.015136620961129665
0.017995864152908325,0.002473826054483652,-0.011659356765449047,0.009883454069495201,-0.00030794632039032876,0.015092101879417896
0.0175978634506464,0.002264401176944375,-0.010895006358623505,0.009192248806357384,-0.00029285188065841794,0.014890536665916443
0.018073949962854385,0.002029654337093234,-0.011946721002459526,0.00895553920418024,-0.00032100745011121035,0.015812184661626816
0.01824253797531128,0.002160549396649003,-0.011478499509394169,0.009131165221333504,-0.00030812417389824986,0.014893641695380211
0.018264811486005783,0.0023349723778665066,-0.011373934336006641,0.00977380946278572,-0.00032493274193257093,0.015170405618846416
0.018628643825650215,0.002303218236193061,-0.011753825470805168,0.009140903130173683,-0.00032023724634200335,0.015362930484116077
0.018492670729756355,0.0024424693547189236,-0.01122660469263792,0.009013954550027847,-0.0003072086547035724,0.01521798875182867
0.018501704558730125,0.002144148340448737,-0.011691704392433167,0.008908226154744625,-0.0002956308890134096,0.01574915088713169
0.017645351588726044,0.002041860716417432,-0.011997305788099766,0.009132900275290012,-0.00040367883048020303,0.015973063185811043
0.017557278275489807,0.0018838620744645596,-0.011487849056720734,0.009275573305785656,-0.0003785364096984267,0.016087442636489868
0.017557278275489807,0.0018838620744645596,-0.011487849056720734,0.009275573305785656,-0.0003785364096984267,0.016087442636489868
0.018560301512479782,0.0018756521167233586,-0.011906505562365055,0.009775945916771889,-0.00041002986836247146,0.016446728259325027
0.018445033580064774,0.0021788186859339476,-0.011680718511343002,0.009128699079155922,-0.0003887526981998235,0.01591276377439499
0.01854809932410717,0.0022123530507087708,-0.01198316365480423,0.009542311541736126,-0.00039254239527508616,0.015750426799058914
0.0184018611907959,0.002524671610444784,-0.01154043897986412,0.010721112601459026,-0.0003949571982957423,0.015971872955560684
0.018621398136019707,0.002527740551158786,-0.011264490894973278,0.01012296974658966,-0.00041945086559280753,0.015789510682225227
0.01905728504061699,0.0023107719607651234,-0.011834480799734592,0.009868147782981396,-0.0004040968487970531,0.015744740143418312
0.01907098852097988,0.0021080966107547283,-0.011436422355473042,0.010126776993274689,-0.0004952558665536344,0.015987897291779518
0.018976129591464996,0.002026531146839261,-0.012263158336281776,0.009183642454445362,-0.0005385191761888564,0.01585327461361885
0.01910838484764099,0.002127572661265731,-0.011604482308030128,0.009530010633170605,-0.0005281363846734166,0.016522126272320747
0.018691053614020348,0.0024378604721277952,-0.012353673577308655,0.009362882934510708,-0.0004884086665697396,0.01634862832725048
0.018682114779949188,0.0024959349539130926,-0.01197846233844757,0.008972031995654106,-0.0005135239916853607,0.015948375687003136
0.018718725070357323,0.002294019563123584,-0.012113885022699833,0.009052721783518791,-0.00048299148329533637,0.015845593065023422
0.019327526912093163,0.0021138708107173443,-0.01182655431330204,0.008925402536988258,-0.0004528538847807795,0.01583191379904747
0.019294753670692444,0.0020279574673622847,-0.011736475862562656,0.00986410677433014,-0.0004931864677928388,0.016146790236234665
0.019337745383381844,0.002081656828522682,-0.011866229586303234,0.011165499687194824,-0.00045442176633514464,0.01639232039451599
0.019178487360477448,0.0021223025396466255,-0.011305684223771095,0.011137130670249462,-0.0004845700750593096,0.01646612212061882
0.01962604559957981,0.002584615955129266,-0.012066333554685116,0.010499118827283382,-0.00045356163172982633,0.016702312976121902
0.019589606672525406,0.002804451622068882,-0.011610628105700016,0.010659605264663696,-0.0004189777828287333,0.01637004129588604
0.019343046471476555,0.0027807631995528936,-0.012184269726276398,0.010063868016004562,-0.0004447831306606531,0.016467206180095673
0.019187698140740395,0.0025564811658114195,-0.011689641512930393,0.01000699307769537,-0.0004225700395181775,0.01643582060933113
0.019513430073857307,0.0025275126099586487,-0.012726581655442715,0.010708695277571678,-0.0004381590988487005,0.01669926941394806
0.01938512921333313,0.002651775488629937,-0.012105443514883518,0.010284539312124252,-0.00042532163206487894,0.016474608331918716
0.01938512921333313,0.002651775488629937,-0.012105443514883518,0.010284539312124252,-0.00042532163206487894,0.016474608331918716
0.019899936392903328,0.0029235580004751682,-0.012305263429880142,0.01093781366944313,-0.0004591950273606926,0.01751858741044998
0.019899936392903328,0.0029235580004751682,-0.012305263429880142,0.01093781366944313,-0.0004591950273606926,0.01751858741044998
0.01978938654065132,0.003046858822926879,-0.011869475245475769,0.010339113883674145,-0.00045745456009171903,0.015851836651563644
0.019745152443647385,0.0026551384944468737,-0.011713417246937752,0.010719070211052895,-0.00045819225488230586,0.01591898500919342
0.020166026428341866,0.0026380419731140137,-0.01242910884320736,0.010701080784201622,-0.00045637550647370517,0.01645948551595211
0.02006237581372261,0.00267933146096766,-0.011743786744773388,0.010344934649765491,-0.000457124988315627,0.01701250858604908
0.01986120641231537,0.0029614458326250315,-0.012419536709785461,0.010862782597541809,-0.00045555667020380497,0.017114179208874702
0.020146822556853294,0.0028561002109199762,-0.012252762913703918,0.010571432299911976,-0.00043012286187149584,0.0169819463044405
0.02041740156710148,0.00279521057382226,-0.012285481207072735,0.010588863864541054,-0.0004592740733642131,0.01707932911813259
0.020260734483599663,0.0027081086300313473,-0.012048356235027313,0.010579285211861134,-0.00046401171130128205,0.016789129003882408
0.020415829494595528,0.0025891505647450686,-0.012324539013206959,0.010486793704330921,-0.00046449986984953284,0.01705915853381157
0.02022886462509632,0.0026342086493968964,-0.011988785117864609,0.010272189043462276,-0.0004895385354757309,0.01729661412537098
0.02018551342189312,0.002683662809431553,-0.012647945433855057,0.010108843445777893,-0.00046201987424865365,0.01713530533015728
0.020409366115927696,0.0025788997299969196,-0.01171648595482111,0.010345784947276115,-0.00048413127660751343,0.016688859090209007
0.02058105170726776,0.0028510072734206915,-0.011817332357168198,0.010628320276737213,-0.0004605937865562737,0.017198586836457253
0.020066404715180397,0.0026390263810753822,-0.012748930603265762,0.009972020983695984,-0.0005455072387121618,0.01726488023996353
0.02043982595205307,0.002673851791769266,-0.011826271191239357,0.010924466885626316,-0.0005798915517516434,0.016991358250379562
0.020663877949118614,0.00279316958039999,-0.012465604580938816,0.010934785008430481,-0.0005998192937113345,0.01763235032558441
0.02014128491282463,0.002893413882702589,-0.011939030140638351,0.010037343017756939,-0.0005667139776051044,0.01745087467133999
0.020290639251470566,0.002879043109714985,-0.012437820434570312,0.010050199925899506,-0.000585373432841152,0.017546748742461205
0.02056891843676567,0.002702618483453989,-0.012261645868420601,0.009759064763784409,-0.0006538960733450949,0.017481286078691483
0.021529844030737877,0.002756035653874278,-0.012162375263869762,0.009956193156540394,-0.0006597881438210607,0.017207764089107513
0.02060752362012863,0.002763052936643362,-0.012748241424560547,0.010370563715696335,-0.0006366984453052282,0.01760123297572136
0.021163173019886017,0.0028610271401703358,-0.012123983353376389,0.010096441023051739,-0.0006139705656096339,0.017566688358783722
0.020645279437303543,0.002644611755385995,-0.012803897261619568,0.010701069608330727,-0.0005541523569263518,0.017922576516866684
0.01985238492488861,0.002696671988815069,-0.0120904091745615,0.010868995450437069,-0.0005027067381888628,0.018465230241417885
0.02165517956018448,0.0026815349701792,-0.012444207444787025,0.010760224424302578,-0.0005259292665868998,0.018205363303422928
0.02165517956018448,0.0026815349701792,-0.012444207444787025,0.010760224424302578,-0.0005259292665868998,0.018205363303422928
0.021470170468091965,0.0024987899232655764,-0.012865877710282803,0.010802474804222584,-0.0004936763434670866,0.01791170798242092
0.021171148866415024,0.0028150861617177725,-0.011889873072504997,0.011003144085407257,-0.0004583254922181368,0.018064139410853386
0.021030308678746223,0.0030516586266458035,-0.012842687778174877,0.010791134089231491,-0.0004272593359928578,0.018224848434329033
0.02176385372877121,0.002993964124470949,-0.012097795493900776,0.011225872673094273,-0.0004532833700068295,0.018506918102502823
0.022061465308070183,0.002749457722529769,-0.012839664705097675,0.011025038547813892,-0.00042968892375938594,0.019739339128136635
0.022004231810569763,0.0026264023035764694,-0.012518276460468769,0.011174569837749004,-0.0003768056340049952,0.01813630387187004
0.0217401422560215,0.0029579380061477423,-0.012809487991034985,0.011395860463380814,-0.00034489898825995624,0.017632942646741867
0.02126900479197502,0.00288285780698061,-0.012447185814380646,0.012211211957037449,-0.00035805822699330747,0.018069321289658546
0.0217291172593832,0.0029954267665743828,-0.013206375762820244,0.011982261203229427,-0.00038469655555672944,0.01851835288107395
0.02239021472632885,0.0026531817857176065,-0.012775644659996033,0.012125782668590546,-0.00039451170596294105,0.018595948815345764
0.022187482565641403,0.0025254555512219667,-0.01299754437059164,0.011342900805175304,-0.0003968972305301577,0.01884854957461357
0.022537831217050552,0.002724860794842243,-0.012881486676633358,0.010958097875118256,-0.00037765176966786385,0.01906432956457138
0.022386008873581886,0.0031903102062642574,-0.013455403968691826,0.011367550119757652,-0.0004959513898938894,0.018794260919094086
0.02193787321448326,0.0031938753090798855,-0.012916119769215584,0.011126101948320866,-0.0005338634364306927,0.01795314811170101
0.022061001509428024,0.0030988578218966722,-0.013432218693196774,0.011023535393178463,-0.0005061531555838883,0.01809653639793396
0.022663496434688568,0.002918295096606016,-0.013244561851024628,0.011086263693869114,-0.0004640804836526513,0.018708230927586555
0.022757895290851593,0.002974538831040263,-0.013347364962100983,0.010725378058850765,-0.00047968889703042805,0.019108526408672333
0.022441387176513672,0.003208992537111044,-0.013356124050915241,0.011605128645896912,-0.0004608132876455784,0.019384704530239105
0.02236129716038704,0.003210208611562848,-0.013289738446474075,0.011301694437861443,-0.0004303789755795151,0.019128359854221344
0.02266387641429901,0.0030899851117283106,-0.013419530354440212,0.011098290793597698,-0.00045645178761333227,0.019254982471466064
0.022899257019162178,0.0028743890579789877,-0.012905801646411419,0.011806986294686794,-0.00043251673923805356,0.019400350749492645
0.023362794890999794,0.0030274889431893826,-0.013697422109544277,0.011559906415641308,-0.00040821274160407484,0.01977686770260334
0.02342102862894535,0.003272783709689975,-0.013178386725485325,0.011835107579827309,-0.0004201695555821061,0.019900910556316376
0.02342102862894535,0.003272783709689975,-0.013178386725485325,0.011835107579827309,-0.0004201695555821061,0.019900910556316376
0.022841235622763634,0.003220680868253112,-0.013695288449525833,0.011178514920175076,-0.000427537685027346,0.01930410973727703
0.022727496922016144,0.003411259036511183,-0.01300524827092886,0.011735279113054276,-0.00042826918070204556,0.018907157704234123
0.023542890325188637,0.0032082765828818083,-0.013956521637737751,0.01206168346107006,-0.000431140506407246,0.019139986485242844
0.023713350296020508,0.0028607668355107307,-0.01358672697097063,0.0119357630610466,-0.00043126431410200894,0.019266197457909584
0.02349463477730751,0.002769128419458866,-0.014352486468851566,0.012389586307108402,-0.00045551557559520006,0.019235599786043167
0.023336222395300865,0.0026160222478210926,-0.013788390904664993,0.012149848975241184,-0.000434952526120469,0.019902192056179047
0.023717068135738373,0.0023563888389617205,-0.013966124504804611,0.012095777317881584,-0.000536667532287538,0.019673151895403862
0.02350703813135624,0.002431076718494296,-0.01361520029604435,0.012567827478051186,-0.0005176709964871407,0.019391370937228203
0.02368207648396492,0.002415591850876808,-0.014150191098451614,0.011955402791500092,-0.0005533118383027613,0.019684186205267906
0.023915370926260948,0.0026270218659192324,-0.014132496900856495,0.012672490440309048,-0.0005071336636319757,0.01964675262570381
0.02396932616829872,0.0031004666816443205,-0.014346317388117313,0.01256950106471777,-0.0004970477311871946,0.02105969935655594
0.023942353203892708,0.003041808260604739,-0.014652254991233349,0.012378552928566933,-0.0004617411468643695,0.01991496980190277
0.024228794500231743,0.002721539232879877,-0.014742684550583363,0.012041459791362286,-0.0004302591551095247,0.019714022055268288
0.024420596659183502,0.00264353328384459,-0.014888720586895943,0.012380413711071014,-0.0004562652902677655,0.01999177597463131
0.02474965900182724,0.0026464194525033236,-0.014204172417521477,0.011873885057866573,-0.0004323454631958157,0.020273033529520035
0.023778175935149193,0.0026214898098260164,-0.014442043378949165,0.012277157977223396,-0.00042018870590254664,0.020247459411621094
0.02436906099319458,0.0028190535958856344,-0.014220907352864742,0.011926360428333282,-0.00039548100903630257,0.02040012739598751
0.024643944576382637,0.0027905767783522606,-0.015127446502447128,0.012000147253274918,-0.00041770024108700454,0.020610889419913292
0.024548251181840897,0.002833467209711671,-0.014799940399825573,0.012423647567629814,-0.0004031296703033149,0.02056664042174816
0.02486513927578926,0.002630282426252961,-0.015635034069418907,0.01251349039375782,-0.00043442239984869957,0.020574385300278664
0.025168199092149734,0.0029985045548528433,-0.014862069860100746,0.013036595657467842,-0.0004645339504349977,0.02073327824473381
0.02439744956791401,0.0031305188313126564,-0.015600658021867275,0.011733336374163628,-0.0006776283262297511,0.020339012145996094
0.024273760616779327,0.0030760522931814194,-0.014694971963763237,0.012146460823714733,-0.0006208511767908931,0.02018131874501705
0.024825090542435646,0.002841659588739276,-0.014767740853130817,0.01220897026360035,-0.0006489776424132288,0.020344696938991547
0.025057483464479446,0.0028843283653259277,-0.014044702984392643,0.011915932409465313,-0.0006565742078237236,0.020585644990205765
0.02442353032529354,0.002906482433900237,-0.015132259577512741,0.011505117639899254,-0.0006147557869553566,0.020655624568462372
0.025252731516957283,0.0029603519942611456,-0.014641125686466694,0.011300059035420418,-0.0006304879207164049,0.020513763651251793
0.026250777766108513,0.002699940698221326,-0.015572544187307358,0.012228559702634811,-0.0005909549654461443,0.0209043025970459
0.026250777766108513,0.002699940698221326,-0.015572544187307358,0.012228559702634811,-0.0005909549654461443,0.0209043025970459
0.025581879541277885,0.002667282475158572,-0.01535580400377512,0.012248817831277847,-0.0005928382743149996,0.021602226421236992
0.025670481845736504,0.0026456359773874283,-0.015092345885932446,0.01277566235512495,-0.0006053171236999333,0.0209811981767416
0.02532871440052986,0.0024566282518208027,-0.013360477052628994,0.012988961301743984,-0.0005657310830429196,0.02085561491549015
0.02526746317744255,0.00247181486338377,-0.015518796630203724,0.012936870567500591,-0.0005871268222108483,0.020439935848116875
0.02530074119567871,0.002661476144567132,-0.015899356454610825,0.012553033418953419,-0.0006035574479028583,0.0205458365380764
0.026242319494485855,0.0026038899086415768,-0.01590331643819809,0.012269209139049053,-0.0005744522204622626,0.020856725051999092
0.025625864043831825,0.0029819391202181578,-0.01568646728992462,0.012995530851185322,-0.0006456244736909866,0.02191104367375374
0.025732917711138725,0.002954015275463462,-0.01570866070687771,0.0125983702018857,-0.0006568772951141,0.021936360746622086
0.02602856233716011,0.0026284728664904833,-0.015357564203441143,0.012613670900464058,-0.0006366102024912834,0.021576333791017532
0.026312071830034256,0.002706586616113782,-0.015446602366864681,0.012469688430428505,-0.0006578752654604614,0.02238021418452263
0.0257585346698761,0.002852172590792179,-0.014918157830834389,0.012660144828259945,-0.0006100068567320704,0.022026803344488144
0.026200827211141586,0.0026791414711624384,-0.015908390283584595,0.012582002207636833,-0.0006551521364599466,0.021495280787348747
0.025874515995383263,0.002965480089187622,-0.015835028141736984,0.013239622116088867,-0.0006638389313593507,0.020898262038826942
0.02566898986697197,0.0030608882661908865,-0.016192231327295303,0.01236420776695013,-0.0006145762745290995,0.02217509038746357
0.026130646467208862,0.0029503556434065104,-0.016299238428473473,0.01302296295762062,-0.0005976207321509719,0.021168330684304237
0.02548600174486637,0.0026629017665982246,-0.01606082171201706,0.01290928479284048,-0.0005823158426210284,0.021253472194075584
0.026176366955041885,0.0029347564559429884,-0.016359155997633934,0.01349495630711317,-0.000591521558817476,0.021663781255483627
0.02603401616215706,0.003069378435611725,-0.01599143072962761,0.013422786258161068,-0.0005628442158922553,0.022360820323228836
0.025460360571742058,0.003092848462983966,-0.016372647136449814,0.013373014517128468,-0.0005567591870203614,0.022296056151390076
0.02723381109535694,0.002961008809506893,-0.015845566987991333,0.01379715371876955,-0.0005084860604256392,0.022077977657318115
0.027020063251256943,0.0030456034000962973,-0.01682129316031933,0.014173847623169422,-0.0005245573120191693,0.021719811484217644
0.026459628716111183,0.0029644358437508345,-0.016318049281835556,0.013847717083990574,-0.0005370659637264907,0.021942120045423508
0.026079857721924782,0.0032042600214481354,-0.016484545543789864,0.013364093378186226,-0.0005295455921441317,0.02192327380180359
0.026200152933597565,0.0031345996540039778,-0.016867436468601227,0.013621295802295208,-0.0005511986091732979,0.021995114162564278
0.026218827813863754,0.00286693568341434,-0.01638888567686081,0.013649627566337585,-0.0005225670174695551,0.021892014890909195
0.027745237573981285,0.0029161071870476007,-0.017024846747517586,0.013648619875311852,-0.000607322552241385,0.02213403582572937
0.027330396696925163,0.002990766428411007,-0.016341792419552803,0.01329227164387703,-0.0006233539315871894,0.022247308865189552
0.027313441038131714,0.00339625496417284,-0.01632739044725895,0.013973486609756947,-0.0005812172312289476,0.02272629551589489
0.025158263742923737,0.0032837886828929186,-0.01644018292427063,0.013634912669658661,-0.0005260816542431712,0.022556720301508904
0.025158263742923737,0.0032837886828929186,-0.01644018292427063,0.013634912669658661,-0.0005260816542431712,0.022556720301508904
0.026330910623073578,0.003489223774522543,-0.01693146489560604,0.013700466603040695,-0.0005379375070333481,0.022042840719223022
0.02735496498644352,0.0030277404002845287,-0.016922153532505035,0.013177121058106422,-0.0005122831207700074,0.022543299943208694
0.027065875008702278,0.0030615173745900393,-0.016306202858686447,0.01386184711009264,-0.00047486822586506605,0.02306661196053028
0.02727540023624897,0.0030491361394524574,-0.016947703436017036,0.013658183626830578,-0.0005002982798032463,0.02265070006251335
0.027910305187106133,0.002984727034345269,-0.016640707850456238,0.014261504635214806,-0.0004713728849310428,0.022760959342122078
0.028285201638936996,0.0033196015283465385,-0.01654321514070034,0.013967981562018394,-0.000449746468802914,0.023174205794930458
0.02819831855595112,0.003133788937702775,-0.016575785353779793,0.014362124726176262,-0.00047367525985464454,0.023212144151329994
0.02717173844575882,0.0031591984443366528,-0.016605377197265625,0.013808753341436386,-0.0004896116442978382,0.023496316745877266
0.027220454066991806,0.003230009926483035,-0.01722116209566593,0.01437301468104124,-0.00048634372069500387,0.023602906614542007
0.028400426730513573,0.003293708898127079,-0.017025521025061607,0.01363061647862196,-0.0005011706962250173,0.023249192163348198
0.028405020013451576,0.003306137165054679,-0.017208537086844444,0.014365949667990208,-0.0008074138313531876,0.023250438272953033
0.02866770699620247,0.0033461658749729395,-0.016794631257653236,0.014707137830555439,-0.0007975595653988421,0.023361971601843834
0.028309352695941925,0.0030178003944456577,-0.016742421314120293,0.014183512888848782,-0.0007565037813037634,0.023686271160840988
0.02840009517967701,0.003042923053726554,-0.01653434708714485,0.014638623222708702,-0.0007491749129258096,0.023916853591799736
0.028607511892914772,0.003065301338210702,-0.017303433269262314,0.014038133434951305,-0.000698474352248013,0.02400496043264866
0.028103547170758247,0.0032681256998330355,-0.01688123308122158,0.014247319661080837,-0.000637942343018949,0.023839926347136497
0.029242297634482384,0.003636797657236457,-0.017609797418117523,0.014516559429466724,-0.0005860780365765095,0.02334289252758026
0.029010968282818794,0.0033733698073774576,-0.017777731642127037,0.015325331129133701,-0.0005432055913843215,0.023486871272325516
0.02925475686788559,0.0036021489650011063,-0.016739141196012497,0.014657281339168549,-0.0004973423783667386,0.02359374612569809
0.029126141220331192,0.0032070993911474943,-0.01750948652625084,0.0148933669552207,-0.0004486246616579592,0.023685084655880928
0.029161373153328896,0.003212924115359783,-0.017269620671868324,0.014410009607672691,-0.0004836743464693427,0.023997921496629715
0.029203929007053375,0.0033273303415626287,-0.018241826444864273,0.014778265729546547,-0.0005129344062879682,0.023324735462665558
0.02938453108072281,0.0036153197288513184,-0.017569679766893387,0.014170032925903797,-0.000516170752234757,0.02319369837641716
0.02970801293849945,0.0038117417134344578,-0.017044898122549057,0.014614551328122616,-0.0005107006873004138,0.024165479466319084
0.02939494140446186,0.0038149564061313868,-0.018212903290987015,0.014395746402442455,-0.0004790108068846166,0.02511110156774521
0.02939494140446186,0.0038149564061313868,-0.018212903290987015,0.014395746402442455,-0.0004790108068846166,0.02511110156774521
0.029793161898851395,0.0033439858816564083,-0.01782103069126606,0.014830881729722023,-0.0005656819557771087,0.02462817169725895
0.029839100316166878,0.003520328551530838,-0.017449406906962395,0.014887424185872078,-0.0005601482116617262,0.02310321293771267
0.029752660542726517,0.0038319118320941925,-0.017888853326439857,0.01524521317332983,-0.0005478532984852791,0.023295262828469276
0.03029048629105091,0.003449619747698307,-0.01807345263659954,0.014679715037345886,-0.000577349856030196,0.02476513758301735
0.030285075306892395,0.0035414150916039944,-0.018428681418299675,0.01488324161618948,-0.000599434832111001,0.025010664016008377
0.030744770541787148,0.0037517196033149958,-0.018585750833153725,0.014529641717672348,-0.0007141815731301904,0.02435777522623539
0.030468270182609558,0.003899501170963049,-0.018178170546889305,0.014778838492929935,-0.0006633481825701892,0.024567896500229836
0.03094600886106491,0.003912231884896755,-0.018192753195762634,0.01435175258666277,-0.0006886055343784392,0.025993743911385536
0.03034905716776848,0.003435438498854637,-0.018274560570716858,0.014454140327870846,-0.0007054863381199539,0.025430697947740555
0.030432183295488358,0.003392788814380765,-0.01804363913834095,0.014144434593617916,-0.000724984158296138,0.024591827765107155
0.03081626445055008,0.0035430246498435736,-0.018492989242076874,0.014553945511579514,-0.0007500117644667625,0.024160781875252724
0.03121495060622692,0.0036496964748948812,-0.018181629478931427,0.014282802119851112,-0.0007136611384339631,0.024665592238307
0.031172318384051323,0.0035236808471381664,-0.018616976216435432,0.014415585435926914,-0.0007475058082491159,0.02566416747868061
0.029894083738327026,0.003442254615947604,-0.018018240109086037,0.015085680410265923,-0.0006798938266001642,0.025392381474375725
0.03176233917474747,0.0036293475423008204,-0.01838357374072075,0.015008720569312572,-0.0006784572615288198,0.025314487516880035
0.031894877552986145,0.0033900481648743153,-0.018679967150092125,0.015535017475485802,-0.0006381897255778313,0.025403376668691635
0.0313001424074173,0.0035647337790578604,-0.0177812147885561,0.01510429847985506,-0.0006093818228691816,0.025645973160862923
0.03214137256145477,0.004251302685588598,-0.018169227987527847,0.015107179991900921,-0.0006097852601669729,0.025082461535930634
0.032245758920907974,0.004192189313471317,-0.018729351460933685,0.015184931457042694,-0.0005918963579460979,0.02543073333799839
0.03183958679437637,0.0038985940627753735,-0.018281403928995132,0.015352568589150906,-0.00061917764833197,0.025336751714348793
0.030940914526581764,0.0033830483444035053,-0.018515946343541145,0.015164278447628021,-0.0006389178452081978,0.025350244715809822
0.03198382258415222,0.0034905895590782166,-0.018659893423318863,0.014920992776751518,-0.0005979626439511776,0.025711528956890106
0.032421838492155075,0.004079065751284361,-0.018800955265760422,0.015489847399294376,-0.0007066996768116951,0.026003681123256683
0.03284066915512085,0.0042781890369951725,-0.019139574840664864,0.01567443087697029,-0.0006222411175258458,0.025781558826565742
0.03284066915512085,0.0042781890369951725,-0.019139574840664864,0.01567443087697029,-0.0006222411175258458,0.025781558826565742
0.03258981183171272,0.0040063997730612755,-0.018496664240956306,0.01653294451534748,-0.0006411654758267105,0.02583952620625496
0.0322759710252285,0.0038172435015439987,-0.018481381237506866,0.016275137662887573,-0.0006682848907075822,0.025553476065397263
0.032429132610559464,0.0038823166396468878,-0.018752723932266235,0.016720032319426537,-0.0006908995565026999,0.025554388761520386
0.03251190856099129,0.0038523832336068153,-0.018416980281472206,0.016294313594698906,-0.0007295564282685518,0.026052389293909073
0.032326508313417435,0.003711757715791464,-0.018810953944921494,0.015871936455368996,-0.000753458240069449,0.02590024098753929
0.0324280671775341,0.0037601201329380274,-0.01886134035885334,0.015670016407966614,-0.0006886544870212674,0.02608475647866726
0.03317209333181381,0.003856974421069026,-0.01808103546500206,0.015276536345481873,-0.0007001536432653666,0.025792768225073814
0.03332756832242012,0.003784467000514269,-0.01889304257929325,0.01580951176583767,-0.0006408483604900539,0.02570352889597416
0.032906424254179,0.003728243988007307,-0.018671628087759018,0.01567799784243107,-0.0006595137529075146,0.026334697380661964
0.03333185613155365,0.00385764567181468,-0.018228799104690552,0.016085190698504448,-0.0006553073180839419,0.026795627549290657
0.032576896250247955,0.003952578641474247,-0.018563220277428627,0.01592392660677433,-0.0006719700177200139,0.02639278955757618
0.03375738114118576,0.004170289728790522,-0.018226923421025276,0.01620001532137394,-0.0006702531827613711,0.025110356509685516
0.03375738114118576,0.004170289728790522,-0.018226923421025276,0.01620001532137394,-0.0006702531827613711,0.025110356509685516
0.03414735943078995,0.003448012052103877,-0.018811922520399094,0.01643410138785839,-0.0006365587469190359,0.026866020634770393
0.03206628933548927,0.003517483826726675,-0.018876302987337112,0.01629001833498478,-0.0007161928806453943,0.02698863297700882
0.03227763622999191,0.0033745327964425087,-0.018929731100797653,0.016600316390395164,-0.0007356905261985958,0.02747489884495735
0.03397749364376068,0.0034517780877649784,-0.018521862104535103,0.015764767304062843,-0.0007411042461171746,0.027609698474407196
0.033263564109802246,0.0033276239410042763,-0.01868017390370369,0.016346340999007225,-0.0007575479103252292,0.026965953409671783
0.03381563723087311,0.0035479662474244833,-0.018922360613942146,0.016096094623208046,-0.0007129624136723578,0.02644256502389908
0.03424881398677826,0.0033193619456142187,-0.0187404602766037,0.016416311264038086,-0.0007705418393015862,0.026129473000764847
0.03406791388988495,0.0035731049720197916,-0.019525792449712753,0.016344955191016197,-0.0007913589361123741,0.02672526240348816
0.03321803733706474,0.003237052820622921,-0.019719915464520454,0.016277235001325607,-0.0008054369827732444,0.027632396668195724
0.033278364688158035,0.003321570111438632,-0.018928129225969315,0.016721347346901894,-0.0008162113954313099,0.02752576395869255
0.03365586698055267,0.0033256227616220713,-0.019553154706954956,0.01648288033902645,-0.0008133866940625012,0.027049485594034195
0.03403990715742111,0.0034638578072190285,-0.019628457725048065,0.016936346888542175,-0.0007554866024293005,0.026731519028544426
0.03431343659758568,0.003739333478733897,-0.019839199259877205,0.016449227929115295,-0.0007130141602829099,0.02709941565990448
0.03411225974559784,0.003931705839931965,-0.019555969163775444,0.016529323533177376,-0.0006782018463127315,0.02755909599363804
0.03411225974559784,0.003931705839931965,-0.019555969163775444,0.016529323533177376,-0.0006782018463127315,0.02755909599363804
0.03335708752274513,0.0034223946277052164,-0.020357079803943634,0.01686864160001278,-0.0006923688924871385,0.027447974309325218
0.033733151853084564,0.0030671092681586742,-0.01982715167105198,0.01651444472372532,-0.0006782217533327639,0.02707950584590435
0.034356966614723206,0.0034008657094091177,-0.019368866458535194,0.016695013269782066,-0.0006564969080500305,0.027591662481427193
0.034520331770181656,0.003776922356337309,-0.01963699609041214,0.016172092407941818,-0.0006311489851213992,0.02784530445933342
0.034422144293785095,0.0034107204992324114,-0.020053423941135406,0.016543906182050705,-0.000613308628089726,0.027996988967061043
0.03477224335074425,0.003387624630704522,-0.019778700545430183,0.0160105898976326,-0.0005939400871284306,0.02782229334115982
0.033515386283397675,0.003469602670520544,-0.02021484076976776,0.016477376222610474,-0.0006210585706867278,0.028299646452069283
0.035061538219451904,0.003698360873386264,-0.020088648423552513,0.016669252887368202,-0.0006406527245417237,0.027741050347685814
0.03534163534641266,0.0037268311716616154,-0.01997457630932331,0.016660816967487335,-0.0005973762017674744,0.028208360075950623
0.03514096885919571,0.00356885464861989,-0.020418191328644753,0.016937755048274994,-0.0006595777813345194,0.028290748596191406
0.03490234166383743,0.003579388139769435,-0.02074327878654003,0.016724560409784317,-0.0007170705939643085,0.028229624032974243
0.03557172417640686,0.004023417364805937,-0.020361583679914474,0.01671675220131874,-0.0007240233826451004,0.02827880159020424
0.035439230501651764,0.003913225140422583,-0.020627254620194435,0.016759812831878662,-0.0008740347111597657,0.028203250840306282
0.035632260143756866,0.003725243266671896,-0.020145265385508537,0.01693658158183098,-0.0009070298983715475,0.028255637735128403
0.03549642488360405,0.003800670150667429,-0.019837379455566406,0.016481008380651474,-0.000907992769498378,0.028167380020022392
0.03593334183096886,0.004307118244469166,-0.02041449397802353,0.01709245704114437,-0.0009071375243365765,0.028121348470449448
0.03613216057419777,0.004075624514371157,-0.021092457696795464,0.016955967992544174,-0.0009288631263189018,0.02851928025484085
0.03628954663872719,0.0035164698492735624,-0.020715221762657166,0.017529480159282684,-0.0009765144786797464,0.028758393600583076
0.035749245434999466,0.004025416914373636,-0.02034776099026203,0.01814715377986431,-0.0009679114446043968,0.028563518077135086
0.03635856881737709,0.004157527349889278,-0.020799025893211365,0.01837291195988655,-0.000868515926413238,0.028675252571702003
0.03765352442860603,0.004050366580486298,-0.020682377740740776,0.018720664083957672,-0.0008662508334964514,0.029027361422777176
0.037534136325120926,0.004513915628194809,-0.02044777385890484,0.01828434132039547,-0.0008190057124011219,0.02926792949438095
0.03563637658953667,0.00473042344674468,-0.020695539191365242,0.017635028809309006,-0.0007303042802959681,0.029521720483899117
0.037156522274017334,0.004216673318296671,-0.02073812298476696,0.017693208530545235,-0.000738538452424109,0.029019096866250038
0.037237055599689484,0.003965768963098526,-0.020960384979844093,0.01721314713358879,-0.0007154097547754645,0.027671469375491142
0.03757182136178017,0.0038512384053319693,-0.02078435756266117,0.01747310534119606,-0.0006855676183477044,0.0282775666564703
0.038380216807127,0.003884119214490056,-0.020935731008648872,0.017925972118973732,-0.0007033889996819198,0.029563196003437042
0.037224460393190384,0.003930922131985426,-0.021142879500985146,0.01811438985168934,-0.0007042201468721032,0.02930714748799801
0.037224460393190384,0.003930922131985426,-0.021142879500985146,0.01811438985168934,-0.0007042201468721032,0.02930714748799801
0.036464571952819824,0.004471105989068747,-0.020819803699851036,0.018578484654426575,-0.0007377896108664572,0.029895395040512085
0.037830691784620285,0.00467486958950758,-0.02097294107079506,0.01853480003774166,-0.0007581835961900651,0.031115470454096794
0.038474760949611664,0.004320832900702953,-0.021586595103144646,0.018146099522709846,-0.0007363849435932934,0.03002060018479824
0.03781498223543167,0.0044538406655192375,-0.021484673023223877,0.01874643750488758,-0.0007073463057167828,0.028127117082476616
0.03857267275452614,0.004239680245518684,-0.020589986816048622,0.018158115446567535,-0.000731767388060689,0.029057124629616737
0.03831939399242401,0.00407473323866725,-0.02111021615564823,0.017987510189414024,-0.0007673286600038409,0.03061709553003311
0.03807070851325989,0.004061303101480007,-0.021659797057509422,0.01850656419992447,-0.0007278878474608064,0.030591312795877457
0.03858793154358864,0.004012655932456255,-0.021410714834928513,0.017987966537475586,-0.0007445867522619665,0.029661875218153
0.0381971150636673,0.004181666299700737,-0.020876074209809303,0.018400326371192932,-0.0007608855958096683,0.029800064861774445
0.03878550976514816,0.004323151893913746,-0.021406035870313644,0.018443133682012558,-0.0008101293933577836,0.029825730249285698
0.03887185826897621,0.004053426440805197,-0.022626211866736412,0.019445642828941345,-0.0007465585949830711,0.02966807596385479
0.0379316583275795,0.004360523074865341,-0.0212243739515543,0.019549112766981125,-0.0007611517794430256,0.02980010397732258
0.039533428847789764,0.004157435614615679,-0.021617207676172256,0.018937086686491966,-0.0007693456136621535,0.03011317364871502
0.040093857795000076,0.004380411468446255,-0.02185613289475441,0.01886725425720215,-0.0007692406070418656,0.030143843963742256
0.03759141266345978,0.004432829096913338,-0.021894043311476707,0.01888194866478443,-0.0008141400176100433,0.03031735122203827
0.03842397406697273,0.004362724255770445,-0.02177179977297783,0.018525797873735428,-0.0008276496082544327,0.02992943488061428
0.03890575096011162,0.004373581614345312,-0.022347770631313324,0.01872706413269043,-0.00083656091010198,0.03018852323293686
0.03916783630847931,0.004458673298358917,-0.02244517207145691,0.01838061586022377,-0.0008989108027890325,0.030393345281481743
0.04028196260333061,0.004285246133804321,-0.022574221715331078,0.018553325906395912,-0.000978902098722756,0.030667508020997047
0.03978439047932625,0.003924693912267685,-0.022656474262475967,0.019172988831996918,-0.0009716578642837703,0.031094444915652275
0.0379081591963768,0.0039266375824809074,-0.02305436134338379,0.0188654325902462,-0.000930998707190156,0.0312380138784647
0.03971649706363678,0.005572437774389982,-0.02331065572798252,0.018640149384737015,-0.0008774954476393759,0.03123060241341591
0.04016931354999542,0.004131013993173838,-0.02289539761841297,0.018729981034994125,-0.0008741603814996779,0.030688250437378883
0.03892344608902931,0.003446376882493496,-0.022381853312253952,0.018333153799176216,-0.0008776604081504047,0.030682209879159927
0.039442118257284164,0.004463263787329197,-0.02266216091811657,0.018726486712694168,-0.0008718878962099552,0.03200657665729523
0.03963710367679596,0.005088301375508308,-0.02329212985932827,0.018882324919104576,-0.000832475780043751,0.0319763608276844
0.03963710367679596,0.005088301375508308,-0.02329212985932827,0.018882324919104576,-0.000832475780043751,0.0319763608276844
