davideferrari95/blind_handover_controller/data/Test 159 - [2024-02-08 -- 11-02-10]/joint_states_data.csv
shoulder_pan_joint,shoulder_lift_joint,elbow_joint,wrist_1_joint,wrist_2_joint,wrist_3_joint
0.005470931064337492,-0.0054320781491696835,-0.013227584771811962,0.016444949433207512,0.0,0.005264455918222666
0.005470931064337492,-0.0054320781491696835,-0.013227584771811962,0.016444949433207512,0.0,0.005264455918222666
0.006085565779358149,-0.005464441142976284,-0.012987591326236725,0.016493335366249084,0.0,0.005001370329409838
0.005851845256984234,-0.005474453326314688,-0.013283255510032177,0.016574004665017128,0.0,0.004779660142958164
0.005902234930545092,-0.005542343016713858,-0.013053090311586857,0.017395855858922005,0.0,0.0047526792623102665
0.005605142097920179,-0.005213009659200907,-0.012792052701115608,0.016960063949227333,0.0,0.00506602181121707
0.00564233073964715,-0.005480027291923761,-0.012876201421022415,0.016486749053001404,0.0,0.005098002962768078
0.005268024746328592,-0.005807051435112953,-0.012647862546145916,0.0173525158315897,0.0,0.004843969363719225
0.005917433649301529,-0.005987328942865133,-0.013109383173286915,0.017446093261241913,0.0,0.005259374622255564
0.005714188329875469,-0.005359790287911892,-0.012548884376883507,0.017234252765774727,0.0,0.004878536332398653
0.0057135820388793945,-0.005866373889148235,-0.013117741793394089,0.016790153458714485,0.0,0.004928514827042818
0.0057135820388793945,-0.005866373889148235,-0.013117741793394089,0.016790153458714485,0.0,0.004928514827042818
0.005177685525268316,-0.005496155936270952,-0.012626891024410725,0.017512230202555656,0.0,0.005195867270231247
0.0052566989324986935,-0.006013344973325729,-0.012677105143666267,0.01742461323738098,0.0,0.004810105077922344
0.005551998969167471,-0.005865240469574928,-0.012586687691509724,0.017297718673944473,0.0,0.0046533867716789246
0.005367653910070658,-0.0055476026609539986,-0.012743620201945305,0.016879471018910408,0.0,0.004954211413860321
0.005451885983347893,-0.006071620155125856,-0.012357485480606556,0.017146386206150055,0.0,0.005717812106013298
0.005154499318450689,-0.0057595414109528065,-0.012920667417347431,0.016772611066699028,0.0,0.005462257191538811
0.005921271629631519,-0.005953013896942139,-0.01249158475548029,0.017070801928639412,0.0,0.005034768953919411
0.005631857551634312,-0.005597720853984356,-0.01276248786598444,0.01694689318537712,0.0,0.005059242248535156
0.005904034711420536,-0.0055976733565330505,-0.012302915565669537,0.01691071316599846,0.0,0.004565293900668621
0.0054482691921293736,-0.005330562125891447,-0.012462125159800053,0.017261631786823273,0.0,0.004520262125879526
0.005811002105474472,-0.00542827183380723,-0.012387513183057308,0.017659520730376244,0.0,0.004586795810610056
0.005442692432552576,-0.005455550737679005,-0.012191168032586575,0.017478007823228836,0.0,0.005159221589565277
0.005509261507540941,-0.006258637644350529,-0.012769135646522045,0.01704048179090023,0.0,0.005538424476981163
0.005627681501209736,-0.005635531153529882,-0.012197060510516167,0.01670396700501442,0.0,0.005542030557990074
0.00557335140183568,-0.005264816805720329,-0.01255213376134634,0.01679389365017414,0.0,0.005171232856810093
0.005611340515315533,-0.005491923540830612,-0.012702121399343014,0.016039345413446426,0.0,0.004853763617575169
0.00513389753177762,-0.005543605424463749,-0.012440983206033707,0.016814107075333595,0.0,0.005023590289056301
0.005497251637279987,-0.00525310542434454,-0.012356562539935112,0.016872679814696312,0.0,0.00509230000898242
0.005364052020013332,-0.005581950768828392,-0.012476145289838314,0.01709793135523796,0.0,0.004981715697795153
0.005737793166190386,-0.005332608241587877,-0.012949266470968723,0.017294758930802345,0.0,0.005141913425177336
0.00530939782038331,-0.005569590721279383,-0.012397668324410915,0.01631138101220131,9.261060768039897e-06,0.00503757456317544
0.005333519075065851,-0.005593196023255587,-0.0129469009116292,0.01708056963980198,6.046810767657007e-07,0.005230484064668417
0.005654939915984869,-0.005344126373529434,-0.012242560274899006,0.017198432236909866,3.948134974507411e-08,0.005081298295408487
0.005654939915984869,-0.005344126373529434,-0.012242560274899006,0.017198432236909866,3.948134974507411e-08,0.005081298295408487
0.005282468628138304,-0.005250411573797464,-0.0126927699893713,0.017741456627845764,2.577849933516063e-09,0.004849941469728947
0.005118842236697674,-0.005230424925684929,-0.012706444598734379,0.01738223060965538,1.6831519511484316e-10,0.004726435523480177
0.005372462794184685,-0.005063995253294706,-0.012402663938701153,0.016378769651055336,1.0989780266368321e-11,0.0050553223118186
0.005160597153007984,-0.005213048309087753,-0.012131471186876297,0.016078205779194832,4.685115752929743e-14,0.004988895729184151
0.0058230445720255375,-0.005322469398379326,-0.01311219297349453,0.01618374139070511,3.0590459364817496e-15,0.005075826309621334
0.005438069347292185,-0.005196297541260719,-0.012255718000233173,0.01642325520515442,1.9973382326880204e-16,0.005119173787534237
0.005423285998404026,-0.005103521514683962,-0.013040577992796898,0.016461798921227455,1.304119222552935e-17,0.0050771175883710384
0.005696037784218788,-0.005403777118772268,-0.012590009719133377,0.017288804054260254,8.514965689360013e-19,0.004962449427694082
0.00528430100530386,-0.005515401251614094,-0.012502174824476242,0.016855617985129356,5.559664427667309e-20,0.00492021394893527
0.005715781357139349,-0.0055735791102051735,-0.012583908624947071,0.016863690689206123,3.630063538936922e-21,0.005023629404604435
0.005579361692070961,-0.0053742085583508015,-0.012558926828205585,0.01631937175989151,2.3701720958906634e-22,0.004877937957644463
0.005745728965848684,-0.005299201235175133,-0.012971670366823673,0.016425468027591705,1.5475530872992944e-23,0.00486857071518898
0.005433787126094103,-0.0037883881013840437,-0.012398522347211838,0.016615325585007668,1.0104414810905998e-24,0.004855983424931765
0.005313552916049957,-0.0039703575894236565,-0.012615191750228405,0.016383618116378784,6.597460687112258e-26,0.005460925400257111
0.005211056675761938,-0.004236620385199785,-0.012789460830390453,0.016670910641551018,4.3076704990845766e-27,0.005201341118663549
0.005603845696896315,-0.004468103870749474,-0.013223241083323956,0.015195057727396488,2.812601127763898e-28,0.004995796363800764
0.005816397722810507,-0.004371464252471924,-0.012792535126209259,0.016274593770503998,1.8364276164365308e-29,0.004866717383265495
0.005693323910236359,-0.004282703623175621,-0.01281228382140398,0.016297845169901848,1.1990559595901694e-30,0.004914735443890095
0.00513387331739068,-0.0040209246799349785,-0.012767262756824493,0.016101455315947533,7.828979867825391e-32,0.005010215565562248
0.005422522313892841,-0.0037636065389961004,-0.012195882387459278,0.01603628322482109,5.111763917535415e-33,0.004952643066644669
0.00569077767431736,-0.0037507687229663134,-0.013197200372815132,0.01569983921945095,3.337616696544482e-34,0.004924658685922623
0.00552373705431819,-0.003881528042256832,-0.012825043871998787,0.016259746626019478,2.1792250423632526e-35,0.005082794930785894
0.005533902905881405,-0.004397917073220015,-0.013018216006457806,0.016110852360725403,1.4228782813092158e-36,0.004996758885681629
0.005533902905881405,-0.004397917073220015,-0.013018216006457806,0.016110852360725403,1.4228782813092158e-36,0.004996758885681629
0.0061349207535386086,-0.004222191870212555,-0.013010161928832531,0.016753897070884705,9.290377884486616e-38,0.00461197504773736
0.0054875449277460575,-0.00398376164957881,-0.012723565101623535,0.016443965956568718,6.065953404055447e-39,0.004732634872198105
0.005022711120545864,-0.003858179785311222,-0.013067064806818962,0.016480427235364914,3.960629979567663e-40,0.005018156487494707
0.005664293188601732,-0.003862590529024601,-0.01317060086876154,0.016314586624503136,1.6885646495114046e-42,0.004733617417514324
0.0057250261306762695,-0.0038689617067575455,-0.012525754049420357,0.01632510870695114,1.1070257868166055e-43,0.004865032620728016
0.005189549643546343,-0.0038092867471277714,-0.012574880383908749,0.01601005159318447,7.006492321624085e-45,0.004556609783321619
0.005497808568179607,-0.0037338202819228172,-0.01199332159012556,0.016301531344652176,0.0,0.004549080040305853
0.005185495130717754,-0.0042777410708367825,-0.012996955774724483,0.015824757516384125,0.0,0.004195278976112604
0.0059944260865449905,-0.004138719290494919,-0.01312226802110672,0.016239123418927193,0.0,0.004343833774328232
0.005438718479126692,-0.003926957957446575,-0.013104616664350033,0.015847252681851387,0.0,0.004860979970544577
0.005552004091441631,-0.0034428993239998817,-0.01239867229014635,0.016358250752091408,0.0,0.0044824606738984585
0.005552004091441631,-0.0034428993239998817,-0.01239867229014635,0.016358250752091408,0.0,0.0044824606738984585
0.005383361130952835,-0.00409541605040431,-0.013032938353717327,0.016040557995438576,0.0,0.004369436297565699
0.005602721124887466,-0.004261512774974108,-0.012546424753963947,0.016082914546132088,0.0,0.004505374003201723
0.006080857012420893,-0.004006811883300543,-0.013502545654773712,0.015687111765146255,0.0,0.004763616714626551
0.005405448842793703,-0.0038021383807063103,-0.012581555172801018,0.01569955423474312,0.0,0.004787988495081663
0.0049001979641616344,-0.00384696782566607,-0.013290700502693653,0.015391605906188488,0.0,0.004729030188173056
0.005229527596384287,-0.003820223966613412,-0.012789584696292877,0.016065064817667007,0.0,0.005041318945586681
0.005213585682213306,-0.0038098155055195093,-0.012913131155073643,0.01598571427166462,0.0,0.005065110512077808
0.005495538003742695,-0.0037228877190500498,-0.013099498115479946,0.01645541749894619,0.0,0.00484900176525116
0.005654359236359596,-0.0037561426870524883,-0.013139871880412102,0.016171880066394806,0.0,0.00476418761536479
0.005286057945340872,-0.004204957280308008,-0.013296914286911488,0.016004957258701324,0.0,0.004784433636814356
0.0052437870763242245,-0.00414094515144825,-0.012362527661025524,0.016387224197387695,0.0,0.004595805425196886
0.005224750377237797,-0.003922721371054649,-0.01267992053180933,0.015902984887361526,0.0,0.004367549438029528
0.005570432171225548,-0.00391722796484828,-0.012496646493673325,0.01611729897558689,0.0,0.0044646798633039
0.0056692007929086685,-0.0035902198869735003,-0.01332018617540598,0.01561767514795065,0.0,0.0046729110181331635
0.0056692007929086685,-0.0035902198869735003,-0.01332018617540598,0.01561767514795065,0.0,0.0046729110181331635
0.0055715967901051044,-0.003729427233338356,-0.013096765615046024,0.01544738095253706,0.0,0.004715478513389826
0.005458628758788109,-0.00394374830648303,-0.012534959241747856,0.015853967517614365,0.0,0.00456896610558033
0.005413741338998079,-0.003978995606303215,-0.01329798623919487,0.01604154333472252,0.0,0.004401891026645899
0.005413741338998079,-0.003978995606303215,-0.01329798623919487,0.01604154333472252,0.0,0.004401891026645899
0.0051881093531847,-0.0039017677772790194,-0.012094669975340366,0.015386298298835754,0.0,0.004493973217904568
0.005188811104744673,-0.0038970212917774916,-0.013346798717975616,0.014827799052000046,0.0,0.00457810191437602
0.005514472257345915,-0.003853114787489176,-0.012800176627933979,0.01524394378066063,0.0,0.004453685134649277
0.005193814169615507,-0.0038870819844305515,-0.012919333763420582,0.014933770522475243,0.0,0.0044807265512645245
0.005175378639250994,-0.0034431086387485266,-0.012609340250492096,0.015350661240518093,0.0,0.004589152988046408
0.005670882295817137,-0.004053028300404549,-0.012966514565050602,0.015028993599116802,0.0,0.004641628358513117
0.005866461433470249,-0.004157964140176773,-0.013224605470895767,0.01559106633067131,0.0,0.004490260500460863
0.005435560829937458,-0.003991781268268824,-0.012354639358818531,0.015210307203233242,0.0,0.004601419437676668
0.005177096463739872,-0.0035681980662047863,-0.012582020834088326,0.014064350165426731,0.0,0.004346377216279507
0.005361650139093399,-0.003940984141081572,-0.012121178209781647,0.014748926274478436,0.0,0.004066036082804203
0.005707121919840574,-0.0036881507840007544,-0.013159235008060932,0.015055439434945583,0.0,0.0043832468800246716
0.005585626233369112,-0.0033446101006120443,-0.012885269708931446,0.014795003458857536,0.0,0.00446432875469327
0.005473293364048004,-0.003527207300066948,-0.013039959594607353,0.014798076823353767,0.0,0.004479255061596632
0.005401959642767906,-0.003806561464443803,-0.01253616251051426,0.014263692311942577,0.0,0.004196345806121826
0.005595011170953512,-0.003877111477777362,-0.012771333567798138,0.014268464408814907,0.0,0.004413783084601164
0.005585614591836929,-0.003879551775753498,-0.012343540787696838,0.014207355678081512,0.0,0.0042931195348501205
0.005706829484552145,-0.003901045536622405,-0.012495751492679119,0.014608195051550865,0.0,0.004222699906677008
0.0056350030936300755,-0.0039704227820038795,-0.012882702052593231,0.014524043537676334,0.0,0.004310382530093193
0.0055462694726884365,-0.003901885822415352,-0.012126771733164787,0.014887894503772259,0.0,0.004451675806194544
0.005692514590919018,-0.003802149323746562,-0.012342502363026142,0.014344679191708565,1.3970093277748674e-05,0.00412176875397563
0.006154288537800312,-0.0037304277066141367,-0.01220474299043417,0.01426724437624216,2.220444002887234e-05,0.0041799587197601795
0.005703226197510958,-0.0038145009893924,-0.012802300974726677,0.013538876548409462,2.2475995137938298e-05,0.004257619846612215
0.005721519701182842,-0.0038896799087524414,-0.012727534398436546,0.013846860267221928,3.190300412825309e-05,0.0040894909761846066
0.005315233021974564,-0.003889129962772131,-0.012409811839461327,0.013633997179567814,3.285326965851709e-05,0.003984448965638876
0.005315233021974564,-0.003889129962772131,-0.012409811839461327,0.013633997179567814,3.285326965851709e-05,0.003984448965638876
0.005592346657067537,-0.0038724972400814295,-0.012212871573865414,0.014122691936790943,3.2544692658120766e-05,0.0040220594964921474
0.006461152341216803,-0.003846522653475404,-0.011836431920528412,0.013706931844353676,4.2175328417215496e-05,0.004362881183624268
0.0060346899554133415,-0.003784727305173874,-0.012680811807513237,0.014212428592145443,5.0204598665004596e-05,0.004235289059579372
0.0056061758659780025,-0.0036319904029369354,-0.011980838142335415,0.01371471956372261,0.0005502142594195902,0.003986078780144453
0.0057514384388923645,-0.003180629340931773,-0.011659289710223675,0.013134947046637535,0.0005975853418931365,0.003773245494812727
0.0061811055056750774,-0.003275135299190879,-0.011422867886722088,0.013614291325211525,0.0006257435888983309,0.0036935494281351566
0.006066613830626011,-0.0033419926185160875,-0.012227075174450874,0.013552156277000904,0.0008235778659582138,0.0037367003969848156
0.0057722157798707485,-0.003530984278768301,-0.01204865425825119,0.01396443322300911,0.001027641468681395,0.00426339590921998
0.005679262802004814,-0.0032463071402162313,-0.012497236020863056,0.01342596672475338,0.0010999883525073528,0.0042112902738153934
0.005384120624512434,-0.003094204468652606,-0.012169865891337395,0.013575161807239056,0.0010290434584021568,0.0042708697728812695
0.005597902461886406,-0.003211290342733264,-0.012174245901405811,0.013691269792616367,0.0012203238438814878,0.004285280592739582
0.006177118979394436,-0.00290856440551579,-0.012382803484797478,0.013608995825052261,0.001129476702772081,0.0036185295321047306
0.006280377507209778,-0.0030613087583333254,-0.011728682555258274,0.013300714083015919,0.0011266557266935706,0.0035448677372187376
0.0059151980094611645,-0.002971900627017021,-0.01318688690662384,0.012735562399029732,0.0010600779205560684,0.003710084594786167
0.005655467044562101,-0.0029973594937473536,-0.012561973184347153,0.01258598268032074,0.0009143220377154648,0.003914669621735811
0.00585336796939373,-0.0027706653345376253,-0.012353237718343735,0.012109817937016487,0.0009038770222105086,0.004304143134504557
0.006249445956200361,-0.0030161687172949314,-0.01206412073224783,0.012707047164440155,0.0009026021580211818,0.004354869946837425
0.006602130364626646,-0.003026894060894847,-0.011891081929206848,0.012453047558665276,0.0009021173464134336,0.004463265184313059
0.006763539742678404,-0.0030174092389643192,-0.012683074921369553,0.012978156097233295,0.0008616631967015564,0.004222243092954159
0.006150367204099894,-0.0028238592203706503,-0.012627854011952877,0.012904717586934566,0.0007453939761035144,0.0039526671171188354
0.006350127048790455,-0.003061699215322733,-0.01312774233520031,0.012527374550700188,0.0007590809254907072,0.0035618047695606947
0.006108409259468317,-0.002994474256411195,-0.011933378875255585,0.012157328426837921,0.0007538251229561865,0.0033992440439760685
0.006269281264394522,-0.00290502468124032,-0.012470239773392677,0.011806593276560307,0.0006958506419323385,0.0036030157934874296
0.0064225951209664345,-0.0026733337435871363,-0.012273668311536312,0.012285001575946808,0.0007112803868949413,0.004218033514916897
0.005670072976499796,-0.002583858324214816,-0.012811541557312012,0.011780712753534317,0.0006589064141735435,0.0042128125205636024
0.006039771251380444,-0.002663807710632682,-0.01324380375444889,0.011717919260263443,0.0006155529408715665,0.0035709950607270002
0.006366441957652569,-0.0025656342040747404,-0.012492869980633259,0.011669031344354153,0.0005961688584648073,0.0035736029967665672
0.005990465171635151,-0.0027147100772708654,-0.012732259929180145,0.011114077642560005,0.0005788551061414182,0.0034579334314912558
0.005716918036341667,-0.0027919888962060213,-0.012201953679323196,0.011942983604967594,0.0005677345907315612,0.003367101773619652
0.005782760679721832,-0.0027880959678441286,-0.012907298281788826,0.011477581225335598,0.0005559242563322186,0.00310243247076869
0.005782760679721832,-0.0027880959678441286,-0.012907298281788826,0.011477581225335598,0.0005559242563322186,0.00310243247076869
0.006135077681392431,-0.0027192027773708105,-0.012785102240741253,0.011157400906085968,0.0005486052832566202,0.0031765575986355543
0.006288623902946711,-0.0027832994237542152,-0.012996031902730465,0.010961162857711315,0.0005042258417233825,0.003509924281388521
0.005925418809056282,-0.002877361373975873,-0.011916272342205048,0.011794840916991234,0.0004713372909463942,0.0036619792226701975
0.006078348960727453,-0.0026754194404929876,-0.012702208943665028,0.011708422563970089,0.0004476759640965611,0.003987438976764679
0.006146532483398914,-0.0026706764474511147,-0.012233322486281395,0.011316943913698196,0.0004102542588952929,0.003928482998162508
0.006201303098350763,-0.0023727151565253735,-0.012902680784463882,0.011610806919634342,0.00037614977918565273,0.003624818753451109
0.00670256931334734,-0.0024271977599710226,-0.01226811483502388,0.011072972789406776,0.0003471229283604771,0.003098567482084036
0.006012757774442434,-0.0023145321756601334,-0.012496871873736382,0.01159677840769291,0.00038216280518099666,0.0029650507494807243
0.006089622620493174,-0.0022668149322271347,-0.012353168800473213,0.011460844427347183,0.0003605431120377034,0.0031434374395757914
0.0067589543759822845,-0.0023373598232865334,-0.0122657036408782,0.011204815469682217,0.000365623040124774,0.003544565988704562
0.0067857857793569565,-0.0024198887404054403,-0.012796515598893166,0.011370664462447166,0.00036943540908396244,0.003404156770557165
0.006559667177498341,-0.002315468154847622,-0.011846317909657955,0.01145540364086628,0.0003938663867302239,0.0032439178321510553
0.00612246710807085,-0.0024944543838500977,-0.012160664424300194,0.011497275903820992,0.00042368227150291204,0.0031475655268877745
0.006831818260252476,-0.002370678586885333,-0.011911340057849884,0.010656013153493404,0.0004684199229814112,0.0030314303003251553
0.00689702108502388,-0.0024788398295640945,-0.01247229054570198,0.011262337677180767,0.0005061037954874337,0.0033993974793702364
0.006373732350766659,-0.0023467419669032097,-0.012218210846185684,0.011489863507449627,0.0005028071464039385,0.003685432020574808
0.006242582108825445,-0.0022022996563464403,-0.011791139841079712,0.011293705552816391,0.0005300238844938576,0.0037131868302822113
0.006815677043050528,-0.0023161997087299824,-0.01233774982392788,0.011357721872627735,0.0008100652485154569,0.0032752486877143383
0.007041750941425562,-0.0022044365759938955,-0.011696631088852882,0.011722441762685776,0.0008523605647496879,0.0028913517016917467
0.006609086878597736,-0.0021431446075439453,-0.01177122350782156,0.011432687751948833,0.0008131051436066628,0.002967367647215724
0.006262160371989012,-0.0019772148225456476,-0.012284096330404282,0.011350719258189201,0.0007680198759771883,0.0030284575186669827
0.006502213422209024,-0.0019553042948246002,-0.011714709922671318,0.010748621076345444,0.0007348067010752857,0.0034404851030558348
0.006809967570006847,-0.0021549812518060207,-0.011774742044508457,0.01078726351261139,0.0007053196895867586,0.0033040600828826427
0.006744466722011566,-0.0021198533941060305,-0.011140849441289902,0.011032153852283955,0.0006697518983855844,0.0034300507977604866
0.006393743678927422,-0.002492532366886735,-0.011719473637640476,0.010546230711042881,0.0006813765503466129,0.0031047272495925426
0.006495302077382803,-0.002419468015432358,-0.011885041370987892,0.010112748481333256,0.0007194398785941303,0.0031146653927862644
0.006587269250303507,-0.0025161639787256718,-0.011548471637070179,0.009982122108340263,0.000739184848498553,0.0027530835941433907
0.006587269250303507,-0.0025161639787256718,-0.011548471637070179,0.009982122108340263,0.000739184848498553,0.0027530835941433907
0.00635346956551075,-0.0022272677160799503,-0.011903231963515282,0.010017908178269863,0.0009354689391329885,0.0025811479426920414
0.006846905220299959,-0.002022074069827795,-0.011661418713629246,0.010569884441792965,0.001061834511347115,0.002937562996521592
0.006489598657935858,-0.002055636141449213,-0.011272977106273174,0.009758866392076015,0.0009959377348423004,0.0029662717133760452
0.006202890072017908,-0.0024235015735030174,-0.011932599358260632,0.010110540315508842,0.0011149626225233078,0.0028013887349516153
0.006879504304379225,-0.002573060803115368,-0.011948807165026665,0.010016321204602718,0.0010843683267012239,0.002826324198395014
0.006745906081050634,-0.002153661334887147,-0.011498524807393551,0.009571846574544907,0.0010559436632320285,0.0027472972869873047
0.006822003051638603,-0.00184770324267447,-0.011411897838115692,0.009847878478467464,0.0010478737531229854,0.0027717764023691416
0.006658970844000578,-0.001752906828187406,-0.011435260996222496,0.00994585920125246,0.001179684535600245,0.0027378201484680176
0.007622824981808662,-0.0018722115783020854,-0.011005675420165062,0.009628167375922203,0.0011742293136194348,0.002790674101561308
0.006885765586048365,-0.0019504145020619035,-0.01200472004711628,0.009654401801526546,0.0010424978099763393,0.002449846128001809
0.006474452558904886,-0.0023071146570146084,-0.011314185336232185,0.009565961547195911,0.0010181311517953873,0.002322479849681258
0.006576408166438341,-0.002266111085191369,-0.011264866217970848,0.009185156784951687,0.0009744549170136452,0.0025015065912157297
0.006712785456329584,-0.0021583130583167076,-0.011089074425399303,0.009304252453148365,0.0009473274694755673,0.0027579281013458967
0.006657448131591082,-0.002059588208794594,-0.010592019185423851,0.009593474678695202,0.0008796043111942708,0.0026793726719915867
0.006744468584656715,-0.0019194524502381682,-0.011052528396248817,0.0087326904758811,0.0008560164133086801,0.002709011547267437
0.006612552795559168,-0.001900525065138936,-0.01106890570372343,0.0084972083568573,0.0007871814304962754,0.002528857672587037
0.006766106002032757,-0.002097997348755598,-0.011194184422492981,0.00876447930932045,0.0007934195455163717,0.0025818482972681522
0.006882552057504654,-0.001873697037808597,-0.011128795333206654,0.0080100754275918,0.0007342362659983337,0.002758554881438613
0.00725734606385231,-0.0018151127733290195,-0.010915124788880348,0.008197537623345852,0.0006245565600693226,0.002733906963840127
0.006737654563039541,-0.0018290354637429118,-0.01130715198814869,0.009010741487145424,0.000641794700641185,0.00245150295086205
0.006898576859384775,-0.0020969936158508062,-0.01122167520225048,0.008511875756084919,0.0006687654531560838,0.002256816253066063
0.007013597525656223,-0.001853777328506112,-0.009989017620682716,0.007712136954069138,0.0006913471152074635,0.002000381238758564
0.007161769084632397,-0.0015315946657210588,-0.0105714937672019,0.007604488171637058,0.0007614081259816885,0.0018424807349219918
0.007233507465571165,-0.0015770134050399065,-0.010874900035560131,0.007486773654818535,0.0008782381191849709,0.0017454625340178609
0.007233507465571165,-0.0015770134050399065,-0.010874900035560131,0.007486773654818535,0.0008782381191849709,0.0017454625340178609
0.00701009389013052,-0.0014742205385118723,-0.010499175637960434,0.007978091947734356,0.0008706980152055621,0.0018521604361012578
0.007045249454677105,-0.0015537975123152137,-0.010479648597538471,0.007788880728185177,0.0007780269370414317,0.002049880800768733
0.007045249454677105,-0.0015537975123152137,-0.010479648597538471,0.007788880728185177,0.0007780269370414317,0.002049880800768733
0.007370217237621546,-0.001677338033914566,-0.010453141294419765,0.007637635339051485,0.0007286992622539401,0.002012796700000763
0.007524674292653799,-0.0014457053039222956,-0.010323860682547092,0.007455326616764069,0.0007426619413308799,0.0019474108703434467
0.007524674292653799,-0.0014457053039222956,-0.010323860682547092,0.007455326616764069,0.0007426619413308799,0.0019474108703434467
0.007620346266776323,-0.0013732056831941009,-0.010700111277401447,0.007580634206533432,0.0007805926143191755,0.0017599401762709022
0.007573465351015329,-0.0013111133594065905,-0.010038904845714569,0.007151233498007059,0.0010272078216075897,0.0016694858204573393
0.007693816442042589,-0.001367453602142632,-0.011834309436380863,0.006785945501178503,0.0010408820817247033,0.0016942366492003202
0.007735062390565872,-0.0012886404292657971,-0.011455987580120564,0.00710601219907403,0.001037629903294146,0.0018039292190223932
0.007127923425287008,-0.0012518392177298665,-0.01027077529579401,0.007403141353279352,0.0013128167483955622,0.0018281744560226798
0.0072840615175664425,-0.0013252310454845428,-0.011145409196615219,0.007616139482706785,0.0012484606122598052,0.0021399883553385735
0.007762218825519085,-0.0012568843085318804,-0.011752272956073284,0.0070951408706605434,0.0011514017824083567,0.0019761729054152966
0.00722501752898097,-0.0011972340289503336,-0.011794020421802998,0.007348543964326382,0.00105741445440799,0.0018554286798462272
0.006994042545557022,-0.0011054822243750095,-0.011496848426759243,0.008033625781536102,0.0010173603659495711,0.00177554611582309
0.007259819656610489,-0.0011821776861324906,-0.011467364616692066,0.007159566041082144,0.001035331399179995,0.0015417251270264387
0.0073130070231854916,-0.001171367708593607,-0.011704077944159508,0.006518981419503689,0.0010353130055591464,0.0015066786436364055
0.007307619787752628,-0.0011523280991241336,-0.0113657396286726,0.007049321662634611,0.0012299661757424474,0.0014852391323074698
0.007382143288850784,-0.0011555529199540615,-0.011253057047724724,0.0073558129370212555,0.0011077065719291568,0.001726724673062563
0.007262525148689747,-0.0011108025209978223,-0.011456131003797054,0.0067917946726083755,0.0010678910184651613,0.0016566718695685267
0.007262624334543943,-0.0010369491064921021,-0.01105958130210638,0.0065143234096467495,0.0010337341809645295,0.0016445196233689785
0.007443114649504423,-0.0009421708527952433,-0.01127005834132433,0.007174272555857897,0.000928199733607471,0.0015415254747495055
0.007999860681593418,-0.0008489419706165791,-0.011610288172960281,0.007574428338557482,0.0008751272107474506,0.0014398997882381082
0.007581818383187056,-0.0008432093309238553,-0.010239512659609318,0.0069053443148732185,0.0008758060866966844,0.0013681957498192787
0.007671325467526913,-0.0008226214558817446,-0.011061345227062702,0.006366684101521969,0.0009083557524718344,0.0013235133374109864
0.008186719380319118,-0.000831677985843271,-0.011369625106453896,0.006120275240391493,0.0011495549697428942,0.0012507203500717878
0.007970656268298626,-0.000782740069553256,-0.01131843775510788,0.006170683074742556,0.0012169952969998121,0.001167354523204267
0.007569595240056515,-0.0009136323351413012,-0.012349279597401619,0.006470956839621067,0.0012056240811944008,0.0012111387914046645
0.0075705889612436295,-0.0008244097116403282,-0.011433715932071209,0.006212139502167702,0.0014633105602115393,0.0012139015598222613
0.007992674596607685,-0.0008297711610794067,-0.0115826316177845,0.005946298595517874,0.001386601128615439,0.0012595922453328967
0.007992674596607685,-0.0008297711610794067,-0.0115826316177845,0.005946298595517874,0.001386601128615439,0.0012595922453328967
0.007622119039297104,-0.0007371441461145878,-0.01111651211977005,0.005872803274542093,0.0012997161829844117,0.0013862401247024536
0.0074259331449866295,-0.0007426846423186362,-0.011091501452028751,0.0061225383542478085,0.0011707744561135769,0.0013308223569765687
0.007965488359332085,-0.0006825139280408621,-0.011695697903633118,0.005688794888556004,0.0012072845129296184,0.0012596813030540943
0.008454272523522377,-0.000623523083049804,-0.011364562436938286,0.005468839313834906,0.0011991251958534122,0.0011990192579105496
0.007745120208710432,-0.0005637970170937479,-0.011519667692482471,0.005347466096282005,0.0012023176532238722,0.0010807595681399107
0.00799231231212616,-0.000509164179675281,-0.011203967966139317,0.005524325650185347,0.0012167165987193584,0.0009571416303515434
0.008084733039140701,-0.0004909893032163382,-0.011160111986100674,0.005690481513738632,0.0011053886264562607,0.0008236149442382157
0.007938746362924576,-0.0005223132902756333,-0.010753476060926914,0.005357353948056698,0.0011259614257141948,0.0008923279237933457
0.007568328641355038,-0.0005301987403072417,-0.011372275650501251,0.005715204402804375,0.0011302446946501732,0.0009273733012378216
0.008306396193802357,-0.000514341751113534,-0.01146615855395794,0.005418207496404648,0.001115575316362083,0.0011282366467639804
0.008519018068909645,-0.0004826404619961977,-0.010897650383412838,0.005697740241885185,0.0011224814224988222,0.0011521033011376858
0.007841684855520725,-0.00052359898108989,-0.011259318329393864,0.0055554709397256374,0.0012529650703072548,0.0011112975189462304
0.008099954575300217,-0.000470177736133337,-0.010742641054093838,0.005847760941833258,0.0012554177083075047,0.0010268496116623282
0.008679976686835289,-0.0005072189960628748,-0.011142735369503498,0.005712263286113739,0.0016032203566282988,0.0009496886050328612
0.00847899541258812,-0.0004666204331442714,-0.011545903980731964,0.005581588484346867,0.0015682259108871222,0.000839269021525979
0.008301506750285625,-0.00042953333468176425,-0.011017936281859875,0.005152623634785414,0.0016225675353780389,0.0008146348409354687
0.008605384267866611,-0.0004614232457242906,-0.011470976285636425,0.005284554790705442,0.001473613316193223,0.0007349124061875045
0.008772751316428185,-0.0004322920576669276,-0.011516876518726349,0.005491706542670727,0.0012731835013255477,0.0007486111717298627
0.008434681221842766,-0.0004045597743242979,-0.011006010696291924,0.005388566758483648,0.0012038027634844184,0.0007579003577120602
0.008590775541961193,-0.0003801447164732963,-0.011192935518920422,0.004964856430888176,0.0009819662664085627,0.0006962104234844446
0.009042829275131226,-0.00035850933636538684,-0.010324865579605103,0.004751855041831732,0.0009537008008919656,0.0006354591459967196
0.008745485916733742,-0.0003392040962353349,-0.010988070629537106,0.00430995924398303,0.000935005082283169,0.0005889574531465769
0.008404556661844254,-0.00032187189208343625,-0.011343911290168762,0.004008804447948933,0.0010599178494885564,0.0005235358257777989
0.008757026866078377,-0.00030622482881881297,-0.010327514261007309,0.0038600896950811148,0.0012374218786135316,0.00046907461364753544
0.009296039119362831,-0.0003320428659208119,-0.01104408223181963,0.004037069156765938,0.0012667304836213589,0.00042474805377423763
0.00860337819904089,-0.00031893866253085434,-0.010838460177183151,0.004085753113031387,0.001685530412942171,0.00038807428791187704
0.008681216277182102,-0.0003054291009902954,-0.010889027267694473,0.003882010467350483,0.0016458284808322787,0.0004188685561530292
0.00950748473405838,-0.0002576236438471824,-0.01117205061018467,0.0036999944131821394,0.0014459257945418358,0.0003964896604884416
0.008274467661976814,-5.41556000825949e-05,-0.01067245751619339,0.003702727844938636,0.0013299949932843447,0.0004152021137997508
0.008274467661976814,-5.41556000825949e-05,-0.01067245751619339,0.003702727844938636,0.0013299949932843447,0.0004152021137997508
0.008761130273342133,-7.265665544764488e-07,-0.011253824457526207,0.004353057127445936,0.0012671018484979868,0.00040280871326103806
0.009029046632349491,-9.747817664162994e-09,-0.01094945427030325,0.004295968450605869,0.0012072263052687049,0.00037946359952911735
0.008957112208008766,-1.3077942895289851e-10,-0.010320746339857578,0.003958924673497677,0.0013026276137679815,0.0003579535405151546
0.00885174609720707,-2.3539836732969742e-14,-0.011042461730539799,0.0032431846484541893,0.0017785648815333843,0.0003214191528968513
0.009112561121582985,-3.1581694906781513e-16,-0.01076505333185196,0.0034183640964329243,0.0018308701692149043,0.00030581228202208877
0.008837695233523846,-4.237087104015075e-18,-0.010887671262025833,0.003602254204452038,0.0016319326823577285,0.000291650794679299
0.009147243574261665,-5.684593257087252e-20,-0.010354102589190006,0.003469301387667656,0.0014594490639865398,0.00027874321676790714
0.009068158455193043,-7.6266072672228325e-22,-0.011051553301513195,0.0034945555962622166,0.0013384376652538776,0.0002669300592970103
0.00886246096342802,-1.02320663104366e-23,-0.01117425411939621,0.0032312299590557814,0.001281996606849134,0.0002560775901656598
0.009321512654423714,-1.3727623119783127e-25,-0.010645751841366291,0.003041348187252879,0.001193226664327085,0.00024607349769212306
0.009644432924687862,-1.8417359909384035e-27,-0.010830751620233059,0.0029646025504916906,0.0011600591242313385,0.00023682168102823198
0.0091316606849432,-2.4709240329086904e-29,-0.010483507998287678,0.003102079266682267,0.0011445439886301756,0.00022824094048701227
0.009308168664574623,-3.315060049121187e-31,-0.010502171702682972,0.00299222394824028,0.0014586731558665633,0.00022025984071660787
0.00945370178669691,0.00015875656390562654,-0.010803380981087685,0.0027252123691141605,0.0014708730159327388,0.00021281831141095608
0.009509875439107418,0.00014721030311193317,-0.010620912536978722,0.002515459433197975,0.0019141655648127198,0.0002058633981505409
0.009227990172803402,0.00013609589950647205,-0.011293706484138966,0.002500950125977397,0.001802709768526256,0.00019934865122195333
0.009514836594462395,0.00012652722944039851,-0.011308915913105011,0.002642143750563264,0.0017680060118436813,0.00019323349988553673
0.009246831759810448,0.00011821593943750486,-0.010180671699345112,0.002845827955752611,0.001599400187842548,0.00018748256843537092
0.009223497472703457,0.00011092938802903518,-0.010595439933240414,0.0030510583892464638,0.0015293408650904894,0.00018206411914434284
0.009558302350342274,0.00010448905959492549,-0.010468614287674427,0.0033936689142137766,0.0014262426411733031,0.000176949892193079
0.009081757627427578,0.0001310916995862499,-0.010265720076858997,0.0035845590755343437,0.001420500222593546,0.0001721151638776064
0.009237735532224178,0.00014019935042597353,-0.010592574253678322,0.0032308639492839575,0.0013460018672049046,0.00016753774252720177
0.00940566323697567,0.00013348183711059391,-0.010279932990670204,0.0027909590862691402,0.0013129572616890073,0.00016319743008352816
0.009541754610836506,0.00012719599180854857,-0.011031226254999638,0.0024317288771271706,0.001331954263150692,0.0001590765023138374
0.008965778164565563,0.00016139517538249493,-0.010521367192268372,0.002488838043063879,0.0013102402444928885,0.00015515855920966715
0.008965778164565563,0.00016139517538249493,-0.010521367192268372,0.002488838043063879,0.0013102402444928885,0.00015515855920966715
0.009425503201782703,0.00015498332504648715,-0.010080160573124886,0.0027610943652689457,0.001306645106524229,0.0001514288887847215
0.009419349022209644,0.00018134711717721075,-0.010273230262100697,0.0026533149648457766,0.0013282960280776024,0.0001478744816267863
0.009233956225216389,0.0001783190673450008,-0.010453474707901478,0.002181364456191659,0.001496041426435113,0.00014448288129642606
0.009394689463078976,0.00024834348005242646,-0.010218651965260506,0.0019028367241844535,0.0016063058283179998,0.00014124346489552408
0.009497708640992641,0.0002712250279728323,-0.010869198478758335,0.001737892278470099,0.0018551221583038568,0.0001381460897391662
0.009788909927010536,0.0003014242392964661,-0.010201548226177692,0.0016500194324180484,0.0019111838191747665,0.00013518180639948696
0.009607330895960331,0.00029088815790601075,-0.0098006846383214,0.002044911729171872,0.0019161475356668234,0.00013234210200607777
0.009263207204639912,0.0003063658077735454,-0.010148297064006329,0.00198192847892642,0.0016324546886608005,4.361762694315985e-05
0.009549453854560852,0.0003195897734258324,-0.010357868857681751,0.0017962978454306722,0.0015701396623626351,4.128673754166812e-05
0.009554744698107243,0.00031903095077723265,-0.01030202116817236,0.0014669145457446575,0.0015872982330620289,4.027595787192695e-05
0.00948676373809576,0.0003056679561268538,-0.01038048043847084,0.00122766790445894,0.0017450236482545733,2.4782668333500624e-05
0.009784871712327003,0.0004774933331646025,-0.009839626029133797,0.0010710839414969087,0.001781689701601863,1.9604742192314006e-05
0.010540303774178028,0.00043883005855605006,-0.010383615270256996,0.0010059644700959325,0.001849043881520629,9.610099368728697e-06
0.00925002247095108,0.00047872946015559137,-0.010524924844503403,0.0008954413351602852,0.0018551393877714872,6.274708539422136e-07
0.009591609239578247,0.0004407113592606038,-0.011018859222531319,0.0008393210591748357,0.0019218652741983533,4.0969361236875557e-08
0.009992784820497036,0.00047438504407182336,-0.010510546155273914,0.0007944695535115898,0.0019106153631582856,2.6750062165348254e-09
0.009629753418266773,0.0004975614137947559,-0.009837890975177288,0.000718258845154196,0.0019332445226609707,1.7465878743294638e-10
0.009943223558366299,0.0006010323413647711,-0.010224946774542332,0.0006532146944664419,0.0019145617261528969,1.1403971517109923e-11
0.010432721115648746,0.0006993183051235974,-0.01038349699229002,0.0005122639122419059,0.001923104515299201,7.445978512585216e-13
0.009610043838620186,0.0007150098099373281,-0.010334858670830727,0.0004502427764236927,0.0019028761889785528,4.8616916292461634e-14
0.009721672162413597,0.0006522840703837574,-0.011373103596270084,0.00040860078297555447,0.0017524395370855927,3.174337284998427e-15
0.009518636390566826,0.0006653843447566032,-0.010608973912894726,0.0003745119902305305,0.001614947454072535,2.0726155065483882e-16
0.009473475627601147,0.0006175297312438488,-0.010448314249515533,0.0003964762727264315,0.001624931930564344,-0.0006916828569956124
0.00994123239070177,0.000668512424454093,-0.011142976582050323,0.0003840337158180773,0.0017207545461133122,-0.0008532230276614428
0.010406379587948322,0.0007336859707720578,-0.010163298808038235,0.0003594885638449341,0.001639953930862248,-0.0008201499585993588
0.009716873057186604,0.0007544659893028438,-0.01003187708556652,0.0003371030034031719,0.001860518241301179,-0.0007742801099084318
0.009977149777114391,0.0007781077874824405,-0.011228613555431366,0.0003172901342622936,0.001784934545867145,-0.0007648556493222713
0.009879793040454388,0.0011492439080029726,-0.010455038398504257,0.00029967562295496464,0.0020140025299042463,-0.0007115693879313767
0.009878965094685555,0.001155599020421505,-0.010255173780024052,0.0002839129592757672,0.0020249190274626017,-0.0006878696149215102
0.009878965094685555,0.001155599020421505,-0.010255173780024052,0.0002839129592757672,0.0020249190274626017,-0.0006878696149215102
0.010427962057292461,0.001127572380937636,-0.011145693250000477,0.0002697274903766811,0.002205305267125368,-0.0007739676511846483
0.009693947620689869,0.0011232402175664902,-0.010847335681319237,0.00024522331659682095,0.0020943700801581144,-0.0010685808956623077
0.010698540136218071,0.001084615825675428,-0.010996203869581223,0.00023456937924493104,0.0018054719548672438,-0.0012657401384785771
0.010035309009253979,0.0010610627941787243,-0.010633326135575771,0.0002248019736725837,0.0017299243481829762,-0.0012669722782447934
0.009660410694777966,0.0011003648396581411,-0.011086013168096542,0.00021581539476756006,0.0016290643252432346,-0.0015493000391870737
0.010442269034683704,0.0011047441512346268,-0.010769500397145748,0.00020752109412569553,0.0016081439098343253,-0.0015365186845883727
0.010398941114544868,0.0010742776794359088,-0.010352836921811104,0.00019983960373792797,0.0017066315049305558,-0.0014222109457477927
0.010628266260027885,0.000962187594268471,-0.01130170002579689,0.00019270683696959168,0.002153597306460142,-0.001346650649793446
0.01048517506569624,0.0010567259741947055,-0.010381583124399185,0.00018606666708365083,0.002328478731215,-0.0013574273325502872
0.010348470881581306,0.0010669376933947206,-0.010973501019179821,0.0001798680459614843,0.002295673592016101,-0.0012982841581106186
0.009888654574751854,0.001076264539733529,-0.01173014659434557,0.00017406938422936946,0.0019163639517500997,-0.001435752841643989
0.01031938660889864,0.0015216376632452011,-0.01087803766131401,0.00016863315249793231,0.0017664789920672774,-0.0013849468668922782
0.01032920554280281,0.0022974296007305384,-0.011416729539632797,0.00016352573584299535,0.0017082929844036698,-0.0016299707349389791
0.01113725733011961,0.0022917822934687138,-0.011604641564190388,0.00015871923824306577,0.0020200691651552916,-0.0016498721670359373
0.010267906822264194,0.0020651568192988634,-0.010945289395749569,0.00015418716066051275,0.0022737784311175346,-0.0014992626383900642
0.009821095503866673,0.001796938944607973,-0.011127457953989506,0.00014990671479608864,0.002346714260056615,-0.0013864922802895308
0.010731115005910397,0.0016462901839986444,-0.010557632893323898,0.00014585716417059302,0.002389555098488927,-0.0012873820960521698
0.010183214209973812,0.0016194959171116352,-0.01149145420640707,0.0001420209591742605,0.002175691304728389,-0.001220450270920992
0.01051406655460596,0.0015444430755451322,-0.01240426953881979,0.0001270514912903309,0.0018733872566372156,-0.001136512728407979
0.010489425621926785,0.0018618579488247633,-0.010517843067646027,0.0001132025572587736,0.001807760214433074,-0.0012359783286228776
0.01054820790886879,0.002078112680464983,-0.010654167272150517,0.00010974539327435195,0.001660250942222774,-0.002437596209347248
0.010095558129251003,0.002339852275326848,-0.011077367700636387,0.00010708819172577932,0.0015752388862892985,-0.003242266597226262
0.010069101117551327,0.002340578008443117,-0.011075695045292377,0.00010459600889589638,0.0015958278672769666,-0.003201801795512438
0.01033246610313654,0.002198937814682722,-0.010800004005432129,8.31419019959867e-05,0.0017277079168707132,-0.0027460213750600815
0.00860938336700201,0.002304951660335064,-0.009993239305913448,7.022020145086572e-05,0.0021177351009100676,-0.0021899803541600704
0.010804001241922379,0.0025923859793692827,-0.010831461288034916,5.93688091612421e-05,0.0021193637512624264,-0.0019854786805808544
0.01063724048435688,0.002554995473474264,-0.010795402340590954,-5.6732515076873824e-05,0.0020473578479140997,-0.0018280139192938805
0.009893270209431648,0.002951869973912835,-0.009827387519180775,-0.00010507984552532434,0.001996587496250868,-0.0018921737791970372
0.010180540382862091,0.0030340400990098715,-0.0106652257964015,-0.0017397096380591393,0.0019493123982101679,-0.002408608328551054
0.01007944718003273,0.0028049834072589874,-0.009897077456116676,-0.002222715876996517,0.002369101159274578,-0.0030541089363396168
0.010379877872765064,0.002787187462672591,-0.010579999536275864,-0.0020121769048273563,0.0026985658332705498,-0.002906732726842165
0.010379877872765064,0.002787187462672591,-0.010579999536275864,-0.0020121769048273563,0.0026985658332705498,-0.002906732726842165
0.009847128763794899,0.003191207069903612,-0.010276298969984055,-0.002231957856565714,0.0027428027242422104,-0.002989571774378419
0.010151373222470284,0.0036881910637021065,-0.010381249710917473,-0.002848474308848381,0.0028294124640524387,-0.003049917984753847
0.010738462209701538,0.0037277701776474714,-0.01104032900184393,-0.004422863479703665,0.0027768162544816732,-0.0033774974290281534
0.009933034889400005,0.003737821476534009,-0.011145629920065403,-0.004916034173220396,0.0024974874686449766,-0.003199865110218525
0.009997249580919743,0.003828588640317321,-0.010457033291459084,-0.004560085944831371,0.002526796655729413,-0.0030890367925167084
0.010389475151896477,0.0038750218227505684,-0.010710411705076694,-0.004535023123025894,0.002445362275466323,-0.0031958986073732376
0.009935146197676659,0.0038829371333122253,-0.010620060376822948,-0.004501421935856342,0.0022880984470248222,-0.003396090818569064
0.011168246157467365,0.004487232770770788,-0.011102999560534954,-0.004164272453635931,0.0020680688321590424,-0.0033966514747589827
0.010321066714823246,0.004798500332981348,-0.0103200264275074,-0.004850559867918491,0.001994638703763485,-0.0035303321201354265
0.009668356738984585,0.00491997878998518,-0.010145096108317375,-0.005817145574837923,0.002177945803850889,-0.0038764511700719595
0.010155857540667057,0.004365771543234587,-0.010948549024760723,-0.0063979411497712135,0.00248027709312737,-0.003952405881136656
0.010524480603635311,0.004245918244123459,-0.01035589724779129,-0.005858955904841423,0.002612649230286479,-0.0036956279072910547
0.00940703134983778,0.004781791474670172,-0.010407490655779839,-0.00546611100435257,0.0027080709114670753,-0.0034864437766373158
0.01031910628080368,0.0049538700841367245,-0.010761238634586334,-0.005973855499178171,0.0025180052034556866,-0.0032056516502052546
0.010052929632365704,0.005130135919898748,-0.01088189147412777,-0.006665452849119902,0.0023756062146276236,-0.003479492850601673
0.01050418522208929,0.004994714632630348,-0.010354558005928993,-0.0064439792186021805,0.00217534345574677,-0.0037485770881175995
0.010195225477218628,0.0048307194374501705,-0.010816334746778011,-0.00607310188934207,0.002072986913844943,-0.003870683489367366
0.009912724606692791,0.0049040475860238075,-0.010752968490123749,-0.006354461889714003,0.001974541461095214,-0.004247372969985008
0.010054772719740868,0.005740870255976915,-0.011119863949716091,-0.006550250109285116,0.0020068332087248564,-0.004210880026221275
0.010371852666139603,0.005371932405978441,-0.010257592424750328,-0.007139235269278288,0.002243326511234045,-0.004058557096868753
0.01067645475268364,0.005438524764031172,-0.01032530888915062,-0.006651269271969795,0.002409106120467186,-0.003874505404382944
0.010460656136274338,0.005482455715537071,-0.010764334350824356,-0.006552545353770256,0.002417858922854066,-0.003730687778443098
0.01078663021326065,0.005501252599060535,-0.010136683471500874,-0.006762313190847635,0.002671965165063739,-0.0039776829071342945
0.010839150287210941,0.006053547840565443,-0.010445998050272465,-0.00766706233844161,0.0025519265327602625,-0.004382332321256399
0.010839150287210941,0.006053547840565443,-0.010445998050272465,-0.00766706233844161,0.0025519265327602625,-0.004382332321256399
0.010205031372606754,0.005985344294458628,-0.010384452529251575,-0.007616134360432625,0.002420790260657668,-0.0042818025685846806
0.010604865849018097,0.005904369056224823,-0.010486312210559845,-0.00788798276335001,0.0023425056133419275,-0.004375551827251911
0.010604865849018097,0.005904369056224823,-0.010486312210559845,-0.00788798276335001,0.0023425056133419275,-0.004375551827251911
0.010624401271343231,0.005830650683492422,-0.010166499763727188,-0.008323568850755692,0.00239161285571754,-0.004601023159921169
0.01074991375207901,0.0062289428897202015,-0.011148640885949135,-0.008114063180983067,0.002504905918613076,-0.004223625175654888
0.01079819817095995,0.006588156335055828,-0.01037590578198433,-0.007670791819691658,0.00245841802097857,-0.004387640859931707
0.010623378679156303,0.006224122364073992,-0.009638354182243347,-0.008143823593854904,0.002262919209897518,-0.0048622856847941875
0.011097157374024391,0.006229000631719828,-0.01028577983379364,-0.009067315608263016,0.0021982560865581036,-0.005022590514272451
0.011220023036003113,0.0063390848226845264,-0.010404586791992188,-0.008176730014383793,0.0021850436460226774,-0.005048911087214947
0.011906192637979984,0.006096281576901674,-0.010590468533337116,-0.007748167496174574,0.002029862953349948,-0.005090168211609125
0.012266209349036217,0.0067168790847063065,-0.010237759910523891,-0.007978621870279312,0.002253555925562978,-0.004770244471728802
0.011847416870296001,0.006811068393290043,-0.009701577015221119,-0.008161547593772411,0.0023118669632822275,-0.00445154495537281
0.012167814187705517,0.007187734358012676,-0.009800906293094158,-0.007760786917060614,0.002438746392726898,-0.00500778341665864
0.012290352955460548,0.006964491214603186,-0.01074629370123148,-0.008188583888113499,0.0027406082954257727,-0.005007810890674591
0.012305228970944881,0.0076933023519814014,-0.010026908479630947,-0.008560685440897942,0.002928616013377905,-0.005244671832770109
0.012419135309755802,0.007797237019985914,-0.009484770707786083,-0.00804221723228693,0.002778900321573019,-0.0054300641641020775
0.012180950492620468,0.006208890583366156,-0.010099798440933228,-0.007848638109862804,0.0026048675645142794,-0.0046313307248055935
0.012603641487658024,0.0066954828798770905,-0.010259862057864666,-0.008791327476501465,0.0024405154399573803,-0.0045253559947013855
0.012400206178426743,0.007419552654027939,-0.009520871564745903,-0.008695416152477264,0.002486405661329627,-0.005080031231045723
0.012644746340811253,0.0077011194080114365,-0.009965499863028526,-0.008331785909831524,0.0024394462816417217,-0.0054757301695644855
0.012750644236803055,0.00762751093134284,-0.010028884746134281,-0.009091705083847046,0.0026002584490925074,-0.005483768414705992
0.012483236379921436,0.007014776114374399,-0.00963994674384594,-0.009076457470655441,0.0026900891680270433,-0.005350953433662653
0.012812726199626923,0.007432880345731974,-0.00996389240026474,-0.009370941668748856,0.0029333222191780806,-0.00504667405039072
0.011863731779158115,0.008173782378435135,-0.009685209020972252,-0.009024977684020996,0.0030987828504294157,-0.004773445427417755
0.01233601849526167,0.00785423256456852,-0.009553879499435425,-0.009456590749323368,0.0032192906364798546,-0.004833074286580086
0.01233601849526167,0.00785423256456852,-0.009553879499435425,-0.009456590749323368,0.0032192906364798546,-0.004833074286580086
0.012200739234685898,0.007637131493538618,-0.010065817274153233,-0.00948556698858738,0.00303264451213181,-0.00534790987148881
0.012231782078742981,0.0077966651879251,-0.009159961715340614,-0.009541009552776814,0.00263140257447958,-0.0057413578033447266
0.012231782078742981,0.0077966651879251,-0.009159961715340614,-0.009541009552776814,0.00263140257447958,-0.0057413578033447266
0.012384921312332153,0.007390008773654699,-0.009865867905318737,-0.010002436116337776,0.0022124850656837225,-0.0056426324881613255
0.012412598356604576,0.00780195277184248,-0.009395492263138294,-0.009901276789605618,0.002170806983485818,-0.0052826134487986565
0.012617046013474464,0.008054924197494984,-0.009264245629310608,-0.010070588439702988,0.0023496109060943127,-0.006277857348322868
0.012617046013474464,0.008054924197494984,-0.009264245629310608,-0.010070588439702988,0.0023496109060943127,-0.006277857348322868
0.012446455657482147,0.007851635105907917,-0.009340905584394932,-0.010987305082380772,0.0028367042541503906,-0.005935280583798885
0.012341775931417942,0.008405459113419056,-0.010105904191732407,-0.010548331774771214,0.0029491244349628687,-0.00555999344214797
0.012266460806131363,0.00800244603306055,-0.009420817717909813,-0.0107084009796381,0.0028465320356190205,-0.005210837349295616
0.012619059532880783,0.008038724772632122,-0.009141943417489529,-0.011012797243893147,0.0027848423924297094,-0.005529582034796476
0.012724019587039948,0.007790292147547007,-0.010053428821265697,-0.01046030130237341,0.0029888933058828115,-0.005980317015200853
0.012501195073127747,0.008490689098834991,-0.009673728607594967,-0.010906104929745197,0.0032194883096963167,-0.006484447047114372
0.012462945654988289,0.008477517403662205,-0.009369323030114174,-0.011423335410654545,0.0034496972803026438,-0.006128142587840557
0.012642201036214828,0.007768317125737667,-0.009665112942457199,-0.011135987937450409,0.002991659101098776,-0.005910239182412624
0.01258832961320877,0.008145474828779697,-0.009819649159908295,-0.011038386262953281,0.002719542710110545,-0.005954751279205084
0.012322602793574333,0.00893440842628479,-0.009593832306563854,-0.011017629876732826,0.0026557613164186478,-0.005926580633968115
0.012758661061525345,0.008669229224324226,-0.010025686584413052,-0.011307133361697197,0.002482948824763298,-0.0060670990496873856
0.012014102190732956,0.00816070381551981,-0.009697246365249157,-0.01058188546448946,0.0022998740896582603,-0.005881263874471188
0.012485253624618053,0.008719651959836483,-0.009739167988300323,-0.009950962848961353,0.002239862224087119,-0.0057599544525146484
0.012411643750965595,0.008753987960517406,-0.010424870997667313,-0.010900646448135376,0.002057888312265277,-0.005964720621705055
0.01261160895228386,0.008042088709771633,-0.009543738327920437,-0.010672767646610737,0.0020731263794004917,-0.00614539347589016
0.012752275913953781,0.006952402647584677,-0.00936123263090849,-0.010437135584652424,0.002347208559513092,-0.006119946483522654
0.012511471286416054,0.006003947462886572,-0.01028457935899496,-0.01017668191343546,0.0025894136633723974,-0.00562865287065506
0.01268884725868702,0.006269162055104971,-0.009797399863600731,-0.009985605254769325,0.0030863420106470585,-0.005728158634155989
0.012531871907413006,0.007034470327198505,-0.009901904501020908,-0.010438571684062481,0.0033695159945636988,-0.006444860249757767
0.012531871907413006,0.007034470327198505,-0.009901904501020908,-0.010438571684062481,0.0033695159945636988,-0.006444860249757767
0.012030467391014099,0.007141727022826672,-0.00982094556093216,-0.01101144589483738,0.0033218045718967915,-0.006731230299919844
0.013252019882202148,0.007429644465446472,-0.010306897573173046,-0.010539042763411999,0.002655615098774433,-0.006053468212485313
0.012971073389053345,0.0075069451704621315,-0.009173446334898472,-0.010870324447751045,0.0025855223648250103,-0.005958343390375376
0.01296102162450552,0.007566994987428188,-0.00904605071991682,-0.011140530928969383,0.0029357033781707287,-0.006470291409641504
0.013009808026254177,0.007365415804088116,-0.010108542628586292,-0.011413609609007835,0.002919904887676239,-0.006609830539673567
0.013009808026254177,0.007365415804088116,-0.010108542628586292,-0.011413609609007835,0.002919904887676239,-0.006609830539673567
0.012982715852558613,0.00756425317376852,-0.00968998484313488,-0.011660978198051453,0.003300338750705123,-0.0064998711459338665
0.012746626511216164,0.007618909236043692,-0.009339163079857826,-0.012765658088028431,0.0036564988549798727,-0.006470205262303352
0.013652859255671501,0.007570096291601658,-0.009963057935237885,-0.012105008587241173,0.003645393531769514,-0.0066836257465183735
0.013199212960898876,0.007407953031361103,-0.009512391872704029,-0.012306640855967999,0.003336431458592415,-0.006628362461924553
0.013104172423481941,0.007266600616276264,-0.009380914270877838,-0.012843252159655094,0.0027814791537821293,-0.007072766311466694
0.012496575713157654,0.007491233758628368,-0.009655212052166462,-0.013078722171485424,0.00264196889474988,-0.006958587560802698
0.012995357625186443,0.007226515561342239,-0.00991082563996315,-0.013500659726560116,0.002751772990450263,-0.006886935327202082
0.013385259546339512,0.007203014101833105,-0.009111316874623299,-0.013095206581056118,0.003082361537963152,-0.007067467086017132
0.013655322603881359,0.007421028334647417,-0.010121678002178669,-0.013619014993309975,0.0030837543308734894,-0.00689509604126215
0.01391399372369051,0.007461665663868189,-0.010258802212774754,-0.013531355187296867,0.0029440552461892366,-0.007054240442812443
0.013381797820329666,0.008053641766309738,-0.010087157599627972,-0.013216868042945862,0.0027185564395040274,-0.007420306093990803
0.01313728280365467,0.007629677653312683,-0.009816919453442097,-0.013599078170955181,0.002641106490045786,-0.007396084256470203
0.013170845806598663,0.007386619690805674,-0.009403983131051064,-0.014162663370370865,0.002620245795696974,-0.007047735620290041
0.013778572902083397,0.007497686427086592,-0.009600303135812283,-0.013225720264017582,0.0025128917768597603,-0.007295061368495226
0.013586919754743576,0.008525249548256397,-0.01045148354023695,-0.013449961319565773,0.0028193150646984577,-0.006692244205623865
0.013586919754743576,0.008525249548256397,-0.01045148354023695,-0.013449961319565773,0.0028193150646984577,-0.006692244205623865
0.013586919754743576,0.008525249548256397,-0.01045148354023695,-0.013449961319565773,0.0028193150646984577,-0.006692244205623865
0.013586919754743576,0.008525249548256397,-0.01045148354023695,-0.013449961319565773,0.0028193150646984577,-0.006692244205623865
0.01331095490604639,0.008027750067412853,-0.009729602374136448,-0.013043631799519062,0.002880111802369356,-0.007521799299865961
0.014142442494630814,0.00796531792730093,-0.009884658269584179,-0.013463161885738373,0.0030907639302313328,-0.007569680921733379
0.014142442494630814,0.00796531792730093,-0.009884658269584179,-0.013463161885738373,0.0030907639302313328,-0.007569680921733379
0.013381462544202805,0.008475922048091888,-0.009923974983394146,-0.013096410781145096,0.0034528900869190693,-0.007478263694792986
0.013614051043987274,0.008509566076099873,-0.010130819864571095,-0.01405259408056736,0.003833208931609988,-0.007990355603396893
0.013815863057971,0.00831791665405035,-0.010097119025886059,-0.014776122756302357,0.003584992839023471,-0.007664117496460676
0.013368505984544754,0.008858207613229752,-0.009435380809009075,-0.01421388704329729,0.003156646154820919,-0.007414935622364283
0.013770089484751225,0.008166945539414883,-0.009197520092129707,-0.014233076944947243,0.0028501369524747133,-0.007507531903684139
0.013770089484751225,0.008166945539414883,-0.009197520092129707,-0.014233076944947243,0.0028501369524747133,-0.007507531903684139
0.013813742436468601,0.008220568299293518,-0.010091089643537998,-0.014644610695540905,0.003153425408527255,-0.007095827255398035
0.01375677902251482,0.009051873348653316,-0.010289130732417107,-0.014591521583497524,0.003242325037717819,-0.007319161202758551
0.01375677902251482,0.009051873348653316,-0.010289130732417107,-0.014591521583497524,0.003242325037717819,-0.007319161202758551
0.013784639537334442,0.00838366150856018,-0.009291274473071098,-0.014669125899672508,0.003186203073710203,-0.007899320684373379
0.013564735651016235,0.00884250458329916,-0.009132671169936657,-0.014892342500388622,0.0029622362926602364,-0.007769381161779165
0.013867849484086037,0.008280817419290543,-0.009827831760048866,-0.014865702949464321,0.0033565089106559753,-0.00816864799708128
0.013867849484086037,0.008280817419290543,-0.009827831760048866,-0.014865702949464321,0.0033565089106559753,-0.00816864799708128
0.013775940984487534,0.009020037017762661,-0.009779510088264942,-0.015523502603173256,0.003352590138092637,-0.0076116761192679405
0.014226632192730904,0.00951487198472023,-0.01052161492407322,-0.01600678078830242,0.0035743005573749542,-0.007896866649389267
0.013719851151108742,0.008537575602531433,-0.009034263901412487,-0.015559135004878044,0.0038306110072880983,-0.007720796391367912
0.013981086201965809,0.0095053780823946,-0.01007554680109024,-0.014982964843511581,0.0038912834133952856,-0.00790981762111187
0.013579076156020164,0.009227130562067032,-0.009831288829445839,-0.014736944809556007,0.003877435578033328,-0.008138344623148441
0.014114204794168472,0.00910149235278368,-0.009280011989176273,-0.015830641612410545,0.003455105936154723,-0.008456357754766941
0.013381683267652988,0.00907555315643549,-0.009058714844286442,-0.015216492116451263,0.0038058538921177387,-0.008002725429832935
0.013895903714001179,0.009901178069412708,-0.009723306633532047,-0.01559724472463131,0.00417019659653306,-0.007632206194102764
0.013565660454332829,0.009015336632728577,-0.009544682689011097,-0.015025431290268898,0.004057067446410656,-0.007379107177257538
0.014135418459773064,0.009739676490426064,-0.009510803036391735,-0.01622585579752922,0.0036014565266668797,-0.00780173996463418
0.014135418459773064,0.009739676490426064,-0.009510803036391735,-0.01622585579752922,0.0036014565266668797,-0.00780173996463418
0.01374483946710825,0.009286221116781235,-0.009317292831838131,-0.016031449660658836,0.0029696712736040354,-0.007853624410927296
0.013673173263669014,0.009631547145545483,-0.009146836586296558,-0.01552988775074482,0.0030523710884153843,-0.008034524507820606
0.013673173263669014,0.009631547145545483,-0.009146836586296558,-0.01552988775074482,0.0030523710884153843,-0.008034524507820606
0.013972893357276917,0.009271717630326748,-0.00927370972931385,-0.016646480187773705,0.0033875307999551296,-0.008460665121674538
0.013889574445784092,0.009163950569927692,-0.009902114048600197,-0.016396746039390564,0.0036397080402821302,-0.007881160825490952
0.013654668815433979,0.009761469438672066,-0.009817317128181458,-0.01726844348013401,0.0038724311161786318,-0.008017996326088905
0.012685148045420647,0.009059679694473743,-0.009053748100996017,-0.016581270843744278,0.0035104863345623016,-0.008142068050801754
0.01449438277631998,0.00956647377461195,-0.008842729963362217,-0.0166317205876112,0.003524111583828926,-0.008172007277607918
0.015115880407392979,0.009923113510012627,-0.009566188789904118,-0.015988193452358246,0.003706870134919882,-0.007881458848714828
0.014783091843128204,0.00968054961413145,-0.009703305549919605,-0.016601813957095146,0.0037796886172145605,-0.008085649460554123
0.014574161730706692,0.009423119947314262,-0.009148815646767616,-0.016947444528341293,0.0038433943409472704,-0.00828602071851492
0.014523505233228207,0.010080990381538868,-0.009854454547166824,-0.01700233295559883,0.0038851595018059015,-0.008065559901297092
0.01465261448174715,0.010408559814095497,-0.009483061730861664,-0.017983771860599518,0.0035232275258749723,-0.008057829923927784
0.014438669197261333,0.00986657477915287,-0.009026807732880116,-0.01759302243590355,0.0033039515838027,-0.00820854865014553
0.01485096663236618,0.010144833475351334,-0.008962408639490604,-0.017660511657595634,0.0031543432269245386,-0.0083280885592103
0.014716608449816704,0.010024303570389748,-0.008770785294473171,-0.017299741506576538,0.0031814291141927242,-0.008116877637803555
0.014844260178506374,0.010660747066140175,-0.008635678328573704,-0.01776757650077343,0.0033071229699999094,-0.008739104494452477
0.014667807146906853,0.01026004645973444,-0.009491111151874065,-0.018348056823015213,0.003606966231018305,-0.00837357435375452
0.015174517408013344,0.010093391872942448,-0.009136850014328957,-0.018109632655978203,0.003699174616485834,-0.007782357279211283
0.01535218209028244,0.010035020299255848,-0.008609184063971043,-0.01787419803440571,0.0038384890649467707,-0.007305548992007971
0.015403280965983868,0.010088879615068436,-0.00877307914197445,-0.017942974343895912,0.004258588422089815,-0.00737497815862298
0.014718063175678253,0.010921561159193516,-0.009345094673335552,-0.0177988950163126,0.004264941904693842,-0.007598801515996456
0.016131209209561348,0.010595087893307209,-0.009082126431167126,-0.01795554719865322,0.0040384503081440926,-0.007905910722911358
0.015455871820449829,0.01049741916358471,-0.008642041124403477,-0.01792864501476288,0.003497614059597254,-0.007531903684139252
0.015294494107365608,0.010165886953473091,-0.009647992439568043,-0.01751294732093811,0.0035480274818837643,-0.007500949315726757
0.015294494107365608,0.010165886953473091,-0.009647992439568043,-0.01751294732093811,0.0035480274818837643,-0.007500949315726757
0.015145380049943924,0.010609081014990807,-0.008785005658864975,-0.01760765351355076,0.003813548479229212,-0.008661518804728985
0.015688221901655197,0.010109320282936096,-0.008947528898715973,-0.01849629171192646,0.003989531192928553,-0.008151516318321228
0.015809519216418266,0.010597300715744495,-0.009109451435506344,-0.018746448680758476,0.003977911546826363,-0.008222289383411407
0.01586410403251648,0.010570874437689781,-0.009219908155500889,-0.018635839223861694,0.004012247081845999,-0.008905299007892609
0.015456628985702991,0.01102185994386673,-0.008484735153615475,-0.018786821514368057,0.003981947898864746,-0.00833868607878685
0.016120104119181633,0.011382592841982841,-0.008898181840777397,-0.019301138818264008,0.003494996577501297,-0.008716846816241741
0.015747345983982086,0.010984635911881924,-0.008831215091049671,-0.019364727661013603,0.003561989404261112,-0.009028100408613682
0.016552915796637535,0.010980132967233658,-0.008680631406605244,-0.019470667466521263,0.0042462958954274654,-0.00835204403847456
0.01661575399339199,0.011014530435204506,-0.009383132681250572,-0.019629210233688354,0.00460470374673605,-0.00859409011900425
0.016396086663007736,0.01070393156260252,-0.008927244693040848,-0.01896297186613083,0.004306078422814608,-0.008886848576366901
0.01651681959629059,0.011503457091748714,-0.008805345743894577,-0.019101906567811966,0.003975099418312311,-0.00825166143476963
0.01605486311018467,0.011054376140236855,-0.009054025635123253,-0.019621895626187325,0.004070507362484932,-0.008154269307851791
0.016207298263907433,0.011121519841253757,-0.009174310602247715,-0.01954738050699234,0.004109565168619156,-0.008428302593529224
0.01615758053958416,0.011300030164420605,-0.008836721070110798,-0.01927282102406025,0.0039007230661809444,-0.009069941937923431
0.01639767922461033,0.011069867759943008,-0.009553429670631886,-0.019946981221437454,0.0037430995143949986,-0.009026394225656986
0.016847675666213036,0.013164258562028408,-0.009438630193471909,-0.020124144852161407,0.004083819221705198,-0.008862200193107128
0.016850583255290985,0.0107264444231987,-0.00954539142549038,-0.019709430634975433,0.004121802281588316,-0.008425162173807621
0.016874169930815697,0.010529860854148865,-0.009645156562328339,-0.019904399290680885,0.004359765909612179,-0.008698075078427792
0.016353115439414978,0.012200760655105114,-0.00940334890037775,-0.02014772966504097,0.0046567125245928764,-0.008741430006921291
0.0166323259472847,0.011616340838372707,-0.008805726654827595,-0.019946418702602386,0.004554232116788626,-0.008706190623342991
0.01660083793103695,0.01158374734222889,-0.009154841303825378,-0.020445460453629494,0.004097455646842718,-0.008975394070148468
0.017232973128557205,0.011420024558901787,-0.009514032863080502,-0.020467597991228104,0.0038394504226744175,-0.00836976245045662
0.01673436164855957,0.010946049354970455,-0.009283664636313915,-0.02000407502055168,0.0038694883696734905,-0.008566410280764103
0.01691298931837082,0.011378905735909939,-0.008969014510512352,-0.020304972305893898,0.003964453469961882,-0.009112239815294743
0.0172360111027956,0.011013035662472248,-0.009574595838785172,-0.020799919962882996,0.004035923629999161,-0.008683516643941402
0.01708100363612175,0.011163843795657158,-0.009905359707772732,-0.020458541810512543,0.004280157387256622,-0.009107699617743492
0.017499685287475586,0.011423023417592049,-0.009085201658308506,-0.020467102527618408,0.004579294007271528,-0.008989653550088406
0.016528839245438576,0.011908617801964283,-0.009597077034413815,-0.021074729040265083,0.004310861695557833,-0.008969012647867203
0.018344227224588394,0.011469355784356594,-0.009642410092055798,-0.02105860225856304,0.003918811213225126,-0.008122007362544537
0.01747436635196209,0.01134021021425724,-0.009822763502597809,-0.021738668903708458,0.004021502565592527,-0.009698073379695415
0.017998017370700836,0.01143136341124773,-0.009333889931440353,-0.022227687761187553,0.004249465651810169,-0.009489702060818672
0.017998017370700836,0.01143136341124773,-0.009333889931440353,-0.022227687761187553,0.004249465651810169,-0.009489702060818672
0.018094753846526146,0.011084199883043766,-0.009020836092531681,-0.021763835102319717,0.004536915570497513,-0.009400496259331703
0.017812572419643402,0.011524020694196224,-0.009999659843742847,-0.021912768483161926,0.0044324095360934734,-0.009555366821587086
0.018215438351035118,0.011226842179894447,-0.009725655429065228,-0.02268522046506405,0.004101115744560957,-0.00940346997231245
0.01816689781844616,0.010992235504090786,-0.009402132593095303,-0.022640710696578026,0.0038091042079031467,-0.009472164325416088
0.018055783584713936,0.011756830848753452,-0.011005954816937447,-0.022330157458782196,0.003764072898775339,-0.009548373520374298
0.018074728548526764,0.011401777155697346,-0.010176009498536587,-0.02238694205880165,0.003977552056312561,-0.009495907463133335
0.017891395837068558,0.011469023302197456,-0.008974511176347733,-0.023351546376943588,0.004537429194897413,-0.009355766698718071
0.01866140589118004,0.011334516108036041,-0.009754976257681847,-0.023127663880586624,0.005105103366076946,-0.00920176599174738
0.01876291260123253,0.01100076548755169,-0.009882339276373386,-0.02263052575290203,0.004890941083431244,-0.00926803145557642
0.018012728542089462,0.011673328466713428,-0.009349098429083824,-0.02332700602710247,0.0048246863298118114,-0.009566828608512878
0.018472909927368164,0.011500692926347256,-0.010019567795097828,-0.02298653870820999,0.004411239176988602,-0.010063042864203453
0.018236195668578148,0.01125175692141056,-0.00977166835218668,-0.02293579652905464,0.004422056023031473,-0.009305892512202263
0.018110303208231926,0.01120954193174839,-0.009328163228929043,-0.02405204437673092,0.00411722157150507,-0.009426619857549667
0.01868339814245701,0.011980555951595306,-0.009639011695981026,-0.024075616151094437,0.004218692425638437,-0.00971889402717352
0.01844210736453533,0.011724497191607952,-0.009283793158829212,-0.024293776601552963,0.0043199630454182625,-0.009763379581272602
0.018565628677606583,0.011283681727945805,-0.0088487658649683,-0.025337114930152893,0.004350041504949331,-0.010389849543571472
0.018941577523946762,0.011317283846437931,-0.009581143036484718,-0.025720743462443352,0.004058978985995054,-0.010127957910299301
0.01848568767309189,0.01179357897490263,-0.009944438934326172,-0.024905258789658546,0.003843526355922222,-0.00960922334343195
0.01861768215894699,0.011303534731268883,-0.010717500932514668,-0.024198800325393677,0.004329300951212645,-0.01004237961024046
0.018910638988018036,0.01193847507238388,-0.009323419071733952,-0.024311868473887444,0.00460779620334506,-0.009789753705263138
0.018910638988018036,0.01193847507238388,-0.009323419071733952,-0.024311868473887444,0.00460779620334506,-0.009789753705263138
0.01888013444840908,0.011620057746767998,-0.009488072246313095,-0.025956077501177788,0.004585476126521826,-0.009437133558094501
0.019283881410956383,0.012128207832574844,-0.009867466054856777,-0.02560846321284771,0.004650146700441837,-0.010430427268147469
0.019283881410956383,0.012128207832574844,-0.009867466054856777,-0.02560846321284771,0.004650146700441837,-0.010430427268147469
0.019283881410956383,0.012128207832574844,-0.009867466054856777,-0.02560846321284771,0.004650146700441837,-0.010430427268147469
0.018891870975494385,0.012595745734870434,-0.00927729345858097,-0.025336291640996933,0.004094807896763086,-0.009609186090528965
0.01893674023449421,0.011673316359519958,-0.009638323448598385,-0.025650233030319214,0.004248633049428463,-0.009901427663862705
0.019355088472366333,0.011632142588496208,-0.009367638267576694,-0.02610134333372116,0.004670778289437294,-0.01049710251390934
0.019519846886396408,0.012282156385481358,-0.009791046380996704,-0.02559734508395195,0.004812853876501322,-0.010003956034779549
0.019519846886396408,0.012282156385481358,-0.009791046380996704,-0.02559734508395195,0.004812853876501322,-0.010003956034779549
0.019519846886396408,0.012282156385481358,-0.009791046380996704,-0.02559734508395195,0.004812853876501322,-0.010003956034779549
0.019710512831807137,0.0122301010414958,-0.009077372960746288,-0.026282787322998047,0.004665045533329248,-0.010390890762209892
0.01895175687968731,0.012197350151836872,-0.010142826475203037,-0.026696838438510895,0.004755767993628979,-0.009900628589093685
0.017339637503027916,0.01219110656529665,-0.009125624783337116,-0.02767733298242092,0.004569882992655039,-0.010663403198122978
0.019510138779878616,0.012297991663217545,-0.008935883641242981,-0.026951465755701065,0.004339598584920168,-0.01043409388512373
0.01937815174460411,0.011803237721323967,-0.009524920023977757,-0.026129528880119324,0.004512556828558445,-0.010157376527786255
0.019444510340690613,0.012293001636862755,-0.009427127428352833,-0.02578781545162201,0.004653585609048605,-0.010190711356699467
0.01922883838415146,0.011863957159221172,-0.0091553321108222,-0.026307139545679092,0.00502995029091835,-0.01006128266453743
0.018970906734466553,0.012043465860188007,-0.009484807029366493,-0.02731519564986229,0.004613508004695177,-0.009887146763503551
0.01938006281852722,0.012103863060474396,-0.008993902243673801,-0.02640657126903534,0.004063010681420565,-0.01050671935081482
0.018997274339199066,0.011799553409218788,-0.008867291733622551,-0.026346031576395035,0.0038590284530073404,-0.010175606235861778
0.019658833742141724,0.012304866686463356,-0.009961921721696854,-0.027295367792248726,0.003947137389332056,-0.010089769959449768
0.01967652328312397,0.01193275861442089,-0.009620478376746178,-0.026867050677537918,0.00445436080917716,-0.010498085990548134
0.019773732870817184,0.012321154586970806,-0.00960196927189827,-0.026663636788725853,0.004628313239663839,-0.00995841808617115
0.01899941824376583,0.012184388935565948,-0.009793311357498169,-0.025993332266807556,0.00497741624712944,-0.009743573144078255
0.019161948934197426,0.011935893446207047,-0.009416881948709488,-0.02629971317946911,0.005074718967080116,-0.010053697973489761
0.019830917939543724,0.011830386705696583,-0.00948426965624094,-0.02784452773630619,0.004674157127737999,-0.010238667950034142
0.019290009513497353,0.012142084538936615,-0.010120254941284657,-0.027339324355125427,0.004701810423284769,-0.010091238655149937
0.01908038929104805,0.011636077426373959,-0.009044735692441463,-0.02677241712808609,0.004765103105455637,-0.009947692044079304
0.01944531500339508,0.011823073029518127,-0.009963463991880417,-0.02718677930533886,0.00458501884713769,-0.010409853421151638
0.019466299563646317,0.012063771486282349,-0.00926306750625372,-0.027606690302491188,0.004870785400271416,-0.010626383125782013
0.019466299563646317,0.012063771486282349,-0.00926306750625372,-0.027606690302491188,0.004870785400271416,-0.010626383125782013
0.01956503465771675,0.011884084902703762,-0.009417555294930935,-0.02754807285964489,0.005275330506265163,-0.009985515847802162
0.0194734837859869,0.01258500013500452,-0.009614154696464539,-0.02724691480398178,0.00478909770026803,-0.009932651184499264
0.019284063950181007,0.012156539596617222,-0.009527300484478474,-0.027294715866446495,0.004473941866308451,-0.010722254402935505
0.01990927755832672,0.013433810323476791,-0.009096982888877392,-0.02746427245438099,0.004047498106956482,-0.01083081029355526
0.01953050121665001,0.01415613479912281,-0.009439283981919289,-0.027505142614245415,0.004215717781335115,-0.01117332186549902
0.01937427930533886,0.014059217646718025,-0.010000214911997318,-0.027104949578642845,0.004587869625538588,-0.011036169715225697
0.019829027354717255,0.013352693989872932,-0.009408852085471153,-0.026059461757540703,0.005055675283074379,-0.011000746861100197
0.019513648003339767,0.014067529700696468,-0.009009498171508312,-0.027700264006853104,0.00537618063390255,-0.011096048168838024
0.019366536289453506,0.013776545412838459,-0.00937365461140871,-0.027655338868498802,0.005145825911313295,-0.011419052258133888
0.019763752818107605,0.013560764491558075,-0.009230981580913067,-0.0273615550249815,0.0046550072729587555,-0.011601748876273632
0.019824406132102013,0.013552304357290268,-0.008986297994852066,-0.027226407080888748,0.0044006239622831345,-0.011477163061499596
0.01949620246887207,0.013770864345133305,-0.009379745461046696,-0.027588317170739174,0.004384873900562525,-0.011076233349740505
0.019497515633702278,0.013601284474134445,-0.008746649138629436,-0.02721727453172207,0.00479321600869298,-0.011569878086447716
0.019497515633702278,0.013601284474134445,-0.008746649138629436,-0.02721727453172207,0.00479321600869298,-0.011569878086447716
0.019497515633702278,0.013601284474134445,-0.008746649138629436,-0.02721727453172207,0.00479321600869298,-0.011569878086447716
0.019609026610851288,0.014309223741292953,-0.008492360822856426,-0.028175150975584984,0.005122970324009657,-0.012108538299798965
0.019463270902633667,0.013902592472732067,-0.009614603593945503,-0.02839949168264866,0.005128545220941305,-0.011694657616317272
0.019463270902633667,0.013902592472732067,-0.009614603593945503,-0.02839949168264866,0.005128545220941305,-0.011694657616317272
0.020099228248000145,0.014438736252486706,-0.009365170262753963,-0.028535474091768265,0.004778395406901836,-0.01128437276929617
0.020707154646515846,0.014337697066366673,-0.008408905938267708,-0.028406290337443352,0.004957172553986311,-0.011344999074935913
0.020707154646515846,0.014337697066366673,-0.008408905938267708,-0.028406290337443352,0.004957172553986311,-0.011344999074935913
0.020059512928128242,0.013888942077755928,-0.00897246040403843,-0.029286833480000496,0.0049086823128163815,-0.011578397825360298
0.020059512928128242,0.013888942077755928,-0.00897246040403843,-0.029286833480000496,0.0049086823128163815,-0.011578397825360298
0.020719127729535103,0.014137180522084236,-0.008309970609843731,-0.02954215742647648,0.004499904345721006,-0.011487094685435295
0.019789526239037514,0.014015170745551586,-0.009273459203541279,-0.029631836339831352,0.00474527245387435,-0.011926128529012203
0.019789526239037514,0.014015170745551586,-0.009273459203541279,-0.029631836339831352,0.00474527245387435,-0.011926128529012203
0.02017604187130928,0.014590734615921974,-0.00931809563189745,-0.029573535546660423,0.004671222064644098,-0.011604458093643188
0.020297976210713387,0.014323175884783268,-0.00910106860101223,-0.029439283534884453,0.004996141418814659,-0.011776598170399666
0.020920641720294952,0.01500304602086544,-0.009314379654824734,-0.02946355938911438,0.005368789657950401,-0.011504494585096836
0.020827539265155792,0.01455491129308939,-0.008688267320394516,-0.029467130079865456,0.005065571516752243,-0.012227384373545647
0.020356541499495506,0.014587567187845707,-0.009068799205124378,-0.02980724908411503,0.004789640661329031,-0.012442991137504578
0.020137691870331764,0.01393126416951418,-0.009529642760753632,-0.029313543811440468,0.004788146819919348,-0.011562615633010864
0.021168874576687813,0.01456886250525713,-0.009032267145812511,-0.029962247237563133,0.004835796542465687,-0.011481484398245811
0.021168874576687813,0.01456886250525713,-0.009032267145812511,-0.029962247237563133,0.004835796542465687,-0.011481484398245811
0.02071286179125309,0.015479953028261662,-0.008800770156085491,-0.03024209849536419,0.005315930116921663,-0.01161638367921114
0.020540378987789154,0.014622829854488373,-0.008443114347755909,-0.02923589199781418,0.004995399154722691,-0.012061630375683308
0.020302925258874893,0.014497294090688229,-0.008503374643623829,-0.02774481289088726,0.004900945350527763,-0.011801464483141899
0.02058802917599678,0.014708427712321281,-0.009228277020156384,-0.031155098229646683,0.004982381593436003,-0.011792496778070927
0.020367633551359177,0.015149354934692383,-0.00856782402843237,-0.031308192759752274,0.005183150060474873,-0.01185909565538168
0.020708763971924782,0.014724120497703552,-0.008360365405678749,-0.030956489965319633,0.005521133542060852,-0.011996600776910782
0.020676985383033752,0.014604511670768261,-0.008589765056967735,-0.0316229946911335,0.00513551477342844,-0.01187902968376875
0.020784704014658928,0.014651407487690449,-0.009548473171889782,-0.031434670090675354,0.0046546063385903835,-0.012175099924206734
0.020784704014658928,0.014651407487690449,-0.009548473171889782,-0.031434670090675354,0.0046546063385903835,-0.012175099924206734
0.020699897781014442,0.014727184548974037,-0.008305611088871956,-0.030042292550206184,0.004922922700643539,-0.012200583703815937
0.021222924813628197,0.015395618975162506,-0.007867451757192612,-0.02984088473021984,0.005339099559932947,-0.012182764708995819
0.020438095554709435,0.015442668460309505,-0.008183612488210201,-0.03134384751319885,0.0049703181721270084,-0.012048164382576942
0.020645149052143097,0.014742156490683556,-0.00820593535900116,-0.03141094371676445,0.005254699382930994,-0.011998016387224197
0.020882489159703255,0.015175911597907543,-0.008359713479876518,-0.031486086547374725,0.005217287689447403,-0.01212453842163086
0.02059284783899784,0.014964446425437927,-0.008744975551962852,-0.03111170046031475,0.00492034712806344,-0.011991937644779682
0.020734284073114395,0.015294034034013748,-0.00838833674788475,-0.031470898538827896,0.00474977632984519,-0.012091313488781452
0.020925533026456833,0.014671611599624157,-0.008173058740794659,-0.031353920698165894,0.004669088404625654,-0.011900372803211212
0.021046962589025497,0.014971097931265831,-0.009064029902219772,-0.031654927879571915,0.004779829643666744,-0.01184791512787342
0.02102205716073513,0.014749336056411266,-0.00867585651576519,-0.03306295722723007,0.004933389835059643,-0.011985146440565586
0.020918596535921097,0.015368159860372543,-0.008708721026778221,-0.033931903541088104,0.004953433759510517,-0.01187974400818348
0.021266531199216843,0.015158419497311115,-0.009145943447947502,-0.03216950595378876,0.004860617686063051,-0.012087411247193813
0.021466827020049095,0.015529675409197807,-0.00903455913066864,-0.03156321495771408,0.005283128470182419,-0.012262295931577682
0.020568953827023506,0.01475980132818222,-0.008584964089095592,-0.03229009360074997,0.005035665351897478,-0.012446898967027664
0.02061382122337818,0.015281131491065025,-0.0087820990011096,-0.032493315637111664,0.00492113595828414,-0.012128747068345547
0.021888209506869316,0.015009787864983082,-0.009385723620653152,-0.03239409625530243,0.005369030404835939,-0.012315940111875534
0.02127419039607048,0.015330619178712368,-0.008930901065468788,-0.03341379016637802,0.005305669270455837,-0.012285026721656322
0.021101269870996475,0.015339263714849949,-0.009308377280831337,-0.03354000300168991,0.004877081606537104,-0.012139222584664822
0.021314848214387894,0.01518454309552908,-0.009213285520672798,-0.03175065666437149,0.005360126495361328,-0.012797277420759201
0.021180909126996994,0.01509943138808012,-0.009243495762348175,-0.0315822996199131,0.0051921335980296135,-0.012572786770761013
0.021360594779253006,0.015460314229130745,-0.008561584167182446,-0.03242375701665878,0.005294698290526867,-0.012658685445785522
0.02128865383565426,0.015953602269291878,-0.009322697296738625,-0.03275799751281738,0.005593649111688137,-0.012099147774279118
0.02128865383565426,0.015953602269291878,-0.009322697296738625,-0.03275799751281738,0.005593649111688137,-0.012099147774279118
0.021533841267228127,0.01579904370009899,-0.00924213882535696,-0.03269318863749504,0.005560585297644138,-0.012362353503704071
0.021533841267228127,0.01579904370009899,-0.00924213882535696,-0.03269318863749504,0.005560585297644138,-0.012362353503704071
0.021430907770991325,0.015521991066634655,-0.008810737170279026,-0.0332016721367836,0.005480216816067696,-0.012447838671505451
0.021958913654088974,0.015849819406867027,-0.009119403548538685,-0.034457527101039886,0.005573867354542017,-0.01253858394920826
0.022075558081269264,0.016173452138900757,-0.009219950065016747,-0.0340115986764431,0.005512936972081661,-0.012862573377788067
0.021904489025473595,0.015723299235105515,-0.00914450827986002,-0.033743347972631454,0.00514650484547019,-0.012491874396800995
0.021422889083623886,0.015930240973830223,-0.008920231834053993,-0.034085847437381744,0.005409148521721363,-0.012869147583842278
0.02132880873978138,0.016596917062997818,-0.009130649268627167,-0.034600693732500076,0.005146863404661417,-0.012502254918217659
0.02162790484726429,0.016659356653690338,-0.009748163633048534,-0.035197582095861435,0.005297663155943155,-0.01257370039820671
0.0218106210231781,0.01663491688668728,-0.009036467410624027,-0.03574062138795853,0.005551636219024658,-0.012776190415024757
0.02182125858962536,0.016226505860686302,-0.008803403936326504,-0.03581274300813675,0.005238689482212067,-0.012992840260267258
0.02200516313314438,0.015869980677962303,-0.00960646290332079,-0.03619962930679321,0.0051236082799732685,-0.013196348212659359
0.021925801411271095,0.0163097083568573,-0.00901304092258215,-0.03609227016568184,0.005487371236085892,-0.013060225173830986
0.022283000871539116,0.017236409708857536,-0.008689511567354202,-0.03610387071967125,0.005982346832752228,-0.013551619835197926
0.022358885034918785,0.016953209415078163,-0.009387830272316933,-0.03567498177289963,0.005679999478161335,-0.013110186904668808
0.02254205197095871,0.0167574193328619,-0.009006913751363754,-0.036189284175634384,0.005742472130805254,-0.013096624054014683
0.022772278636693954,0.017152484506368637,-0.009246526286005974,-0.0361856110394001,0.005222737323492765,-0.012952986173331738
0.02181464433670044,0.016581257805228233,-0.009054304100573063,-0.03573889285326004,0.005421802401542664,-0.013535870239138603
0.021541524678468704,0.017014285549521446,-0.00878940336406231,-0.03588796779513359,0.00525326794013381,-0.013482922688126564
0.022216390818357468,0.016758883371949196,-0.008839868009090424,-0.037068188190460205,0.005861678160727024,-0.013321925885975361
0.02277831919491291,0.016675081104040146,-0.009161586873233318,-0.03663688898086548,0.005494305863976479,-0.013046658597886562
0.02253955416381359,0.017386941239237785,-0.01061994954943657,-0.03695327043533325,0.005363439675420523,-0.012983349151909351
0.022383080795407295,0.017249399796128273,-0.008565574884414673,-0.03701496496796608,0.005609626416116953,-0.013890818692743778
0.022527454420924187,0.017536696046590805,-0.0085487375035882,-0.037736136466264725,0.005710897035896778,-0.01340840570628643
0.022527454420924187,0.017536696046590805,-0.0085487375035882,-0.037736136466264725,0.005710897035896778,-0.01340840570628643
0.022701716050505638,0.01738031953573227,-0.009760056622326374,-0.03802132233977318,0.0054592564702034,-0.013128398917615414
0.02304726280272007,0.01819773018360138,-0.008924637921154499,-0.03832756727933884,0.005711680743843317,-0.013702520169317722
0.02304726280272007,0.01819773018360138,-0.008924637921154499,-0.03832756727933884,0.005711680743843317,-0.013702520169317722
0.022526567801833153,0.017853373661637306,-0.009707540273666382,-0.0372077114880085,0.005625194404274225,-0.013436784967780113
0.02284811995923519,0.01855865865945816,-0.008831532672047615,-0.038825616240501404,0.005872465670108795,-0.014013287611305714
0.02368280477821827,0.01778765395283699,-0.009312907233834267,-0.03807175159454346,0.00604644138365984,-0.013943573459982872
0.023489773273468018,0.01788320019841194,-0.0096660815179348,-0.03696892037987709,0.0059522539377212524,-0.013600526377558708
0.021557429805397987,0.018101388588547707,-0.009147951379418373,-0.03833950310945511,0.005470420233905315,-0.013608614914119244
0.022968599572777748,0.018384499475359917,-0.0093544851988554,-0.0382157564163208,0.005481216125190258,-0.013662215322256088
0.023779788985848427,0.018369531258940697,-0.00884120911359787,-0.0393734909594059,0.0057023512199521065,-0.01402029674500227
0.023462196812033653,0.017555689439177513,-0.009112167172133923,-0.04005281999707222,0.0062926216050982475,-0.014080080203711987
0.02318100817501545,0.017410872504115105,-0.009097772650420666,-0.03788551315665245,0.006237328518182039,-0.01384443324059248
0.02296179160475731,0.018163273110985756,-0.009996149688959122,-0.03875652328133583,0.0057105557061731815,-0.013257389888167381
0.023419925943017006,0.018199140205979347,-0.00880363117903471,-0.039560992270708084,0.005462658125907183,-0.013352097012102604
0.02353747934103012,0.01853358931839466,-0.00856910739094019,-0.03873477131128311,0.0055495030246675014,-0.013659777119755745
0.023596936836838722,0.0182607714086771,-0.009240256622433662,-0.038922470062971115,0.006296064704656601,-0.013308564200997353
0.023374030366539955,0.01772039569914341,-0.009323189035058022,-0.03818269819021225,0.006345896050333977,-0.013729555532336235
0.023587994277477264,0.018270419910550117,-0.008636858314275742,-0.03981572762131691,0.005579065065830946,-0.0138742970302701
0.023490170016884804,0.01743508316576481,-0.009314138442277908,-0.03846403583884239,0.0054362197406589985,-0.014074419625103474
0.02358289435505867,0.018027538433670998,-0.009130902588367462,-0.03848176449537277,0.005751999095082283,-0.01416370552033186
0.023685511201620102,0.017913691699504852,-0.008660567924380302,-0.03963214531540871,0.0059991441667079926,-0.014082304202020168
0.024210665374994278,0.01766783371567726,-0.009209739975631237,-0.039259303361177444,0.005692356266081333,-0.013846824876964092
0.023934319615364075,0.01850733906030655,-0.009177938103675842,-0.03773191198706627,0.005558548495173454,-0.01409724447876215
0.02371063642203808,0.018430354073643684,-0.008566349744796753,-0.03844377398490906,0.00518766650930047,-0.013986391946673393
0.024369681254029274,0.017925182357430458,-0.008857348933815956,-0.03875210881233215,0.0053002433851361275,-0.014352735131978989
0.024451354518532753,0.018035899847745895,-0.00988528598099947,-0.03974912688136101,0.005623709876090288,-0.013998910784721375
0.024464242160320282,0.017819417640566826,-0.009231610223650932,-0.04055612534284592,0.005599213298410177,-0.014056548476219177
0.023695336654782295,0.018521258607506752,-0.008715340867638588,-0.03903745487332344,0.0056844535283744335,-0.013915824703872204
0.023695336654782295,0.018521258607506752,-0.008715340867638588,-0.03903745487332344,0.0056844535283744335,-0.013915824703872204
0.024641962721943855,0.018505863845348358,-0.008164966478943825,-0.0404033437371254,0.006120968144387007,-0.014252131804823875
0.023690177127718925,0.018476514145731926,-0.008657723665237427,-0.04041282832622528,0.006286880932748318,-0.014362524263560772
0.023690177127718925,0.018476514145731926,-0.008657723665237427,-0.04041282832622528,0.006286880932748318,-0.014362524263560772
0.024541208520531654,0.018484387546777725,-0.008777163922786713,-0.04065483435988426,0.006202493794262409,-0.014589212834835052
0.025375545024871826,0.018757455050945282,-0.00878878403455019,-0.040751468390226364,0.005451597739011049,-0.014424493536353111
0.024962516501545906,0.01816539838910103,-0.008090446703135967,-0.040781907737255096,0.005591995548456907,-0.01441249530762434
0.025247644633054733,0.01840985007584095,-0.008782044053077698,-0.04082812741398811,0.0055985227227211,-0.014342909678816795
0.024157915264368057,0.01891915127635002,-0.009052727371454239,-0.04122142866253853,0.005930828396230936,-0.014378946274518967
0.024052467197179794,0.018440714105963707,-0.008122747763991356,-0.041557684540748596,0.006131039932370186,-0.01409972459077835
0.02460821159183979,0.01881738379597664,-0.008652400225400925,-0.0414060540497303,0.005855728406459093,-0.014432515017688274
0.024948015809059143,0.020569736137986183,-0.008408867754042149,-0.0410928837954998,0.005781226791441441,-0.014499716460704803
0.024759141728281975,0.01818501576781273,-0.008412560448050499,-0.04110248386859894,0.005635135341435671,-0.014559647999703884
0.02464321255683899,0.018024278804659843,-0.008408489637076855,-0.04169392213225365,0.005650172010064125,-0.014113815501332283
0.024670053273439407,0.019140707328915596,-0.009010640904307365,-0.04234737157821655,0.005914350505918264,-0.014124076813459396
0.025065705180168152,0.018817998468875885,-0.00859373714774847,-0.04216518998146057,0.005987213458865881,-0.01409902237355709
0.024514207616448402,0.018924405798316002,-0.008098408579826355,-0.042020034044981,0.0061329565942287445,-0.014380006119608879
0.02480827458202839,0.01941615156829357,-0.008357103914022446,-0.04254812374711037,0.005537103861570358,-0.01445675641298294
0.024705659598112106,0.019209925085306168,-0.008777250535786152,-0.043321188539266586,0.00579058239236474,-0.014763484708964825
0.024658842012286186,0.018949216231703758,-0.008423642255365849,-0.043230388313531876,0.005504153668880463,-0.014438088983297348
0.02493765391409397,0.01920423097908497,-0.00893290527164936,-0.04293084517121315,0.005880668759346008,-0.01437810342758894
0.0247748252004385,0.01890580914914608,-0.008477128110826015,-0.04309052601456642,0.005600278731435537,-0.014523057267069817
0.025076616555452347,0.019319625571370125,-0.008108974434435368,-0.04367544502019882,0.005812174640595913,-0.014967609196901321
0.025005606934428215,0.019329044967889786,-0.008130545727908611,-0.04390956833958626,0.00596278253942728,-0.01480601541697979
0.025005606934428215,0.019329044967889786,-0.008130545727908611,-0.04390956833958626,0.00596278253942728,-0.01480601541697979
0.02527010068297386,0.01972152292728424,-0.008525620214641094,-0.04317702725529671,0.006218991242349148,-0.014847632497549057
0.02516181394457817,0.02033630758523941,-0.008267678320407867,-0.04536355659365654,0.006008393596857786,-0.015308654867112637
0.025464430451393127,0.01975191757082939,-0.008373214863240719,-0.041884053498506546,0.005817614961415529,-0.014988414943218231
0.025563139468431473,0.01978181302547455,-0.008166331797838211,-0.04288648068904877,0.006243566516786814,-0.014416243880987167
0.025030415505170822,0.019388988614082336,-0.008596669882535934,-0.043704770505428314,0.007338991388678551,-0.014659391716122627
0.02413654513657093,0.019967759028077126,-0.008906710892915726,-0.04518091678619385,0.006098269019275904,-0.015091300942003727
0.02413654513657093,0.019967759028077126,-0.008906710892915726,-0.04518091678619385,0.006098269019275904,-0.015091300942003727
0.025474457070231438,0.02024867758154869,-0.008586796931922436,-0.04365460202097893,0.0056847818195819855,-0.015238023363053799
0.02538476139307022,0.019335588440299034,-0.008724596351385117,-0.0433109775185585,0.006673731841146946,-0.015415319241583347
0.02538476139307022,0.019335588440299034,-0.008724596351385117,-0.0433109775185585,0.006673731841146946,-0.015415319241583347
0.025159915909171104,0.019940316677093506,-0.008663988672196865,-0.04351484775543213,0.006417184602469206,-0.015628773719072342
0.025557812303304672,0.02008781023323536,-0.008422776125371456,-0.04392383247613907,0.006486043334007263,-0.015364731661975384
0.0253872349858284,0.020144686102867126,-0.00909841526299715,-0.04365098476409912,0.006587246432900429,-0.015070538967847824
0.02566375397145748,0.020169857889413834,-0.008562550880014896,-0.043189045041799545,0.006610726471990347,-0.014295603148639202
0.025295892730355263,0.020160406827926636,-0.00820058211684227,-0.04333711043000221,0.006221268326044083,-0.014100556261837482
0.02508721314370632,0.01961917243897915,-0.009088019840419292,-0.04372856765985489,0.005745197180658579,-0.014726334251463413
0.02508721314370632,0.01961917243897915,-0.009088019840419292,-0.04372856765985489,0.005745197180658579,-0.014726334251463413
0.025300588458776474,0.02049170807003975,-0.008551203645765781,-0.046169817447662354,0.0060149747878313065,-0.015201740898191929
0.02514752745628357,0.020120063796639442,-0.008217152208089828,-0.045518189668655396,0.005852712783962488,-0.015334252268075943
0.025390896946191788,0.02031603641808033,-0.008427022956311703,-0.04354729875922203,0.006049830000847578,-0.014798055402934551
0.02536054700613022,0.020228315144777298,-0.00858247373253107,-0.04501982033252716,0.00613515917211771,-0.015074681490659714
0.02502686157822609,0.020509012043476105,-0.0082814646884799,-0.04613807052373886,0.006126963067799807,-0.015074556693434715
0.0252364631742239,0.020396161824464798,-0.008249783888459206,-0.047740597277879715,0.006273980252444744,-0.015369401313364506
0.02570704184472561,0.020119991153478622,-0.008821685798466206,-0.04514406621456146,0.006081731989979744,-0.015357199124991894
0.025596851482987404,0.020255248993635178,-0.00846164021641016,-0.04429448023438454,0.005921277683228254,-0.015265540219843388
0.02523990161716938,0.01994236372411251,-0.008072299882769585,-0.04551893472671509,0.005975530948489904,-0.014965049922466278
0.024808289483189583,0.020387576892971992,-0.008332290686666965,-0.04587801545858383,0.0058210184797644615,-0.015233266167342663
0.025557635352015495,0.020665457472205162,-0.00860963761806488,-0.046371158212423325,0.006209876388311386,-0.015314346179366112
0.025696221739053726,0.020340057089924812,-0.008314834907650948,-0.04672297090291977,0.006121504586189985,-0.015448324382305145
0.025696221739053726,0.020340057089924812,-0.008314834907650948,-0.04672297090291977,0.006121504586189985,-0.015448324382305145
0.025413144379854202,0.02068483456969261,-0.0085605438798666,-0.04672665521502495,0.006338267121464014,-0.015708403661847115
0.02541777677834034,0.020756226032972336,-0.008679550141096115,-0.04725777357816696,0.0060655102133750916,-0.01584704965353012
0.026591869071125984,0.02046646922826767,-0.00893431156873703,-0.0466262623667717,0.005969155579805374,-0.015698513016104698
0.025574667379260063,0.021129269152879715,-0.009446153417229652,-0.04724511876702309,0.005985816940665245,-0.015217313542962074
0.025574667379260063,0.021129269152879715,-0.009446153417229652,-0.04724511876702309,0.005985816940665245,-0.015217313542962074
0.02543249912559986,0.020733339712023735,-0.00824113842099905,-0.04743295907974243,0.006110139191150665,-0.015202177688479424
0.02561165951192379,0.020633116364479065,-0.00834178552031517,-0.0476585328578949,0.006615092046558857,-0.014871414750814438
0.026598632335662842,0.021216534078121185,-0.009374067187309265,-0.04743700101971626,0.006898175459355116,-0.015067064203321934
0.026420501992106438,0.021670741960406303,-0.008876795880496502,-0.04786301776766777,0.006543275900185108,-0.015032625757157803
0.026137256994843483,0.0207962803542614,-0.008932160213589668,-0.04765186831355095,0.006324118934571743,-0.015554260462522507
0.026202848181128502,0.020730776712298393,-0.009069466032087803,-0.046801917254924774,0.006333597935736179,-0.015475062653422356
0.02598879113793373,0.021359873935580254,-0.00935311522334814,-0.04748072847723961,0.006359361577779055,-0.015643160790205002
0.026034891605377197,0.02119152806699276,-0.008551147766411304,-0.04720564931631088,0.006754586007446051,-0.015258999541401863
0.02586798369884491,0.021330073475837708,-0.008979817852377892,-0.04729236289858818,0.006708440836519003,-0.015431320294737816
0.02585160918533802,0.020559391006827354,-0.009626640938222408,-0.047482945024967194,0.006232792977243662,-0.015340195968747139
0.026608014479279518,0.021384404972195625,-0.009381799027323723,-0.04711275175213814,0.006146409548819065,-0.01564093306660652
0.026044556871056557,0.021725716069340706,-0.009042859077453613,-0.04828629642724991,0.006673713680356741,-0.015478500165045261
0.026196414604783058,0.021376213058829308,-0.0103348009288311,-0.047752074897289276,0.006794061977416277,-0.015553280711174011
0.026780588552355766,0.021518271416425705,-0.008560935035347939,-0.04581885412335396,0.006694290321320295,-0.015540257096290588
0.026574913412332535,0.021977264434099197,-0.00879803765565157,-0.04724232479929924,0.006106154527515173,-0.015367831103503704
0.026574913412332535,0.021977264434099197,-0.00879803765565157,-0.04724232479929924,0.006106154527515173,-0.015367831103503704
0.02648557350039482,0.021376151591539383,-0.009638529270887375,-0.04806428402662277,0.00600963830947876,-0.0157486479729414
0.02743181400001049,0.02127303183078766,-0.008888453245162964,-0.04664693400263786,0.006659944541752338,-0.016009017825126648
0.02743181400001049,0.02127303183078766,-0.008888453245162964,-0.04664693400263786,0.006659944541752338,-0.016009017825126648
