davideferrari95/blind_handover_controller/data/Test 235 - [2024-02-08 -- 12-30-51]/joint_states_data.csv
shoulder_pan_joint,shoulder_lift_joint,elbow_joint,wrist_1_joint,wrist_2_joint,wrist_3_joint
0.007036281283944845,0.007403983734548092,-0.012720880098640919,0.004178803414106369,0.0,0.005983560346066952
0.007036281283944845,0.007403983734548092,-0.012720880098640919,0.004178803414106369,0.0,0.005983560346066952
0.006967751309275627,0.007218324113637209,-0.012149784713983536,0.0039640008471906185,0.0,0.006086296867579222
0.006967751309275627,0.007218324113637209,-0.012149784713983536,0.0039640008471906185,0.0,0.006086296867579222
0.007341231219470501,0.007404255215078592,-0.012452219612896442,0.004281352274119854,0.0,0.0063139996491372585
0.006960579194128513,0.007387831807136536,-0.012140918523073196,0.004686872009187937,0.0,0.006204110570251942
0.007254830561578274,0.006977400742471218,-0.012033413164317608,0.004722087178379297,0.0,0.0060313125140964985
0.007536760065704584,0.007134123705327511,-0.012269712053239346,0.00429990328848362,0.0,0.006105431821197271
0.006911093834787607,0.007289434317499399,-0.01171566266566515,0.004228664096444845,0.0,0.0062932707369327545
0.00661802664399147,0.00727488799020648,-0.012204050086438656,0.003968589939177036,0.0,0.006148857064545155
0.00679995771497488,0.006839291658252478,-0.012096395716071129,0.003730014432221651,0.0,0.006226052064448595
0.007126674987375736,0.007186418864876032,-0.012269015423953533,0.003720757318660617,0.0,0.006199272349476814
0.007088791113346815,0.007484124973416328,-0.012180453166365623,0.00380090088583529,0.0,0.005810642149299383
0.0068520111963152885,0.0077744959853589535,-0.011833075433969498,0.0037673469632864,0.0,0.005843928549438715
0.0069253286346793175,0.007064415607601404,-0.011825897730886936,0.004088999703526497,0.0,0.006367433350533247
0.006692421156913042,0.007378588430583477,-0.012497915886342525,0.004132711794227362,0.0,0.00641805212944746
0.006859384477138519,0.007772887125611305,-0.012136047706007957,0.003987634088844061,0.0,0.005469164811074734
0.006221833638846874,0.007200820837169886,-0.01203575823456049,0.003925251308828592,0.0,0.006206309888511896
0.006568835582584143,0.007078640162944794,-0.012570016086101532,0.003613658482208848,0.0,0.006814927794039249
0.006698285229504108,0.00749238720163703,-0.012050241231918335,0.0040251268073916435,0.0,0.006639242637902498
0.006742990110069513,0.00754171097651124,-0.012608660385012627,0.004083861131221056,0.0,0.006036175414919853
0.006615132559090853,0.007366306614130735,-0.011741369031369686,0.003997095860540867,0.0,0.006071167532354593
0.0074989935383200645,0.007477231323719025,-0.0119441207498312,0.00387683417648077,0.0,0.005742219276726246
0.006808897480368614,0.00749843567609787,-0.012078145518898964,0.004270793870091438,0.0,0.005891217850148678
0.006613350939005613,0.007855386473238468,-0.012384303845465183,0.004179095849394798,0.0,0.006241162307560444
0.006552312523126602,0.007420292589813471,-0.012575758621096611,0.00402021873742342,0.0,0.005729100666940212
0.006580222863703966,0.007036332506686449,-0.011785692535340786,0.003967335447669029,0.0,0.00581930298358202
0.006580222863703966,0.007036332506686449,-0.011785692535340786,0.003967335447669029,0.0,0.00581930298358202
0.006711226888000965,0.007524353917688131,-0.012090680189430714,0.004309188574552536,0.0,0.005779910366982222
0.006427137181162834,0.007205828558653593,-0.01229389850050211,0.003931371495127678,0.0,0.006363547872751951
0.006427137181162834,0.007205828558653593,-0.01229389850050211,0.003931371495127678,0.0,0.006363547872751951
0.00654614856466651,0.007095269858837128,-0.012450233101844788,0.0040748221799731255,0.0,0.0065275514498353004
0.006256364285945892,0.007341228891164064,-0.01167803443968296,0.004037912935018539,0.0,0.006151685491204262
0.006584322080016136,0.007385168224573135,-0.012230251915752888,0.003890779335051775,0.0,0.005979722831398249
0.006604801397770643,0.007169179618358612,-0.012140601873397827,0.004281033296138048,0.0,0.005886436905711889
0.006524027790874243,0.007061134558171034,-0.012969481758773327,0.004659423138946295,0.0,0.006234683562070131
0.006153513677418232,0.007310284301638603,-0.01230235118418932,0.00447053974494338,0.0,0.006559981033205986
0.0065345740877091885,0.007386306766420603,-0.012033393606543541,0.004327334929257631,0.0,0.006274797488003969
0.0068112206645309925,0.007227659225463867,-0.012571088969707489,0.004053532145917416,0.0,0.005739865358918905
0.006723414640873671,0.007521810941398144,-0.011951318942010403,0.0037521966733038425,0.0,0.005612525157630444
0.006223814096301794,0.007549352943897247,-0.012961567379534245,0.003515593009069562,0.0,0.006036491598933935
0.006276823114603758,0.007456119637936354,-0.012329122982919216,0.0036084468010812998,0.0,0.00596666382625699
0.006587845738977194,0.00710828835144639,-0.01315481960773468,0.004243210423737764,0.0,0.00595074612647295
0.006370905786752701,0.008131072856485844,-0.012253718450665474,0.004426280502229929,0.0,0.005790601950138807
0.006352484691888094,0.008132887072861195,-0.012613893486559391,0.00409376947209239,0.0,0.006037340499460697
0.0061333151534199715,0.007447293493896723,-0.012296488508582115,0.004154354799538851,0.0,0.006404750514775515
0.00624539190903306,0.007362592499703169,-0.012469477951526642,0.0036375911440700293,0.0,0.005896161310374737
0.006669090129435062,0.008236672729253769,-0.011954538524150848,0.003573071211576462,0.0,0.00582366157323122
0.006403154693543911,0.008343823254108429,-0.012193283066153526,0.004211297258734703,0.0,0.005802201572805643
0.005964930169284344,0.007197738159447908,-0.012374084442853928,0.004584186244755983,0.0,0.006285930518060923
0.006489963736385107,0.007332861423492432,-0.012345044873654842,0.004707766231149435,0.0,0.006576869636774063
0.006366706918925047,0.008137776516377926,-0.01123431883752346,0.0045378124341368675,0.0,0.0063794758170843124
0.007024009246379137,0.007997849024832249,-0.012274106964468956,0.004104532301425934,0.0,0.0060146586038172245
0.006310790311545134,0.007618125062435865,-0.012355461716651917,0.003892086213454604,0.0,0.005640089511871338
0.00630659144371748,0.007460408844053745,-0.011628198437392712,0.004245935007929802,0.0,0.0057594492100179195
0.006877850741147995,0.008087129332125187,-0.012130309827625751,0.004468824714422226,0.0,0.005812551826238632
0.006467173807322979,0.008005265146493912,-0.012467391788959503,0.004391334485262632,0.0,0.005961144808679819
0.006467173807322979,0.008005265146493912,-0.012467391788959503,0.004391334485262632,0.0,0.005961144808679819
0.006375752855092287,0.00779223907738924,-0.011972613632678986,0.004090728238224983,0.0,0.005889502353966236
0.006210965570062399,0.007849343121051788,-0.012726761400699615,0.004350052215158939,0.0,0.005360501818358898
0.006016669794917107,0.007702326867729425,-0.011780872009694576,0.0042482479475438595,0.0,0.005294505972415209
0.006400742568075657,0.008047107607126236,-0.011799309402704239,0.0040090992115437984,0.0,0.005588343366980553
0.00662806024774909,0.007739804685115814,-0.011973980814218521,0.0038487445563077927,0.0,0.006090440321713686
0.00667379517108202,0.007894031703472137,-0.012670448049902916,0.004006205126643181,0.0,0.005608922336250544
0.006431486923247576,0.007606802508234978,-0.0112077035009861,0.004801711067557335,0.0,0.005496500059962273
0.006431486923247576,0.007606802508234978,-0.0112077035009861,0.004801711067557335,0.0,0.005496500059962273
0.006568528711795807,0.00736420601606369,-0.011573810130357742,0.004895995371043682,0.0,0.005311709828674793
0.006446982733905315,0.007586987689137459,-0.01146611012518406,0.004804221913218498,0.0,0.005625082179903984
0.006329395342618227,0.008194724097847939,-0.011904289945960045,0.004596290178596973,0.0,0.005747771356254816
0.0064517660066485405,0.008215484209358692,-0.011775706894695759,0.00431353272870183,0.0,0.0056802742183208466
0.006486051250249147,0.0078473761677742,-0.011903622187674046,0.004724353086203337,0.0,0.00561249116435647
0.0062661855481565,0.008073915727436543,-0.011878217570483685,0.004768819082528353,0.0,0.006085767410695553
0.006014791317284107,0.007963640615344048,-0.011470181867480278,0.004606227390468121,0.0,0.0060038804076612
0.007013012655079365,0.007655296009033918,-0.01137213408946991,0.004417126532644033,0.0,0.005767785478383303
0.006594509351998568,0.008759407326579094,-0.011006787419319153,0.004263589158654213,0.0,0.005674070678651333
0.00639207661151886,0.007968449033796787,-0.012145922519266605,0.004096745979040861,0.0,0.005540098063647747
0.00685146963223815,0.00782648753374815,-0.012242079712450504,0.004055870696902275,0.0,0.005493726581335068
0.006262320559471846,0.008118893019855022,-0.011907584965229034,0.004071404691785574,0.0,0.006025730166584253
0.0065515171736478806,0.008359387516975403,-0.011607657186686993,0.004398828838020563,0.0,0.005804621148854494
0.00657908758148551,0.008156741969287395,-0.011219860054552555,0.004359448328614235,0.0,0.005717074498534203
0.006767705548554659,0.007734351791441441,-0.011787313036620617,0.0048701148480176926,0.0,0.005823958199471235
0.0066202981397509575,0.008690009824931622,-0.011652960442006588,0.004422889091074467,0.0,0.005860534496605396
0.006250211503356695,0.00840481836348772,-0.01138163823634386,0.003950033336877823,0.0,0.005625464487820864
0.0065863425843417645,0.007700175512582064,-0.011121900752186775,0.004248259589076042,0.0,0.005736031103879213
0.0065863425843417645,0.007700175512582064,-0.011121900752186775,0.004248259589076042,0.0,0.005736031103879213
0.00679416861385107,0.008110767230391502,-0.010897518135607243,0.004642490763217211,0.0,0.005482611712068319
0.00647943327203393,0.008223239332437515,-0.011421357281506062,0.004705397412180901,0.0,0.005589348264038563
0.0062067327089607716,0.007869449444115162,-0.011224892921745777,0.004681780003011227,0.0,0.005963601171970367
0.006538026966154575,0.007014788221567869,-0.01084471121430397,0.004729883279651403,0.0,0.005522697698324919
0.0066939168609678745,0.01020123902708292,-0.010898815467953682,0.0044676801189780235,0.0,0.0053930627182126045
0.006915304344147444,0.007246441673487425,-0.010559149086475372,0.004052021540701389,0.0,0.0055367546156048775
0.006266607902944088,0.007859493605792522,-0.011143777519464493,0.004293628036975861,0.0,0.005959269590675831
0.0064108180813491344,0.008048835210502148,-0.011267555877566338,0.004478057846426964,0.0,0.005674409214407206
0.006844403222203255,0.008853640407323837,-0.010533647611737251,0.004449318628758192,0.0,0.005903075449168682
0.006840602960437536,0.00809928122907877,-0.011145754717290401,0.004461740609258413,0.0,0.005975867155939341
0.006567835807800293,0.007940935902297497,-0.01078097615391016,0.004655562806874514,0.0,0.005535723175853491
0.00650724396109581,0.008121552877128124,-0.01082469243556261,0.0047369650565087795,0.0,0.0053755007684230804
0.006713046692311764,0.008040452376008034,-0.011045288294553757,0.004370306618511677,0.0,0.0052857184782624245
0.0068955449387431145,0.008004886098206043,-0.011337826028466225,0.005002905149012804,0.0,0.005417732987552881
0.006848932709544897,0.008565050549805164,-0.011061610653996468,0.004943401552736759,0.0,0.005483923479914665
0.006828339770436287,0.008740071207284927,-0.01078326627612114,0.004539306741207838,0.0,0.0050881062634289265
0.0065584247931838036,0.008637969382107258,-0.011598190292716026,0.004426945000886917,0.0,0.005243278574198484
0.006624205969274044,0.009107573889195919,-0.011096279136836529,0.004166524391621351,0.0,0.005635537672787905
0.006645898800343275,0.008536670356988907,-0.011517793871462345,0.0043746475130319595,0.0,0.006137646269053221
0.006666757166385651,0.008690178394317627,-0.01108942274004221,0.004660680424422026,0.0,0.005805984605103731
0.006371021270751953,0.008074642159044743,-0.010420000180602074,0.004729867447167635,0.0,0.005554065108299255
0.006483966950327158,0.008912141434848309,-0.011658214032649994,0.004545710980892181,0.0,0.0050845518708229065
0.006794522516429424,0.008687997236847878,-0.010776584967970848,0.0042497264221310616,6.550380362568831e-07,0.005274251569062471
0.0068634930066764355,0.00839800201356411,-0.010892986319959164,0.004441116005182266,4.2769297436962006e-08,0.005510504823178053
0.006856799125671387,0.008789286948740482,-0.011450901627540588,0.004523706156760454,2.792529540940336e-09,0.005715576931834221
0.006809449288994074,0.008532566949725151,-0.011188780888915062,0.004709913395345211,1.8233223264552123e-10,0.005187430419027805
0.006764600053429604,0.008228233084082603,-0.011340429075062275,0.004530210047960281,1.190499174935633e-11,0.004822134971618652
0.006764600053429604,0.008228233084082603,-0.011340429075062275,0.004530210047960281,1.190499174935633e-11,0.004822134971618652
0.006676493212580681,0.007665840908885002,-0.011587792076170444,0.004988156259059906,5.07528487823667e-14,0.005044169258326292
0.006676493212580681,0.007665840908885002,-0.011587792076170444,0.004988156259059906,5.07528487823667e-14,0.005044169258326292
0.0072759417816996574,0.007574988063424826,-0.01146701816469431,0.005134885199368,3.313798506906769e-15,0.005409286357462406
0.007074011489748955,0.007884624414145947,-0.010962198488414288,0.004928559996187687,2.1636735336116956e-16,0.005783674772828817
0.006493290886282921,0.007762808818370104,-0.010858806781470776,0.004966558888554573,9.224080228143933e-19,0.004803911317139864
0.006493290886282921,0.007762808818370104,-0.010858806781470776,0.004966558888554573,9.224080228143933e-19,0.004803911317139864
0.006939570419490337,0.007562282495200634,-0.010743110440671444,0.004593969788402319,6.022665204611942e-20,0.004974782466888428
0.007057315204292536,0.007605510298162699,-0.011344029568135738,0.0045127589255571365,3.932369780050211e-21,0.004992725793272257
0.0068749175406992435,0.0075559839606285095,-0.011327098123729229,0.004535234067589045,2.567556453973996e-22,0.005867202766239643
0.006534181069582701,0.007583370432257652,-0.011250600218772888,0.0046095699071884155,1.6764308711070615e-23,0.005809957627207041
0.006673858501017094,0.0070297070778906345,-0.012145916000008583,0.004656852688640356,1.0945896682809778e-24,0.005309168715029955
0.006713835522532463,0.007733470760285854,-0.011711574159562588,0.004940599203109741,4.666407692035754e-27,0.004777292255312204
0.006863793358206749,0.00723257614299655,-0.011336400173604488,0.004736734088510275,3.046830320187843e-28,0.005049350671470165
0.0067155431024730206,0.007208261173218489,-0.011368907056748867,0.004437392111867666,1.9893624031282292e-29,0.005470946431159973
0.0075079225935041904,0.006774977780878544,-0.012347845360636711,0.0044342149049043655,1.2989114775456289e-30,0.005637563299387693
0.007825832813978195,0.007020568009465933,-0.011004406958818436,0.004564385861158371,8.480964870773096e-32,0.005068555939942598
0.006768662016838789,0.00730551453307271,-0.011989274062216282,0.004797766916453838,5.5374644212399065e-33,0.00504807336255908
0.006468555890023708,0.00687774084508419,-0.011301909573376179,0.004824276082217693,3.6155683051036623e-34,0.004956935998052359
0.007269611582159996,0.006849805358797312,-0.011206703260540962,0.004731443244963884,2.3607077669973454e-35,0.004995074588805437
0.007111064158380032,0.00692202290520072,-0.011586163192987442,0.004556598141789436,1.541373424699048e-36,0.005585373844951391
0.00729680759832263,0.00751209631562233,-0.01130441389977932,0.00443703169003129,1.006406727676472e-37,0.005326953716576099
0.006919104140251875,0.006848795805126429,-0.012035700492560863,0.0042655509896576405,6.571115895250686e-39,0.004909619688987732
0.006919104140251875,0.006848795805126429,-0.012035700492560863,0.0042655509896576405,6.571115895250686e-39,0.004909619688987732
0.007588030304759741,0.006702306214720011,-0.011782437562942505,0.004767077974975109,2.801335760031742e-41,0.005060102790594101
0.007588030304759741,0.006702306214720011,-0.011782437562942505,0.004767077974975109,2.801335760031742e-41,0.005060102790594101
0.007638036739081144,0.006988532841205597,-0.011969720013439655,0.00495685962960124,1.8286944959438863e-42,0.00515164015814662
0.0067828018218278885,0.007168860640376806,-0.011228158138692379,0.00489871297031641,1.1911036946760945e-43,0.0059072887524962425
0.00705168629065156,0.006675055716186762,-0.011673185043036938,0.004570839460939169,8.407790785948902e-45,0.005368923302739859
0.0073491958901286125,0.0067945909686386585,-0.011827105656266212,0.004348124377429485,0.0,0.004996471107006073
0.006959937512874603,0.006859696935862303,-0.011294038966298103,0.004403416067361832,0.0,0.005131624173372984
0.006313016638159752,0.006834713742136955,-0.011261525563895702,0.004604301881045103,0.0,0.0049570100381970406
0.007539385464042425,0.0065091270953416824,-0.010978384874761105,0.004748158156871796,0.0,0.004934761207550764
0.0079284543171525,0.006353931035846472,-0.011378536932170391,0.0047311061061918736,0.0,0.005327453836798668
0.007388713303953409,0.006609292700886726,-0.011544736102223396,0.004707736428827047,0.0,0.0051620760932564735
0.007105549797415733,0.0074492148123681545,-0.01100776344537735,0.004678861238062382,0.0,0.005081654991954565
0.007556922268122435,0.006327510345727205,-0.012001127004623413,0.00456845760345459,0.0,0.004635237157344818
0.007478224113583565,0.006845579482614994,-0.01176965981721878,0.004965275060385466,0.0,0.004552314057946205
0.007336153648793697,0.006874410901218653,-0.011358484625816345,0.00482906075194478,0.0,0.004610338248312473
0.007258114870637655,0.00731211481615901,-0.010805368423461914,0.004871081560850143,0.0,0.004806226585060358
0.007917188107967377,0.007404168136417866,-0.011402040719985962,0.004640097729861736,0.0,0.004728521686047316
0.008221627213060856,0.006644588895142078,-0.011291397735476494,0.00480642169713974,0.0,0.0052676089107990265
0.007992138154804707,0.00687253987416625,-0.011290648952126503,0.004757881164550781,0.0,0.0050610704347491264
0.007832012139260769,0.007316800765693188,-0.011685062199831009,0.004916589707136154,0.0,0.004607079084962606
0.007653615903109312,0.00684360833838582,-0.011044735088944435,0.0048940908163785934,0.0,0.004583326168358326
0.007889436557888985,0.006785165052860975,-0.011826195754110813,0.004851568955928087,0.0,0.004893569741398096
0.007575354538857937,0.0072826785035431385,-0.011634217575192451,0.004846146795898676,0.0,0.00454009510576725
0.007505628280341625,0.007814189419150352,-0.011183849535882473,0.004801133647561073,0.0,0.004574337974190712
0.0075239818543195724,0.0071481880731880665,-0.011785329319536686,0.0043581221252679825,0.0,0.004524421878159046
0.0075239818543195724,0.0071481880731880665,-0.011785329319536686,0.0043581221252679825,0.0,0.004524421878159046
0.007769924588501453,0.006691841408610344,-0.011402646079659462,0.004436352755874395,0.0,0.004251666367053986
0.007308044005185366,0.006666981149464846,-0.011812068521976471,0.004893171135336161,0.0,0.004396834876388311
0.007649033330380917,0.007006672210991383,-0.01156615000218153,0.005038327071815729,0.0,0.004669870249927044
0.00877247005701065,0.007250981871038675,-0.011367565020918846,0.004896907601505518,0.0,0.004784055054187775
0.008049650117754936,0.007049588952213526,-0.012075790204107761,0.005188844166696072,0.0,0.004564989823848009
0.007910613901913166,0.0069400472566485405,-0.011141467839479446,0.005027325823903084,0.0,0.004565912298858166
0.00821436382830143,0.007020290475338697,-0.011775069870054722,0.004848867654800415,0.0,0.004282873123884201
0.007792613469064236,0.0075310710817575455,-0.011228244751691818,0.005397085100412369,0.0,0.00444358354434371
0.007515992037951946,0.007688093930482864,-0.011032369919121265,0.005364865530282259,0.0,0.0046127974055707455
0.008328079245984554,0.007548361085355282,-0.011365161277353764,0.004803982097655535,0.0,0.003950688987970352
0.008328079245984554,0.007548361085355282,-0.011365161277353764,0.004803982097655535,0.0,0.003950688987970352
0.007642109878361225,0.007011409383267164,-0.01183424610644579,0.005070054437965155,0.0,0.004094522912055254
0.008088408038020134,0.006971888709813356,-0.011550280265510082,0.005514453165233135,0.0,0.004391359630972147
0.008334536105394363,0.007185366936028004,-0.011992817744612694,0.005276097450405359,0.0,0.004441352095454931
0.008315710350871086,0.007548562251031399,-0.01167598832398653,0.0052004167810082436,0.0,0.004395078402012587
0.007673303596675396,0.007271424401551485,-0.011978891678154469,0.004981521517038345,0.0,0.004543978255242109
0.008544271811842918,0.007306729443371296,-0.011429588310420513,0.004798047244548798,-4.791152969119139e-05,0.0041318717412650585
0.008616006933152676,0.007266896776854992,-0.011202576570212841,0.004700906574726105,-6.11715076956898e-05,0.004107919055968523
0.008488472551107407,0.00811898335814476,-0.01171270664781332,0.005015079397708178,-6.12472795182839e-05,0.0035907351411879063
0.008082173764705658,0.007791315671056509,-0.011548224836587906,0.0050742411985993385,-6.048338764230721e-05,0.004091948736459017
0.008282062597572803,0.0076106032356619835,-0.012241899035871029,0.004816237837076187,-5.968503319309093e-05,0.004646698944270611
0.008734595961868763,0.007681657560169697,-0.011742716655135155,0.004934160504490137,-5.8904013712890446e-05,0.00483119348064065
0.008564074523746967,0.00761133898049593,-0.011789685115218163,0.004986725747585297,-5.8143003116128966e-05,0.004373516887426376
0.008341887965798378,0.007462691515684128,-0.0120626762509346,0.005274317692965269,-5.7401306548854336e-05,0.00394244072958827
0.008647620677947998,0.007492088247090578,-0.01145950984209776,0.005407263524830341,-5.667835648637265e-05,0.0037856914568692446
0.00812843069434166,0.007600987330079079,-0.01182103157043457,0.005036202259361744,-5.597335257334635e-05,0.0037464136257767677
0.008226994425058365,0.007637748494744301,-0.01179519947618246,0.0048984382301568985,-5.528568726731464e-05,0.00386792398057878
0.008414318785071373,0.007594664115458727,-0.011710913851857185,0.005368457641452551,-5.9999165387125686e-05,0.0038049581926316023
0.008414318785071373,0.007594664115458727,-0.011710913851857185,0.005368457641452551,-5.9999165387125686e-05,0.0038049581926316023
0.00889684073626995,0.006826495286077261,-0.011773562990128994,0.005532202776521444,-6.439018761739135e-05,0.0037566719111055136
0.008677377365529537,0.007034876383841038,-0.011136380024254322,0.005662485491484404,-6.39609424979426e-05,0.003696911036968231
0.008697561919689178,0.0074406154453754425,-0.0118684321641922,0.005467160139232874,-6.323372508632019e-05,0.004021096043288708
0.008448930457234383,0.007199199870228767,-0.011709719896316528,0.00558831449598074,-6.250327714951709e-05,0.003910958766937256
0.008204254321753979,0.007021421100944281,-0.01262630708515644,0.005203505977988243,-6.178819603519514e-05,0.003511825343593955
0.008493375033140182,0.007614061236381531,-0.011638249270617962,0.005204768851399422,-6.108920206315815e-05,0.0035664550960063934
0.008791341446340084,0.007748273201286793,-0.010934295132756233,0.0048797763884067535,-6.040587686584331e-05,0.0038467568811029196
0.008881197310984135,0.007259144447743893,-0.011898210272192955,0.005240925587713718,-5.973763472866267e-05,0.00391828827559948
0.008790780790150166,0.007277705706655979,-0.012192792259156704,0.005266021937131882,-5.024232336836576e-07,0.003482020692899823
0.008928983472287655,0.007440825458616018,-0.01179600227624178,0.005061193834990263,-3.280464611066236e-08,0.003602378536015749
0.008693023584783077,0.007034529931843281,-0.011051923036575317,0.005143342539668083,-2.1419090945329344e-09,0.003756426041945815
0.009318586438894272,0.006733193062245846,-0.011784844100475311,0.005171309690922499,-1.3985135272065463e-10,0.0038333935663104057
0.008999948389828205,0.0068314820528030396,-0.011561289429664612,0.00544282840564847,-9.131293811359686e-12,0.0038882126100361347
0.008898663334548473,0.007076073903590441,-0.012094911187887192,0.004966861102730036,-5.962082498707499e-13,0.0034819894935935736
0.00885833241045475,0.0072601549327373505,-0.012292451225221157,0.004450419917702675,-3.892814008968869e-14,0.0035347165539860725
0.008945905603468418,0.006856913678348064,-0.011817486956715584,0.004753237124532461,-2.541729246033895e-15,0.0036777399946004152
0.00898750964552164,0.006359106861054897,-0.012216886505484581,0.005105020012706518,-1.659567301358117e-16,0.003775919321924448
0.008806086145341396,0.006820017006248236,-0.01176533941179514,0.005681742448359728,-1.0835788091758845e-17,0.003804913954809308
0.009007761254906654,0.006851110607385635,-0.012076165527105331,0.005597385577857494,-3.4365057217655703e-05,0.0033448718022555113
0.009007761254906654,0.006851110607385635,-0.012076165527105331,0.005597385577857494,-3.4365057217655703e-05,0.0033448718022555113
0.009273984469473362,0.006832849234342575,-0.012284123338758945,0.005186916794627905,-0.0001280091528315097,0.003236672142520547
0.00915758591145277,0.007329769432544708,-0.012563925236463547,0.0048912824131548405,-0.0001304721663473174,0.003441781038418412
0.009436048567295074,0.007744693662971258,-0.01198799628764391,0.005240208003669977,-0.00012718766811303794,0.0037069409154355526
0.00878827553242445,0.006826105061918497,-0.012337158434092999,0.0052420590072870255,-0.00012371707998681813,0.0038062497042119503
0.009793196804821491,0.006852937862277031,-0.011918243952095509,0.0053695132955908775,-0.00012040815636282787,0.0035080460365861654
0.009793196804821491,0.006852937862277031,-0.011918243952095509,0.0053695132955908775,-0.00012040815636282787,0.0035080460365861654
0.00867279153317213,0.007229408249258995,-0.012633678503334522,0.005179400090128183,-0.00013413996202871203,0.002927756868302822
0.00867279153317213,0.007229408249258995,-0.012633678503334522,0.005179400090128183,-0.00013413996202871203,0.002927756868302822
0.008889341726899147,0.006927995476871729,-0.013017872348427773,0.004906239453703165,-0.0001335561682935804,0.002896917285397649
0.00997477862983942,0.006659594364464283,-0.012873653322458267,0.004744337871670723,-0.00013050693087279797,0.0030332838650792837
0.009029639884829521,0.006708250846713781,-0.012094656005501747,0.00506001990288496,-0.00012743842671625316,0.0030638487078249454
0.00912548415362835,0.006953161675482988,-0.012783859856426716,0.004853035323321819,-0.00012450094800442457,0.003483594162389636
0.009170245379209518,0.007138808257877827,-0.012211919762194157,0.005510471761226654,-0.0001316660491283983,0.0033302430529147387
0.010053452104330063,0.00658639008179307,-0.012596076354384422,0.0055999308824539185,-0.00013817513536196202,0.003154896665364504
0.009664125740528107,0.006678460631519556,-0.01230723038315773,0.0056077889166772366,-0.0001329834631178528,0.002903985558077693
0.00951446034014225,0.007330865133553743,-0.012938156723976135,0.005522068124264479,-0.00013023684732615948,0.002861670684069395
0.009406163357198238,0.00651459489017725,-0.012705505825579166,0.00579551188275218,-0.00012759918172378093,0.0027343332767486572
0.0097402548417449,0.006452973932027817,-0.012603451497852802,0.005786667577922344,-0.00012506608618423343,0.0028406097553670406
0.009686957113444805,0.006432670634239912,-0.012159439735114574,0.0056678601540625095,-0.00013562962703872472,0.00282435305416584
0.009687721729278564,0.007156296633183956,-0.012128735892474651,0.005227367859333754,-0.000137179100420326,0.0029145560692995787
0.01004575751721859,0.007429276593029499,-0.011644207872450352,0.005734401289373636,-0.00013487925752997398,0.0027679139748215675
0.00981970690190792,0.006660307291895151,-0.010734058916568756,0.005742792971432209,-0.00013241618580650538,0.0027124371845275164
0.009499884210526943,0.006600669119507074,-0.012479470111429691,0.005559511482715607,-0.00013002600462641567,0.002747718943282962
0.009529050439596176,0.007070046383887529,-0.011897806078195572,0.0052840025164186954,-0.0001277194678550586,0.0026398117188364267
0.009557890705764294,0.0072548529133200645,-0.011875251308083534,0.005079514812678099,-0.00012549341772682965,0.0027084220200777054
0.009195915423333645,0.0069142975844442844,-0.012178095057606697,0.005604390054941177,-0.00012334348866716027,0.0027212700806558132
0.010105214081704617,0.006727379281073809,-0.01237966027110815,0.005859862547367811,-0.00012126613728469238,0.002849612385034561
0.009876436553895473,0.0074594225734472275,-0.012590179219841957,0.005858222953975201,-0.00015607249224558473,0.00303172180429101
0.009342629462480545,0.007009080611169338,-0.011817891150712967,0.005593743175268173,-0.00015594952856190503,0.0030612521804869175
0.009675978682935238,0.006940072868019342,-0.012284253723919392,0.005539300385862589,-0.00015105953207239509,0.00289448956027627
0.010072817094624043,0.0068096015602350235,-0.011646918952465057,0.005797222256660461,-0.0001461746433051303,0.002666001906618476
0.010033447295427322,0.006835233420133591,-0.012281197123229504,0.006075310055166483,-0.00014157670375425369,0.002405374078080058
0.010033447295427322,0.006835233420133591,-0.012281197123229504,0.006075310055166483,-0.00014157670375425369,0.002405374078080058
0.010017775930464268,0.007035185117274523,-0.011772849597036839,0.006345635745674372,-0.00015072502719704062,0.0024634257424622774
0.009704239666461945,0.007192139979451895,-0.01187732070684433,0.005882685072720051,-0.00015892066585365683,0.002786577446386218
0.009741325862705708,0.006888320669531822,-0.012557617388665676,0.006023416295647621,-0.00015517901920247823,0.0028129592537879944
0.010136112570762634,0.006762328092008829,-0.011676773428916931,0.006191869266331196,-0.0001508962013758719,0.002902017440646887
0.01038415264338255,0.0070064435712993145,-0.012256610207259655,0.006266766227781773,-0.00014679734886158258,0.0027744441758841276
0.009630238637328148,0.007161266636103392,-0.011582373641431332,0.006347724236547947,-0.00014291222032625228,0.002510912250727415
0.010699629783630371,0.007064807694405317,-0.012281144969165325,0.005478063598275185,-0.00013572782336268574,0.0028088288381695747
0.010699629783630371,0.007064807694405317,-0.012281144969165325,0.005478063598275185,-0.00013572782336268574,0.0028088288381695747
0.009979946538805962,0.007152113132178783,-0.01225687749683857,0.0058906059712171555,-0.0001500367361586541,0.0024304601829499006
0.010320081375539303,0.007049974985420704,-0.01200118288397789,0.006090791895985603,-0.0001471977448090911,0.002236337633803487
0.00997473020106554,0.007006999105215073,-0.012720285914838314,0.0055631790310144424,-0.00014387932606041431,0.002116294577717781
0.011090610176324844,0.00706111965700984,-0.012124506756663322,0.00576991681009531,-0.00014066946459934115,0.002257509157061577
0.010081800632178783,0.007476769853383303,-0.012024929746985435,0.005792798474431038,-0.00013759727880824357,0.002569768577814102
0.009941484779119492,0.007016688119620085,-0.012102453038096428,0.006018348969519138,-0.00013465614756569266,0.0025350532960146666
0.010342109017074108,0.00665771821513772,-0.011664868332445621,0.0060716476291418076,-0.00014110092888586223,0.002460659947246313
0.010159960947930813,0.006632308010011911,-0.012503959238529205,0.0059455265291035175,-0.00014695858408231288,0.002195189241319895
0.010054543614387512,0.006945334374904633,-0.012007664889097214,0.005639233160763979,-0.00014457840006798506,0.0020317193120718002
0.010669190436601639,0.006934656761586666,-0.012530366890132427,0.005659873131662607,-0.00014176889089867473,0.0018919415306299925
0.010086466558277607,0.006984551437199116,-0.012552284635603428,0.006407490931451321,-0.00013903368380852044,0.0020262799225747585
0.01044578105211258,0.007036701776087284,-0.01220411155372858,0.006747932638972998,-0.00015538613661192358,0.0023564475122839212
0.010146433487534523,0.006951584480702877,-0.012704124674201012,0.006351959425956011,-0.00016782396414782852,0.002412262139841914
0.010735936462879181,0.006883078254759312,-0.011769648641347885,0.005764700472354889,-0.0001629383332328871,0.0025418424047529697
0.010551032610237598,0.006635262630879879,-0.012167609296739101,0.005539483390748501,-0.00015731908206362277,0.00223325053229928
0.010551032610237598,0.006635262630879879,-0.012167609296739101,0.005539483390748501,-0.00015731908206362277,0.00223325053229928
0.010609740391373634,0.006640138104557991,-0.012561626732349396,0.005967159755527973,-0.00017838194617070258,0.0018659364432096481
0.010053909383714199,0.006633230485022068,-0.012572631239891052,0.006411208771169186,-0.0001761873281793669,0.0017992312787100673
0.010454889386892319,0.007245414424687624,-0.012598559260368347,0.006180352531373501,-0.0001708494673948735,0.0017184549942612648
0.009986743330955505,0.006476356647908688,-0.012373196892440319,0.006007322110235691,-0.00016562407836318016,0.0017408191924914718
0.010812791995704174,0.0064000622369349,-0.012880921363830566,0.006289868149906397,-0.00016069602861534804,0.002126032253727317
0.01039524469524622,0.006354464218020439,-0.011775066144764423,0.006569269113242626,-0.00018031145737040788,0.0020047982688993216
0.010447926819324493,0.007243483792990446,-0.012279258109629154,0.006360360886901617,-0.00017683223995845765,0.001933099702000618
0.010120820254087448,0.006596436724066734,-0.012165267951786518,0.00655401824042201,-0.00017210461373906583,0.0018333662301301956
0.010406175628304482,0.006269555073231459,-0.012377245351672173,0.006041184067726135,-0.00016753435193095356,0.001740314532071352
0.010169442743062973,0.0062593817710876465,-0.012408570386469364,0.006545174866914749,-0.0001804722414817661,0.0016108205309137702
0.010844115167856216,0.006152872461825609,-0.012242715805768967,0.006669479887932539,-0.00018140448082704097,0.001533077796921134
0.01012531016021967,0.006430135574191809,-0.012535519897937775,0.006214855704456568,-0.00017316834419034421,0.0015744025586172938
0.010042796842753887,0.0065247598104178905,-0.0124479029327631,0.006235324312001467,-0.0002562105655670166,0.0017071649199351668
0.01017158105969429,0.006403729319572449,-0.012527208775281906,0.00694870064035058,-0.00024815541110001504,0.0017974403453990817
0.010674592107534409,0.00634713564068079,-0.012927506119012833,0.007028175983577967,-0.00023555858933832496,0.00209943950176239
0.010463296435773373,0.006577014923095703,-0.01266451831907034,0.006163305602967739,-0.0002457144728396088,0.0021162584889680147
0.010559369809925556,0.005876838695257902,-0.012073387391865253,0.00578383170068264,-0.00025440615718252957,0.0020402574446052313
0.010018715634942055,0.005977427586913109,-0.012539410032331944,0.006108634639531374,-0.0002442235127091408,0.0018198337638750672
0.010511253960430622,0.006232409738004208,-0.012499368749558926,0.006368484813719988,-0.00023373632575385273,0.0014771117130294442
0.010406468994915485,0.006288954522460699,-0.012739193625748158,0.006224992219358683,-0.0002564041060395539,0.0011176912812516093
0.010185870341956615,0.006431924644857645,-0.012420588172972202,0.005658602342009544,-0.00025064393412321806,0.0011421405943110585
0.010898182168602943,0.006118354387581348,-0.012563017196953297,0.005775275640189648,-0.0002413315960438922,0.0011066385777667165
0.011063420213758945,0.005579421296715736,-0.012538459151983261,0.006575948093086481,-0.00023244503245223314,0.0010466061066836119
0.010246584191918373,0.006334653589874506,-0.01200336404144764,0.0072218202985823154,-0.00022417369473259896,0.0011249469825997949
0.009991412982344627,0.006172588560730219,-0.01271755900233984,0.007361033000051975,-0.00024530297378078103,0.0011320856865495443
0.009901748038828373,0.0058157071471214294,-0.012435486540198326,0.0073087699711322784,-0.0002390383742749691,0.0014526076847687364
0.009901748038828373,0.0058157071471214294,-0.012435486540198326,0.0073087699711322784,-0.0002390383742749691,0.0014526076847687364
0.010670088231563568,0.006041905842721462,-0.012813745997846127,0.007371372543275356,-0.00023147548199631274,0.0014283456839621067
0.011013043113052845,0.005447600036859512,-0.012464488856494427,0.007097862660884857,-0.00022500651539303362,0.0013563059037551284
0.010315272025763988,0.005434862338006496,-0.012299931608140469,0.007317449897527695,-0.0002641111786942929,0.0013579336227849126
0.010754070244729519,0.0057945228181779385,-0.012621641159057617,0.006701686419546604,-0.0002526993921492249,0.0013227220624685287
0.01069172564893961,0.006095986347645521,-0.012356534600257874,0.006400824058800936,-0.00023947146837599576,0.0012719666119664907
0.010496682487428188,0.005724468268454075,-0.013423115015029907,0.006813623942434788,-0.00022738150437362492,0.0011690715327858925
0.01033979095518589,0.005633889231830835,-0.01248247642070055,0.0068469238467514515,-0.00021644240769091994,0.001222578575834632
0.010273934341967106,0.005679599940776825,-0.013150166720151901,0.006407109089195728,-0.00020650675287470222,0.0011733958963304758
0.010293562896549702,0.006079717539250851,-0.012686346657574177,0.006237836554646492,-0.0001974441111087799,0.001086607575416565
0.010523978620767593,0.00589210819453001,-0.013299696147441864,0.006660172715783119,-0.0001891430583782494,0.0011054531205445528
0.010810824111104012,0.00597755191847682,-0.012855490669608116,0.006553998216986656,-0.00017447327263653278,0.0010828700615093112
0.010576626285910606,0.005457849241793156,-0.01318175159394741,0.006718415301293135,-0.0001679599517956376,0.0010757610434666276
0.01013436634093523,0.0058404626324772835,-0.012778179720044136,0.006696390453726053,-0.0001921053626574576,0.0011587514309212565
0.010675590485334396,0.005883743986487389,-0.013118828646838665,0.006616641767323017,-0.00018740659288596362,0.0011808235431089997
0.010854876600205898,0.005554657895117998,-0.012847415171563625,0.007210989017039537,-0.0001812443369999528,0.0012292341561987996
0.010742011480033398,0.005479980725795031,-0.013148656114935875,0.0074211666360497475,-0.0001753659889800474,0.001215534284710884
0.011068824678659439,0.005494738928973675,-0.0129005778580904,0.006846372038125992,-0.00016985007096081972,0.001148408860899508
0.010601812042295933,0.005679027643054724,-0.013305221684277058,0.006628029514104128,-0.00016467011300846934,0.0010548977879807353
0.010606124065816402,0.006129388231784105,-0.0130268894135952,0.007053234614431858,-0.00015979674935806543,0.0009720592643134296
0.010841692797839642,0.006267070770263672,-0.013223402202129364,0.00691519770771265,-0.0001552035246277228,0.0008597084670327604
0.010343513451516628,0.005806036293506622,-0.012509607709944248,0.006372618023306131,-0.00015086705388966948,0.0007753631798550487
0.01057184487581253,0.00634106295183301,-0.012635589577257633,0.006236590910702944,-0.0001680017594480887,0.0006116984877735376
0.010799303650856018,0.005797998514026403,-0.012849763035774231,0.0066646491177380085,-0.00016648584278300405,0.0006266755517572165
0.010486194863915443,0.006040576845407486,-0.012347613461315632,0.007167606148868799,-0.0001623854914214462,0.0006544571369886398
0.011201247572898865,0.006233797408640385,-0.0129606444388628,0.007282600738108158,-0.00015831684868317097,0.0006791745545342565
0.011201247572898865,0.006233797408640385,-0.0129606444388628,0.007282600738108158,-0.00015831684868317097,0.0006791745545342565
0.012180906720459461,0.005621490068733692,-0.012712594121694565,0.0065724216401577,-0.00015443659503944218,0.001019074348732829
0.012282620184123516,0.005979491397738457,-0.012605292722582817,0.006481249816715717,-0.0001694430538918823,0.0010390757815912366
0.011754022911190987,0.00564594566822052,-0.012447007931768894,0.00682408269494772,-0.00016806481289677322,0.0010215409565716982
0.011760822497308254,0.006485458463430405,-0.012733835726976395,0.007259711157530546,-0.00016439554747194052,0.0009087642538361251
0.012095803394913673,0.005723120644688606,-0.013279160484671593,0.006992330774664879,-0.00015594906290061772,0.0008622778113931417
0.011936928145587444,0.005749667063355446,-0.012722119688987732,0.00643988698720932,-0.00015027289919089526,0.0007763345493003726
0.012075601145625114,0.005582697689533234,-0.012770591303706169,0.006752221845090389,-0.00014538671530317515,0.0006653563468717039
0.012415274977684021,0.005778198596090078,-0.01215906161814928,0.006877500098198652,-0.00016168883303180337,0.0005796600598841906
0.011841624975204468,0.006154119968414307,-0.012487884610891342,0.006936158053576946,-0.0001590134488651529,0.0005493952776305377
0.01079471129924059,0.006242675241082907,-0.013206332921981812,0.006858356297016144,-0.0001671299833105877,0.0005732096615247428
0.012632225640118122,0.005697694141417742,-0.012852654792368412,0.006914613302797079,-0.00017437318456359208,0.0005345093668438494
0.012782003730535507,0.006003201473504305,-0.012992345727980137,0.0068120649084448814,-0.00017043115803971887,0.0004932747688144445
0.01274445466697216,0.00638734782114625,-0.012875942513346672,0.006901264190673828,-0.00017763707728590816,0.0005138927954249084
0.012547608464956284,0.0061913104727864265,-0.012468039058148861,0.0069680106826126575,-0.00018404956790618598,0.0004868250689469278
0.012135496363043785,0.005871470086276531,-0.013096734881401062,0.007415613159537315,-0.000180159680894576,0.0004564530972857028
0.012145754881203175,0.00641252426430583,-0.012600941583514214,0.007246969733387232,-0.00017603299056645483,0.00042925833258777857
0.01199852954596281,0.006211152765899897,-0.013307444751262665,0.00719337398186326,-0.0003200741484761238,0.00040509854443371296
0.012796583585441113,0.006527747958898544,-0.012596827000379562,0.007424212992191315,-0.0003083831397816539,0.00038351170951500535
0.012700391001999378,0.006177615374326706,-0.012987175025045872,0.00815944280475378,-0.00028922385536134243,0.00036411068867892027
0.012638830579817295,0.005438607651740313,-0.012828124687075615,0.00782624538987875,-0.0003187936672475189,0.00034657857031561434
0.01269520539790392,0.005759106017649174,-0.013089689426124096,0.007353571243584156,-0.00030708714621141553,0.0003306581056676805
0.012346198782324791,0.0059333620592951775,-0.013498593121767044,0.007159603759646416,-0.0002909553295467049,0.000316136225592345
0.012346198782324791,0.0059333620592951775,-0.013498593121767044,0.007159603759646416,-0.0002909553295467049,0.000316136225592345
0.01248506736010313,0.005532183218747377,-0.012982085347175598,0.007718728855252266,-0.0003060431336052716,0.00029061082750558853
0.01248506736010313,0.005532183218747377,-0.012982085347175598,0.007718728855252266,-0.0003060431336052716,0.00029061082750558853
0.012654702179133892,0.005532216280698776,-0.011917042545974255,0.007521220948547125,-0.00029220222495496273,0.00027933373348787427
0.012346645817160606,0.0056617832742631435,-0.012670367024838924,0.0075691500678658485,-0.0002792692685034126,0.0002688999811653048
0.012472343631088734,0.005849079228937626,-0.012370675802230835,0.007466682232916355,-0.0003030105144716799,0.00025921783526428044
0.012676343321800232,0.0062896558083593845,-0.012965410016477108,0.007100459188222885,-0.0002929992333520204,0.0002502086863387376
0.01252236682921648,0.005974797531962395,-0.012736479751765728,0.007320630829781294,-0.00028168558492325246,0.00024180440232157707
0.012762882746756077,0.005598785821348429,-0.012523581273853779,0.007641953881829977,-0.00030965733458288014,0.0002339467901038006
0.012486131861805916,0.005743779707700014,-0.0129641592502594,0.007744917646050453,-0.00030220425105653703,0.00022658341913484037
0.013127880170941353,0.006095823831856251,-0.012334169819951057,0.0077841742895543575,-0.0002839970984496176,0.00021967026987113059
0.013043161481618881,0.0060356794856488705,-0.012788008898496628,0.007498483639210463,-0.0003021759621333331,0.00020703606423921883
0.012712303549051285,0.005974111147224903,-0.013086318038403988,0.0074605257250368595,-0.0002865498245228082,0.00020124860748182982
0.012852851301431656,0.005540379323065281,-0.012168779969215393,0.007293199189007282,-0.00027213135035708547,0.00019577619968913496
0.013268147595226765,0.006007116753607988,-0.012602140195667744,0.007011548615992069,-0.00029929052107036114,0.00019059325859416276
0.012997950427234173,0.006067974958568811,-0.012655813246965408,0.006851887796074152,-0.0002882174158003181,0.00018567794177215546
0.013043928891420364,0.005855538882315159,-0.012787346728146076,0.007396726403385401,-0.0003099049208685756,0.00018100978923030198
0.012632577680051327,0.006038064602762461,-0.013039425946772099,0.007369702216237783,-0.00030161457834765315,0.00017657056741882116
0.01296195201575756,0.0054107666946947575,-0.012483553029596806,0.0068848757073283195,-0.0002897800877690315,0.00017234399274457246
0.012803447432816029,0.005126119125634432,-0.012930872850120068,0.006886630784720182,-0.00027858553221449256,0.00016831517859827727
0.013296961784362793,0.005944090895354748,-0.012959139421582222,0.008049936965107918,-0.0003272837202530354,0.0001466128887841478
0.013392370194196701,0.006155835464596748,-0.013197869062423706,0.007840603590011597,-0.00031350456993095577,0.00014087377348914742
0.013448498211801052,0.005701998248696327,-0.012669403105974197,0.007550093345344067,-0.000293629098450765,0.00013763493916485459
0.013282743282616138,0.005600562319159508,-0.013318096287548542,0.006832283455878496,-0.0003233386669307947,0.00013468223914969712
0.013487891294062138,0.005338064394891262,-0.012810270301997662,0.007304375525563955,-0.0003112162812612951,0.00013186233991291374
0.013611653819680214,0.005748491268604994,-0.012637217529118061,0.007877976633608341,-0.00033715268364176154,5.249728565104306e-05
0.013303328305482864,0.006302907131612301,-0.01341777853667736,0.007652896456420422,-0.0003255691262893379,4.0743747376836836e-05
0.013303328305482864,0.006302907131612301,-0.01341777853667736,0.007652896456420422,-0.0003255691262893379,4.0743747376836836e-05
0.01333571970462799,0.0058571770787239075,-0.012856332585215569,0.00703630642965436,-0.0003099304740317166,2.0913470507366583e-05
0.013113678433001041,0.0053945607505738735,-0.013324393890798092,0.007799080107361078,-0.00031603124807588756,1.9231038095313124e-05
0.013511832803487778,0.005616302601993084,-0.012823017314076424,0.008399500511586666,-0.0003210859140381217,1.255649522136082e-06
0.01326056756079197,0.005665211472660303,-0.013488455675542355,0.00794971827417612,-0.0003085749049205333,8.198494327871231e-08
0.01362545508891344,0.005925335455685854,-0.012984471395611763,0.007959315553307533,-0.00029597035609185696,5.353030907429002e-09
0.013183064758777618,0.005990160629153252,-0.01344552356749773,0.007728495169430971,-0.00031779627897776663,3.4951463945276373e-10
0.013652060180902481,0.005686391144990921,-0.012243757955729961,0.007829629816114902,-0.0003277694049756974,2.282080774351769e-11
0.013301488012075424,0.006100802682340145,-0.014106344431638718,0.007658808957785368,-0.0003075296990573406,1.4900356339400678e-12
0.013788950629532337,0.005668683908879757,-0.013783660717308521,0.008072344586253166,-0.000315983867039904,9.728867966232388e-14
0.013996068388223648,0.006097295321524143,-0.013433720916509628,0.007922547869384289,-0.0003228594141546637,-0.00029839042690582573
0.013470890931785107,0.005486923735588789,-0.013995280489325523,0.008254448883235455,-0.00033487906330265105,-0.001027522375807166
0.013533156365156174,0.006109985522925854,-0.013895552605390549,0.008827049285173416,-0.0003207643167115748,-0.0009164593066088855
0.013771990314126015,0.0055758836679160595,-0.013513322919607162,0.008665939792990685,-0.00030540250008925796,-0.0009080704767256975
0.01375117152929306,0.0060526360757648945,-0.01388602890074253,0.008617105893790722,-0.00032201784779317677,-0.0008125194581225514
0.014032491482794285,0.005812094546854496,-0.013612168841063976,0.008589588105678558,-0.00031747741741128266,-0.0007718369015492499
0.0140498336404562,0.005703376606106758,-0.01382770948112011,0.008386749774217606,-0.0003536675649229437,-0.0007819563033990562
0.013995063491165638,0.005605587735772133,-0.013000025413930416,0.007664449047297239,-0.00037149147829040885,-0.0007966429111547768
0.01361484918743372,0.005574760027229786,-0.013504426926374435,0.007858349941670895,-0.00040574895683676004,-0.0008170625078491867
0.014436071738600731,0.005695338360965252,-0.01323013287037611,0.008240259252488613,-0.0003851408837363124,-0.0010878603206947446
0.014337209053337574,0.005999796558171511,-0.013896924443542957,0.008303411304950714,-0.0003599964256864041,-0.0012193095171824098
0.01448396872729063,0.005771057214587927,-0.013375742360949516,0.008248922415077686,-0.00038614662480540574,-0.0014378596097230911
0.014573164284229279,0.005774528719484806,-0.013721588999032974,0.007744947914034128,-0.00037010162486694753,-0.0015202524373307824
0.014816700480878353,0.00601405743509531,-0.013416917994618416,0.008011105470359325,-0.0003868262283504009,-0.0014046973083168268
0.014220655895769596,0.005941289942711592,-0.014014086686074734,0.008148622699081898,-0.0003780811093747616,-0.001261216471903026
0.014801651239395142,0.006164908409118652,-0.013297706842422485,0.007752210833132267,-0.0003599323099479079,-0.0011646072380244732
0.014801651239395142,0.006164908409118652,-0.013297706842422485,0.007752210833132267,-0.0003599323099479079,-0.0011646072380244732
0.0147548858076334,0.005605112295597792,-0.01347349677234888,0.007650552783161402,-0.0003428381460253149,-0.0011364329839125276
0.015241052024066448,0.005803954321891069,-0.013968242332339287,0.00805587787181139,-0.00038193000364117324,-0.0014309983234852552
0.014789081178605556,0.005497178062796593,-0.013717787340283394,0.008163121528923512,-0.00036945060128346086,-0.0017245090566575527
0.014967266470193863,0.005927113816142082,-0.013526970520615578,0.008299584500491619,-0.0003425458271522075,-0.0024180151522159576
0.014767663553357124,0.0057232859544456005,-0.013376075774431229,0.008733784779906273,-0.0003775762452278286,-0.0023902403190732002
0.014796849340200424,0.005662065930664539,-0.013516793958842754,0.008618289604783058,-0.0003565046063158661,-0.002481260569766164
0.015074697323143482,0.005524343345314264,-0.012898578308522701,0.008208900690078735,-0.00033465272281318903,-0.0020321442279964685
0.014437383972108364,0.005671279970556498,-0.013772212900221348,0.00842457264661789,-0.00036400926182977855,-0.0019179161172360182
0.015260886400938034,0.005579383112490177,-0.01309523731470108,0.008988277986645699,-0.00034713506465777755,-0.0017333440482616425
0.015236291103065014,0.005801455583423376,-0.013773263432085514,0.008225283585488796,-0.0003291981411166489,-0.0017484273994341493
0.015392526984214783,0.005533679388463497,-0.013471492566168308,0.008257248438894749,-0.00034583843080326915,-0.0017086153384298086
0.015518246218562126,0.005926525220274925,-0.013243510387837887,0.008989565074443817,-0.00032519124215468764,-0.0028552766889333725
0.015029378235340118,0.0058212969452142715,-0.013875783421099186,0.008395242504775524,-0.0003555000585038215,-0.0029302644543349743
0.015845781192183495,0.0061309002339839935,-0.013405301608145237,0.00834569614380598,-0.0003360880946274847,-0.0026062263641506433
0.015329580754041672,0.0062446147203445435,-0.013950970955193043,0.008231976069509983,-0.0003435611433815211,-0.002153820125386119
0.015338529832661152,0.005594802554696798,-0.013633012771606445,0.008263614028692245,-0.000349250971339643,-0.00203433888964355
0.0146323936060071,0.005785484332591295,-0.013765987008810043,0.008185748010873795,-0.00032974453642964363,-0.0019212702754884958
0.015511078760027885,0.005703028291463852,-0.013771905563771725,0.008824440650641918,-0.0003490523376967758,-0.0019615013152360916
0.015383045189082623,0.006148624699562788,-0.014033202081918716,0.008505336940288544,-0.00034205260453745723,-0.002248812699690461
0.016152549535036087,0.0058109755627810955,-0.014158095233142376,0.008068421855568886,-0.00032517442014068365,-0.002410097047686577
0.01576865464448929,0.005682453513145447,-0.014202957041561604,0.008561828173696995,-0.0003092584083788097,-0.002510959515348077
0.015473882667720318,0.0060534109361469746,-0.014133933000266552,0.008793199434876442,-0.00029478679061867297,-0.0030240064952522516
0.01577131077647209,0.00556393014267087,-0.014133200980722904,0.008843619376420975,-0.0002816064516082406,-0.003532428527250886
0.015557069331407547,0.0057930173352360725,-0.014069869183003902,0.00911925919353962,-0.0002883839188143611,-0.0037589212879538536
0.01609097607433796,0.005800001788884401,-0.01373907271772623,0.009508457966148853,-0.00029413524316623807,-0.0034713479690253735
0.015925876796245575,0.005914736073464155,-0.013826497830450535,0.009182915091514587,-0.00028369014034979045,-0.002967632608488202
0.015986060723662376,0.005889028776437044,-0.013667578808963299,0.008714496158063412,-0.000273006473435089,-0.0028447627555578947
0.015328416600823402,0.00592431565746665,-0.013758011162281036,0.009438306093215942,-0.00026303608319722116,-0.002817078959196806
0.016346853226423264,0.006030452903360128,-0.013527088798582554,0.008953746408224106,-0.0002537644759286195,-0.003196587087586522
0.016346853226423264,0.006030452903360128,-0.013527088798582554,0.008953746408224106,-0.0002537644759286195,-0.003196587087586522
0.01573541760444641,0.0055604311637580395,-0.013988791964948177,0.008425687439739704,-0.00024512369418516755,-0.0035390115808695555
0.015892932191491127,0.005593512207269669,-0.013411716558039188,0.008692276664078236,-0.0002378105273237452,-0.0035992730408906937
0.016127973794937134,0.005604654084891081,-0.014074599370360374,0.00925228651612997,-0.0002290254778927192,-0.003540741978213191
0.015891825780272484,0.005653768312186003,-0.013403023593127728,0.008969703689217567,-0.00021813738567288965,-0.0035514088813215494
0.016474822536110878,0.005650317762047052,-0.013965848833322525,0.008764269761741161,-0.0002080627018585801,-0.0034508672542870045
0.016251401975750923,0.006246422417461872,-0.013609073124825954,0.009088839404284954,-0.00022824628103990108,-0.003562657628208399
0.016460031270980835,0.005690471734851599,-0.014294926077127457,0.008914866484701633,-0.00022785947658121586,-0.0037955865263938904
0.016285819932818413,0.005789101589471102,-0.013852645643055439,0.008685208857059479,-0.00021921242296230048,-0.0038952173199504614
0.016506308689713478,0.00584530970081687,-0.014364322647452354,0.009229782037436962,-0.00024342769756913185,-0.003960241563618183
0.016253504902124405,0.005958890076726675,-0.01350601576268673,0.009498009458184242,-0.00023642749874852598,-0.003906569443643093
0.016350701451301575,0.005583827383816242,-0.013642381876707077,0.009336506016552448,-0.00025040446780622005,-0.0038586240261793137
0.016229454427957535,0.0054885102435946465,-0.014053132385015488,0.00902579165995121,-0.00024293050228152424,-0.004040497820824385
0.016761884093284607,0.005564868915826082,-0.01393674872815609,0.008665905334055424,-0.00035639299312606454,-0.004146403633058071
0.01671573892235756,0.0060669854283332825,-0.014455694705247879,0.00916411355137825,-0.0003466515045147389,-0.004000610671937466
0.01683247834444046,0.005630139261484146,-0.014327622950077057,0.009443549439311028,-0.00035426486283540726,-0.004278239794075489
0.017194194719195366,0.005716787185519934,-0.014738628640770912,0.008862585760653019,-0.00035946082789450884,-0.004124709405004978
0.01661514677107334,0.005307838320732117,-0.014110971242189407,0.008908862248063087,-0.00036625732900574803,-0.004391930531710386
0.01653570495545864,0.006126138381659985,-0.014378825202584267,0.009214880876243114,-0.00037014749250374734,-0.0041159410029649734
0.016141124069690704,0.005672668572515249,-0.014468450099229813,0.008877764455974102,-0.000351172115188092,-0.004134262911975384
0.016856711357831955,0.006061024963855743,-0.01426558569073677,0.00859653577208519,-0.0003327273007016629,-0.004259477369487286
0.016648240387439728,0.005733713507652283,-0.014101886190474033,0.008802029304206371,-0.0003551251138560474,-0.004107827786356211
0.016572315245866776,0.005595032591372728,-0.014381888322532177,0.008756027556955814,-0.00034353224327787757,-0.004141845740377903
0.016700567677617073,0.005422869697213173,-0.01450877171009779,0.008875483646988869,-0.0004093216557521373,-0.004348635207861662
0.016723111271858215,0.005815477110445499,-0.014995772391557693,0.009070178493857384,-0.00038681740988977253,-0.004756181966513395
0.01709119603037834,0.005621373187750578,-0.014826085418462753,0.009620420634746552,-0.0003915100824087858,-0.0048233880661427975
0.01709119603037834,0.005621373187750578,-0.014826085418462753,0.009620420634746552,-0.0003915100824087858,-0.0048233880661427975
0.01729261875152588,0.005319752264767885,-0.014402019791305065,0.009640219621360302,-0.00039946497417986393,-0.004399294964969158
0.01778898574411869,0.00524806696921587,-0.015332729555666447,0.010443536564707756,-0.0004015859158243984,-0.004177010152488947
0.01778898574411869,0.00524806696921587,-0.015332729555666447,0.010443536564707756,-0.0004015859158243984,-0.004177010152488947
0.017325500026345253,0.00508155906572938,-0.014660275541245937,0.009170756675302982,-0.00040558393811807036,-0.004486300982534885
0.017634261399507523,0.005759630352258682,-0.015441516414284706,0.009119085967540741,-0.0004070809227414429,-0.004630847834050655
0.017333587631583214,0.005472112447023392,-0.015055271796882153,0.00899499747902155,-0.000452295906143263,-0.004913779906928539
0.01740563102066517,0.005827644839882851,-0.015314185060560703,0.008881697431206703,-0.00046806028694845736,-0.004977488424628973
0.017537860199809074,0.005343190394341946,-0.015077009797096252,0.009050571359694004,-0.00042766580008901656,-0.005143274087458849
0.017726056277751923,0.0055017308332026005,-0.014566190540790558,0.008955632336437702,-0.00043072522385045886,-0.005225120112299919
0.017545683309435844,0.005870675668120384,-0.015447748824954033,0.008585168980062008,-0.00039944134186953306,-0.0053854393772780895
0.018193155527114868,0.005794034339487553,-0.015104124322533607,0.009565189480781555,-0.00041753120603971183,-0.005182096268981695
0.01840401627123356,0.005534641444683075,-0.01534949243068695,0.010254912078380585,-0.0004048917326144874,-0.004905990324914455
0.017359690740704536,0.00507855461910367,-0.015639619901776314,0.00864877924323082,-0.00038130441680550575,-0.005023763980716467
0.01845370978116989,0.005065781529992819,-0.015793878585100174,0.008957257494330406,-0.0003595913585741073,-0.0047901226207613945
0.017810409888625145,0.005610006861388683,-0.015605274587869644,0.009562990628182888,-0.00038222470902837813,-0.00504196947440505
0.017026783898472786,0.0053629628382623196,-0.015136870555579662,0.00979672558605671,-0.00036841732799075544,-0.005284690763801336
0.01801208034157753,0.005284895189106464,-0.015501968562602997,0.01050744391977787,-0.00036655308213084936,-0.005203844979405403
0.018349390476942062,0.005042789503931999,-0.015395978465676308,0.010131222195923328,-0.0003420732682570815,-0.005370943807065487
0.018430063501000404,0.005235044285655022,-0.015649262815713882,0.009221437387168407,-0.000318097067065537,-0.005065949633717537
0.01814066246151924,0.005602031480520964,-0.014984807930886745,0.009852931834757328,-0.0003408133052289486,-0.004899245221167803
0.017742116004228592,0.0053054895251989365,-0.015433774329721928,0.010622178204357624,-0.00036051441566087306,-0.005507425405085087
0.018445825204253197,0.005370507948100567,-0.014768650755286217,0.009851356036961079,-0.0003654634056147188,-0.005490600597113371
0.018619777634739876,0.005455071572214365,-0.015538251027464867,0.0100676529109478,-0.00038357992889359593,-0.0056654782965779305
0.018313147127628326,0.0050654057413339615,-0.014854149892926216,0.009940994903445244,-0.0003751519543584436,-0.005751205142587423
0.01840275339782238,0.005256573669612408,-0.015565473586320877,0.009724361822009087,-0.0003583373036235571,-0.005834098905324936
0.01843777671456337,0.005426555406302214,-0.01453456562012434,0.009682748466730118,-0.0004628241586033255,-0.0049536400474607944
0.018341248854994774,0.005682841874659061,-0.015147999860346317,0.010154476389288902,-0.0004280619614291936,-0.005567112937569618
0.018341248854994774,0.005682841874659061,-0.015147999860346317,0.010154476389288902,-0.0004280619614291936,-0.005567112937569618
0.01859135739505291,0.005227097775787115,-0.015251870267093182,0.010203287936747074,-0.00046408906928263605,-0.006567740347236395
0.018751921132206917,0.005280461627990007,-0.015652630478143692,0.010792874731123447,-0.0004317410057410598,-0.006703476887196302
0.018596461042761803,0.005457834806293249,-0.014851379208266735,0.010284511372447014,-0.0004000446933787316,-0.005867600440979004
0.019320080056786537,0.005549383815377951,-0.015217679552733898,0.010118694975972176,-0.00037245365092530847,-0.005885059479624033
0.01912602037191391,0.0057889120653271675,-0.01574363373219967,0.010292334482073784,-0.0003985941002611071,-0.005863845814019442
0.01899854466319084,0.0061786281876266,-0.015579823404550552,0.010043899528682232,-0.0004078575293533504,-0.006171952001750469
0.019312843680381775,0.005405382718890905,-0.015307662077248096,0.010171651840209961,-0.00040956668090075254,-0.005840830504894257
0.018939802423119545,0.005641365889459848,-0.015757227316498756,0.009941055439412594,-0.00041331860120408237,-0.006075594574213028
0.01915866881608963,0.006173967849463224,-0.015026255510747433,0.010207784362137318,-0.0004450113628990948,-0.006085407454520464
0.019292820245027542,0.005696813575923443,-0.015500625595450401,0.010552961379289627,-0.0004194082284811884,-0.006373960059136152
0.019468799233436584,0.005923260468989611,-0.014915794134140015,0.010374906472861767,-0.0004374417767394334,-0.006471629254519939
0.019463757053017616,0.005371447652578354,-0.015322973020374775,0.011057120747864246,-0.000422952783992514,-0.006277110427618027
0.018953505903482437,0.005514058284461498,-0.014834942296147346,0.01037396490573883,-0.0004463089571800083,-0.006453043781220913
0.02025856077671051,0.005789545364677906,-0.015612021088600159,0.010032674297690392,-0.0004266214382369071,-0.00635563163086772
0.02003880776464939,0.005685307085514069,-0.01514782290905714,0.01084241271018982,-0.00040316590457223356,-0.00692366249859333
0.019412847235798836,0.005574123468250036,-0.015331731177866459,0.01069332379847765,-0.00042887305608019233,-0.006521645002067089
0.01964031346142292,0.005369419697672129,-0.01528271846473217,0.010318446904420853,-0.00043271275353617966,-0.006475786212831736
0.020307252183556557,0.0054297735914587975,-0.015293539501726627,0.010817226022481918,-0.00039742671651765704,-0.006911699194461107
0.01984267123043537,0.005246025510132313,-0.015445913188159466,0.01036845799535513,-0.0004331996897235513,-0.0069336965680122375
0.019607678055763245,0.005269670393317938,-0.015290975570678711,0.010587704367935658,-0.0004051211872138083,-0.006432157475501299
0.02006665989756584,0.005588151048868895,-0.01516695972532034,0.010993237607181072,-0.0004313865501899272,-0.006343770772218704
0.020491626113653183,0.00536583736538887,-0.015203244984149933,0.010175824165344238,-0.00043923038174398243,-0.006556590087711811
0.020358547568321228,0.004985593259334564,-0.01565496437251568,0.010671669617295265,-0.0004391657712403685,-0.007178352680057287
0.020516149699687958,0.005358805879950523,-0.015112331137061119,0.010443001985549927,-0.00041555953794158995,-0.007453200872987509
0.02048567496240139,0.005509992130100727,-0.015554658137261868,0.01035147812217474,-0.0003950232930947095,-0.006286099553108215
0.020207388326525688,0.005768146365880966,-0.015082022175192833,0.010861900635063648,-0.00043497528531588614,-0.006325405556708574
0.020532678812742233,0.00561059033498168,-0.015838058665394783,0.010369251482188702,-0.00040129225817508996,-0.007229511626064777
0.020532678812742233,0.00561059033498168,-0.015838058665394783,0.010369251482188702,-0.00040129225817508996,-0.007229511626064777
0.020792581140995026,0.005249999929219484,-0.015483059920370579,0.01039784774184227,-0.0003687162243295461,-0.007702372036874294
0.02080434374511242,0.00537500623613596,-0.015645021572709084,0.010216736234724522,-0.00034078984754160047,-0.007726174313575029
0.02047780156135559,0.0052183689549565315,-0.01497880183160305,0.010524891316890717,-0.00037568926927633584,-0.007565961219370365
0.02088334783911705,0.0057168141938745975,-0.015534828417003155,0.01031306479126215,-0.00035483381361700594,-0.007611320819705725
0.021268025040626526,0.005362843628972769,-0.01555916853249073,0.010813434608280659,-0.0003331804764457047,-0.007615700829774141
0.020697107538580894,0.005423109512776136,-0.015780780464410782,0.01029971893876791,-0.00031382471206597984,-0.0075285895727574825
0.021486632525920868,0.005310293287038803,-0.015481047332286835,0.010846059769392014,-0.00030399017850868404,-0.007572694681584835
0.021349774673581123,0.005357508547604084,-0.015549865551292896,0.010828048922121525,-0.00031018874142318964,-0.007672128267586231
0.02152363583445549,0.005169677082449198,-0.015652967616915703,0.011091156862676144,-0.00029694955446757376,-0.007433230523020029
0.021441126242280006,0.005877559073269367,-0.016010772436857224,0.010865572839975357,-0.00028366607148200274,-0.0070459372363984585
0.02171057090163231,0.005426725372672081,-0.01557767391204834,0.010641906410455704,-0.00030504786991514266,-0.007278025150299072
0.02175048366189003,0.0050962818786501884,-0.01612248085439205,0.01132832933217287,-0.00029706975328736007,-0.007842649705708027
0.02156864106655121,0.005619720555841923,-0.015955490991473198,0.011418475769460201,-0.00028558610938489437,-0.00768460426479578
0.021600931882858276,0.00549538666382432,-0.016181232407689095,0.011408714577555656,-0.0002699140750337392,-0.007176306564360857
0.021951377391815186,0.006009790115058422,-0.016095060855150223,0.011481202207505703,-0.00025123293744400144,-0.0073771122843027115
0.02243628539144993,0.005529429763555527,-0.01595727913081646,0.010981050319969654,-0.00027886463794857264,-0.007833555340766907
0.022458555176854134,0.005472959950566292,-0.016423426568508148,0.011275608092546463,-0.0002705096558202058,-0.007577139418572187
0.022081905975937843,0.005187308415770531,-0.015986314043402672,0.01103200763463974,-0.0002980002318508923,-0.00708395941182971
0.01992003247141838,0.004570205695927143,-0.016462914645671844,0.011004937812685966,-0.00028705509612336755,-0.007159919943660498
0.022597139701247215,0.004220723174512386,-0.015720048919320107,0.011792199686169624,-0.00031127355759963393,-0.0076362802647054195
0.022701995447278023,0.0044838362373411655,-0.01658671535551548,0.011233060620725155,-0.00045607637730427086,-0.007651096675544977
0.022701995447278023,0.0044838362373411655,-0.01658671535551548,0.011233060620725155,-0.00045607637730427086,-0.007651096675544977
0.02177884243428707,0.004755982663482428,-0.016072342172265053,0.011503948830068111,-0.0005892771296203136,-0.007118677720427513
0.02177884243428707,0.004755982663482428,-0.016072342172265053,0.011503948830068111,-0.0005892771296203136,-0.007118677720427513
0.022727003321051598,0.004638858139514923,-0.016588112339377403,0.011254958808422089,-0.0005997904227115214,-0.007845932617783546
0.022747550159692764,0.004663755185902119,-0.0161115862429142,0.011331112124025822,-0.0006053111283108592,-0.008264550939202309
0.022651441395282745,0.004396781325340271,-0.016739418730139732,0.010734791867434978,-0.0005925861187279224,-0.00783727876842022
0.021896716207265854,0.0045770155265927315,-0.016141867265105247,0.011531997472047806,-0.0007164938724599779,-0.007975893095135689
0.022060193121433258,0.004529614467173815,-0.016556352376937866,0.011114981025457382,-0.0007384913042187691,-0.007806404959410429
0.021846676245331764,0.004200289957225323,-0.01598065160214901,0.010712379589676857,-0.0006631682044826448,-0.007971497252583504
0.02195926010608673,0.004311455879360437,-0.016455527395009995,0.011006631888449192,-0.0006827726610936224,-0.007754687685519457
0.02267668955028057,0.004469307139515877,-0.016483357176184654,0.010823676362633705,-0.0006213813903741539,-0.007841295562684536
0.022705238312482834,0.004652087111026049,-0.016086606308817863,0.010933715850114822,-0.0006409358466044068,-0.008259624242782593
0.022612785920500755,0.004428774584084749,-0.016523044556379318,0.011780960485339165,-0.0005610662046819925,-0.008470280095934868
0.022539200261235237,0.004633413627743721,-0.016995472833514214,0.011210503056645393,-0.0005136405816301703,-0.008355277590453625
0.02272273786365986,0.004257183987647295,-0.016355065628886223,0.011025367304682732,-0.0005476069636642933,-0.008890948258340359
0.022458750754594803,0.00445379177108407,-0.016541875898838043,0.010801069438457489,-0.0005636127316392958,-0.008932399563491344
0.022912677377462387,0.004599819891154766,-0.01668129861354828,0.01099658478051424,-0.0005350164719857275,-0.008983607403934002
0.023087289184331894,0.0042780679650604725,-0.016500161960721016,0.010854038409888744,-0.0005598923307843506,-0.0087107690051198
0.022747695446014404,0.00406202906742692,-0.01701487973332405,0.01111555565148592,-0.0006230586441233754,-0.00867521297186613
0.022613761946558952,0.004404313862323761,-0.016024498268961906,0.011708911508321762,-0.000630086986348033,-0.00900082103908062
0.023092977702617645,0.004914215765893459,-0.01674704998731613,0.011486327275633812,-0.000661418482195586,-0.008928575552999973
0.02314712107181549,0.0044572059996426105,-0.016793211922049522,0.011964328587055206,-0.0006680107908323407,-0.008505693636834621
0.023230457678437233,0.004377197939902544,-0.01690753549337387,0.011372040025889874,-0.0006898240535520017,-0.008964608423411846
0.023116210475564003,0.004314641933888197,-0.017070742323994637,0.011162368580698967,-0.000649205525405705,-0.009088343940675259
0.022849583998322487,0.004342331551015377,-0.016153672710061073,0.011659308336675167,-0.0006533416453748941,-0.008993390947580338
0.02335287816822529,0.0046406034380197525,-0.016370458528399467,0.011174317449331284,-0.0006200665375217795,-0.008920404128730297
0.02335287816822529,0.0046406034380197525,-0.016370458528399467,0.011174317449331284,-0.0006200665375217795,-0.008920404128730297
0.023841848596930504,0.004941529594361782,-0.01595587097108364,0.011448351666331291,-0.0006279710796661675,-0.009149979799985886
0.023422222584486008,0.004832373466342688,-0.01680615544319153,0.011578349396586418,-0.0006314763450063765,-0.009023843333125114
0.023255936801433563,0.004493799991905689,-0.016947025433182716,0.011431349441409111,-0.0006136755691841245,-0.008959426544606686
0.02196263149380684,0.004353360738605261,-0.01656966656446457,0.011811628937721252,-0.0006005382747389376,-0.009351425804197788
0.02404293231666088,0.004901174921542406,-0.016708962619304657,0.012070835568010807,-0.0005869048181921244,-0.009639648720622063
0.024036383256316185,0.004998719785362482,-0.016338862478733063,0.012936661019921303,-0.000544783310033381,-0.009339106269180775
0.024569671601057053,0.004973915405571461,-0.016906119883060455,0.012185894884169102,-0.000543962640222162,-0.008910281583666801
0.024436719715595245,0.005167549010366201,-0.016496315598487854,0.012350750155746937,-0.0004921896033920348,-0.009230299852788448
0.023746736347675323,0.004896111786365509,-0.01626475155353546,0.012427542358636856,-0.000526443705894053,-0.009178383275866508
0.023901814594864845,0.0046339076943695545,-0.016669536009430885,0.012546631507575512,-0.000517709122505039,-0.00979652814567089
0.0244864821434021,0.0049752527847886086,-0.01659306138753891,0.012310655787587166,-0.0005386242410168052,-0.009478054009377956
0.024722600355744362,0.005050533916801214,-0.016315707936882973,0.012376136146485806,-0.0005086862947791815,-0.009439742192626
0.024597983807325363,0.004778905771672726,-0.016957655549049377,0.012143634259700775,-0.0005769507843069732,-0.009692764841020107
0.024618592113256454,0.004762362688779831,-0.016677968204021454,0.013028454035520554,-0.0005262935301288962,-0.009301131591200829
0.024835985153913498,0.004866467323154211,-0.016934379935264587,0.012596786953508854,-0.0005596481496468186,-0.009317931719124317
0.02449265494942665,0.005089717451483011,-0.016711870208382607,0.012584367766976357,-0.0005122895818203688,-0.00958479754626751
0.024241246283054352,0.004953732714056969,-0.016429821029305458,0.012704778462648392,-0.00046820161514915526,-0.009458408690989017
0.0242648683488369,0.00518378522247076,-0.017271308228373528,0.012388517148792744,-0.0004308327625039965,-0.009578755125403404
0.02442074380815029,0.005009006708860397,-0.017023436725139618,0.012910092249512672,-0.0003989770484622568,-0.010002214461565018
0.024927493184804916,0.004932026378810406,-0.017431074753403664,0.012700636871159077,-0.00037150870775803924,-0.009722384624183178
0.02474330924451351,0.005349106155335903,-0.01745690032839775,0.012836101464927197,-0.00040146891842596233,-0.00936064962297678
0.02467193640768528,0.005220097955316305,-0.01726006343960762,0.012723585590720177,-0.00038071192102506757,-0.00984859373420477
0.02467193640768528,0.005220097955316305,-0.01726006343960762,0.012723585590720177,-0.00038071192102506757,-0.00984859373420477
0.024260954931378365,0.0052032177336514,-0.0174375232309103,0.01238610502332449,-0.000359224941348657,-0.010558921843767166
0.024670522660017014,0.004947685170918703,-0.017574654892086983,0.011954258196055889,-0.00036534821265377104,-0.010428785346448421
0.024670522660017014,0.004947685170918703,-0.017574654892086983,0.011954258196055889,-0.00036534821265377104,-0.010428785346448421
0.024787724018096924,0.004758939612656832,-0.01791454665362835,0.012668936513364315,-0.0003503620682749897,-0.010212372057139874
0.02500983513891697,0.004801941569894552,-0.01737290620803833,0.012449616566300392,-0.00032092531910166144,-0.01060334499925375
0.024952992796897888,0.005627582781016827,-0.017263680696487427,0.012841369025409222,-0.00028947924147360027,-0.01060035452246666
0.025106066837906837,0.005373952444642782,-0.016555527225136757,0.012690678238868713,-0.00029771143454127014,-0.010341075249016285
0.02462966926395893,0.004912471864372492,-0.017805546522140503,0.012763299979269505,-0.0003051784879062325,-0.01042775809764862
0.025327932089567184,0.004806444980204105,-0.018356481567025185,0.012527164071798325,-0.0003260526864323765,-0.010015500709414482
0.025547074154019356,0.004830322694033384,-0.017519650980830193,0.012216143310070038,-0.00032074275077320635,-0.010971561074256897
0.025594152510166168,0.00509971659630537,-0.01721070520579815,0.012598889879882336,-0.00034661201061680913,-0.010534292086958885
0.02568158507347107,0.005627808161079884,-0.01751149818301201,0.012557157315313816,-0.0004753939574584365,-0.009888908825814724
0.023806272074580193,0.005331377498805523,-0.01808878406882286,0.012787235900759697,-0.0005502667627297342,-0.00999508611857891
0.025949625298380852,0.005066493526101112,-0.01753816194832325,0.012412099167704582,-0.0005837566568516195,-0.010156277567148209
0.02535661868751049,0.004913313779979944,-0.01741112396121025,0.012702676467597485,-0.0005697769811376929,-0.009881149046123028
0.02525668777525425,0.005318414885550737,-0.017603883519768715,0.013127402402460575,-0.0005932478234171867,-0.010521302931010723
0.02546793222427368,0.005117534194141626,-0.017704904079437256,0.01345779374241829,-0.0007172967307269573,-0.010210474021732807
0.025682438164949417,0.0051987431943416595,-0.017836367711424828,0.013008495792746544,-0.0007359612500295043,-0.010534283705055714
0.02597905322909355,0.005514310207217932,-0.017059721052646637,0.013418296352028847,-0.000674109032843262,-0.010261141695082188
0.02598966285586357,0.0050701261498034,-0.017462976276874542,0.013308446854352951,-0.0006009387434460223,-0.010477764531970024
0.025921601802110672,0.004877101629972458,-0.017191149294376373,0.013469972647726536,-0.0006243796087801456,-0.010434146039187908
0.026772867888212204,0.005669190548360348,-0.01749502494931221,0.01285561453551054,-0.0006125294021330774,-0.010617217980325222
0.02652796171605587,0.005247908178716898,-0.017938457429409027,0.013461634516716003,-0.0005978188128210604,-0.010547928512096405
0.026163866743445396,0.005492262542247772,-0.01725873537361622,0.012990656308829784,-0.0005558617995120585,-0.01043880544602871
0.02643226459622383,0.0055676172487437725,-0.01762966439127922,0.013190950267016888,-0.000527127122040838,-0.010454428382217884
0.026471950113773346,0.005540740210562944,-0.017359774559736252,0.01320103369653225,-0.0005554493982344866,-0.010590245015919209
0.026203444227576256,0.005154983606189489,-0.017287477850914,0.01294751837849617,-0.0005765135865658522,-0.010738908313214779
0.02658025734126568,0.00504631083458662,-0.017861822620034218,0.013140816241502762,-0.0006140297628007829,-0.010900280438363552
0.02658025734126568,0.00504631083458662,-0.017861822620034218,0.013140816241502762,-0.0006140297628007829,-0.010900280438363552
0.02647240087389946,0.005669493693858385,-0.017361706122756004,0.013104325160384178,-0.0008240619790740311,-0.011083338409662247
0.02615847997367382,0.006015522871166468,-0.017546895891427994,0.013536743819713593,-0.0009003655868582428,-0.011070773005485535
0.026935504749417305,0.0056849317625164986,-0.017767207697033882,0.013134770095348358,-0.0008872600155882537,-0.011041296645998955
0.027491651475429535,0.004941541235893965,-0.017228741198778152,0.013533993624150753,-0.0008043074631132185,-0.01027462724596262
0.027597198262810707,0.005000800359994173,-0.017817018553614616,0.012952323071658611,-0.0008094897493720055,-0.010114372707903385
0.02635209821164608,0.005317108239978552,-0.01744852587580681,0.013466106727719307,-0.0007785671041347086,-0.00983134564012289
0.026159197092056274,0.005314994137734175,-0.017294518649578094,0.013150475919246674,-0.0007029702537693083,-0.01029413752257824
0.026920601725578308,0.005971424747258425,-0.017491379752755165,0.013517133891582489,-0.0006990493275225163,-0.009964846074581146
0.027220796793699265,0.0053185452707111835,-0.017676502466201782,0.013371840119361877,-0.0006428338238038123,-0.009765764698386192
0.02670934796333313,0.005118405446410179,-0.018061868846416473,0.013604178093373775,-0.0006584709626622498,-0.010291030630469322
0.027735257521271706,0.005043167155236006,-0.017827797681093216,0.012981287203729153,-0.000631307833828032,-0.01001944299787283
0.026827722787857056,0.0053274803794920444,-0.018242741003632545,0.013137482106685638,-0.0006148185348138213,-0.010651525110006332
0.026226738467812538,0.005592915695160627,-0.017364149913191795,0.013178417459130287,-0.0006420813733711839,-0.01052607037127018
0.026294691488146782,0.005529181100428104,-0.017923086881637573,0.013421637937426567,-0.000632573151960969,-0.010162628255784512
0.026437805965542793,0.005139518994837999,-0.017818661406636238,0.01364872045814991,-0.0006139033357612789,-0.010590425692498684
0.02762819267809391,0.004923137836158276,-0.017192907631397247,0.013746856711804867,-0.0006364613655023277,-0.010240201838314533
0.02761048637330532,0.005198084283620119,-0.017832482233643532,0.013160830363631248,-0.0006907701608724892,-0.010507196187973022
0.02657654695212841,0.005555410403758287,-0.017628151923418045,0.013765444047749043,-0.0006848283228464425,-0.010354400612413883
0.028450816869735718,0.0055739982053637505,-0.01801147684454918,0.013241291046142578,-0.000687098887283355,-0.009992578998208046
0.027875220403075218,0.005036807153373957,-0.018050266429781914,0.013488491997122765,-0.0006333459168672562,-0.010382812470197678
0.027324697002768517,0.004741921089589596,-0.017421528697013855,0.012844977900385857,-0.0006498042494058609,-0.010698344558477402
0.02752186544239521,0.004980712663382292,-0.017936592921614647,0.013447475619614124,-0.0005991034558974206,-0.010801312513649464
0.028020277619361877,0.005343499127775431,-0.0178372785449028,0.013763957656919956,-0.0006151289562694728,-0.011138725094497204
0.027928942814469337,0.005703131668269634,-0.017645936459302902,0.01410012785345316,-0.0005751728895120323,-0.011179827153682709
0.02758724056184292,0.005460933782160282,-0.018086591735482216,0.01457658689469099,-0.0005331524298526347,-0.010607113130390644
0.02758724056184292,0.005460933782160282,-0.018086591735482216,0.01457658689469099,-0.0005331524298526347,-0.010607113130390644
0.027664076536893845,0.00508059561252594,-0.017259813845157623,0.014779767021536827,-0.0004938426427543163,-0.010712395422160625
0.028099527582526207,0.005466035567224026,-0.017598552629351616,0.014344983734190464,-0.00044640066334977746,-0.01086405012756586
0.028281884267926216,0.005304932128638029,-0.017974164336919785,0.01469110231846571,-0.0004061624931637198,-0.011088388971984386
0.027757877483963966,0.005920428317040205,-0.017262857407331467,0.014255981892347336,-0.00044170834007672966,-0.011012054048478603
0.02782934531569481,0.0052924263291060925,-0.017576903104782104,0.014729532413184643,-0.00044579929090104997,-0.010371680371463299
0.027892062440514565,0.004613758530467749,-0.01758451946079731,0.014432845637202263,-0.0004450460837688297,-0.010694805532693863
0.02895445190370083,0.004539524670690298,-0.018077511340379715,0.0143844960257411,-0.00041754983249120414,-0.01101731974631548
0.02929718606173992,0.004761384800076485,-0.019089989364147186,0.013980736956000328,-0.00044376871665008366,-0.010974924080073833
0.028060173615813255,0.004820187576115131,-0.017913268879055977,0.014616015367209911,-0.00042120247962884605,-0.010947933420538902
0.027465349063277245,0.004916301928460598,-0.018084978684782982,0.01422333437949419,-0.00044763501500710845,-0.010683625936508179
0.028592312708497047,0.004733557812869549,-0.01787065900862217,0.014612594619393349,-0.00046460560406558216,-0.010793647728860378
0.028277868404984474,0.004418188706040382,-0.018570899963378906,0.01424070168286562,-0.0004904066445305943,-0.010638969019055367
0.029096420854330063,0.004695532843470573,-0.018274271860718727,0.013904504477977753,-0.00046291534090414643,-0.01051323115825653
0.029464485123753548,0.0048055099323391914,-0.018776940181851387,0.014316660352051258,-0.0004890903946943581,-0.011069552972912788
0.02947288751602173,0.00435666274279356,-0.018554389476776123,0.014403312467038631,-0.0006403116276487708,-0.010858472436666489
0.028417127206921577,0.00451951939612627,-0.017720501869916916,0.014392009936273098,-0.0007196418591775,-0.010863943956792355
0.028262648731470108,0.004525349475443363,-0.018733235076069832,0.014265334233641624,-0.0006510725361295044,-0.010981346480548382
0.029610423371195793,0.004154317546635866,-0.018928145989775658,0.014113257639110088,-0.000671895279083401,-0.011191219091415405
0.029461592435836792,0.00435673026368022,-0.018731972202658653,0.013690543361008167,-0.0006546308868564665,-0.0113470908254385
0.029114538803696632,0.0046672518365085125,-0.018936045467853546,0.01384288351982832,-0.0006353081553243101,-0.011473117396235466
0.028761249035596848,0.004447856917977333,-0.018880043178796768,0.013746341690421104,-0.0006921026506461203,-0.011366317979991436
0.028761249035596848,0.004447856917977333,-0.018880043178796768,0.013746341690421104,-0.0006921026506461203,-0.011366317979991436
0.029241066426038742,0.004705287050455809,-0.019228653982281685,0.013900533318519592,-0.0006474163383245468,-0.011698547750711441
0.029241066426038742,0.004705287050455809,-0.019228653982281685,0.013900533318519592,-0.0006474163383245468,-0.011698547750711441
0.029657794162631035,0.00463003758341074,-0.018132364377379417,0.013967438600957394,-0.0007175033097155392,-0.011707532219588757
0.029417822137475014,0.004534137900918722,-0.01798730343580246,0.014541855081915855,-0.0006960032624192536,-0.011347232386469841
0.029633894562721252,0.0045722471550107,-0.019525988027453423,0.014674120582640171,-0.0007812690455466509,-0.011274166405200958
0.029977601021528244,0.004245402291417122,-0.01887313649058342,0.015024666674435139,-0.0007524830289185047,-0.01150540355592966
0.030042672529816628,0.004275206476449966,-0.018536994233727455,0.01493502501398325,-0.0007120898808352649,-0.011759660206735134
0.02961086481809616,0.004094619769603014,-0.019075652584433556,0.015273626893758774,-0.0007300847792066634,-0.01202484406530857
0.0299718976020813,0.004813338629901409,-0.01831093616783619,0.015455277636647224,-0.0007412543054670095,-0.011829963885247707
0.03018110804259777,0.005047528073191643,-0.01843537576496601,0.015349535271525383,-0.0007335756672546268,-0.011818897910416126
0.030080825090408325,0.004451836459338665,-0.01876857690513134,0.014816763810813427,-0.0006779986433684826,-0.011971556581556797
0.030152453109622,0.004374971147626638,-0.018343333154916763,0.014496314339339733,-0.0006782730924896896,-0.01172325387597084
0.030300654470920563,0.004542435519397259,-0.019405314698815346,0.014887362718582153,-0.0006493290420621634,-0.011909629218280315
0.030234044417738914,0.0048675620928406715,-0.0184489693492651,0.01519203931093216,-0.0005938458489254117,-0.011960657313466072
0.031035246327519417,0.004837461747229099,-0.01911037042737007,0.014785979874432087,-0.0006150125409476459,-0.012013383209705353
0.03079822286963463,0.004766453988850117,-0.01891573891043663,0.015081268735229969,-0.0005709336837753654,-0.01228390447795391
0.030542585998773575,0.004696434363722801,-0.01820671744644642,0.015079581178724766,-0.0005502084386534989,-0.012034651823341846
0.030436232686042786,0.004725457634776831,-0.01908058300614357,0.01538741122931242,-0.0005427366122603416,-0.011919323354959488
0.030316926538944244,0.004388467874377966,-0.01924421451985836,0.014697534032166004,-0.0005322436336427927,-0.012084264308214188
0.030542856082320213,0.004409159533679485,-0.018818490207195282,0.014866068959236145,-0.0005464924615807831,-0.011439457535743713
0.030867010354995728,0.0046310825273394585,-0.01925141178071499,0.014681749977171421,-0.000519922177772969,-0.011843735352158546
0.031077483668923378,0.004603877663612366,-0.01917354203760624,0.015564513392746449,-0.0005318865296430886,-0.01243166159838438
0.031246617436408997,0.004652844741940498,-0.018483715131878853,0.015014417469501495,-0.0005099611007608473,-0.011774071492254734
0.03133517503738403,0.004384448751807213,-0.01888558268547058,0.014957142062485218,-0.0005609524087049067,-0.011850479990243912
0.03137875720858574,0.004353448748588562,-0.01900831237435341,0.014529956504702568,-0.0005756806349381804,-0.01208900660276413
0.030910605564713478,0.004170144442468882,-0.01903681270778179,0.014888142235577106,-0.0005627701175399125,-0.01229386031627655
0.030910605564713478,0.004170144442468882,-0.01903681270778179,0.014888142235577106,-0.0005627701175399125,-0.01229386031627655
0.03135792165994644,0.004385257605463266,-0.0193710308521986,0.014898908324539661,-0.0005859603406861424,-0.012314805760979652
0.03215504810214043,0.004615454934537411,-0.01903565786778927,0.015217714942991734,-0.0005453863996081054,-0.012395492754876614
0.03171035647392273,0.004621597938239574,-0.018619472160935402,0.014793690294027328,-0.0005644403281621635,-0.012569352053105831
0.030488183721899986,0.0042516193352639675,-0.018881866708397865,0.014896776527166367,-0.0005312457797117531,-0.012483634985983372
0.030520427972078323,0.003976763691753149,-0.019101914018392563,0.014812832698225975,-0.0005882958648726344,-0.012510282918810844
0.03151075169444084,0.004191992338746786,-0.018952734768390656,0.015040957368910313,-0.0006120243924669921,-0.012440991587936878
0.031407445669174194,0.004658885765820742,-0.019340937957167625,0.016029566526412964,-0.0005719975451938808,-0.012570728547871113
0.03225747495889664,0.00476097222417593,-0.019395550712943077,0.01596827618777752,-0.0005186255439184606,-0.012681068852543831
0.032707855105400085,0.004688397981226444,-0.019179517403244972,0.01605539582669735,-0.0005411914899013937,-0.012492215260863304
0.0319807305932045,0.004358248319476843,-0.019650546833872795,0.015331339091062546,-0.0005068680038675666,-0.012728785164654255
0.030876165255904198,0.004048091359436512,-0.01893574371933937,0.01523619145154953,-0.000518945453222841,-0.013121130876243114
0.0312790721654892,0.004108309745788574,-0.019308993592858315,0.014614219777286053,-0.0004983690450899303,-0.01375703327357769
0.03237748518586159,0.004115714691579342,-0.01919500343501568,0.015263371169567108,-0.0004895509337075055,-0.013201216235756874
0.03193749487400055,0.004156878218054771,-0.019403254613280296,0.0160535778850317,-0.0004830268444493413,-0.013221132569015026
0.03229431062936783,0.004402190912514925,-0.019830895587801933,0.015938596799969673,-0.00046091180411167443,-0.013428785838186741
0.032102324068546295,0.0043324800208210945,-0.01963801681995392,0.016084982082247734,-0.00048702818457968533,-0.012841186486184597
0.032045334577560425,0.004550412762910128,-0.018732300028204918,0.016478054225444794,-0.0004917849437333643,-0.01276765950024128
0.03240069001913071,0.004232504405081272,-0.019215300679206848,0.016784602776169777,-0.0004881818895228207,-0.012969395145773888
0.03230367228388786,0.004141177982091904,-0.01927824132144451,0.01649775169789791,-0.0005816823686473072,-0.013309521600604057
0.031938664615154266,0.0041252863593399525,-0.019619788974523544,0.015645485371351242,-0.0005524710286408663,-0.01334915030747652
0.03181837126612663,0.004512854851782322,-0.019457118585705757,0.015332859009504318,-0.0004944553365930915,-0.012906957417726517
0.032028187066316605,0.004718627780675888,-0.019640620797872543,0.01461460068821907,-0.0005282604834064841,-0.013273836113512516
0.03213665261864662,0.004374454729259014,-0.019496748223900795,0.01563914120197296,-0.0005454551428556442,-0.013351759873330593
0.033128440380096436,0.004020399879664183,-0.019682638347148895,0.014828336425125599,-0.0005191796808503568,-0.013472003862261772
0.033131182193756104,0.004388732369989157,-0.01952211558818817,0.01564306579530239,-0.0005445911665447056,-0.013375233858823776
0.03201638534665108,0.004431431647390127,-0.019411081448197365,0.015611485578119755,-0.0005105733871459961,-0.01334013044834137
0.0317678265273571,0.00424655107781291,-0.020197506994009018,0.016153380274772644,-0.0005305989761836827,-0.013032319955527782
0.03246372938156128,0.004349317401647568,-0.020327391102910042,0.016247238963842392,-0.0005254031857475638,-0.013417167589068413
0.03246372938156128,0.004349317401647568,-0.020327391102910042,0.016247238963842392,-0.0005254031857475638,-0.013417167589068413
0.031748756766319275,0.004511753097176552,-0.01991473138332367,0.01629098504781723,-0.0005168525967746973,-0.013271178118884563
0.0322815403342247,0.0043160379864275455,-0.019739259034395218,0.01607886329293251,-0.0005320970667526126,-0.013424637727439404
0.033294327557086945,0.004446930252015591,-0.01972951553761959,0.01571575179696083,-0.0005424869596026838,-0.0132607351988554
0.032699234783649445,0.004155966453254223,-0.0197636429220438,0.015854276716709137,-0.0005353735177777708,-0.01317965891212225
0.031436264514923096,0.0042325472459197044,-0.01969805173575878,0.015368722379207611,-0.0006385283195413649,-0.013482301495969296
0.0316770076751709,0.004597107879817486,-0.020223872736096382,0.015751603990793228,-0.0006636207108385861,-0.013674297370016575
0.033295027911663055,0.0043094870634377,-0.01999240554869175,0.015651686117053032,-0.0006901676533743739,-0.013795646838843822
0.032873667776584625,0.004508170299232006,-0.019333628937602043,0.015821203589439392,-0.0006886858609504998,-0.013575756922364235
0.032739583402872086,0.004610548727214336,-0.01985742151737213,0.01580873318016529,-0.0006666702101938426,-0.014012603089213371
0.03252154588699341,0.00415256479755044,-0.020060496404767036,0.015995677560567856,-0.0007982786046341062,-0.013596022501587868
0.0326264351606369,0.004207102581858635,-0.01952292211353779,0.016070950776338577,-0.0008198422729037702,-0.013434577733278275
0.03310791775584221,0.004157196264714003,-0.020084520801901817,0.015773076564073563,-0.0008069980540312827,-0.013274258933961391
0.03368198499083519,0.004610783886164427,-0.019467825070023537,0.015676282346248627,-0.0007445872761309147,-0.013350182212889194
0.03305909037590027,0.004754095338284969,-0.019668055698275566,0.015922721475362778,-0.0006848438060842454,-0.013194707222282887
0.033125996589660645,0.004454915411770344,-0.019888684153556824,0.015361199155449867,-0.0006443182355724275,-0.012995835393667221
0.033250682055950165,0.004058028105646372,-0.019680747762322426,0.015642434358596802,-0.000665163213852793,-0.013321885839104652
0.0339994840323925,0.003956448752433062,-0.0198326725512743,0.015064808540046215,-0.0007047159015201032,-0.01357007771730423
0.034327324479818344,0.0047941566444933414,-0.020132919773459435,0.015301795676350594,-0.0007256371318362653,-0.01260545663535595
0.03386126831173897,0.004497139248996973,-0.019754955545067787,0.015497715212404728,-0.0008445533458143473,-0.01443265937268734
0.03401709720492363,0.004569965414702892,-0.019490666687488556,0.016723698005080223,-0.0009318339289166033,-0.014084205031394958
0.03457694500684738,0.004152405541390181,-0.0196817796677351,0.017031142488121986,-0.0008634476107545197,-0.014115549623966217
0.03428112342953682,0.004107203800231218,-0.019441086798906326,0.016513800248503685,-0.000864140223711729,-0.014292610809206963
0.03429821878671646,0.004069197457283735,-0.01957039162516594,0.017176901921629906,-0.0008464488200843334,-0.013848989270627499
0.03445235267281532,0.004819613415747881,-0.02028454840183258,0.016746576875448227,-0.000779558380600065,-0.013351446017622948
0.034478116780519485,0.004504837561398745,-0.02030952461063862,0.016906756907701492,-0.0007168734446167946,-0.013951955363154411
0.03483166545629501,0.004552856087684631,-0.01942966692149639,0.016923487186431885,-0.0006313964258879423,-0.014375549741089344
0.03449457511305809,0.004425093065947294,-0.019668318331241608,0.01667061448097229,-0.0006351129850372672,-0.01471277978271246
0.03537791967391968,0.004379859659820795,-0.020106643438339233,0.017269976437091827,-0.0006376795354299247,-0.014185074716806412
0.03530915454030037,0.004441563505679369,-0.019268233329057693,0.016864482313394547,-0.000619102967903018,-0.014107850380241871
0.03530915454030037,0.004441563505679369,-0.019268233329057693,0.016864482313394547,-0.000619102967903018,-0.014107850380241871
0.03511032089591026,0.004490904975682497,-0.020025528967380524,0.01697184517979622,-0.0006414196104742587,-0.014308820478618145
0.03538363799452782,0.004296053200960159,-0.01999087445437908,0.01672445982694626,-0.0006859846180304885,-0.014635138213634491
0.03569527715444565,0.004482646007090807,-0.019261490553617477,0.016801957041025162,-0.0007155562052503228,-0.0144643634557724
0.035625629127025604,0.004512390121817589,-0.019873719662427902,0.017165446653962135,-0.0007382051553577185,-0.014777226373553276
0.03537821024656296,0.004800955764949322,-0.020290417596697807,0.01694425195455551,-0.000731440435629338,-0.014497396536171436
0.036399271339178085,0.004725225269794464,-0.020593861117959023,0.016780667006969452,-0.0007038706098683178,-0.014501082710921764
0.03650306165218353,0.004676701035350561,-0.020139673724770546,0.01653016172349453,-0.0007244682055898011,-0.014413658529520035
0.035218529403209686,0.0044208914041519165,-0.02048902027308941,0.016851723194122314,-0.0007920337375253439,-0.014575500041246414
0.03463392332196236,0.004536828026175499,-0.020532341673970222,0.017055293545126915,-0.0007792323012836277,-0.01418794970959425
0.03616049140691757,0.004569621756672859,-0.019300032407045364,0.016945231705904007,-0.0007408261299133301,-0.014559943228960037
0.03572255000472069,0.004611237905919552,-0.01974054053425789,0.01733391545712948,-0.0007477247854694724,-0.014714553020894527
0.03645214065909386,0.004734202288091183,-0.020638739690184593,0.01713598147034645,-0.000687563035171479,-0.01497464720159769
0.03594512864947319,0.004650113172829151,-0.019776474684476852,0.017269186675548553,-0.0007137664943002164,-0.014920158311724663
0.035304054617881775,0.004658851772546768,-0.020588170737028122,0.017307421192526817,-0.0007360768504440784,-0.01483784057199955
0.037048034369945526,0.004768063314259052,-0.020332971587777138,0.01872742734849453,-0.0007666083984076977,-0.014955811202526093
0.03657197579741478,0.0044562737457454205,-0.02058139629662037,0.01886533945798874,-0.0008574544917792082,-0.014916927553713322
0.036380182951688766,0.0045713032595813274,-0.020389633253216743,0.018403876572847366,-0.0009251672890968621,-0.01495838537812233
0.036224525421857834,0.0049513885751366615,-0.02049288898706436,0.018128234893083572,-0.0008572103688493371,-0.014850800856947899
0.03622064366936684,0.004461095668375492,-0.019360743463039398,0.01731279492378235,-0.0008031032630242407,-0.015037273056805134
0.036472391337156296,0.004519213922321796,-0.019846968352794647,0.01739937625825405,-0.0007587875006720424,-0.015217411331832409
0.03665316104888916,0.004537536762654781,-0.020065419375896454,0.016952205449342728,-0.0007637309608981013,-0.015130890533328056
0.036320216953754425,0.004331876523792744,-0.019893985241651535,0.016817361116409302,-0.0007025208324193954,-0.01541225053369999
0.03596827760338783,0.0043623181991279125,-0.02061677724123001,0.017017798498272896,-0.0006946134963072836,-0.015088735148310661
0.036238893866539,0.005006434861570597,-0.020568355917930603,0.016250237822532654,-0.0007178118103183806,-0.015164817683398724
0.03825022280216217,0.0045850519090890884,-0.020112577825784683,0.01707560010254383,-0.0007625873549841344,-0.01525585912168026
0.036311425268650055,0.004387380555272102,-0.020032614469528198,0.017408495768904686,-0.0009194807498715818,-0.015412431210279465
0.036311425268650055,0.004387380555272102,-0.020032614469528198,0.017408495768904686,-0.0009194807498715818,-0.015412431210279465
0.0355108343064785,0.004691167268902063,-0.020547116175293922,0.018508674576878548,-0.0010617781663313508,-0.015169044956564903
0.036944128572940826,0.004843766335397959,-0.02042517066001892,0.018826918676495552,-0.0010437617311254144,-0.015219077467918396
0.036807477474212646,0.004843841772526503,-0.02052752859890461,0.017776552587747574,-0.0009270210866816342,-0.015204143710434437
0.03739495947957039,0.005140400025993586,-0.021170778200030327,0.01757565326988697,-0.0009170382400043309,-0.015220637433230877
0.037437599152326584,0.004839519504457712,-0.020988337695598602,0.016677316278219223,-0.0008600120199844241,-0.015210935845971107
0.036657173186540604,0.004677352961152792,-0.020844716578722,0.016554879024624825,-0.0008655901765450835,-0.015428515151143074
0.03609129413962364,0.0046380977146327496,-0.020643610507249832,0.017461543902754784,-0.0009395838715136051,-0.015679579228162766
0.03741145879030228,0.0052157072350382805,-0.021196730434894562,0.017610061913728714,-0.000898511556442827,-0.015592816285789013
0.037299878895282745,0.0051094056107103825,-0.021250242367386818,0.01872209832072258,-0.0010955305770039558,-0.015349948778748512
0.03686240687966347,0.004778835456818342,-0.021027956157922745,0.01743405871093273,-0.0009943090844899416,-0.015291841700673103
0.037011608481407166,0.004224207252264023,-0.02109474316239357,0.017212038859725,-0.0009466949850320816,-0.015542828477919102
0.03705746307969093,0.0038090755697339773,-0.02153894677758217,0.01753225177526474,-0.0009078672737814486,-0.0157938152551651
0.036891136318445206,0.004318687599152327,-0.02131243422627449,0.017143957316875458,-0.000872735632583499,-0.01500928495079279
0.03735096752643585,0.004720921162515879,-0.020789368078112602,0.017643684521317482,-0.0008822037489153445,-0.015233260579407215
0.03724918141961098,0.004473133943974972,-0.02122279442846775,0.017792832106351852,-0.0008681791368871927,-0.015637222677469254
0.03715059161186218,0.004028368275612593,-0.021481839939951897,0.01749887689948082,-0.0007889189873822033,-0.015536785125732422
0.03761839494109154,0.0042812698520720005,-0.0207934882491827,0.017521066591143608,-0.0007215952500700951,-0.015589450486004353
0.0375947467982769,0.003969348035752773,-0.021396219730377197,0.01753119006752968,-0.0007027298561297357,-0.016022710129618645
0.03733224794268608,0.003981017041951418,-0.021108709275722504,0.01767968013882637,-0.0006855659885331988,-0.015931839123368263
0.037683285772800446,0.0039894552901387215,-0.021213937550783157,0.01746276021003723,-0.0006562942289747298,-0.016100749373435974
0.037639569491147995,0.003990230616182089,-0.021038319915533066,0.017781758680939674,-0.0006791527266614139,-0.016320735216140747
0.037281908094882965,0.004289157688617706,-0.02156878262758255,0.017620442435145378,-0.0007005938678048551,-0.016166064888238907
0.037607334554195404,0.004509512335062027,-0.02153315581381321,0.017511863261461258,-0.0008171714143827558,-0.016394732519984245
