davideferrari95/blind_handover_controller/data/Test 279 - [2024-02-08 -- 13-52-47]/joint_states_data.csv
shoulder_pan_joint,shoulder_lift_joint,elbow_joint,wrist_1_joint,wrist_2_joint,wrist_3_joint
0.004896977916359901,0.005479970946907997,-0.011802623979747295,0.0074896439909935,0.0003087855875492096,0.00474040862172842
0.004509939346462488,0.005357351154088974,-0.011474347673356533,0.007010139059275389,0.0003311650943942368,0.004844210110604763
0.004509939346462488,0.005357351154088974,-0.011474347673356533,0.007010139059275389,0.0003311650943942368,0.004844210110604763
0.004484915640205145,0.005285878200083971,-0.011240783147513866,0.0063638510182499886,0.00032140122493728995,0.004815158899873495
0.004484915640205145,0.005285878200083971,-0.011240783147513866,0.0063638510182499886,0.00032140122493728995,0.004815158899873495
0.004627233371138573,0.004574718419462442,-0.0108342869207263,0.0063659814186394215,0.00033980992157012224,0.004054039251059294
0.004584634210914373,0.00491339573636651,-0.011482387781143188,0.006532465107738972,0.0003553465649019927,0.00431901914998889
0.0046718246303498745,0.0049432991072535515,-0.011018182151019573,0.0066772946156561375,0.0003319012466818094,0.004950182978063822
0.004700751043856144,0.005162076558917761,-0.011720904149115086,0.006550468970090151,0.00030925971805118024,0.005009278655052185
0.004086929373443127,0.0049824281595647335,-0.011381713673472404,0.006329305004328489,0.000289371469989419,0.004799841903150082
0.004425899591296911,0.004734130576252937,-0.010753038339316845,0.006975410971790552,0.00032247690251097083,0.004662336781620979
0.004765037912875414,0.004601142834872007,-0.011173359118402004,0.006713534239679575,0.00030741316732019186,0.004207601770758629
0.0048086573369801044,0.004567003343254328,-0.011322329752147198,0.006609790027141571,0.0002910535840783268,0.004416953772306442
0.0045674932189285755,0.004543282091617584,-0.010819234885275364,0.006572593469172716,0.0002761774812825024,0.004154776223003864
0.004105021245777607,0.005042827222496271,-0.011677036993205547,0.006606804206967354,0.00030352023895829916,0.0038605567533522844
0.004490211606025696,0.004888513125479221,-0.010791735723614693,0.006468302104622126,0.00029210373759269714,0.004240537993609905
0.004113422706723213,0.004509392194449902,-0.010559248737990856,0.006706591229885817,0.0002793236926663667,0.004156412091106176
0.003834150265902281,0.00441284803673625,-0.0111923823133111,0.006635281257331371,0.0002674735151231289,0.004380567464977503
0.004182351287454367,0.0046178121119737625,-0.010570156387984753,0.006490123923867941,0.00025657855439931154,0.004490487277507782
0.004354504868388176,0.00473890220746398,-0.010979421436786652,0.006358298938721418,0.0002465360448695719,0.004224775359034538
0.0042868549935519695,0.004738092888146639,-0.01071099378168583,0.00685928063467145,0.00023725030769128352,0.004428962245583534
0.003961255308240652,0.005374534986913204,-0.01078022364526987,0.0067652324214577675,0.00025280070258304477,0.0041390834376215935
0.0037290838081389666,0.005055468995124102,-0.012061798945069313,0.0067649828270077705,0.00025159408687613904,0.004336219746619463
0.0037290838081389666,0.005055468995124102,-0.012061798945069313,0.0067649828270077705,0.00025159408687613904,0.004336219746619463
0.0038199524860829115,0.004856511950492859,-0.010943124070763588,0.006473175249993801,0.00023563958529848605,0.004731460474431515
0.0038752001710236073,0.00472552515566349,-0.011174322105944157,0.006770814768970013,0.00022817331773694605,0.004339140374213457
0.004364182706922293,0.004723168443888426,-0.010880020447075367,0.006614222191274166,0.00022116412583272904,0.004394489340484142
0.0037681525573134422,0.0056744045577943325,-0.011875588446855545,0.006111506372690201,0.00021457237016875297,0.004599466919898987
0.0037681525573134422,0.0056744045577943325,-0.011875588446855545,0.006111506372690201,0.00021457237016875297,0.004599466919898987
0.0034504367504268885,0.005343335680663586,-0.011194150894880295,0.006053421646356583,0.00020836257317569107,0.004380733240395784
0.004207154735922813,0.004931612405925989,-0.010902931913733482,0.0066207051277160645,0.0001719006831990555,0.004863646812736988
0.004207154735922813,0.004931612405925989,-0.010902931913733482,0.0066207051277160645,0.0001719006831990555,0.004863646812736988
0.004479776602238417,0.004829777404665947,-0.011286413297057152,0.006356859114021063,0.00016551335284020752,0.004502606112509966
0.004193522036075592,0.004912029951810837,-0.011259743943810463,0.006373928394168615,0.00015963660553097725,0.00410927040502429
0.0039734384045004845,0.0051138694398105145,-0.010953053832054138,0.007079684641212225,0.0001541668752906844,0.004241672810167074
0.00427699089050293,0.004812642000615597,-0.011330741457641125,0.007073185406625271,0.00014905932766851038,0.004530793055891991
0.004206367768347263,0.004628337454050779,-0.010627759620547295,0.006675675977021456,0.00014427951828110963,0.0046426220797002316
0.0041700201109051704,0.005135589279234409,-0.011089266277849674,0.006281446665525436,0.00016405869973823428,0.00444703409448266
0.0041582235135138035,0.005018044263124466,-0.011810007505118847,0.006617846433073282,0.00016245990991592407,0.004447964020073414
0.004487795289605856,0.004936415236443281,-0.011837945319712162,0.007015477400273085,0.0001579263189341873,0.004126650281250477
0.004263744689524174,0.005455804988741875,-0.011575954034924507,0.007205250207334757,0.00015345256542786956,0.00425147358328104
0.004557157400995493,0.005248806905001402,-0.011175748892128468,0.006949284113943577,0.0001492130249971524,0.004505113232880831
0.0041882917284965515,0.004741447512060404,-0.010994014330208302,0.006395338568836451,0.00014520055265165865,0.004486457444727421
0.004437177442014217,0.004897809121757746,-0.011403919197618961,0.006708270404487848,0.00014139818085823208,0.004328653682023287
0.004118672106415033,0.005264907144010067,-0.01092520635575056,0.006796226836740971,0.00013778985885437578,0.004508474841713905
0.0039140512235462666,0.005302000790834427,-0.011712097562849522,0.006589324679225683,0.00014536382514052093,0.004245968535542488
0.004149473737925291,0.005337744485586882,-0.011645686812698841,0.005923181306570768,0.0001522053498774767,0.004268748220056295
0.004112323746085167,0.005006945226341486,-0.010779534466564655,0.006406019441783428,0.00014927527809049934,0.004155687056481838
0.004293729085475206,0.0047792126424610615,-0.012086997739970684,0.006732477806508541,0.00014586304314434528,0.004309426993131638
0.004375010263174772,0.0051443977281451225,-0.011282147839665413,0.007040232885628939,0.0001425650407327339,0.004522718023508787
0.004243037663400173,0.005032780580222607,-0.011241254396736622,0.006579522043466568,0.0001394103601342067,0.004661139566451311
0.003928287886083126,0.004945207852870226,-0.011117422953248024,0.006299672182649374,0.00015084308688528836,0.00471856351941824
0.003928287886083126,0.004945207852870226,-0.011117422953248024,0.006299672182649374,0.00015084308688528836,0.00471856351941824
0.00425762590020895,0.005127467215061188,-0.010644598864018917,0.006743670906871557,0.0001522446546005085,0.004537130240350962
0.004134459421038628,0.004977075848728418,-0.010436074808239937,0.006795492954552174,0.00014938604726921767,0.004153805319219828
0.00428111432120204,0.004743256606161594,-0.011162042617797852,0.006403720006346703,0.00014636835840065032,0.004396056290715933
0.004532982129603624,0.0047448379918932915,-0.0116423973813653,0.006189696956425905,0.00014345346426125616,0.004616929683834314
0.0042106229811906815,0.005210538394749165,-0.011507350951433182,0.0057578617706894875,0.0001406511728418991,0.004521705210208893
0.004377941135317087,0.005289065185934305,-0.011261792853474617,0.006589529570192099,0.0001557401119498536,0.004443490877747536
0.004377941135317087,0.005289065185934305,-0.011261792853474617,0.006589529570192099,0.0001557401119498536,0.004443490877747536
0.004246043972671032,0.004893960431218147,-0.010664806701242924,0.006046462804079056,0.00014602138253394514,0.0046889083459973335
0.004334051627665758,0.0052352105267345905,-0.011642186902463436,0.0062622386030852795,0.00014143333828542382,0.004766434896737337
0.004567430354654789,0.005038870964199305,-0.011143645271658897,0.006343201734125614,0.00016092268924694508,0.0051221647299826145
0.004538584966212511,0.005924878641963005,-0.011242689564824104,0.006035856902599335,0.0001594451896380633,0.004647113382816315
0.004314806777983904,0.005506731569766998,-0.01112846564501524,0.006289266049861908,0.00015507954230997711,0.004662406165152788
0.0045248763635754585,0.005048693623393774,-0.010744107887148857,0.006417716853320599,0.00015076340059749782,0.004475676920264959
0.00435213465243578,0.005077186040580273,-0.01143898069858551,0.006576439365744591,0.00014666937931906432,0.004128029569983482
0.00418541394174099,0.005027971230447292,-0.011128288693726063,0.006651469971984625,0.00014279077004175633,0.003916040528565645
0.004431563895195723,0.0057511599734425545,-0.01096448302268982,0.006532708182930946,0.00013911207497585565,0.004278834909200668
0.0046371957287192345,0.0054869214072823524,-0.011187784373760223,0.006307842675596476,0.0001523715618532151,0.004175783600658178
0.004345620516687632,0.005079440772533417,-0.010620137676596642,0.006079934537410736,0.00015396272647194564,0.004539495799690485
0.00441369554027915,0.005053734872490168,-0.011242630891501904,0.006521156989037991,0.00015062875172588974,0.004762227647006512
0.004359342623502016,0.005019570700824261,-0.011368339881300926,0.006730074994266033,0.0001471332216169685,0.004522992298007011
0.004498274065554142,0.0052175684832036495,-0.011017197743058205,0.006372876465320587,0.00015387441089842469,0.004250735975801945
0.004490505438297987,0.005342149641364813,-0.012165335938334465,0.0056004575453698635,0.00015996824367903173,0.004419863224029541
0.004612326622009277,0.005234552547335625,-0.011249768547713757,0.006283509079366922,0.0001570991735206917,0.004543387796729803
0.0047562927938997746,0.005250741261988878,-0.01123811025172472,0.0067678336054086685,0.00015378421812783927,0.004336209502071142
0.004630980547517538,0.005033124703913927,-0.01119017694145441,0.00661872886121273,0.0001505706022726372,0.004492861684411764
0.004920093342661858,0.00516487006098032,-0.010486855171620846,0.00607846025377512,0.00019283065921626985,0.004709314554929733
0.005082548130303621,0.004958141129463911,-0.011039866134524345,0.0060855792835354805,0.000199127898667939,0.004557289648801088
0.004507869947701693,0.0052575827576220036,-0.01088735368102789,0.006049735937267542,0.00019161727686878294,0.004495417233556509
0.004968294873833656,0.0054617044515907764,-0.010727410204708576,0.00650594849139452,0.00018385004659648985,0.0045605008490383625
0.004968294873833656,0.0054617044515907764,-0.010727410204708576,0.00650594849139452,0.00018385004659648985,0.0045605008490383625
0.005016472190618515,0.005430558696389198,-0.011105149984359741,0.006348355673253536,0.00017663637117948383,0.004464610479772091
0.004792635329067707,0.0054833535104990005,-0.010775451548397541,0.005768129136413336,0.00019943792722187936,0.004742688033729792
0.004694313742220402,0.005110804457217455,-0.010848693549633026,0.005903593264520168,0.00019623793195933104,0.0049238973297178745
0.004969350062310696,0.005755929742008448,-0.010476567782461643,0.006737379357218742,0.00018319506489206105,0.004559320863336325
0.004824327304959297,0.005417441949248314,-0.010975065641105175,0.006414499599486589,0.00017718432354740798,0.004621446132659912
0.005223097745329142,0.0050375438295304775,-0.011065766215324402,0.006054443307220936,0.000186791512533091,0.0048910449258983135
0.0056783342733979225,0.004954128991812468,-0.011324670165777206,0.0064674122259020805,0.0001877190952654928,0.005650403443723917
0.0056783342733979225,0.004954128991812468,-0.011324670165777206,0.0064674122259020805,0.0001877190952654928,0.005650403443723917
0.004648531321436167,0.005766944028437138,-0.010527857579290867,0.005999389104545116,0.00017757673049345613,0.004466180689632893
0.004648531321436167,0.005766944028437138,-0.010527857579290867,0.005999389104545116,0.00017757673049345613,0.004466180689632893
0.00480459351092577,0.005765541922301054,-0.010831816121935844,0.006046591326594353,0.00017271006072405726,0.004208635538816452
0.005371701437979937,0.0051250881515443325,-0.010692328214645386,0.00568632036447525,0.0001681014255154878,0.0043308185413479805
0.004963570274412632,0.005268589593470097,-0.011248525232076645,0.006058050785213709,0.00018106706556864083,0.004951272159814835
0.004894885700196028,0.005136445164680481,-0.011956796050071716,0.0062574478797614574,0.00018198721227236092,0.0049999915063381195
0.004799979273229837,0.005972970277070999,-0.011729646474123001,0.00617827707901597,0.00017785071395337582,0.004850722849369049
0.004748702514916658,0.005460403859615326,-0.011442290619015694,0.00613676430657506,0.00017358623153995723,0.004641989711672068
0.004677834454923868,0.0050568045116961,-0.01099957525730133,0.006324335001409054,0.00016950105782598257,0.004562222398817539
0.00479177525267005,0.0058473641984164715,-0.011262881569564342,0.006636341102421284,0.00016560232324991375,0.004590592812746763
0.0047555300407111645,0.005510716699063778,-0.01119198463857174,0.006725081242620945,0.00016187888104468584,0.004385259002447128
0.005010227207094431,0.005341269541531801,-0.011347769759595394,0.00594193022698164,0.000181215102202259,0.004469375591725111
0.0049767824821174145,0.005131760612130165,-0.011730628088116646,0.005579602438956499,0.00017750138067640364,0.004742471966892481
0.004765580873936415,0.005779807921499014,-0.01144141610711813,0.006309189833700657,0.00017098042008001357,0.005130447912961245
0.00491295475512743,0.0054000443778932095,-0.011414208449423313,0.00694752112030983,0.0001647348835831508,0.0048643178306519985
0.004929115064442158,0.005413033999502659,-0.01122615858912468,0.00632043881341815,0.00015891756629571319,0.004795524757355452
0.005229821428656578,0.005491784308105707,-0.010853808373212814,0.006011818535625935,0.00015349591558333486,0.004949268419295549
0.00511394627392292,0.005304771941155195,-0.011000563390552998,0.0060311066918075085,0.00014843234384898096,0.005366841331124306
0.004714783281087875,0.005257119424641132,-0.010972723364830017,0.006011344958096743,0.00014369221753440797,0.0051438589580357075
0.004884074907749891,0.00498236995190382,-0.010510699823498726,0.0063321515917778015,0.00016341221635229886,0.004806938581168652
0.004889024421572685,0.004970802925527096,-0.01126036699861288,0.006308469455689192,0.00016183819388970733,0.004581275396049023
0.004889024421572685,0.004970802925527096,-0.01126036699861288,0.006308469455689192,0.00016183819388970733,0.004581275396049023
0.005181251093745232,0.005620921961963177,-0.010959390550851822,0.005837276577949524,0.0001573397748870775,0.004551880992949009
0.005535432603210211,0.005427976604551077,-0.011088826693594456,0.005593170411884785,0.00015289858856704086,0.004776373039931059
0.005096827633678913,0.005700206384062767,-0.011604984290897846,0.005754704121500254,0.0001486890105297789,0.005044370424002409
0.004872535355389118,0.005252848844975233,-0.01080368459224701,0.006410378031432629,0.0001447044633096084,0.005366585683077574
0.0055545903742313385,0.00532140489667654,-0.01140616275370121,0.006469395011663437,0.00014092799392528832,0.005597933195531368
0.0053750318475067616,0.005169730167835951,-0.011336233466863632,0.006104315631091595,0.0001373431587126106,0.005055565852671862
0.005651251878589392,0.0050896755419671535,-0.011905483901500702,0.006491522770375013,0.00015173580322880298,0.004509184509515762
0.005053344182670116,0.004925059620290995,-0.01114142406731844,0.007184307090938091,0.00014882549294270575,0.0045904661528766155
0.00479881651699543,0.004717896692454815,-0.011311416514217854,0.006631690543144941,0.00014543370343744755,0.005002113990485668
0.005125098861753941,0.004575349856168032,-0.011174550279974937,0.0064337472431361675,0.00014215506962500513,0.0052064331248402596
0.005031747277826071,0.005100512411445379,-0.010456562973558903,0.006696520373225212,0.00013901798229198903,0.005222190637141466
0.005455727223306894,0.0049744597636163235,-0.011172235943377018,0.006740601733326912,0.0001360167225357145,0.004569762386381626
0.005432407837361097,0.005439852364361286,-0.011203751899302006,0.006892731878906488,0.000133142078993842,0.004539464600384235
0.005512423813343048,0.0052346121519804,-0.01125862542539835,0.006986137013882399,0.00013038648467045277,0.005045655183494091
0.005168835632503033,0.004762319847941399,-0.011586024425923824,0.007288292981684208,0.00012774266360793263,0.005427725147455931
0.005058509763330221,0.004880907014012337,-0.011221332475543022,0.007122468668967485,0.00012520382006186992,0.005225783679634333
0.0058457558043301105,0.0055004265159368515,-0.011567984707653522,0.006836780346930027,0.0001227638276759535,0.004983638413250446
0.005645493511110544,0.005068385973572731,-0.01179992314428091,0.006550411228090525,0.00012041752052027732,0.004826596938073635
0.005615433678030968,0.004759718663990498,-0.011466066353023052,0.006756955292075872,0.00011815902689704672,0.004897671286016703
0.005460103042423725,0.005087290890514851,-0.011403694748878479,0.006915041245520115,0.00012413818330969661,0.005063739139586687
0.005495807155966759,0.004850027151405811,-0.011262570507824421,0.007324965670704842,0.00012960704043507576,0.00547971623018384
0.005366600584238768,0.004873131401836872,-0.01147213764488697,0.006591503042727709,0.0001278094860026613,0.005273022223263979
0.005802218336611986,0.00480650132521987,-0.011593577452003956,0.006188672501593828,0.0001256125542568043,0.005218664184212685
0.005783590488135815,0.004991116467863321,-0.011481880210340023,0.00647773826494813,0.00012346068979240954,0.005232901778072119
0.005736008286476135,0.0049040960147976875,-0.011798272840678692,0.006562857422977686,0.0001213795185321942,0.005027512088418007
0.005166844464838505,0.005172206554561853,-0.011248381808400154,0.006149135529994965,0.00011936719238292426,0.005343108903616667
0.0052467030473053455,0.004957807715982199,-0.01147904060781002,0.005989628843963146,0.00011742050264729187,0.005197130609303713
0.005791275762021542,0.004337430000305176,-0.011558884754776955,0.0061089592054486275,0.0001155362551799044,0.005134196486324072
0.006046188995242119,0.004338798113167286,-0.011624802835285664,0.006275887135416269,0.00011371155414963141,0.004910680465400219
0.006046188995242119,0.004338798113167286,-0.011624802835285664,0.006275887135416269,0.00011371155414963141,0.004910680465400219
0.006190160289406776,0.005210903473198414,-0.01202222891151905,0.006499993149191141,0.00011194362014066428,0.00479517737403512
0.005539468489587307,0.005187946371734142,-0.011457775719463825,0.005996285006403923,0.00011022981925634667,0.00507849408313632
0.005481748376041651,0.005403229966759682,-0.012125331908464432,0.005634812638163567,0.00010856765584321693,0.005077571142464876
0.005580854136496782,0.005021559540182352,-0.012186347506940365,0.005421213805675507,0.00010695481614675373,0.005804766435176134
0.005756018683314323,0.00456100981682539,-0.011365463957190514,0.006231627892702818,0.00010386900248704478,0.0049907672218978405
0.005519242025911808,0.005140967201441526,-0.011121409945189953,0.00597729068249464,0.00010239183757221326,0.005183297675102949
0.00551315164193511,0.005204580724239349,-0.011654587462544441,0.006014564074575901,0.00010095623292727396,0.005117056891322136
0.0053238896653056145,0.005115727428346872,-0.012090143747627735,0.006308220326900482,9.956013673217967e-05,0.005006398074328899
0.005930417682975531,0.005139352288097143,-0.011728828772902489,0.006343354471027851,9.82023193500936e-05,0.005534789524972439
0.005573789123445749,0.004890667274594307,-0.011836130172014236,0.006617320701479912,9.688083810033277e-05,0.005436039064079523
0.005747409537434578,0.004549684002995491,-0.011523978784680367,0.0066013336181640625,9.559457976138219e-05,0.0053127543069422245
0.005437915213406086,0.00485980324447155,-0.011027385480701923,0.006469578482210636,9.43420673138462e-05,0.005099684931337833
0.005754604935646057,0.004851929843425751,-0.010620982386171818,0.0061667319387197495,9.312185284215957e-05,0.0052583408541977406
0.005902671720832586,0.0052787852473556995,-0.010496929287910461,0.006572438403964043,9.19328595045954e-05,0.005695636849850416
0.0058714598417282104,0.005054724868386984,-0.01079681795090437,0.006365974433720112,9.077384311240166e-05,0.005607472732663155
0.00596565380692482,0.00471837492659688,-0.011994943022727966,0.006092995870858431,8.209274528780952e-05,0.005467995535582304
0.005796079523861408,0.004625137895345688,-0.011253740638494492,0.0058672428131103516,7.830501272110268e-05,0.005105395335704088
0.005974933039397001,0.00456050643697381,-0.01115416083484888,0.006452145986258984,7.681425631744787e-05,0.004974703770130873
0.0066443681716918945,0.004798857495188713,-0.011608144268393517,0.007190114352852106,7.551514136139303e-05,0.00512323621660471
0.005895839538425207,0.005449717398732901,-0.011606891639530659,0.006981103215366602,7.426822412526235e-05,0.005029688589274883
0.0064937095157802105,0.0055740829557180405,-0.01109914481639862,0.006247140001505613,7.306235784199089e-05,0.005363012198358774
0.005848494358360767,0.005103232804685831,-0.01080318633466959,0.005974485073238611,7.18950032023713e-05,0.005196600686758757
0.005848494358360767,0.005103232804685831,-0.01080318633466959,0.005974485073238611,7.18950032023713e-05,0.005196600686758757
0.005851789843291044,0.004816670902073383,-0.01121276430785656,0.007002802565693855,7.076447218423709e-05,0.0051710098050534725
0.006632245611399412,0.0047057378105819225,-0.010377617552876472,0.006669209338724613,6.966887303860858e-05,0.005236024968326092
0.00627631600946188,0.005064317025244236,-0.011164536699652672,0.006432169582694769,6.860665598651394e-05,0.004998608026653528
0.0063650961965322495,0.005134615581482649,-0.011332306079566479,0.006239848677068949,6.75766495987773e-05,0.005408620927482843
0.005727419629693031,0.005354871042072773,-0.011144698597490788,0.006077849771827459,6.657666381215677e-05,0.005372003652155399
0.005919778719544411,0.005039795767515898,-0.011500611901283264,0.006366878282278776,6.560600741067901e-05,0.005851367954164743
0.005977389868348837,0.004683666862547398,-0.010887380689382553,0.006599463056772947,6.374730583047494e-05,0.00584403146058321
0.006301727145910263,0.004701118916273117,-0.01140064187347889,0.006623583380132914,6.285685230977833e-05,0.005593573674559593
0.0061223446391522884,0.005360172130167484,-0.010773511603474617,0.006579575128853321,6.199097697390243e-05,0.005799358244985342
0.0061090607196092606,0.00554317981004715,-0.01084910985082388,0.006439133547246456,6.114863936090842e-05,0.005330194253474474
0.006335072685033083,0.005117145366966724,-0.011252856813371181,0.006237357389181852,6.0328817198751494e-05,0.005655643995851278
0.0064630648121237755,0.004789663478732109,-0.010861916467547417,0.006174623500555754,5.953074651188217e-05,0.005419494118541479
0.006550788879394531,0.004647932481020689,-0.011482464149594307,0.006139490287750959,5.8753481425810605e-05,0.005943597760051489
0.006173108704388142,0.004742917604744434,-0.01141328178346157,0.006540385074913502,5.799645441584289e-05,0.005604622419923544
0.006297182757407427,0.005269685760140419,-0.011987435631453991,0.006662752479314804,5.7258355809608474e-05,0.00538907665759325
0.00646710442379117,0.0052470057271420956,-0.01118831429630518,0.006511686835438013,5.6539061915827915e-05,0.005455741658806801
0.006447560153901577,0.005201576743274927,-0.010953386314213276,0.006359068676829338,5.583739766734652e-05,0.005438593216240406
0.0062926653772592545,0.00446509663015604,-0.011589029803872108,0.0059722792357206345,5.5153024732135236e-05,0.0056848726235330105
0.00660292524844408,0.0044949972070753574,-0.011239780113101006,0.006689010187983513,5.448529191198759e-05,0.0059334393590688705
0.00668727932497859,0.004489146638661623,-0.011211713775992393,0.007005889900028706,5.38334425073117e-05,0.005783312954008579
0.006509632803499699,0.004649539943784475,-0.011422228068113327,0.00671068299561739,5.319708725437522e-05,0.005528911482542753
0.006594429723918438,0.005377740133553743,-0.01120744924992323,0.006184716243296862,5.2575709560187533e-05,0.005726750008761883
0.006593907251954079,0.005015163216739893,-0.0115261385217309,0.006583922076970339,5.196842539589852e-05,0.006610610522329807
0.006863797083497047,0.004718745592981577,-0.011731298640370369,0.007132787723094225,5.1375092880334705e-05,0.005689873360097408
0.006547898519784212,0.0046590035781264305,-0.010489853098988533,0.006825970020145178,5.0795173592632636e-05,0.005221241619437933
0.0071478309109807014,0.004882275592535734,-0.01180961262434721,0.006031050346791744,5.0228329200763255e-05,0.004965444561094046
0.006541346665471792,0.004696933552622795,-0.011103145778179169,0.005866267252713442,4.967381391907111e-05,0.005700444336980581
0.006549445912241936,0.004866729956120253,-0.011449884623289108,0.00665395800024271,3.2433449632662814e-06,0.005625541787594557
0.007055340334773064,0.005171111319214106,-0.01139113213866949,0.006871015764772892,2.1176724374072364e-07,0.0062270378693938255
0.006644503679126501,0.0046045007184147835,-0.010810432024300098,0.006348516792058945,1.3826888078938282e-08,0.006074296310544014
0.0062280939891934395,0.004531593527644873,-0.011155683547258377,0.0058999862521886826,9.027969483099696e-10,0.005737619940191507
0.0062280939891934395,0.004531593527644873,-0.011155683547258377,0.0058999862521886826,9.027969483099696e-10,0.005737619940191507
0.00641179084777832,0.0049249776639044285,-0.010655397549271584,0.006002145819365978,5.894618820834197e-11,0.0059972964227199554
0.006917752791196108,0.004791883751749992,-0.010623542591929436,0.006525717210024595,3.848764622976786e-12,0.005595317110419273
0.006917065940797329,0.004454280249774456,-0.011314990930259228,0.0065863654017448425,2.512968403246135e-13,0.005903358571231365
0.006481402087956667,0.004919875878840685,-0.011016999371349812,0.0057657817378640175,1.0713178484457009e-15,0.006149807013571262
0.006481402087956667,0.004919875878840685,-0.011016999371349812,0.0057657817378640175,1.0713178484457009e-15,0.006149807013571262
0.006995828822255135,0.0043991985730826855,-0.010721688158810139,0.006906089838594198,4.567196274921206e-18,0.005583407822996378
0.006903038360178471,0.004394020419567823,-0.011246404610574245,0.007100492250174284,2.9820530581844933e-19,0.006045754533261061
0.0068519338965415955,0.004942791070789099,-0.010741233825683594,0.006504922639578581,1.9470676474697538e-20,0.006213651970028877
0.006339838728308678,0.005028632469475269,-0.01080898754298687,0.006457291543483734,1.2712961250598965e-21,0.006150287110358477
0.006673438008874655,0.004740293603390455,-0.011178984306752682,0.006953732576221228,8.300655715467295e-23,0.00595094496384263
0.006905713118612766,0.004725180100649595,-0.011096789501607418,0.007425473537296057,5.419735531827979e-24,0.005916011054068804
0.007288508117198944,0.004767352249473333,-0.01151028461754322,0.0069742873311042786,3.5387001052911304e-25,0.006193367764353752
0.0063737910240888596,0.004864792339503765,-0.01205431204289198,0.007039897609502077,2.310518586833132e-26,0.0062639894895255566
0.006521268747746944,0.004802352283149958,-0.011686507612466812,0.006803483236581087,1.5086034588188712e-27,0.006234596483409405
0.007184885907918215,0.005152533762156963,-0.011632631532847881,0.006976611912250519,9.850101894873572e-29,0.0061329565942287445
0.006695610471069813,0.004935074131935835,-0.011029603891074657,0.006890104617923498,6.431413592783894e-30,0.00559244817122817
0.006891605444252491,0.004585035145282745,-0.011506770737469196,0.006548731587827206,4.199253264075242e-31,0.005917707458138466
0.00687928032130003,0.005098337773233652,-0.011590435169637203,0.006504666525870562,2.741812361428566e-32,0.006202091462910175
0.0068766651675105095,0.004898131359368563,-0.011083208955824375,0.007050640415400267,1.790207550312287e-33,0.0061284760013222694
0.006618974730372429,0.004721715115010738,-0.01233594212681055,0.006666108034551144,1.168877488529734e-34,0.006077636033296585
0.006618974730372429,0.004721715115010738,-0.01233594212681055,0.006666108034551144,1.168877488529734e-34,0.006077636033296585
0.0068325260654091835,0.004626660607755184,-0.011505497619509697,0.0063224476762115955,4.983108815902801e-37,0.006373027805238962
0.0068325260654091835,0.004626660607755184,-0.011505497619509697,0.0063224476762115955,4.983108815902801e-37,0.006373027805238962
0.006838677916675806,0.004957620520144701,-0.011405736207962036,0.007193565368652344,3.253614087962441e-38,0.006641407497227192
0.007934922352433205,0.004803690128028393,-0.010735227726399899,0.0068816617131233215,2.1243768797072086e-39,0.006707207765430212
0.00714268209412694,0.004472509957849979,-0.011689601466059685,0.00660337321460247,1.387061271927277e-40,0.006621468812227249
0.0066534834913909435,0.004456127528101206,-0.011239184997975826,0.006479551084339619,9.056591974931293e-42,0.006370829418301582
0.006807402707636356,0.004484172910451889,-0.011525061912834644,0.006611498072743416,5.913479519450728e-43,0.006547079421579838
0.007363153155893087,0.004594538826495409,-0.01185646839439869,0.007207992020994425,3.923635700109488e-44,0.006743832491338253
0.007215416524559259,0.00465383380651474,-0.011140218004584312,0.0074294875375926495,2.802596928649634e-45,0.00676149595528841
0.007236443925648928,0.0047743855975568295,-0.011683041229844093,0.006222627591341734,0.0,0.0066971685737371445
0.006821198854595423,0.005153539124876261,-0.011496231891214848,0.006535739172250032,0.0,0.006791961845010519
0.007251657545566559,0.004586144350469112,-0.011851041577756405,0.006820599548518658,0.0,0.006568241398781538
0.0070270514115691185,0.004546057432889938,-0.011119929142296314,0.006554321385920048,0.0,0.006891179364174604
0.007203072775155306,0.004481549374759197,-0.011845591478049755,0.00612559774890542,0.0,0.006727027241140604
0.007722258102148771,0.0045145535841584206,-0.012102333828806877,0.006431920919567347,0.0,0.006505033932626247
0.007791676092892885,0.004617684055119753,-0.012237625196576118,0.006674556527286768,0.0,0.006269000470638275
0.006873100530356169,0.0047068363055586815,-0.012408707290887833,0.0065466659143567085,0.0,0.0063890633173286915
0.006952282041311264,0.0049723475240170956,-0.01160262618213892,0.006321150343865156,0.0,0.006593730300664902
0.007492367643862963,0.004980346187949181,-0.011976600624620914,0.006597326602786779,0.0,0.007044010795652866
0.007679046597331762,0.0048784296959638596,-0.011357185430824757,0.006854421924799681,0.0,0.007002030499279499
0.007272273767739534,0.004634932614862919,-0.011815892532467842,0.0066904653795063496,0.0,0.007026173174381256
0.007263448555022478,0.0050393505953252316,-0.012124803848564625,0.006605031434446573,0.0,0.006638582330197096
0.007492005359381437,0.004936807323247194,-0.01203440222889185,0.006407373584806919,0.0,0.006643487606197596
0.008182811550796032,0.005009059328585863,-0.01206206250935793,0.006976431701332331,0.0,0.006918156053870916
0.007790545467287302,0.005428343545645475,-0.011508847586810589,0.007160477340221405,0.0,0.006556020118296146
0.00756734749302268,0.005249586421996355,-0.012494183145463467,0.007149570155888796,0.0,0.0063270446844398975
0.0077950553968548775,0.0051559763960540295,-0.011874798685312271,0.006491738837212324,0.0,0.006355196703225374
0.007695592474192381,0.005001736804842949,-0.011551667004823685,0.006178725976496935,0.0,0.006987500935792923
0.007490717340260744,0.005171536933630705,-0.011888478882610798,0.006598470266908407,0.0,0.007245079148560762
0.007490717340260744,0.005171536933630705,-0.011888478882610798,0.006598470266908407,0.0,0.007245079148560762
0.007423365488648415,0.005416161846369505,-0.012057806365191936,0.006670356262475252,0.0,0.006996560376137495
0.008176151663064957,0.005237365607172251,-0.01194086391478777,0.006304276641458273,0.0,0.006802364252507687
0.0077558173798024654,0.005145386327058077,-0.011869545094668865,0.0060760099440813065,0.0,0.006519556511193514
0.007726712618023157,0.0045762984082102776,-0.012302313931286335,0.006572750397026539,0.0,0.0072757950983941555
0.0077595519833266735,0.004648974165320396,-0.011713182553648949,0.00722475815564394,0.0,0.007255237083882093
0.007720088120549917,0.005055012181401253,-0.01190534234046936,0.007085385732352734,0.0,0.006931187119334936
0.007478396408259869,0.0050173066556453705,-0.011976431123912334,0.006426072213798761,0.0,0.007298124488443136
0.0071465810760855675,0.005408270750194788,-0.011532505042850971,0.006415749434381723,0.0,0.0072645763866603374
0.007899629883468151,0.005146377254277468,-0.01158653199672699,0.0071169184520840645,0.0,0.007095235399901867
0.008253107778728008,0.004692161921411753,-0.011554788798093796,0.007327522151172161,0.0,0.006939525716006756
0.007762752939015627,0.004884811118245125,-0.011928505264222622,0.006967328488826752,0.0,0.007374025881290436
0.007610393222421408,0.004900591913610697,-0.012055729515850544,0.006886603776365519,0.0,0.00730252405628562
0.008123363368213177,0.0049223885871469975,-0.011864719912409782,0.007704099640250206,0.0,0.007374297361820936
0.007911304011940956,0.005081145092844963,-0.011873736046254635,0.007508240174502134,0.0,0.006853850092738867
0.0077124168165028095,0.004741893149912357,-0.011220883578062057,0.0070137400180101395,0.0,0.007177010644227266
0.007572661153972149,0.0047410400584340096,-0.011930568143725395,0.007039518561214209,0.0,0.008622596971690655
0.007697694934904575,0.004751543514430523,-0.011753796599805355,0.0074142408557236195,0.0,0.008208977058529854
0.008060188964009285,0.004934895783662796,-0.012176284566521645,0.007692142389714718,0.0,0.006296962965279818
0.008147337473928928,0.0052301459945738316,-0.011893007904291153,0.007547504734247923,0.0,0.00637556379660964
0.008553320541977882,0.0047196573577821255,-0.011296926997601986,0.007193179335445166,0.0,0.007336232345551252
0.007992281578481197,0.004579222295433283,-0.011777368374168873,0.007560670841485262,0.0,0.007669205777347088
0.007952610030770302,0.004918647464364767,-0.011293972842395306,0.007071491330862045,0.0,0.00788482092320919
0.007952610030770302,0.004918647464364767,-0.011293972842395306,0.007071491330862045,0.0,0.00788482092320919
0.008134935982525349,0.004773786291480064,-0.011915150098502636,0.0074193705804646015,0.0,0.007466481998562813
0.008134935982525349,0.004773786291480064,-0.011915150098502636,0.0074193705804646015,0.0,0.007466481998562813
0.00810075644403696,0.004920586012303829,-0.01122891902923584,0.007604914717376232,0.0,0.007889469154179096
0.008185060694813728,0.005227480083703995,-0.01196301355957985,0.0069015673361718655,0.0,0.008281026035547256
0.007742824032902718,0.004679273348301649,-0.011628852225840092,0.006845062132924795,0.0,0.007996500469744205
0.008006926625967026,0.004621258471161127,-0.01184629462659359,0.007181749679148197,0.0,0.007570961490273476
0.007754975464195013,0.004965407308191061,-0.011813403107225895,0.007341592572629452,0.0,0.007858636789023876
0.008226223289966583,0.004874183796346188,-0.011795705184340477,0.0074177272617816925,0.0,0.008119535632431507
0.00827555451542139,0.0052263266406953335,-0.011434837244451046,0.007531007751822472,0.0,0.007620608434081078
0.008088739588856697,0.0048513407818973064,-0.01176969800144434,0.007520882412791252,0.0,0.007472679018974304
0.00794602744281292,0.004422658123075962,-0.011657069437205791,0.007374006789177656,0.0,0.007278044708073139
0.00844952929764986,0.004320046864449978,-0.011694131419062614,0.006947243586182594,0.0,0.0077545479871332645
0.008570736274123192,0.004899538587778807,-0.011603794060647488,0.007094333879649639,0.0,0.007452579215168953
0.007741345092654228,0.004973528906702995,-0.011023481376469135,0.00793617032468319,0.0,0.007234516087919474
0.008165329694747925,0.005308853462338448,-0.011243144981563091,0.007252641953527927,0.0,0.007088496349751949
0.008452309295535088,0.004992506466805935,-0.01142286416143179,0.006716749630868435,0.0,0.007185891270637512
0.008701421320438385,0.004749620333313942,-0.010855278931558132,0.006756407208740711,0.0,0.007245393004268408
0.008065166883170605,0.004618801176548004,-0.011870508082211018,0.007369780447334051,0.0,0.007745370268821716
0.008426827378571033,0.004810564685612917,-0.011696605011820793,0.007345142774283886,0.0,0.007680262438952923
0.008602768182754517,0.005156320985406637,-0.01181188877671957,0.007256004028022289,0.0,0.008298644796013832
0.008820352144539356,0.00509461248293519,-0.0116537194699049,0.007260797545313835,0.0,0.008279988542199135
0.008332990109920502,0.005359493661671877,-0.010818636044859886,0.0075067197903990746,0.0,0.008245153352618217
0.00870464090257883,0.005015260074287653,-0.011377709917724133,0.007411728613078594,0.0,0.008443250320851803
0.008920800872147083,0.0047981287352740765,-0.01114975567907095,0.006986557971686125,0.0,0.008215533569455147
0.008034102618694305,0.0049492050893604755,-0.011253665201365948,0.006675276439636946,0.0,0.00826114322990179
0.008422452956438065,0.005236548371613026,-0.011781451292335987,0.007395143620669842,0.0,0.007790703792124987
0.008736101910471916,0.005160552449524403,-0.011136648245155811,0.007154809311032295,0.0,0.007693988271057606
0.00834096223115921,0.00526376161724329,-0.011667074635624886,0.007197684608399868,0.0,0.007835166528820992
0.00834096223115921,0.00526376161724329,-0.011667074635624886,0.007197684608399868,0.0,0.007835166528820992
0.008748734369874,0.004526546224951744,-0.011324802413582802,0.00702064810320735,0.0,0.008137607015669346
0.009241297841072083,0.004546496085822582,-0.010972181335091591,0.007393354084342718,0.0,0.008256679400801659
0.008486623875796795,0.005139058921486139,-0.010784383863210678,0.007171317934989929,0.0,0.00815163366496563
0.008486623875796795,0.005139058921486139,-0.010784383863210678,0.007171317934989929,0.0,0.00815163366496563
0.008930147625505924,0.004996869713068008,-0.011995617300271988,0.006989610847085714,0.0,0.008004674687981606
0.008413088507950306,0.00476707611232996,-0.011384434998035431,0.007557015400379896,0.0,0.008300126530230045
0.008745656348764896,0.004846150521188974,-0.011345231905579567,0.007951450534164906,0.0,0.008397937752306461
0.00929708406329155,0.0042585404589772224,-0.01088150218129158,0.006998185068368912,8.374327649107727e-07,0.00809692032635212
0.008578731678426266,0.003847972024232149,-0.011349033564329147,0.007114357315003872,5.4678377381378596e-08,0.008298288099467754
0.008953731507062912,0.0037356126122176647,-0.011457410641014576,0.007455564569681883,3.5701068767934885e-09,0.007887963205575943
0.009240338578820229,0.004165976773947477,-0.011249296367168427,0.00731987040489912,2.331024817614491e-10,0.008042354136705399
0.008767654187977314,0.0044865538366138935,-0.011959809809923172,0.007960477843880653,1.5219926013942953e-11,0.007646145299077034
0.009645436890423298,0.004225487820804119,-0.011866838671267033,0.00791038479655981,9.93752497825684e-13,0.008098280057311058
0.009000587277114391,0.003992512822151184,-0.011710608378052711,0.00813257321715355,6.488493282160585e-14,0.008275704458355904
0.008947702124714851,0.00387969589792192,-0.011688301339745522,0.007830698974430561,4.23652253008595e-15,0.00832574162632227
0.008690616115927696,0.003808427369222045,-0.009941295720636845,0.007087215315550566,2.766146496123304e-16,0.00877672154456377
0.009130825288593769,0.004288749303668737,-0.012859147042036057,0.007932769134640694,1.806096093386455e-17,0.008234324865043163
0.009341207332909107,0.00413710018619895,-0.011659427545964718,0.007824299857020378,1.1792517389151712e-18,0.008296829648315907
0.009110813029110432,0.0044151656329631805,-0.011633006855845451,0.0076019298285245895,7.699671791456343e-20,0.008187945932149887
0.009021095931529999,0.004187965299934149,-0.012131301686167717,0.007013943046331406,5.027335575633076e-21,0.008780555799603462
0.009285036474466324,0.003959703724831343,-0.012336977757513523,0.007784481160342693,3.282490868738467e-22,0.008539887145161629
0.008851910941302776,0.0038588219322264194,-0.012671307660639286,0.007895338349044323,2.1432318964790862e-23,0.008856791071593761
0.008851910941302776,0.0038588219322264194,-0.012671307660639286,0.007895338349044323,2.1432318964790862e-23,0.008856791071593761
0.009490984492003918,0.00405986700206995,-0.012384327128529549,0.007380183320492506,9.136932130915793e-26,0.008786776103079319
0.009490984492003918,0.00405986700206995,-0.012384327128529549,0.007380183320492506,9.136932130915793e-26,0.008786776103079319
0.009593215771019459,0.004390358459204435,-0.012159090489149094,0.007274444680660963,3.8952173866474894e-28,0.008816772140562534
0.009593215771019459,0.004390358459204435,-0.012159090489149094,0.007274444680660963,3.8952173866474894e-28,0.008816772140562534
0.009938034228980541,0.004082726780325174,-0.012357460334897041,0.007279680110514164,2.543298524196163e-29,0.00948131363838911
0.009498493745923042,0.003856491297483444,-0.011796465143561363,0.007368425372987986,1.6605922813840336e-30,0.008487563580274582
0.009007547982037067,0.004176536574959755,-0.012305621057748795,0.0076179965399205685,1.0842480124329284e-31,0.007852950133383274
0.009457929991185665,0.004037662874907255,-0.012808415107429028,0.0075041186064481735,-1.2819784387829714e-05,0.009095579385757446
0.009535967372357845,0.0038668434135615826,-0.011968818493187428,0.007584256585687399,-0.00017100082186516374,0.00856864359229803
0.010029491037130356,0.004322885535657406,-0.011774946935474873,0.008184042759239674,-0.00017471234605181962,0.008699449710547924
0.009456776082515717,0.004264592658728361,-0.011928598396480083,0.008008156903088093,-0.00016883303760550916,0.008766296319663525
0.00920885056257248,0.003955982159823179,-0.011878750286996365,0.007631767075508833,-0.00017871706222649664,0.008649745024740696
0.009475450962781906,0.003752955002710223,-0.012529950588941574,0.007547460030764341,-0.00018742303655017167,0.00881529413163662
0.00945265218615532,0.004006390459835529,-0.01245974749326706,0.007959508337080479,-0.00018207757966592908,0.009083542041480541
0.00998198613524437,0.004127004183828831,-0.011808081530034542,0.008097886107861996,-0.00017619926074985415,0.009154868312180042
0.009637804701924324,0.00437315134331584,-0.012320761568844318,0.007808235473930836,-0.0001916907640406862,0.008643800392746925
0.009281639009714127,0.004640121478587389,-0.011917158961296082,0.007736175321042538,-0.00019249382603447884,0.008882803842425346
0.009476031176745892,0.00476045673713088,-0.01223803125321865,0.008257721550762653,-0.00018720878870226443,0.009174879640340805
0.010038177482783794,0.004283476620912552,-0.012025120668113232,0.008408318273723125,-0.0001818334130803123,0.008633223362267017
0.010001786053180695,0.004234950989484787,-0.012896803207695484,0.0077657317742705345,-0.00019865033391397446,0.009851169772446156
0.009497943334281445,0.004563421476632357,-0.01166235189884901,0.007544512394815683,-0.00019625235290732235,0.009299603290855885
0.009688018821179867,0.004679742269217968,-0.011349925771355629,0.008005451411008835,-0.00019123655511066318,0.008911128155887127
0.010809333994984627,0.004845497198402882,-0.012105410918593407,0.0077776662074029446,-0.00024235688033513725,0.008978200145065784
0.011413143016397953,0.004764564335346222,-0.011446480639278889,0.0072917090728878975,-0.0002803313545882702,0.009895405732095242
0.011461779475212097,0.004790233448147774,-0.01185368001461029,0.0074493177235126495,-0.0002671595138963312,0.00967422779649496
0.01185418851673603,0.00468427874147892,-0.011690144427120686,0.007998715154826641,-0.0002523956063669175,0.009374085813760757
0.011657772585749626,0.004291820805519819,-0.011831971816718578,0.008104673586785793,-0.00023900109226815403,0.008801797404885292
0.01119486428797245,0.004474380053579807,-0.012538531795144081,0.0076108225621283054,-0.0002269443211844191,0.008721490390598774
0.011043483391404152,0.004549597389996052,-0.011330184526741505,0.008021294139325619,-0.00021604530047625303,0.008729112334549427
0.011180917732417583,0.004764687269926071,-0.012120499275624752,0.008042237721383572,-0.00024185916117858142,0.009291678667068481
0.010852199979126453,0.004825133364647627,-0.012342086061835289,0.00767649058252573,-0.00023617589613422751,0.009292601607739925
0.010843898169696331,0.0047585261054337025,-0.012405809946358204,0.00730135990306735,-0.0002265844086650759,0.009607357904314995
0.010745756328105927,0.004600516054779291,-0.012258765287697315,0.007826784625649452,-0.00021747761638835073,0.009457370266318321
0.010745756328105927,0.004600516054779291,-0.012258765287697315,0.007826784625649452,-0.00021747761638835073,0.009457370266318321
0.010872285813093185,0.004544534254819155,-0.011430395767092705,0.008138066157698631,-0.00020905875135213137,0.009461685083806515
0.011320709250867367,0.004786550998687744,-0.012148632667958736,0.0076047577895224094,-0.00020126524032093585,0.009519386105239391
0.011361886747181416,0.004937096033245325,-0.012334410101175308,0.008105718530714512,-0.00021837552776560187,0.009901643730700016
0.012093834578990936,0.00566086545586586,-0.011865007691085339,0.008252887055277824,-0.00021118247241247445,0.009670944884419441
0.011103902943432331,0.005093256942927837,-0.01182219386100769,0.007799000944942236,-0.00020434058387763798,0.009440189227461815
0.011847496032714844,0.004901604261249304,-0.012494954280555248,0.007645936217159033,-0.00019792061357293278,0.009392865002155304
0.011174891144037247,0.0048489342443645,-0.012025982141494751,0.008269209414720535,-0.00021745858248323202,0.009474108926951885
0.011003979481756687,0.004889439791440964,-0.012539597228169441,0.008259405381977558,-0.00021270122670102865,0.009895293042063713
0.011124390177428722,0.005202950909733772,-0.012005629949271679,0.008039241656661034,-0.00020670391677413136,0.009723111987113953
0.01084571797400713,0.004819613415747881,-0.012175939045846462,0.008376955054700375,-0.00020094119827263057,0.009611707180738449
0.011058198288083076,0.004605318885296583,-0.012006353586912155,0.00840439461171627,-0.00019920660997740924,0.009896851144731045
0.011212905868887901,0.0045176343992352486,-0.012301424518227577,0.008355481550097466,-0.00019467926176730543,0.009814716875553131
0.011059368960559368,0.004661042243242264,-0.012235413305461407,0.00817362405359745,-0.00018686123075895011,0.009714405052363873
0.011138005182147026,0.004800380673259497,-0.0118110878393054,0.008456988260149956,-0.00017942680278792977,0.010232091881334782
0.010858960449695587,0.004892592318356037,-0.012429197318851948,0.00806486513465643,-0.00018944240582641214,0.009937828406691551
0.0111579904332757,0.0050882683135569096,-0.011935117654502392,0.007782678585499525,-0.00019825850904453546,0.009697265923023224
0.011644143611192703,0.004913255572319031,-0.011787290684878826,0.008596985600888729,-0.0001922313094837591,0.01047760434448719
0.01108044944703579,0.004757104441523552,-0.012373173609375954,0.008948106318712234,-0.00020858990319538862,0.010117498226463795
0.01171351969242096,0.004609233234077692,-0.012073186226189137,0.008099413476884365,-0.00020891247550025582,0.009827439673244953
0.01132508646696806,0.004323801025748253,-0.0126732736825943,0.00749709689989686,-0.00020266478531993926,0.009761813096702099
0.011175936087965965,0.005588091444224119,-0.011788839474320412,0.008331975899636745,-0.00021714936883654445,0.009585293009877205
0.011424633674323559,0.0060181948356330395,-0.012407036498188972,0.009293708018958569,-0.00021717351046390831,0.009990647435188293
0.011029994115233421,0.004455473739653826,-0.012127550318837166,0.008306614123284817,-0.0002112312795361504,0.010090646333992481
0.011417172849178314,0.0049337539821863174,-0.012078575789928436,0.008083689026534557,-0.00020539178512990475,0.010279972106218338
0.01242803130298853,0.005045557860285044,-0.013125332072377205,0.008305325172841549,-0.00031087565002962947,0.00976963434368372
0.011629434302449226,0.0046919845044612885,-0.012003431096673012,0.008349106647074223,-0.0002981133002322167,0.010520095005631447
0.011393053457140923,0.00521412119269371,-0.012841084972023964,0.007852844893932343,-0.0002800628717523068,0.010780532844364643
0.011297191493213177,0.005087483674287796,-0.011962383054196835,0.008321634493768215,-0.00026367808459326625,0.010908211581408978
0.011504270136356354,0.005211810115724802,-0.01223779283463955,0.008553853258490562,-0.00029218150302767754,0.010453825816512108
0.011504270136356354,0.005211810115724802,-0.01223779283463955,0.008553853258490562,-0.00029218150302767754,0.010453825816512108
0.011320395395159721,0.004815116059035063,-0.012369601987302303,0.008112368173897266,-0.00026906598941423,0.010393383912742138
0.012036124244332314,0.004913821816444397,-0.013004693202674389,0.008647097274661064,-0.0002563163870945573,0.010565686039626598
0.011436444707214832,0.004860746208578348,-0.012478303164243698,0.008335218764841557,-0.000244700291659683,0.010403057560324669
0.011329328641295433,0.005090236663818359,-0.012969917617738247,0.007849164307117462,-0.00023409030109178275,0.010268931277096272
0.011613954789936543,0.005016636569052935,-0.012349039316177368,0.0086716553196311,-0.00024265394313260913,0.010432054288685322
0.01139711495488882,0.004716805182397366,-0.013075805269181728,0.008715673349797726,-0.0002500644186511636,0.01007054466754198
0.012046337127685547,0.004316022153943777,-0.01273106224834919,0.008258258923888206,-0.00024158837914001197,0.01039964146912098
0.011987174861133099,0.004036704543977976,-0.0125105120241642,0.008152972906827927,-0.00023273522674571723,0.010076576843857765
0.011659755371510983,0.004346025642007589,-0.012631424702703953,0.008930303156375885,-0.000224446936044842,0.010333861224353313
0.011942807585000992,0.004554837942123413,-0.012521758675575256,0.008313572034239769,-0.00023189876810647547,0.010342411696910858
0.011637968942523003,0.004737007897347212,-0.013168337754905224,0.008097024634480476,-0.00023841706570237875,0.010633237659931183
0.011962244287133217,0.004760470241308212,-0.012591609731316566,0.009455373510718346,-0.00023167268955148757,0.010994075797498226
0.011583010666072369,0.00483517674729228,-0.013386973179876804,0.009226426482200623,-0.0002245087525807321,0.010485212318599224
0.011713455431163311,0.004587169270962477,-0.012768259271979332,0.008987842127680779,-0.0002177227142965421,0.010211635380983353
0.01179835107177496,0.0046144332736730576,-0.013315721414983273,0.008611169643700123,-0.00021468890190590173,0.010524229146540165
0.011535975150763988,0.004940594546496868,-0.012853416614234447,0.009274804033339024,-0.00020638438581954688,0.010790916159749031
0.012043780647218227,0.0049075293354690075,-0.013140285387635231,0.009091016836464405,-0.00019742843869607896,0.010357913561165333
0.011942173354327679,0.004519427195191383,-0.013391058892011642,0.008218553848564625,-0.00020763765496667475,0.010783910751342773
0.01215655542910099,0.004553301725536585,-0.01321033202111721,0.008348628878593445,-0.00021654451848007739,0.01081756316125393
0.011980473063886166,0.004968448542058468,-0.01360743585973978,0.008987837471067905,-0.00020927820878569037,0.010615363717079163
0.01193386409431696,0.00452192360535264,-0.013113507069647312,0.008177909068763256,-0.0002015401842072606,0.010980972088873386
0.012353332713246346,0.004534122999757528,-0.013676412403583527,0.008631967939436436,-0.00021015587844885886,0.010789302177727222
0.012054228223860264,0.004515215754508972,-0.013284510932862759,0.009146121330559254,-0.00021772268519271165,0.010845423676073551
0.012316614389419556,0.004672018811106682,-0.014278823509812355,0.00819325353950262,-0.00021138561714906245,0.010963944718241692
0.012091415002942085,0.004659530706703663,-0.012917003594338894,0.007661063689738512,-0.00020458355720620602,0.010620342567563057
0.012306862510740757,0.00434275483712554,-0.01383244525641203,0.008558905683457851,-0.00022271517082117498,0.011025664396584034
0.012819100171327591,0.004493691027164459,-0.012893619015812874,0.008465612307190895,-0.0002193093387177214,0.011037574149668217
0.012721048668026924,0.004194785840809345,-0.013742432929575443,0.008367904461920261,-0.00021304092661011964,0.010961337015032768
0.013012121431529522,0.004288554657250643,-0.013433965854346752,0.00888802856206894,-0.00029763270867988467,0.011654790490865707
0.012729710899293423,0.004627777263522148,-0.01408869307488203,0.00917732622474432,-0.0002915201475843787,0.011683542281389236
0.012729710899293423,0.004627777263522148,-0.01408869307488203,0.00917732622474432,-0.0002915201475843787,0.011683542281389236
0.013155123218894005,0.004699695389717817,-0.013662638142704964,0.008678752928972244,-0.0002745866368059069,0.01139808725565672
0.013111180625855923,0.004397058859467506,-0.013545976020395756,0.008778906427323818,-0.00029282335890457034,0.011429677717387676
0.013279208913445473,0.004436897579580545,-0.013164296746253967,0.008784055709838867,-0.00027849909383803606,0.011299838311970234
0.013490819372236729,0.004692548420280218,-0.013460025191307068,0.008504815399646759,-0.00026488423463888466,0.011222857981920242
0.013356889598071575,0.0047406540252268314,-0.01300695538520813,0.008630914613604546,-0.0002524982555769384,0.011094711720943451
0.013119022361934185,0.004835581872612238,-0.01350494660437107,0.008886479772627354,-0.00027867217431776226,0.01142262015491724
0.01333626639097929,0.00426965206861496,-0.012876869179308414,0.009054429829120636,-0.0002692044072318822,0.011126977391541004
0.013277203775942326,0.004149954300373793,-0.013772492296993732,0.008858918212354183,-0.00025832297978922725,0.011452875100076199
0.01351598184555769,0.00410059280693531,-0.013094519264996052,0.008664896711707115,-0.0002481559640727937,0.011354909278452396
0.013111808337271214,0.004358708392828703,-0.013821563683450222,0.008666059002280235,-0.0002387506392551586,0.01152957882732153
0.013948383741080761,0.004575646016746759,-0.01304825209081173,0.008204593323171139,-0.0002543403534218669,0.012062597088515759
0.013582831248641014,0.0045901695266366005,-0.013680586591362953,0.008748315274715424,-0.00025307334726676345,0.011059691198170185
0.01365838386118412,0.004393992014229298,-0.013350062072277069,0.009072518907487392,-0.00024496347759850323,0.011086121201515198
0.013376578688621521,0.00405901949852705,-0.013680556789040565,0.00899666827172041,-0.00023693441471550614,0.011333676055073738
0.014020058326423168,0.004152335226535797,-0.013558479025959969,0.009045261889696121,-0.0002502231509424746,0.011682898737490177
0.013720844872295856,0.004101285245269537,-0.013448378071188927,0.009274164214730263,-0.00024027343897614628,0.011793163605034351
0.01398063637316227,0.004390197806060314,-0.013669922016561031,0.009161705151200294,-0.00022830291709396988,0.012108227238059044
0.013848729431629181,0.004507722798734903,-0.01301273051649332,0.00937790609896183,-0.0002172898966819048,0.01177701074630022
0.014084181748330593,0.004842875525355339,-0.013505914248526096,0.009585360065102577,-0.0002458979724906385,0.011856291443109512
0.013678194023668766,0.004624724853783846,-0.013443208299577236,0.009310320019721985,-0.00023759488249197602,0.011593292467296124
0.014107144437730312,0.004342943895608187,-0.013779831118881702,0.008891396224498749,-0.00022773693490307778,0.012205008417367935
0.014005030505359173,0.0043921321630477905,-0.012930716387927532,0.00934426300227642,-0.00021852976351510733,0.011682487092912197
0.013937242329120636,0.0045305900275707245,-0.0136106600984931,0.009188845753669739,-0.00022716517560184002,0.01188660878688097
0.013945323415100574,0.004350276198238134,-0.013548730872571468,0.008932759054005146,-0.0002346923720324412,0.012024994939565659
0.013945323415100574,0.004350276198238134,-0.013548730872571468,0.008932759054005146,-0.0002346923720324412,0.012024994939565659
0.014159070327877998,0.004544329363852739,-0.014019065536558628,0.00879718642681837,-0.0002272702840855345,0.011988921090960503
0.014322134666144848,0.004701088182628155,-0.013201147317886353,0.008848730474710464,-0.00021942159219179302,0.012228339910507202
0.014778795652091503,0.004500267561525106,-0.013622263446450233,0.008550205267965794,-0.00024028551706578583,0.01228256244212389
0.014233310706913471,0.004503292962908745,-0.013572707772254944,0.008734889328479767,-0.00023430674627888948,0.01222293358296156
0.01467396691441536,0.004441346973180771,-0.01357676275074482,0.008849232457578182,-0.0002793700550682843,0.012685999274253845
0.014989672228693962,0.004405933897942305,-0.013651358895003796,0.008798016235232353,-0.00027131574461236596,0.012726200744509697
0.014878582209348679,0.004365565255284309,-0.013463400304317474,0.009505816735327244,-0.0003041663148906082,0.01272113248705864
0.014784768223762512,0.004404851235449314,-0.013876179233193398,0.00958937220275402,-0.0002909264003392309,0.01266635861247778
0.014409041963517666,0.0044630891643464565,-0.013813941739499569,0.009318117052316666,-0.0003161022032145411,0.012547170743346214
0.014871238730847836,0.004103685263544321,-0.013527866452932358,0.009158601053059101,-0.00030620823963545263,0.012703817337751389
0.014591158367693424,0.004246053751558065,-0.013576339930295944,0.009361442178487778,-0.0002923519932664931,0.012829750776290894
0.014878892339766026,0.004295664373785257,-0.013325420208275318,0.008966577239334583,-0.0003088901867158711,0.013074216432869434
0.014796160161495209,0.004293479025363922,-0.013512499630451202,0.009466630406677723,-0.000305079243844375,0.012964694760739803
0.015019848942756653,0.0041305990889668465,-0.013101299293339252,0.009386668913066387,-0.00029325750074349344,0.013066619634628296
0.014615391381084919,0.004477599170058966,-0.013890434056520462,0.00910185370594263,-0.0004012317513115704,0.012607577256858349
0.015122206881642342,0.004169858526438475,-0.01341094821691513,0.009466777555644512,-0.00038460796349681914,0.01260137278586626
0.014753433875739574,0.0038618138059973717,-0.014122575521469116,0.009579114615917206,-0.0004167015722487122,0.012767985463142395
0.015380705706775188,0.0037982475478202105,-0.013403888791799545,0.009456572122871876,-0.0003946593205910176,0.012722905725240707
0.0151234595105052,0.00426532793790102,-0.013856911100447178,0.009676816873252392,-0.00041342349140904844,0.013139255344867706
0.015410889871418476,0.004297134466469288,-0.013438665308058262,0.009513367898762226,-0.0004011911223642528,0.013086052611470222
0.014979228377342224,0.004469641484320164,-0.013710458762943745,0.009850268252193928,-0.0004247385077178478,0.013413180597126484
0.015365025028586388,0.004231262486428022,-0.01327185332775116,0.009531515650451183,-0.0004071574076078832,0.013196499086916447
0.015161968767642975,0.003983879461884499,-0.013716551475226879,0.009713861159980297,-0.0004783115000464022,0.013331253081560135
0.015585165470838547,0.0038117861840873957,-0.013815730810165405,0.009186274372041225,-0.0004611500771716237,0.013352388516068459
0.015479329973459244,0.0037150667048990726,-0.014203185215592384,0.00937082152813673,-0.0004201411211397499,0.013259687460958958
0.015479329973459244,0.0037150667048990726,-0.014203185215592384,0.00937082152813673,-0.0004201411211397499,0.013259687460958958
0.015627391636371613,0.003705649171024561,-0.01392957754433155,0.009546802379190922,-0.0004215163644403219,0.013527635484933853
0.015464897267520428,0.003981052432209253,-0.013531147502362728,0.009346134960651398,-0.00042231535189785063,0.013314077630639076
0.015164601616561413,0.004028905648738146,-0.013783612288534641,0.009693059138953686,-0.00039372063474729657,0.013343730941414833
0.015523937530815601,0.004439141135662794,-0.013418201357126236,0.010001900605857372,-0.00042397939250804484,0.014348452910780907
0.015569489449262619,0.004419603850692511,-0.013619952835142612,0.009506341069936752,-0.0003769735340029001,0.01285281777381897
0.015418569557368755,0.004173030145466328,-0.014059520326554775,0.009570973925292492,-0.0004029933188576251,0.013441906310617924
0.015940668061375618,0.003580986289307475,-0.013431857340037823,0.009428669698536396,-0.00038454917375929654,0.013904191553592682
0.01564687304198742,0.0038714096881449223,-0.01401266735047102,0.009908027946949005,-0.00036523639573715627,0.013826285488903522
0.016067365184426308,0.004211083985865116,-0.013735639862716198,0.009943157434463501,-0.00034761178540065885,0.013643375597894192
0.015485023148357868,0.004586278926581144,-0.014245308004319668,0.009349295869469643,-0.0003355827066116035,0.013830643147230148
0.015673108398914337,0.004297927487641573,-0.014039047993719578,0.009482101537287235,-0.00031439433223567903,0.013617100194096565
0.01612556166946888,0.004301711916923523,-0.014573798514902592,0.009715979918837547,-0.000337259320076555,0.013835607096552849
0.015973486006259918,0.0040219672955572605,-0.013881673105061054,0.009950786828994751,-0.00033014180371537805,0.01378550659865141
0.015610530972480774,0.003751123324036598,-0.01458505354821682,0.01024328637868166,-0.0003119469911325723,0.0138245252892375
0.01579361781477928,0.004195055924355984,-0.013825803995132446,0.009840569458901882,-0.0003374975931365043,0.014053774066269398
0.016056185588240623,0.004172994755208492,-0.014617623761296272,0.009326037019491196,-0.00032586074667051435,0.01355801336467266
0.016089623793959618,0.004543816205114126,-0.013792615383863449,0.0099368616938591,-0.0003101923211943358,0.013282028026878834
0.016585256904363632,0.004212378989905119,-0.01432524062693119,0.009878650307655334,-0.00031628902070224285,0.013328321278095245
0.015970593318343163,0.004420683719217777,-0.013946788385510445,0.009443758055567741,-0.00032133335480466485,0.013881081715226173
0.016328809782862663,0.00422089034691453,-0.01468511950224638,0.009631028398871422,-0.0003088030789513141,0.013858910650014877
0.015983251854777336,0.00400425074622035,-0.014340060763061047,0.010492008179426193,-0.0003656228072941303,0.01407654955983162
0.014965142123401165,0.004030629992485046,-0.014540125615894794,0.00951961986720562,-0.0003597055037971586,0.014185498468577862
0.016464892774820328,0.004124199040234089,-0.01385220605880022,0.009987389668822289,-0.0003344812139403075,0.014018497429788113
0.016682082787156105,0.004009173717349768,-0.01439544465392828,0.010308980941772461,-0.00031141808722168207,0.013552176766097546
0.016551818698644638,0.004282122012227774,-0.013731222599744797,0.00979064591228962,-0.00034160027280449867,0.014060690999031067
0.01642003282904625,0.004497257061302662,-0.014157833531498909,0.010381641797721386,-0.00032773474231362343,0.014210403896868229
0.01642003282904625,0.004497257061302662,-0.014157833531498909,0.010381641797721386,-0.00032773474231362343,0.014210403896868229
0.016653437167406082,0.004414891358464956,-0.014629334211349487,0.009786981157958508,-0.00031643398688174784,0.014418916776776314
0.016653437167406082,0.004414891358464956,-0.014629334211349487,0.009786981157958508,-0.00031643398688174784,0.014418916776776314
0.01695854775607586,0.004051746800541878,-0.014261456206440926,0.01004647184163332,-0.00032224145252257586,0.014580894261598587
0.0167612936347723,0.003827333450317383,-0.014924464747309685,0.009745934046804905,-0.0003079268499277532,0.014303622767329216
0.016477113589644432,0.004096734803169966,-0.01377519778907299,0.009839888662099838,-0.0002936632081400603,0.014272443950176239
0.017087964341044426,0.004600515589118004,-0.014052879996597767,0.010281752794981003,-0.00031531386775895953,0.013942263089120388
0.01663268357515335,0.004359695129096508,-0.014784567058086395,0.009774354286491871,-0.0002944148436654359,0.014496534131467342
0.01663401536643505,0.004517094232141972,-0.014345435425639153,0.010248774662613869,-0.0002839176740963012,0.01451245415955782
0.01650378294289112,0.004256420768797398,-0.014649285934865475,0.01088076550513506,-0.0002900412946473807,0.014543047174811363
0.016902411356568336,0.004284482914954424,-0.014018094167113304,0.009672434069216251,-0.0002739763294812292,0.014710352756083012
0.017197856679558754,0.004216833971440792,-0.014663263224065304,0.010303538292646408,-0.0002583444875199348,0.014569079503417015
0.01765165477991104,0.004828670062124729,-0.014231846667826176,0.010160543024539948,-0.00028980974457226694,0.014677691273391247
0.017626620829105377,0.004960130900144577,-0.014713747426867485,0.009801534935832024,-0.00027786032296717167,0.014160623773932457
0.01725899986922741,0.004753170534968376,-0.014274120330810547,0.010457964614033699,-0.0002969739434774965,0.014521433971822262
0.017647745087742805,0.004540680442005396,-0.014901727437973022,0.009923536330461502,-0.00029337036539800465,0.014598056674003601
0.017382631078362465,0.004662358667701483,-0.014328007586300373,0.00968062411993742,-0.00028095365269109607,0.015075184404850006
0.01724608615040779,0.004781635012477636,-0.014713375829160213,0.010628188028931618,-0.0003048062790185213,0.014776215888559818
0.017836427316069603,0.0044695595279335976,-0.014281797222793102,0.010157047770917416,-0.0002946674358099699,0.015261306427419186
0.017770927399396896,0.005031788256019354,-0.015115668997168541,0.00997858215123415,-0.00037545067607425153,0.014431762509047985
0.01808110997080803,0.0052538905292749405,-0.014702084474265575,0.01045428216457367,-0.0003749318129848689,0.014829798601567745
0.017796438187360764,0.004623607732355595,-0.014875062741339207,0.010374736972153187,-0.00038167188176885247,0.01504170335829258
0.018139714375138283,0.00454114843159914,-0.014020413160324097,0.010501295328140259,-0.0003853481903206557,0.015172283165156841
0.01834236830472946,0.004906886722892523,-0.014697362668812275,0.010629754513502121,-0.0003615606692619622,0.014984950423240662
0.01827818527817726,0.004944578278809786,-0.014313939027488232,0.010594761930406094,-0.0003915477718692273,0.015180610120296478
0.018125036731362343,0.004731350112706423,-0.015106050297617912,0.010962852276861668,-0.0003718629013746977,0.015183035284280777
0.01850113458931446,0.0043655456975102425,-0.014499952085316181,0.010997602716088295,-0.0003513419069349766,0.014967949129641056
0.01833701878786087,0.004326689522713423,-0.014925488270819187,0.010194256901741028,-0.000377055024728179,0.015313873067498207
0.018772335723042488,0.004080774262547493,-0.014046719297766685,0.0101699223741889,-0.00036102961166761816,0.01548547763377428
0.018772335723042488,0.004080774262547493,-0.014046719297766685,0.0101699223741889,-0.00036102961166761816,0.01548547763377428
0.018579568713903427,0.0040810550563037395,-0.014567653648555279,0.010371946729719639,-0.0004234106745570898,0.01565011404454708
0.018128352239727974,0.004489868879318237,-0.014235252514481544,0.01059939805418253,-0.00039838446537032723,0.015600781887769699
0.018608752638101578,0.004402362275868654,-0.014913693070411682,0.010299412533640862,-0.0003667117562144995,0.015770817175507545
0.018449021503329277,0.004416270647197962,-0.014493058435618877,0.01011455524712801,-0.0003772202762775123,0.015657298266887665
0.018797757104039192,0.004217813257128,-0.013794872909784317,0.010135960765182972,-0.0003535256255418062,0.015262559056282043
0.018773788586258888,0.003928143531084061,-0.014907844364643097,0.00979978870600462,-0.00035877060145139694,0.015657585114240646
0.018862981349229813,0.004324457608163357,-0.01437606755644083,0.0106448819860816,-0.00036288867704570293,0.015686575323343277
0.019032832235097885,0.004218105226755142,-0.014921396039426327,0.011044991202652454,-0.0003809668414760381,0.01595105044543743
0.01894768327474594,0.004470895975828171,-0.01418912410736084,0.010147783905267715,-0.0003727228904608637,0.015960633754730225
0.019220007583498955,0.004182340111583471,-0.01456234510987997,0.010202755220234394,-0.00035508713335730135,0.01579815149307251
0.01942317560315132,0.0044070053845644,-0.014048215933144093,0.010316870175302029,-0.00037350054481066763,0.015826402232050896
0.01943688653409481,0.00416260352358222,-0.015154197812080383,0.010269122198224068,-0.00039107707561925054,0.016317997127771378
0.019325898960232735,0.003945148084312677,-0.014563214965164661,0.010212605819106102,-0.00039485745946876705,0.016711844131350517
0.019351469352841377,0.004037664737552404,-0.014650151133537292,0.010393478907644749,-0.0003699174849316478,0.016156937927007675
0.019477397203445435,0.004044721834361553,-0.014635155908763409,0.009941657073795795,-0.0003962071205023676,0.0164068304002285
0.019603542983531952,0.003858386306092143,-0.014907972887158394,0.01045482698827982,-0.0003791748604271561,0.015937024727463722
0.019793987274169922,0.003749178722500801,-0.015394949354231358,0.010670083574950695,-0.00038298394065350294,0.015963446348905563
0.019567081704735756,0.004364409949630499,-0.015620546415448189,0.01056548673659563,-0.0003855180402752012,0.016141433268785477
0.019530516117811203,0.004161883145570755,-0.015714380890130997,0.010945403948426247,-0.00036735000321641564,0.01633402332663536
0.01896568387746811,0.003910017665475607,-0.015550736337900162,0.01057338621467352,-0.0004097046912647784,0.016674062237143517
0.01947399415075779,0.00433565815910697,-0.015311446972191334,0.010644434951245785,-0.00042836228385567665,0.016815653070807457
0.020099744200706482,0.004175666719675064,-0.014771673828363419,0.011017048731446266,-0.000432713539339602,0.016561100259423256
0.020208746194839478,0.004417949356138706,-0.015082014724612236,0.01078030839562416,-0.000432886416092515,0.016232682392001152
0.02045871689915657,0.004212591797113419,-0.01551984902471304,0.010699352249503136,-0.0004521986120380461,0.016382500529289246
0.019976230338215828,0.00400395505130291,-0.01598859392106533,0.01085545402020216,-0.00043634988833218813,0.01661038212478161
0.019976230338215828,0.00400395505130291,-0.01598859392106533,0.01085545402020216,-0.00043634988833218813,0.01661038212478161
0.019969021901488304,0.004103155340999365,-0.015590028837323189,0.011402792297303677,-0.000527331605553627,0.017066167667508125
0.019470935687422752,0.004390078596770763,-0.01456509716808796,0.011051470413804054,-0.0005483092973008752,0.01670541800558567
0.019470935687422752,0.004390078596770763,-0.01456509716808796,0.011051470413804054,-0.0005483092973008752,0.01670541800558567
0.019804975017905235,0.004153032321482897,-0.015711002051830292,0.011201511137187481,-0.0005786083056591451,0.016294928267598152
0.020541546866297722,0.004264041315764189,-0.016095424070954323,0.010694385506212711,-0.00048600800801068544,0.017727844417095184
0.01984255574643612,0.004540723282843828,-0.01506457943469286,0.011318507604300976,-0.0005099676782265306,0.01619592122733593
0.01984255574643612,0.004540723282843828,-0.01506457943469286,0.011318507604300976,-0.0005099676782265306,0.01619592122733593
0.02095451019704342,0.004210276063531637,-0.015915879979729652,0.01136758178472519,-0.0005056674126535654,0.017025023698806763
0.020562339574098587,0.004353150725364685,-0.015934033319354057,0.011740287765860558,-0.0005316971219144762,0.017042601481080055
0.02038649283349514,0.0041344305500388145,-0.015258229337632656,0.011015627533197403,-0.00056686025345698,0.017186099663376808
0.021143605932593346,0.004534762352705002,-0.014708246104419231,0.011792270466685295,-0.0005343241500668228,0.016854381188750267
0.020513217896223068,0.004217047709971666,-0.015783796086907387,0.011364946141839027,-0.0005575976683758199,0.016922280192375183
0.020005881786346436,0.004428238607943058,-0.015389230102300644,0.010985225439071655,-0.0005210611270740628,0.016995474696159363
0.020558306947350502,0.00414931308478117,-0.01573801599442959,0.011274578981101513,-0.000545778195373714,0.016860852017998695
0.0209967028349638,0.003882321994751692,-0.015051898546516895,0.011094067245721817,-0.0005122906295582652,0.01702297292649746
0.020837707445025444,0.0037840299773961306,-0.01563332788646221,0.011159136891365051,-0.0006042839959263802,0.016956498846411705
0.02076571062207222,0.004097169730812311,-0.0151451975107193,0.011569204740226269,-0.000635173637419939,0.01719476655125618
0.021233100444078445,0.004169435705989599,-0.01521894708275795,0.011012629605829716,-0.000580147432629019,0.01747174561023712
0.020963052287697792,0.004284232389181852,-0.015345216728746891,0.011659782379865646,-0.0006056975689716637,0.01710876077413559
0.020837878808379173,0.004447628743946552,-0.015879226848483086,0.011671597138047218,-0.0006260727532207966,0.017363855615258217
0.021320218220353127,0.0043584671802818775,-0.015797467902302742,0.011329179629683495,-0.0005848606815561652,0.017652787268161774
0.021029984578490257,0.004518148489296436,-0.015508686192333698,0.01132136955857277,-0.0006413633818738163,0.0174342542886734
0.020853742957115173,0.004263228736817837,-0.015715938061475754,0.011128654703497887,-0.0006315955542959273,0.017751023173332214
0.020491478964686394,0.004049445502460003,-0.015194261446595192,0.011599641293287277,-0.0006102935294620693,0.01737195998430252
0.021408848464488983,0.004007390700280666,-0.01605287194252014,0.011653649620711803,-0.0006183696677908301,0.01766190491616726
0.020961595699191093,0.003929407801479101,-0.015136192552745342,0.011152138002216816,-0.0005820612423121929,0.01777905784547329
0.020899491384625435,0.004051366820931435,-0.015667730942368507,0.011255021207034588,-0.0005340431816875935,0.01805044151842594
0.0213151928037405,0.004226844757795334,-0.015310471877455711,0.01122310385107994,-0.0005264290375635028,0.018259931355714798
0.021261733025312424,0.004382030107080936,-0.01599215529859066,0.011950992979109287,-0.0005195146077312529,0.01759130321443081
0.021261733025312424,0.004382030107080936,-0.01599215529859066,0.011950992979109287,-0.0005195146077312529,0.01759130321443081
0.021109215915203094,0.00402866443619132,-0.015379766002297401,0.0118558369576931,-0.00048643373884260654,0.017598956823349
0.021473322063684464,0.003952800761908293,-0.015614337287843227,0.01166006363928318,-0.00045576042612083256,0.01831137388944626
0.021389275789260864,0.004013333003968,-0.015353670343756676,0.012612965889275074,-0.00042330671567469835,0.018188338726758957
0.021303674206137657,0.003965012729167938,-0.015575427561998367,0.01187881175428629,-0.0003873749519698322,0.018102828413248062
0.02250436320900917,0.0038215278182178736,-0.01589011587202549,0.01208628062158823,-0.00035667791962623596,0.018257873132824898
0.02136934921145439,0.004256082698702812,-0.015455156564712524,0.012401854619383812,-0.0003919001028407365,0.018190547823905945
0.02145879901945591,0.004120009485632181,-0.015802627429366112,0.012698421254754066,-0.0003691074380185455,0.01842125505208969
0.022059917449951172,0.003846258157864213,-0.015912476927042007,0.012086967006325722,-0.0003785732260439545,0.018316667526960373
0.021716948598623276,0.0038017185870558023,-0.015480218455195427,0.012529422529041767,-0.0004050717398058623,0.01814715564250946
0.021669788286089897,0.004248581826686859,-0.016024475917220116,0.011997164227068424,-0.0003864525933749974,0.017898553982377052
0.022360604256391525,0.004159985575824976,-0.015147676691412926,0.012404023669660091,-0.0003669533762149513,0.018416741862893105
0.022653192281723022,0.004115681163966656,-0.015667950734496117,0.012288631871342659,-0.00041038787458091974,0.01874825917184353
0.02220126986503601,0.00417590606957674,-0.01570856012403965,0.012079131789505482,-0.0003849969943985343,0.018586717545986176
0.02225390262901783,0.004414187744259834,-0.015920454636216164,0.01251219306141138,-0.00035521984682418406,0.018845107406377792
0.02150615304708481,0.004055009689182043,-0.015996575355529785,0.012039486318826675,-0.00038610000046901405,0.019076809287071228
0.022046400234103203,0.003860697615891695,-0.015676166862249374,0.012446649372577667,-0.00036756283952854574,0.018823718652129173
0.022290151566267014,0.004360170103609562,-0.015986105427145958,0.011953990906476974,-0.0003446016344241798,0.019051797688007355
0.022784048691391945,0.0045294808223843575,-0.01578604243695736,0.01212801318615675,-0.0003239523502998054,0.019596241414546967
0.022264739498496056,0.004302005283534527,-0.01610497198998928,0.011863690800964832,-0.0003530197136569768,0.019236186519265175
0.02310369536280632,0.004361737985163927,-0.015474217012524605,0.011767388321459293,-0.0003372121718712151,0.01921030879020691
0.023444363847374916,0.004232489503920078,-0.01609555073082447,0.01245127059519291,-0.00032026582630351186,0.019298814237117767
0.023226572200655937,0.00431821309030056,-0.0157750453799963,0.01210123673081398,-0.0003424837195780128,0.019512522965669632
0.022842707112431526,0.004074941389262676,-0.01599111221730709,0.012643934227526188,-0.000331861840095371,0.019117891788482666
0.023138320073485374,0.003948550205677748,-0.01583888940513134,0.012412315234541893,-0.00034812657395377755,0.01930181495845318
0.022944875061511993,0.0038831853307783604,-0.01588989794254303,0.012334206141531467,-0.0003599243354983628,0.019554531201720238
0.02303170971572399,0.004368766210973263,-0.01631898246705532,0.012184271588921547,-0.0003650920116342604,0.02016817033290863
0.023575155064463615,0.004653119016438723,-0.01608872041106224,0.011994734406471252,-0.0003933161497116089,0.02062002755701542
0.02397170662879944,0.004352135118097067,-0.01657877117395401,0.012503541074693203,-0.0004029192205052823,0.020113376900553703
0.02397170662879944,0.004352135118097067,-0.01657877117395401,0.012503541074693203,-0.0004029192205052823,0.020113376900553703
0.023646017536520958,0.0039731236174702644,-0.016059957444667816,0.011667164042592049,-0.00040488652302883565,0.019131137058138847
0.023639779537916183,0.0038552619516849518,-0.01648922637104988,0.012017183937132359,-0.00038485031109303236,0.01898692548274994
0.02391935884952545,0.004186877515166998,-0.015767186880111694,0.011777733452618122,-0.0005633188993670046,0.0192981269210577
0.02393295243382454,0.00458028819411993,-0.016325024887919426,0.012161403894424438,-0.0005271756672300398,0.020255522802472115
0.02373332343995571,0.00424120482057333,-0.016942793503403664,0.012424854561686516,-0.0005191330565139651,0.020095687359571457
0.022679055109620094,0.0045728012919425964,-0.01769251562654972,0.012038294225931168,-0.0004692897491622716,0.019794872030615807
0.024445120245218277,0.004370119888335466,-0.016903091222047806,0.012516704387962818,-0.0004847168456763029,0.020901279523968697
0.024943333119153976,0.004301358945667744,-0.016814909875392914,0.011919114738702774,-0.00046529294922947884,0.02132757380604744
0.024488141760230064,0.004123842343688011,-0.016894152387976646,0.011905682273209095,-0.00043427367927506566,0.02049836702644825
0.024479389190673828,0.004386033862829208,-0.016448600217700005,0.01197254192084074,-0.0004603157576639205,0.01997225359082222
0.024367958307266235,0.0042053465731441975,-0.017202721908688545,0.012515981681644917,-0.00043595899478532374,0.019942132756114006
0.02411808632314205,0.004520781338214874,-0.016802795231342316,0.011783735826611519,-0.00042246925295330584,0.020377356559038162
0.024550234898924828,0.0047227549366652966,-0.017561882734298706,0.012431353330612183,-0.0003909645602107048,0.02108771726489067
0.02469615265727043,0.0044592758640646935,-0.016940709203481674,0.012710881419479847,-0.0004268964403308928,0.021388506516814232
0.02526540495455265,0.004293879494071007,-0.01666797511279583,0.01307524275034666,-0.00044864314259029925,0.02085283026099205
0.025224655866622925,0.0044888840056955814,-0.01721247285604477,0.01268305629491806,-0.00043328877654857934,0.020608477294445038
0.024798858910799026,0.004549799486994743,-0.01684528961777687,0.01242646761238575,-0.00046035138075239956,0.020899083465337753
0.02496974729001522,0.004344766493886709,-0.017265399917960167,0.012736327946186066,-0.0004360492166597396,0.02066558599472046
0.025516880676150322,0.004572125151753426,-0.017245694994926453,0.01248063426464796,-0.0005482597625814378,0.0207088440656662
0.02518473193049431,0.004513159394264221,-0.017335666343569756,0.013021540828049183,-0.0005810817237943411,0.020667674019932747
0.025513507425785065,0.004317684564739466,-0.017327871173620224,0.012772541493177414,-0.0005685507203452289,0.020686231553554535
0.025832051411271095,0.004388285335153341,-0.016638020053505898,0.012910607270896435,-0.0005803271778859198,0.021094366908073425
0.02545028179883957,0.004133939277380705,-0.018140191212296486,0.012651828117668629,-0.0005493483622558415,0.020740462467074394
0.026084696874022484,0.00433863140642643,-0.01622059941291809,0.012546971440315247,-0.0005595363909378648,0.02061087265610695
0.02613978274166584,0.004298701416701078,-0.01648402027785778,0.012691403739154339,-0.000534523744136095,0.020615704357624054
0.025837235152721405,0.004126998595893383,-0.017798297107219696,0.012675495818257332,-0.0004985719569958746,0.021275566890835762
0.025837235152721405,0.004126998595893383,-0.017798297107219696,0.012675495818257332,-0.0004985719569958746,0.021275566890835762
0.02628684975206852,0.004434983246028423,-0.017263762652873993,0.013209567405283451,-0.0005171034717932343,0.0214325413107872
0.02646482177078724,0.00418442627415061,-0.017147261649370193,0.01291972491890192,-0.0005269100074656308,0.02137569896876812
0.025998540222644806,0.0039390819147229195,-0.016492629423737526,0.013515392318367958,-0.000519066583365202,0.021299147978425026
0.026201380416750908,0.004107833374291658,-0.016892045736312866,0.01336555927991867,-0.0005342360818758607,0.021150484681129456
0.02653135173022747,0.004531460348516703,-0.017119448632001877,0.013872412033379078,-0.0005091953207738698,0.020975491032004356
0.027387691661715508,0.004249770659953356,-0.017236249521374702,0.013113393448293209,-0.00047219457337632775,0.02112232893705368
0.0249098502099514,0.00468873605132103,-0.016645843163132668,0.012695548124611378,-0.0004690531350206584,0.021486753597855568
0.026737971231341362,0.0044643874280154705,-0.017255282029509544,0.012986301444470882,-0.00048240742762573063,0.02156435139477253
0.027661597356200218,0.004051650874316692,-0.017088359221816063,0.013024256564676762,-0.0004745411279145628,0.021738538518548012
0.027261309325695038,0.00396109651774168,-0.017072241753339767,0.01263351459056139,-0.0005061577539891005,0.02106369659304619
0.027052227407693863,0.004096941091120243,-0.01774105429649353,0.013189458288252354,-0.00047214803635142744,0.021242674440145493
0.02776970900595188,0.004533376079052687,-0.017080731689929962,0.012766962870955467,-0.0004347744397819042,0.02189006842672825
0.02796177752315998,0.0046697817742824554,-0.01713733561336994,0.013292682357132435,-0.00046028514043428004,0.022035812959074974
0.02827148139476776,0.004417735151946545,-0.01690799929201603,0.013193460181355476,-0.0004362856852822006,0.022375375032424927
0.027398843318223953,0.004427123814821243,-0.017141439020633698,0.013608596287667751,-0.0004589362069964409,0.021764570847153664
0.027160247787833214,0.004332460928708315,-0.017072683200240135,0.012945085763931274,-0.00043793171062134206,0.021096285432577133
0.028501328080892563,0.004075957927852869,-0.01685507409274578,0.013298002071678638,-0.0004862879868596792,0.02099548652768135
0.02812126651406288,0.00423980550840497,-0.01772734709084034,0.013150293380022049,-0.0004497747286222875,0.021761002019047737
0.02794850617647171,0.0045875320211052895,-0.01717386767268181,0.01340190228074789,-0.00048015612992458045,0.02234635502099991
0.027832219377160072,0.004655977711081505,-0.01742134988307953,0.01338769868016243,-0.00044977563084103167,0.021880531683564186
0.028268763795495033,0.00437973951920867,-0.017778150737285614,0.013337954878807068,-0.00048014766070991755,0.02231132611632347
0.02805042266845703,0.004503995645791292,-0.01680729351937771,0.013916720636188984,-0.0004973584436811507,0.022839216515421867
0.027924608439207077,0.004105085507035255,-0.017230425029993057,0.01370682381093502,-0.00047923444071784616,0.02278336137533188
0.0280136875808239,0.004071136470884085,-0.01686846651136875,0.013974159955978394,-0.0005703342030756176,0.022350750863552094
0.028065135702490807,0.004033183213323355,-0.01757468283176422,0.01365142036229372,-0.0005737346364185214,0.022397033870220184
0.027525942772626877,0.00396613497287035,-0.01793927326798439,0.013735995627939701,-0.0005603896570391953,0.021914923563599586
0.02808235213160515,0.004302093293517828,-0.017215868458151817,0.013583977706730366,-0.0005893757333979011,0.022289402782917023
0.028407031670212746,0.004617209546267986,-0.017512591555714607,0.014433713629841805,-0.0005438097286969423,0.022749943658709526
0.028177952393889427,0.004163961857557297,-0.01713910698890686,0.014065206982195377,-0.000567366078030318,0.023192327469587326
0.028177952393889427,0.004163961857557297,-0.01713910698890686,0.014065206982195377,-0.000567366078030318,0.023192327469587326
0.028376907110214233,0.00383284711278975,-0.017382623627781868,0.014500865712761879,-0.0005340567440725863,0.023128986358642578
0.028616011142730713,0.004236031323671341,-0.017661066725850105,0.013679884374141693,-0.0005869042361155152,0.022844403982162476
0.02826543338596821,0.004133999347686768,-0.016908586025238037,0.014172932133078575,-0.0006167186656966805,0.023043494671583176
0.02711092121899128,0.003901544725522399,-0.017617778852581978,0.013271676376461983,-0.0005648961523547769,0.022780651226639748
0.028959136456251144,0.004131013061851263,-0.018136221915483475,0.013506270945072174,-0.0005912940250709653,0.02291792631149292
0.029294118285179138,0.004619868006557226,-0.017671002075076103,0.013111218810081482,-0.000602424144744873,0.02332962676882744
0.029575005173683167,0.004200200084596872,-0.018028289079666138,0.013716614805161953,-0.0005725121591240168,0.023342415690422058
0.028856400400400162,0.003917079884558916,-0.017290599644184113,0.013379963114857674,-0.000611690164078027,0.022831937298178673
0.02861054055392742,0.00419272156432271,-0.01761350966989994,0.013765965588390827,-0.0006747590960003436,0.023173296824097633
0.029640579596161842,0.004229087848216295,-0.01758258417248726,0.013529147021472454,-0.0006748950108885765,0.023179559037089348
0.029270606115460396,0.004101198632270098,-0.018034163862466812,0.01322751585394144,-0.0006567485979758203,0.02351880818605423
0.02915021777153015,0.004038389306515455,-0.01797262579202652,0.013115709647536278,-0.0008069025934673846,0.023586371913552284
0.029424043372273445,0.003984495997428894,-0.017697151750326157,0.013607691042125225,-0.000818720378447324,0.024766823276877403
0.02956901118159294,0.00382048892788589,-0.017769426107406616,0.013590958900749683,-0.0007834919961169362,0.022851334884762764
0.02905259281396866,0.004228338599205017,-0.017311524599790573,0.014473906718194485,-0.0007432036218233407,0.022867150604724884
0.02894544042646885,0.004157909192144871,-0.018847785890102386,0.013561911880970001,-0.0007562123937532306,0.02363499253988266
0.029384279623627663,0.003973467741161585,-0.018426576629281044,0.013682657852768898,-0.000725615827832371,0.02382544055581093
0.02954900451004505,0.004059376660734415,-0.01754726469516754,0.012770683504641056,-0.0006578403990715742,0.02393931709229946
0.029879717156291008,0.0039657349698245525,-0.01888270676136017,0.01360875740647316,-0.000682575860992074,0.02400435507297516
0.0299410168081522,0.0044812471605837345,-0.017969610169529915,0.013333514332771301,-0.0006866580224595964,0.02351962961256504
0.02990579605102539,0.004264737945050001,-0.017846770584583282,0.01370688620954752,-0.000684219179674983,0.023532243445515633
0.02955477312207222,0.00447358563542366,-0.01810159534215927,0.013676165603101254,-0.0006624871166422963,0.023802945390343666
0.02982446551322937,0.004116510972380638,-0.017978541553020477,0.014060978777706623,-0.0006928577204234898,0.024328727275133133
0.030208541080355644,0.003967844415456057,-0.018899567425251007,0.013853445649147034,-0.0007350587984547019,0.02411946840584278
0.030548246577382088,0.0038907905109226704,-0.018759923055768013,0.014708491042256355,-0.0007143112015910447,0.02373923920094967
0.030324865132570267,0.004353344440460205,-0.017847832292318344,0.014321091584861279,-0.0006847445038147271,0.023769184947013855
0.030134428292512894,0.004138607997447252,-0.01833440735936165,0.014209468849003315,-0.0006966881337575614,0.0237661674618721
0.030592545866966248,0.0042505525052547455,-0.018170783296227455,0.013858792372047901,-0.0006447974592447281,0.02395246922969818
0.030809473246335983,0.004532319959253073,-0.018159886822104454,0.01439682301133871,-0.0006779056275263429,0.02422545664012432
0.030809473246335983,0.004532319959253073,-0.018159886822104454,0.01439682301133871,-0.0006779056275263429,0.02422545664012432
0.030975474044680595,0.003975334111601114,-0.018160685896873474,0.01431582123041153,-0.00063736317679286,0.02409670688211918
0.030975474044680595,0.003975334111601114,-0.018160685896873474,0.01431582123041153,-0.00063736317679286,0.02409670688211918
0.030620163306593895,0.004345935303717852,-0.018415361642837524,0.014042297378182411,-0.0006590664270333946,0.024215353652834892
0.030449097976088524,0.00444054463878274,-0.018384912982583046,0.014499558135867119,-0.0006648031994700432,0.024678343906998634
0.030754247680306435,0.00434139184653759,-0.017588481307029724,0.014503519050776958,-0.0006304663838818669,0.02462240308523178
0.030650610104203224,0.004024973139166832,-0.018414057791233063,0.014623965136706829,-0.0006614392623305321,0.023744087666273117
0.03081917017698288,0.0038314557168632746,-0.0181915070861578,0.014897148124873638,-0.0006183303776197135,0.02391626499593258
0.03129378333687782,0.0038758534938097,-0.018374428153038025,0.014452812261879444,-0.0006360216066241264,0.02470243163406849
0.031231794506311417,0.003756518941372633,-0.01830548606812954,0.014931798912584782,-0.0005875776405446231,0.02459821105003357
0.03140838071703911,0.0035352937411516905,-0.018195025622844696,0.014884141273796558,-0.0006094390409998596,0.024535270407795906
0.03146238252520561,0.0035798572935163975,-0.018296968191862106,0.015067714266479015,-0.0005694636492989957,0.025601236149668694
0.031405478715896606,0.003968366887420416,-0.017949817702174187,0.014482221566140652,-0.0006207890692166984,0.025706853717565536
0.03150203078985214,0.003880533156916499,-0.01840178482234478,0.014540002681314945,-0.0006043348112143576,0.02487201988697052
0.03116936981678009,0.003537998301908374,-0.018650025129318237,0.014346268959343433,-0.0006310973549261689,0.02358202449977398
0.030976248905062675,0.0035926825366914272,-0.01784893125295639,0.015100873075425625,-0.0006500742165371776,0.02460576593875885
0.031908757984638214,0.0038202570285648108,-0.018403559923171997,0.014577211812138557,-0.0006109491805545986,0.025184867903590202
0.03204987198114395,0.0038851469289511442,-0.018476232886314392,0.014705996960401535,-0.0007458324544131756,0.025247890502214432
0.03176583722233772,0.003984039183706045,-0.017739957198500633,0.014511575922369957,-0.0007649558247067034,0.024840274825692177
0.030919376760721207,0.0039336769841611385,-0.01818927377462387,0.015245026908814907,-0.0006839886773377657,0.02440062165260315
0.03168477490544319,0.003877846524119377,-0.01802603341639042,0.01460878923535347,-0.0006949292728677392,0.024938426911830902
0.0322871208190918,0.003806177293881774,-0.018407555297017097,0.014950398355722427,-0.0006803100113756955,0.02501511387526989
0.03231297433376312,0.00371503084897995,-0.018680432811379433,0.014899352565407753,-0.0006583150243386626,0.02498697303235531
0.032864995300769806,0.0036907438188791275,-0.017996767535805702,0.015265783295035362,-0.0006206042016856372,0.024752331897616386
0.03191690519452095,0.00419720821082592,-0.018109137192368507,0.014771067537367344,-0.0005642086616717279,0.02459154650568962
0.03160763159394264,0.0036910376511514187,-0.01828612945973873,0.01532498188316822,-0.00059563695685938,0.024982547387480736
0.031034020707011223,0.003474240656942129,-0.018020661547780037,0.014815601520240307,-0.0006258051726035774,0.025494033470749855
0.03189942240715027,0.0034839839208871126,-0.018609296530485153,0.015319286845624447,-0.0006507994839921594,0.025745093822479248
0.03279207646846771,0.0036762298550456762,-0.018701652064919472,0.014769640751183033,-0.0008103648433461785,0.02598363719880581
0.030850453302264214,0.0037567326799035072,-0.01847529411315918,0.01524840947240591,-0.0008761123172007501,0.025911346077919006
0.03333354368805885,0.00372899672947824,-0.018313635140657425,0.015301575884222984,-0.0008660875027999282,0.02557895891368389
0.03306873142719269,0.00371582736261189,-0.017773021012544632,0.015245586633682251,-0.0008413760806433856,0.02565951459109783
0.032023679465055466,0.0035833786241710186,-0.018336599692702293,0.015022811479866505,-0.000797948450781405,0.025699671357870102
0.032023679465055466,0.0035833786241710186,-0.018336599692702293,0.015022811479866505,-0.000797948450781405,0.025699671357870102
0.0326453298330307,0.004163110163062811,-0.018579088151454926,0.01489737443625927,-0.0008292046841233969,0.025835661217570305
0.032241497188806534,0.0040779709815979,-0.018471447750926018,0.014579045586287975,-0.0008390945731662214,0.026292406022548676
0.032639533281326294,0.003929073456674814,-0.018637340515851974,0.014884810894727707,-0.0008390435250476003,0.02582043968141079
0.032932497560977936,0.003821508027613163,-0.018566330894827843,0.014679798856377602,-0.0008489530882798135,0.026005830615758896
0.03310088813304901,0.00376824289560318,-0.018667910248041153,0.014969115145504475,-0.0008666686480864882,0.025835193693637848
0.03317565470933914,0.003809609217569232,-0.018647098913788795,0.014609712176024914,-0.0008080663392320275,0.026004113256931305
0.032594405114650726,0.003817891702055931,-0.019133467227220535,0.014779201708734035,-0.0008077218662947416,0.027192777022719383
0.03353621065616608,0.004304757807403803,-0.019820239394903183,0.014542637392878532,-0.0008175932453013957,0.027278941124677658
0.03462173789739609,0.004136000759899616,-0.019513048231601715,0.01518611516803503,-0.000848618452437222,0.026935936883091927
0.033463701605796814,0.004039891064167023,-0.018265951424837112,0.015352173708379269,-0.0008582191076129675,0.02583502233028412
0.033006224781274796,0.004030550830066204,-0.019831575453281403,0.016073530539870262,-0.000881219981238246,0.025831623002886772
0.034385405480861664,0.003988064359873533,-0.02015053853392601,0.01545571070164442,-0.0008419172372668982,0.026823589578270912
0.03360603377223015,0.003949972800910473,-0.019353607669472694,0.015487687662243843,-0.0008044303976930678,0.02676234394311905
0.034282371401786804,0.00392476562410593,-0.01947355456650257,0.015148413367569447,-0.0008446088177151978,0.026728814467787743
0.0348895862698555,0.003942063543945551,-0.020098473876714706,0.016069788485765457,-0.0008547985344193876,0.02741450071334839
0.03502368554472923,0.003944638185203075,-0.018944643437862396,0.016560807824134827,-0.0008362699882127345,0.027565529569983482
0.03338709473609924,0.0034684420097619295,-0.019407419487833977,0.015292172320187092,-0.0008151799556799233,0.02693518064916134
0.03374358266592026,0.003596080932766199,-0.019687959924340248,0.0152520090341568,-0.0007757135317660868,0.026774326339364052
0.03488384187221527,0.003729417221620679,-0.01960921101272106,0.01569279283285141,-0.0007508706767112017,0.026396628469228745
0.03480184078216553,0.004244863521307707,-0.020213274285197258,0.015685608610510826,-0.0007644539000466466,0.02718006819486618
0.03430885449051857,0.003609694540500641,-0.01992037706077099,0.01518765278160572,-0.0007378302398137748,0.028129227459430695
0.034734997898340225,0.0035538244992494583,-0.019224192947149277,0.015998275950551033,-0.0007046913960948586,0.027907509356737137
0.03484838083386421,0.003703030990436673,-0.01938037760555744,0.015970822423696518,-0.0007210109615698457,0.02770543284714222
0.03460921347141266,0.003444618545472622,-0.02006341889500618,0.01687013916671276,-0.0007132664904929698,0.02786494418978691
0.03521284833550453,0.003416301915422082,-0.019614100456237793,0.016206732019782066,-0.0006651966832578182,0.02743902988731861
0.03513773903250694,0.0035209967754781246,-0.019215406849980354,0.016200881451368332,-0.0006905191694386303,0.027247555553913116
0.03489359840750694,0.0037085337098687887,-0.01964595913887024,0.015975341200828552,-0.0006680774968117476,0.027435410767793655
0.03489359840750694,0.0037085337098687887,-0.01964595913887024,0.015975341200828552,-0.0006680774968117476,0.027435410767793655
0.03515414893627167,0.0036908083129674196,-0.01981794461607933,0.015763696283102036,-0.0006443974561989307,0.02782949060201645
0.035559870302677155,0.0034394306130707264,-0.01966647431254387,0.015778450295329094,-0.0007048235274851322,0.02764977142214775
0.03557030111551285,0.003586712060496211,-0.020105857402086258,0.01650029420852661,-0.0007329759537242353,0.027838021516799927
0.03558267652988434,0.0036564841866493225,-0.019266687333583832,0.01600639894604683,-0.0007539798971265554,0.028040021657943726
0.03422871232032776,0.003592035500332713,-0.019724689424037933,0.016781453043222427,-0.0007453489815816283,0.028269581496715546
0.03594085946679115,0.003500348888337612,-0.019904963672161102,0.01619306206703186,-0.0007180399843491614,0.028394771739840508
0.036298662424087524,0.0035517942160367966,-0.01952504925429821,0.016608791425824165,-0.0008355175377801061,0.02832985483109951
0.035632334649562836,0.003935498185455799,-0.019694864749908447,0.01685253530740738,-0.0008512705680914223,0.028520427644252777
0.03565230593085289,0.003943783696740866,-0.019963081926107407,0.016658848151564598,-0.0009173470316454768,0.028868278488516808
0.03627396747469902,0.003923453856259584,-0.019529609009623528,0.017039678990840912,-0.0008682288462296128,0.028444483876228333
0.035929933190345764,0.004247331526130438,-0.0198198314756155,0.016566583886742592,-0.0009212477598339319,0.028313584625720978
0.03590257093310356,0.003992739133536816,-0.019898314028978348,0.017107529565691948,-0.0009204188827425241,0.028699615970253944
0.03628445416688919,0.0038397039752453566,-0.019028490409255028,0.01694147102534771,-0.0009174234583042562,0.028818881139159203
0.03638840466737747,0.004389913287013769,-0.01938573829829693,0.016367804259061813,-0.0008921537664718926,0.028907181695103645
0.036426328122615814,0.0045563168823719025,-0.02000192180275917,0.016685081645846367,-0.0008169363136403263,0.028039393946528435
0.03580411151051521,0.00432538753375411,-0.01997189037501812,0.016477400436997414,-0.0007707227487117052,0.029300590977072716
0.03731667995452881,0.0040651545859873295,-0.019733818247914314,0.017009105533361435,-0.0007627895683981478,0.029305944219231606
0.0380464531481266,0.004025117959827185,-0.01935969665646553,0.01672813482582569,-0.0006943965563550591,0.029345007613301277
0.03604810684919357,0.004061236046254635,-0.019552089273929596,0.017127998173236847,-0.0007051893626339734,0.030010709539055824
0.035672783851623535,0.004227130673825741,-0.019805459305644035,0.017291154712438583,-0.0006449747597798705,0.029357224702835083
0.036979254335165024,0.004023262299597263,-0.020227700471878052,0.016775459051132202,-0.0006633878801949322,0.028377868235111237
0.03704828396439552,0.0037791498471051455,-0.02000916376709938,0.01691860519349575,-0.0006656338227912784,0.02840278670191765
0.03801415488123894,0.0037462173495441675,-0.01959601789712906,0.016748744994401932,-0.0006756149814464152,0.02932162769138813
0.03778859227895737,0.003813093528151512,-0.020298905670642853,0.017085904255509377,-0.0007003631326369941,0.029373452067375183
0.03650354966521263,0.004207278601825237,-0.021167563274502754,0.016799934208393097,-0.0006977614830248058,0.029662098735570908
0.03639316186308861,0.004021586384624243,-0.020432623103260994,0.01710496097803116,-0.0006805318989790976,0.030957505106925964
0.038021270185709,0.003881600918248296,-0.02033030241727829,0.017434872686862946,-0.0009059740114025772,0.0304871816188097
0.03767179325222969,0.004206485580652952,-0.020326483994722366,0.016949480399489403,-0.0008835929911583662,0.029718700796365738
0.03767179325222969,0.004206485580652952,-0.020326483994722366,0.016949480399489403,-0.0008835929911583662,0.029718700796365738
0.037502966821193695,0.004234998021274805,-0.020309414714574814,0.017234519124031067,-0.0008276816224679351,0.02914549969136715
0.037697404623031616,0.003683574730530381,-0.021097984164953232,0.01660900004208088,-0.0007504370878450572,0.03098113462328911
