davideferrari95/blind_handover_controller/data/Test 231 - [2024-02-08 -- 12-28-34]/joint_states_data.csv
shoulder_pan_joint,shoulder_lift_joint,elbow_joint,wrist_1_joint,wrist_2_joint,wrist_3_joint
0.006297432351857424,0.009227268397808075,-0.01199400145560503,0.004456085152924061,-0.00017524375289212912,0.006080036051571369
0.006297432351857424,0.009227268397808075,-0.01199400145560503,0.004456085152924061,-0.00017524375289212912,0.006080036051571369
0.006148728542029858,0.00866536796092987,-0.011411136947572231,0.004108813125640154,-0.00018519762670621276,0.005920041352510452
0.006325452588498592,0.0083232456818223,-0.011886771768331528,0.004391326103359461,-0.00019397582218516618,0.005401621572673321
0.006325452588498592,0.0083232456818223,-0.011886771768331528,0.004391326103359461,-0.00019397582218516618,0.005401621572673321
0.006742705591022968,0.00959095824509859,-0.012233068235218525,0.004418914671987295,-0.00018822283891495317,0.005844467785209417
0.006174497772008181,0.0083558214828372,-0.012067173607647419,0.004363641142845154,-0.000196809894987382,0.005620475858449936
0.0059399972669780254,0.00824879202991724,-0.012110278010368347,0.004130683373659849,-0.00020434563339222223,0.005753247998654842
0.006726485211402178,0.008787913247942924,-0.011369673535227776,0.003979796078056097,-0.00019880662148352712,0.00613252492621541
0.0068803150206804276,0.008598580956459045,-0.012249530293047428,0.004184872377663851,-0.00020629203936550766,0.005867625121027231
0.006238142028450966,0.008136346004903316,-0.011930382810533047,0.004119862802326679,-0.00021286780247464776,0.006362851709127426
0.005704411305487156,0.00792302843183279,-0.011881258338689804,0.004379339516162872,-0.00020755932200700045,0.006064931862056255
0.0057933395728468895,0.008598062209784985,-0.012607655487954617,0.004196014255285263,-0.00020179565763100982,0.005912721157073975
0.006181089207530022,0.008442824706435204,-0.011429698206484318,0.0042801108211278915,-0.0003054373955819756,0.00613264599815011
0.006107746157795191,0.007635314948856831,-0.01214044913649559,0.004271826706826687,-0.0003007835475727916,0.005609108135104179
0.005961718503385782,0.008010578341782093,-0.01215795986354351,0.004507896024733782,-0.000282898370642215,0.005793808493763208
0.005966166965663433,0.00835407990962267,-0.012331674806773663,0.00412362115457654,-0.0002662208571564406,0.006027583498507738
0.005972308572381735,0.008146410807967186,-0.011314254254102707,0.003995771985501051,-0.0002884042332880199,0.006274801213294268
0.00608212873339653,0.007627096027135849,-0.011185993440449238,0.00398526294156909,-0.0002847953583113849,0.006101990584284067
0.0064104218035936356,0.0080880643799901,-0.012328055687248707,0.003960545174777508,-0.00027124499320052564,0.0059728375636041164
0.006058798637241125,0.008317817002534866,-0.01187178771942854,0.0038407237734645605,-0.00025831538368947804,0.006119780242443085
0.00588566018268466,0.007991154678165913,-0.011878320947289467,0.003771952586248517,-0.00024652256979607046,0.006179668940603733
0.006524316035211086,0.007471572142094374,-0.01199658215045929,0.004250770900398493,-0.00023575735394842923,0.005876411218196154
0.006260052789002657,0.008390593342483044,-0.011556809768080711,0.004263509530574083,-0.0002443068951833993,0.006369008682668209
0.006154952570796013,0.00850696861743927,-0.012266364879906178,0.004472955130040646,-0.00025170197477564216,0.005923162214457989
0.006481190212070942,0.007892114110291004,-0.01176206860691309,0.00420759990811348,-0.000243109418079257,0.006370378192514181
0.005687064956873655,0.007592503447085619,-0.011936784721910954,0.003951902501285076,-0.00023414594761561602,0.005262875463813543
0.0059882174246013165,0.008548982441425323,-0.012522970326244831,0.004349884577095509,-0.00022575882030650973,0.006300030741840601
0.006124136038124561,0.007922477088868618,-0.012277494184672832,0.004149623680859804,-0.00023676606360822916,0.0056287446059286594
0.006110630463808775,0.008318576961755753,-0.011600411497056484,0.0045582326129078865,-0.00023270247038453817,0.005411183461546898
0.006278773304075003,0.008397841826081276,-0.01195963192731142,0.004337985999882221,-0.00022564359824173152,0.005516804754734039
0.00616407161578536,0.008221643045544624,-0.01193161215633154,0.004327430389821529,-0.00021880098211113364,0.005952466279268265
0.006461047101765871,0.008161419071257114,-0.012007283978164196,0.004296963568776846,-0.00021234844462014735,0.00612416910007596
0.006785918027162552,0.008396649733185768,-0.012071446515619755,0.004076747223734856,-0.00020669575314968824,0.0062540434300899506
0.005783179774880409,0.008240148425102234,-0.0119475731626153,0.004318828694522381,-0.00019893069111276418,0.005976165644824505
0.005783179774880409,0.008240148425102234,-0.0119475731626153,0.004318828694522381,-0.00019893069111276418,0.005976165644824505
0.006109202280640602,0.00807040836662054,-0.01297504361718893,0.004248361568897963,-0.00019059315673075616,0.0058637959882617
0.006436657626181841,0.00786793977022171,-0.011818607337772846,0.004848065786063671,-0.00018285270198248327,0.006071032490581274
0.006229483988136053,0.008750646375119686,-0.012353511527180672,0.004772583022713661,-0.00017571212083566934,0.005963686853647232
0.0061065335758030415,0.008156951516866684,-0.012409263290464878,0.004430040251463652,-0.00016910767590161413,0.005604578647762537
0.006098921876400709,0.008033921010792255,-0.01201264001429081,0.003675963031128049,-0.0001870952546596527,0.005544976331293583
0.005832960829138756,0.008218655362725258,-0.012274150736629963,0.003582881297916174,-0.00018818759417627007,0.0059747835621237755
0.006309620104730129,0.008625945076346397,-0.012004416435956955,0.003953087609261274,-0.0001823302445700392,0.0063920654356479645
0.006550656631588936,0.007934058085083961,-0.011988523416221142,0.0041870842687785625,-0.00017640585429035127,0.0062149567529559135
0.006238171830773354,0.007910196669399738,-0.01188486535102129,0.004015006590634584,-0.00018478985293768346,0.005824618507176638
0.006146534346044064,0.008094774559140205,-0.012811116874217987,0.003852932248264551,-0.00019223877461627126,0.005558578763157129
0.00653406698256731,0.00776577228680253,-0.010936204344034195,0.003985865507274866,-0.00018737619393505156,0.00557086942717433
0.006574768107384443,0.008167427033185959,-0.011898155324161053,0.0038135878276079893,-0.0001820178731577471,0.005401737987995148
0.006226003635674715,0.008341330103576183,-0.012205234728753567,0.0035984497517347336,-0.00017690990353003144,0.005820884369313717
0.006134702358394861,0.008385147899389267,-0.011431494727730751,0.00361777120269835,-0.0001720775180729106,0.005795137025415897
0.0059275501407682896,0.008187562227249146,-0.011909935623407364,0.004073633812367916,-0.0001898258924484253,0.005940373986959457
0.006462025921791792,0.00784220453351736,-0.011625070124864578,0.004154615569859743,-0.00018636822642292827,0.0056330496445298195
0.0068263704888522625,0.009023989550769329,-0.012002375908195972,0.004179047886282206,-0.00018175828154198825,0.005773179233074188
0.00678135734051466,0.008298642933368683,-0.012101266533136368,0.00375125790014863,-0.0001772887189872563,0.0062974183820188046
0.00590771809220314,0.007983957417309284,-0.011569949798285961,0.003575366921722889,-0.00017302835476584733,0.005815219134092331
0.005840579513460398,0.00798793975263834,-0.011916541494429111,0.003997338470071554,-0.00020884066179860383,0.005806174129247665
0.00626338692381978,0.008283519186079502,-0.011525806039571762,0.004261733964085579,-0.0001966003474080935,0.005585265811532736
0.006441264878958464,0.007815422490239143,-0.011794453486800194,0.004064551554620266,-0.00018839319818653166,0.005462991073727608
0.005942394025623798,0.008143271319568157,-0.011470837518572807,0.004264318849891424,-0.00021452721557579935,0.005796587560325861
0.00601018825545907,0.008296318352222443,-0.011780926957726479,0.0047369906678795815,-0.00020844289974775165,0.005666675046086311
0.00601018825545907,0.008296318352222443,-0.011780926957726479,0.0047369906678795815,-0.00020844289974775165,0.005666675046086311
0.007578075397759676,0.00838326197117567,-0.01133605744689703,0.004803156014531851,-0.00020083313575014472,0.005583302583545446
0.006427586544305086,0.007946589961647987,-0.01195367518812418,0.004756604321300983,-0.00020944976131431758,0.0055013010278344154
0.005864767357707024,0.008330383338034153,-0.011666130274534225,0.0042868382297456264,-0.00021701726655010134,0.00552905909717083
0.006334650795906782,0.008098064921796322,-0.011281884275376797,0.00441477308049798,-0.0002107237814925611,0.005605640355497599
0.006579856853932142,0.00807158276438713,-0.01185478176921606,0.00455131521448493,-0.00020396399486344308,0.005668841768056154
0.006569510791450739,0.0078086284920573235,-0.011592971161007881,0.004337876569479704,-0.00019757113477680832,0.005655485671013594
0.0065838368609547615,0.008763590827584267,-0.011117519810795784,0.004403295461088419,-0.00019156312919221818,0.005688584875315428
0.006440186407417059,0.008026049472391605,-0.011746340431272984,0.004566075745970011,-0.0001859097246779129,0.005323933437466621
0.006610766518861055,0.00789165124297142,-0.011560211889445782,0.004238829016685486,-0.00018058049317914993,0.005688077304512262
0.0063864560797810555,0.007711403537541628,-0.011699607595801353,0.003936834167689085,-0.00019894209981430322,0.005846235901117325
0.006453390698879957,0.007977797649800777,-0.011883996427059174,0.0042810095474123955,-0.0001950773730641231,0.005626239348202944
0.0068063451908528805,0.008141412399709225,-0.011933750472962856,0.004198387265205383,-0.00019002794579137117,0.005657949019223452
0.006149795837700367,0.008326332084834576,-0.01161943469196558,0.004469276871532202,-0.00018514777184464037,0.0054174731485545635
0.006113847251981497,0.00818545650690794,-0.011201952584087849,0.004343612585216761,-0.00018050610378850251,0.005205878056585789
0.006797885987907648,0.007892095483839512,-0.011870468966662884,0.004300056491047144,-0.00021233726874925196,0.005661803763359785
0.006997526157647371,0.0075067742727696896,-0.011708693578839302,0.003952987492084503,-0.00020787831454072148,0.005445410497486591
0.006937106605619192,0.007813780568540096,-0.011846902780234814,0.003752978751435876,-0.00019903141946997494,0.005769108887761831
0.0060034142807126045,0.008449619635939598,-0.011387616395950317,0.0037783849984407425,-0.00019062160572502762,0.00544165400788188
0.006400431040674448,0.00833754800260067,-0.011018002405762672,0.0042755985632538795,-0.0001828749809646979,0.005116709973663092
0.0066731590777635574,0.007948127575218678,-0.011595389805734158,0.004476103000342846,-0.0002017182850977406,0.005563887767493725
0.006571895908564329,0.007797421887516975,-0.011572832241654396,0.0044152564369142056,-0.0002023532142629847,0.005759805906563997
0.006108222994953394,0.007852244190871716,-0.010711167007684708,0.004118779674172401,-0.0001955599436769262,0.005600585602223873
0.006429659202694893,0.007824178785085678,-0.011729177087545395,0.0043688430450856686,-0.0002120358549291268,0.00534532917663455
0.0063695404678583145,0.007968920283019543,-0.011604630388319492,0.004201696719974279,-0.00020579453848768026,0.0056938123889267445
0.0064031099900603294,0.008233803324401379,-0.011152267456054688,0.004327874165028334,-0.00022402018657885492,0.005672324448823929
0.006296203937381506,0.008297399617731571,-0.010791516862809658,0.004153082612901926,-0.0002205579075962305,0.0054181660525500774
0.006234086584299803,0.00797368586063385,-0.011453456245362759,0.00454147532582283,-0.00021421746350824833,0.005749272648245096
0.006498670671135187,0.007823573425412178,-0.011113286018371582,0.004657430108636618,-0.00027931967633776367,0.005592609755694866
0.006721511483192444,0.007876894436776638,-0.011088655330240726,0.00438729440793395,-0.00028494911384768784,0.005760524421930313
0.006473106797784567,0.00786401517689228,-0.011138923466205597,0.004174767527729273,-0.00026941110263578594,0.005467402283102274
0.006473106797784567,0.00786401517689228,-0.011138923466205597,0.004174767527729273,-0.00026941110263578594,0.005467402283102274
0.00610474543645978,0.007690023630857468,-0.01076600607484579,0.004155718255788088,-0.0002917638048529625,0.005306621547788382
0.006409117486327887,0.008346849121153355,-0.01113125029951334,0.003956852946430445,-0.00028794462559744716,0.005112760234624147
0.006693536881357431,0.0077547053806483746,-0.011275961995124817,0.004328933544456959,-0.0002740932977758348,0.00522147212177515
0.006701983045786619,0.008063736371695995,-0.01095664408057928,0.004595077130943537,-0.00026089695165865123,0.00557712884619832
0.006412307731807232,0.007846489548683167,-0.011541930958628654,0.004804470110684633,-0.0002691366826184094,0.005319777876138687
0.006475883070379496,0.008183898404240608,-0.011949296109378338,0.00441048014909029,-0.00027617107843980193,0.005285642575472593
0.006706819869577885,0.007935701869428158,-0.011704180389642715,0.004024196416139603,-0.00026575144147500396,0.004898269660770893
0.0066283149644732475,0.007545703090727329,-0.01130610890686512,0.004253858234733343,-0.00025506981182843447,0.005187292117625475
0.0062483916990458965,0.008261287584900856,-0.01077003963291645,0.004483712371438742,-0.00027550896629691124,0.0054402220994234085
0.00639846408739686,0.008407496847212315,-0.011414608918130398,0.004303364548832178,-0.00026936997892335057,0.005358561407774687
0.006707142572849989,0.007698690518736839,-0.011201778426766396,0.00451015355065465,-0.00025991693837568164,0.005320799071341753
0.006760813761502504,0.007968129590153694,-0.011346432380378246,0.004656761419028044,-0.0002508767938707024,0.005164770875126123
0.006418990436941385,0.008285806514322758,-0.01165754534304142,0.004325017333030701,-0.00024320730881299824,0.005232047289609909
0.006428916938602924,0.008180083706974983,-0.011670193634927273,0.003988063428550959,-0.0002705472579691559,0.005457425024360418
0.0066897254437208176,0.007767011411488056,-0.011691058054566383,0.0038841490168124437,-0.00025779136922210455,0.0051825339905917645
0.006924256682395935,0.0075636147521436214,-0.011211533099412918,0.004042453598231077,-0.00024398870300501585,0.005092115607112646
0.006475773174315691,0.00809585303068161,-0.011147623881697655,0.004223945550620556,-0.0002314467856194824,0.005021877586841583
0.0063241696916520596,0.007870721630752087,-0.011706290766596794,0.004406376741826534,-0.00022012248518876731,0.004835161846131086
0.006455160677433014,0.0075464993715286255,-0.01150352880358696,0.004545378964394331,-0.00024620667682029307,0.004936561919748783
0.007168421056121588,0.007684968411922455,-0.011449200101196766,0.0041695586405694485,-0.00024023500736802816,0.005092870444059372
0.0073378970846533775,0.0074266172014176846,-0.011138156987726688,0.0038378273602575064,-0.00022091015125624835,0.005514262709766626
0.0065714698284864426,0.007322706747800112,-0.011571730487048626,0.0040976861491799355,-0.00021222772193141282,0.005454568658024073
0.006564771756529808,0.007727204356342554,-0.011295224539935589,0.004137224983423948,-0.00023592465731780976,0.005071305204182863
0.006895524449646473,0.008087411522865295,-0.011870458722114563,0.004071981180459261,-0.00022940152848605067,0.004883249290287495
0.006895524449646473,0.008087411522865295,-0.011870458722114563,0.004071981180459261,-0.00022940152848605067,0.004883249290287495
0.00659114308655262,0.008161468431353569,-0.012098664417862892,0.00439585791900754,-0.00022147115669213235,0.0050721983425319195
0.0065190354362130165,0.007817978970706463,-0.011862330138683319,0.004087417386472225,-0.00021395740623120219,0.0052992068231105804
0.006529905367642641,0.008418142795562744,-0.011664196848869324,0.0038336939178407192,-0.00020692967518698424,0.004960974212735891
0.00684104859828949,0.007639723364263773,-0.011257573030889034,0.0037201365921646357,-0.0002215373533545062,0.004598401952534914
0.007017103955149651,0.007409363519400358,-0.011897978372871876,0.0037850476801395416,-0.00022142654052004218,0.004475923255085945
0.006910060998052359,0.00730859162285924,-0.011601283214986324,0.0040885452181100845,-0.00021524443582165986,0.004613117314875126
0.006610990036278963,0.008075179532170296,-0.012056089006364346,0.004499227274209261,-0.000209023681236431,0.005118561442941427
0.0073125469498336315,0.007713353261351585,-0.011848417110741138,0.0046622613444924355,-0.0002031277253990993,0.005458675790578127
0.006845373194664717,0.007774943020194769,-0.011246291920542717,0.0048308176919817924,-0.00019755421089939773,0.00528554804623127
0.00682973163202405,0.006999300327152014,-0.011699670925736427,0.004435465671122074,-0.00019227821030654013,0.004883413203060627
0.006695043295621872,0.008120753802359104,-0.011558535508811474,0.004002920351922512,-0.00019474010332487524,0.004710338544100523
0.0068448674865067005,0.007650163024663925,-0.011114843189716339,0.004107776563614607,-0.00018793811614159495,0.004870008677244186
0.007422294467687607,0.006945529952645302,-0.010596522130072117,0.0042149075306952,-0.00018048596393782645,0.0048329634591937065
0.0069741299375891685,0.0069871265441179276,-0.011751334182918072,0.0044255550019443035,-0.00017353043949697167,0.004679640289396048
0.006779523100703955,0.00807057786732912,-0.012224001809954643,0.004531055223196745,-0.00016708638577256352,0.004665244836360216
0.006622862070798874,0.007869037799537182,-0.011369196698069572,0.004689304623752832,-0.00016110367141664028,0.0050618210807442665
0.006835226435214281,0.006908639799803495,-0.010851913131773472,0.004494601394981146,-0.0001555345515953377,0.004742329008877277
0.007019433658570051,0.007099356967955828,-0.01177943218499422,0.004441170021891594,-0.0001503377134213224,0.004628583323210478
0.006966675631701946,0.007517724297940731,-0.011285847052931786,0.004547873977571726,-0.00014547696628142148,0.004911246243864298
0.0072438823990523815,0.007181989029049873,-0.01135934330523014,0.004218273796141148,-0.0001409208489349112,0.0045173573307693005
0.007048900704830885,0.007078760769218206,-0.011263211257755756,0.0040468862280249596,-0.0001366414362564683,0.004527535289525986
0.007341993506997824,0.007011608686298132,-0.010968342423439026,0.004529902245849371,-0.00015735258057247847,0.004764769226312637
0.006849248427897692,0.006763129029422998,-0.011236307211220264,0.004627451300621033,-0.00015027135668788105,0.004539806861430407
0.00679786317050457,0.006837090011686087,-0.011885584332048893,0.004526843316853046,-0.000146209160448052,0.004407959990203381
0.007087051402777433,0.007381947711110115,-0.011258678510785103,0.004303151275962591,-0.00014235505659598857,0.004184761084616184
0.007092042360454798,0.0070955753326416016,-0.010845675133168697,0.004458990413695574,-0.00013869843678548932,0.004310782998800278
0.007005331572145224,0.007305633742362261,-0.011609320528805256,0.004668904468417168,-0.00013522525841835886,0.004705494735389948
0.006900464650243521,0.006722343619912863,-0.011065280064940453,0.004793901462107897,-0.0001319214643444866,0.004849791061133146
0.006900464650243521,0.006722343619912863,-0.011065280064940453,0.004793901462107897,-0.0001319214643444866,0.004849791061133146
0.007788445800542831,0.0070016346871852875,-0.011409741826355457,0.004464695695787668,-0.00012577566667459905,0.00445749843493104
0.007788445800542831,0.0070016346871852875,-0.011409741826355457,0.004464695695787668,-0.00012577566667459905,0.00445749843493104
0.00699978182092309,0.007138668093830347,-0.011034488677978516,0.0042771147564053535,-0.00012291273742448539,0.004321188200265169
0.007478040177375078,0.006927269510924816,-0.011820074170827866,0.0045134443789720535,-0.0001201772756758146,0.004423254635185003
0.006867689546197653,0.00685265613719821,-0.012099459767341614,0.00435708649456501,-0.00011756077583413571,0.004595296923071146
0.0069136423990130424,0.007531049195677042,-0.011775948107242584,0.0043201809749007225,-0.00011505598376970738,0.004750554915517569
0.006858320441097021,0.006926053669303656,-0.011592294089496136,0.004200681112706661,-0.00011265547072980553,0.00438683619722724
0.006831109523773193,0.006751316599547863,-0.01119903288781643,0.0047538704238832,-0.0001103533068089746,0.004235093016177416
0.007085369434207678,0.006638204678893089,-0.011587765999138355,0.004538418725132942,-0.00010814327833941206,0.00416585011407733
0.007408776320517063,0.0069814641028642654,-0.01142222061753273,0.004569689743220806,-0.00010601992107694969,0.004431800451129675
0.007412408944219351,0.0076835681684315205,-0.010711929760873318,0.004140743054449558,-0.00010397850564913824,0.0040703751146793365
0.007353063672780991,0.007017721422016621,-0.011592141352593899,0.0042895544320344925,-0.00010201414988841861,0.003833082038909197
0.007392465602606535,0.007215382996946573,-0.011103642173111439,0.004899884108453989,-0.00010012274287873879,0.004265212453901768
0.007495932746678591,0.00664164824411273,-0.011191600933670998,0.004979663994163275,-9.830003546085209e-05,0.004507864359766245
0.0077956742607057095,0.007050125859677792,-0.01172721292823553,0.004885834641754627,-9.654255700297654e-05,0.004434181377291679
0.007295361720025539,0.006796532776206732,-0.011045081540942192,0.005014025140553713,-9.484686597716063e-05,0.004570296499878168
0.007246075198054314,0.006771800108253956,-0.011440251022577286,0.005039213690906763,-9.320971730630845e-05,0.004912259057164192
0.007315211929380894,0.00720610236749053,-0.011007765308022499,0.00472794845700264,-9.162810601992533e-05,0.004518193658441305
0.007211717776954174,0.006977565586566925,-0.010866623371839523,0.004835184663534164,-9.009934728965163e-05,0.004142140503972769
0.006953864824026823,0.007364429999142885,-0.01158976461738348,0.005212404299527407,-8.862059621606022e-05,0.0040745981968939304
0.007273118477314711,0.007466650102287531,-0.01119588129222393,0.004810572136193514,-8.718980825506151e-05,0.004353347234427929
0.007656793110072613,0.006863386370241642,-0.011370101943612099,0.004589329473674297,-8.5804371337872e-05,0.004397720564156771
0.0073018805123865604,0.007331911940127611,-0.010791681706905365,0.004605918191373348,-8.316151797771454e-05,0.004700205288827419
0.007576050236821175,0.00700173107907176,-0.0113283172249794,0.004175175912678242,-8.190023072529584e-05,0.00472223898395896
0.008002471178770065,0.006821064278483391,-0.010874655097723007,0.005024466663599014,-8.067665476119146e-05,0.004372621886432171
0.008510824292898178,0.007117169909179211,-0.010950508527457714,0.004858730360865593,-7.94891529949382e-05,0.004070791881531477
0.007904655300080776,0.007149184122681618,-0.011661980301141739,0.004645980894565582,-7.833595736883581e-05,0.0038273788522928953
0.007904655300080776,0.007149184122681618,-0.011661980301141739,0.004645980894565582,-7.833595736883581e-05,0.0038273788522928953
0.008474398404359818,0.007329670712351799,-0.011110817082226276,0.004492360632866621,-7.721579459030181e-05,0.004145628307014704
0.007884889841079712,0.0074437386356294155,-0.011307134293019772,0.004275714512914419,-7.612719491589814e-05,0.0043089985847473145
0.007920780219137669,0.006967994850128889,-0.011191735044121742,0.0044335862621665,-7.506900146836415e-05,0.004037437029182911
0.007646508514881134,0.0074668461456894875,-0.011169458739459515,0.004701478872448206,-7.403967902064323e-05,0.00388542003929615
0.008099271915853024,0.006859942805022001,-0.011446618475019932,0.004722800571471453,-7.303832535399124e-05,0.004202398471534252
0.008251340128481388,0.006425730884075165,-0.010473036207258701,0.004398869816213846,-7.206360169220716e-05,0.004096407908946276
0.00816518347710371,0.006836579646915197,-0.01089482568204403,0.004281001631170511,-7.111454760888591e-05,0.004304181318730116
0.007961736060678959,0.007015175186097622,-0.011098283343017101,0.004210300277918577,-7.019018812570721e-05,0.004174640867859125
0.007806560955941677,0.007184539921581745,-0.010801424272358418,0.004395631141960621,-6.928958464413881e-05,0.0040051997639238834
0.008244665339589119,0.007288266904652119,-0.011477915570139885,0.0045486195012927055,-6.841172580607235e-05,0.003705803072080016
0.007764410227537155,0.007073068525642157,-0.011339100077748299,0.004727555438876152,-6.755589129170403e-05,0.0037946642842143774
0.007599715143442154,0.007693605963140726,-0.011581716127693653,0.004465166945010424,-6.672126619378105e-05,0.0041716815903782845
0.0080956369638443,0.007140530273318291,-0.011913700960576534,0.004459149204194546,-6.590688280994073e-05,0.003817004384472966
0.00831232313066721,0.006741510704159737,-0.011445622891187668,0.004665856249630451,-6.51122463750653e-05,0.003522418439388275
0.00794604979455471,0.006543071009218693,-0.011483841575682163,0.0048095183447003365,-6.433646194636822e-05,0.003645094344392419
0.008183211088180542,0.006900312379002571,-0.011222190223634243,0.004815935157239437,-6.357898382702842e-05,0.003335722256451845
0.007814210839569569,0.007238102611154318,-0.011442207731306553,0.004735194146633148,-6.28391862846911e-05,0.003400132292881608
0.007814210839569569,0.007238102611154318,-0.011442207731306553,0.004735194146633148,-6.28391862846911e-05,0.003400132292881608
0.008599475026130676,0.007224075496196747,-0.01162788923829794,0.004274601116776466,-6.071941970731132e-05,0.0037779738195240498
0.008042695932090282,0.00769497686997056,-0.012017783708870411,0.00440369313582778,-6.0044250858481973e-05,0.003941286355257034
0.00793998409062624,0.00693135429173708,-0.010777941904962063,0.00439583882689476,-1.5257968698279e-05,0.0036048521287739277
0.008914721198379993,0.006666706409305334,-0.011688701808452606,0.00481485016644001,-9.962362810256309e-07,0.0035558685194700956
0.008650954812765121,0.006665377877652645,-0.011398809030652046,0.005200333893299103,-6.504710370336397e-08,0.0034097027964890003
0.008650954812765121,0.006665377877652645,-0.011398809030652046,0.005200333893299103,-6.504710370336397e-08,0.0034097027964890003
0.007893851026892662,0.006977410521358252,-0.01193410437554121,0.004546632058918476,-2.773060114868997e-10,0.0037523373030126095
0.008389648050069809,0.007162791211158037,-0.012075668200850487,0.00456693209707737,-1.810609995267498e-11,0.0034239557571709156
0.008389648050069809,0.007162791211158037,-0.012075668200850487,0.00456693209707737,-1.810609995267498e-11,0.0034239557571709156
0.00871297251433134,0.007037616800516844,-0.011841812171041965,0.004699424374848604,-1.1821988700477792e-12,0.0035195357631891966
0.008349713869392872,0.006541355047374964,-0.01157824695110321,0.004695312585681677,-7.718912992506557e-14,0.0037005911581218243
0.008405708707869053,0.007217776495963335,-0.01234259270131588,0.00525170611217618,-5.0398989757222904e-15,0.0039035289082676172
0.009184351190924644,0.007140898611396551,-0.011711103841662407,0.005235415883362293,-3.290694148023191e-16,0.0036113038659095764
0.008150335401296616,0.006611398421227932,-0.011273223906755447,0.004624250810593367,-2.148588240780566e-17,0.003384244628250599
0.008153107948601246,0.0068765371106565,-0.011803596280515194,0.004400317557156086,-1.4028746408449006e-18,0.0034366976469755173
0.008939545601606369,0.00699417432770133,-0.01157272420823574,0.004293272737413645,-9.15976964970432e-20,0.0033861759584397078
0.008590416982769966,0.007228423375636339,-0.012672259472310543,0.004329746123403311,-5.9806749640910785e-21,0.003183140652254224
0.008122923783957958,0.0066180177964270115,-0.011780406348407269,0.00457086693495512,-3.9049533673622486e-22,0.0034949888940900564
0.008412995375692844,0.006184867117553949,-0.011412532068789005,0.004864690825343132,-2.549655401431667e-23,0.0037644701078534126
0.008420721627771854,0.006659293081611395,-0.011809088289737701,0.0050209579057991505,-1.66474283183399e-24,0.0038422292564064264
0.008343289606273174,0.007459488231688738,-0.012196425348520279,0.004814081825315952,-1.0869581292762566e-25,0.0034307376481592655
0.008167312480509281,0.0069992379285395145,-0.01236647181212902,0.004691502079367638,-7.09706031915872e-27,0.0032090190798044205
0.00879634264856577,0.006420955993235111,-0.01222755666822195,0.004464861936867237,-4.633873150078215e-28,0.002994756679981947
0.008631912991404533,0.006400249432772398,-0.012300495989620686,0.004518469329923391,-3.0255880953102917e-29,0.002800647635012865
0.00823485292494297,0.007018955424427986,-0.011993974447250366,0.005069983657449484,-1.9754929239580184e-30,0.002452000742778182
0.008917409926652908,0.007019440643489361,-0.011449729092419147,0.005220736376941204,-1.289855492576781e-31,0.0024840477854013443
0.008828682824969292,0.006902746856212616,-0.012641245499253273,0.005038021598011255,-8.421834419254064e-33,0.0030278433114290237
0.008512303233146667,0.0063747260719537735,-0.012172901071608067,0.00442345067858696,-5.498856043971118e-34,0.0036080775316804647
0.008818654343485832,0.007133746054023504,-0.01174903754144907,0.004578369669616222,-2.344248478451948e-36,0.0030418531969189644
0.0090236347168684,0.007059367373585701,-0.011577339842915535,0.004876855760812759,-1.5306268779865288e-37,0.002743247663602233
0.008672748692333698,0.006938932929188013,-0.012450186535716057,0.0054009114392101765,-9.993899498241198e-39,0.0027952357195317745
0.008672748692333698,0.006938932929188013,-0.012450186535716057,0.0054009114392101765,-9.993899498241198e-39,0.0027952357195317745
0.009178608655929565,0.007025120314210653,-0.012659833766520023,0.004936073906719685,-4.260507850933174e-41,0.002991554792970419
0.008598235435783863,0.006807445082813501,-0.012388144619762897,0.004826531745493412,-2.781577451684762e-42,0.0029582257848232985
0.008598235435783863,0.006807445082813501,-0.012388144619762897,0.004826531745493412,-2.781577451684762e-42,0.0029582257848232985
0.009340581484138966,0.00675896555185318,-0.012200893834233284,0.004701272584497929,-1.821688003622262e-43,0.0029339727479964495
0.00886931549757719,0.006691469345241785,-0.011685041710734367,0.005000448320060968,-1.1210387714598537e-44,0.0028456500731408596
0.008789272978901863,0.007472096476703882,-0.011360270902514458,0.005492142401635647,-1.401298464324817e-45,0.0027827201411128044
0.009067578241229057,0.007577918004244566,-0.01231760997325182,0.005301567725837231,-0.0,0.002765549346804619
0.008895070292055607,0.006612103898078203,-0.012751834467053413,0.005239478312432766,-0.0,0.003007926745340228
0.00937871914356947,0.006502748932689428,-0.012635058723390102,0.004878771957010031,-0.0,0.003207720350474119
0.008975409902632236,0.006850092206150293,-0.01193082332611084,0.00488465279340744,-0.0,0.003108392469584942
0.00943942740559578,0.0071838065050542355,-0.011629357933998108,0.00516142463311553,-0.0,0.002722871256992221
0.008876625448465347,0.007321980781853199,-0.011910712346434593,0.005386299453675747,-0.0,0.0026735577266663313
0.00876479223370552,0.007452307268977165,-0.01180692482739687,0.004962712060660124,-0.0,0.002733801258727908
0.009104595519602299,0.006941024214029312,-0.0121056092903018,0.004382033832371235,-0.0,0.0027745699044317007
0.009208646602928638,0.007169067859649658,-0.012073551304638386,0.004411827307194471,-0.0,0.0026562337297946215
0.008720402605831623,0.007489299867302179,-0.011735627427697182,0.004596766084432602,-0.0,0.002793349325656891
0.009470885619521141,0.006742309313267469,-0.011435735039412975,0.004889553412795067,-0.0,0.0028795215766876936
0.00907252449542284,0.006593090482056141,-0.011525011621415615,0.005526058375835419,-0.0,0.0029250076040625572
0.008720794692635536,0.007083234842866659,-0.012647947296500206,0.005333750508725643,-0.0,0.0028273893985897303
0.008891230449080467,0.007041087374091148,-0.011759515851736069,0.0050221034325659275,-0.0,0.003014157060533762
0.009343372657895088,0.00696369307115674,-0.011744520626962185,0.005135207902640104,-0.0,0.0029366377275437117
0.009241555817425251,0.00678310776129365,-0.011595137417316437,0.005118691828101873,-0.0,0.002599595580250025
0.009100123308598995,0.007026118226349354,-0.012825468555092812,0.005337683483958244,-0.0,0.0024355703499168158
0.008844944648444653,0.007092269137501717,-0.011821676045656204,0.0049527594819664955,-0.0,0.0023500982206314802
0.009572873823344707,0.00691035483032465,-0.011930896900594234,0.004996330477297306,-0.0,0.0023771668784320354
0.009306922554969788,0.007050515618175268,-0.011907828971743584,0.004926562774926424,-0.0,0.0024222347419708967
0.009547453373670578,0.007048279512673616,-0.011655238457024097,0.005084183067083359,-0.0,0.0023812681902199984
0.009547453373670578,0.007048279512673616,-0.011655238457024097,0.005084183067083359,-0.0,0.0023812681902199984
0.008936628699302673,0.006981567479670048,-0.011940410360693932,0.005481954663991928,-0.0,0.002515814732760191
0.00950909685343504,0.006833361461758614,-0.011855119839310646,0.005341044627130032,-0.0,0.0025814080145210028
0.009697586297988892,0.007396958768367767,-0.01253508124500513,0.005434991791844368,-0.0,0.0025190571323037148
0.009177381172776222,0.007515936624258757,-0.011860841885209084,0.005123660899698734,-0.0,0.0025460608303546906
0.009413483552634716,0.006688025780022144,-0.01153666153550148,0.0048398845829069614,-0.0,0.002487723482772708
0.009174056351184845,0.006929423660039902,-0.01253775879740715,0.005374537780880928,-0.0,0.0023333868011832237
0.009196744300425053,0.00678973738104105,-0.011489758267998695,0.005440818145871162,-0.0,0.0021587908267974854
0.009236663579940796,0.0071941884234547615,-0.01221092976629734,0.005767426919192076,-0.0,0.0020636110566556454
0.009977835230529308,0.007069437764585018,-0.01199366059154272,0.005492658820003271,-0.0,0.002090714406222105
0.00957595743238926,0.006911136209964752,-0.012183582410216331,0.005196292884647846,-0.0,0.002030320931226015
0.009178376756608486,0.006770845036953688,-0.012008244171738625,0.0051993727684021,-0.0,0.002221535425633192
0.00974196195602417,0.007306049577891827,-0.01129348948597908,0.005207830108702183,-0.0,0.0021888904739171267
0.009618346579372883,0.006801203358918428,-0.012358811683952808,0.005792689975351095,-0.0,0.002333135809749365
0.009513301774859428,0.0062305135652422905,-0.011686836369335651,0.0053945379331707954,-0.0,0.0022858616430312395
0.009941565804183483,0.00659197149798274,-0.01222335733473301,0.0049903192557394505,-0.0,0.0022490026894956827
0.009556363336741924,0.006953004747629166,-0.012399096041917801,0.0050650350749492645,-0.0,0.0023137489333748817
0.009402260184288025,0.006801608018577099,-0.011647391133010387,0.005179221276193857,-0.0,0.00213680905289948
0.010568689554929733,0.006787803955376148,-0.012052381411194801,0.005782614927738905,-0.0,0.0021433779038488865
0.009873494505882263,0.006678268313407898,-0.011749610304832458,0.005599083378911018,-0.0,0.002117347903549671
0.00949578732252121,0.006859613582491875,-0.012298199348151684,0.005443640984594822,-0.0,0.0022802322637289762
0.009972644038498402,0.0070580532774329185,-0.011905590072274208,0.00541018508374691,-0.0,0.0019207631703466177
0.009972644038498402,0.0070580532774329185,-0.011905590072274208,0.00541018508374691,-0.0,0.0019207631703466177
0.010044763796031475,0.0063773333095014095,-0.011371838860213757,0.0058609494008123875,-0.0,0.0017296839505434036
0.010044763796031475,0.0063773333095014095,-0.011371838860213757,0.0058609494008123875,-0.0,0.0017296839505434036
0.009999209083616734,0.006928152404725552,-0.01202602218836546,0.006186173763126135,-0.0,0.002138454234227538
0.009728753939270973,0.006349124945700169,-0.012582340277731419,0.005763934459537268,-0.0,0.0022425882052630186
0.009728753939270973,0.006349124945700169,-0.012582340277731419,0.005763934459537268,-0.0,0.0022425882052630186
0.009466771967709064,0.00643955310806632,-0.011780752800405025,0.005369232036173344,-0.0,0.0020366094540804625
0.010249161161482334,0.006426038220524788,-0.011445191688835621,0.005591386463493109,-0.0,0.001784973544999957
0.00999346375465393,0.007372745778411627,-0.012238024733960629,0.006040763109922409,-0.0,0.0014904531417414546
0.009917284362018108,0.006718351040035486,-0.011964257806539536,0.0063037388026714325,-0.0,0.001401529647409916
0.009990078397095203,0.006409971974790096,-0.012357342056930065,0.005624883342534304,-0.0,0.0013319822028279305
0.010484881699085236,0.006689965259283781,-0.012372534722089767,0.005110049620270729,-0.0,0.0013529587304219604
0.009715798310935497,0.006200403906404972,-0.01221730187535286,0.005714392755180597,-0.0,0.0014461101964116096
0.010244268923997879,0.006549126468598843,-0.012152808718383312,0.005744808819144964,-0.0,0.002064910950139165
0.01008471567183733,0.006546772550791502,-0.011501847766339779,0.005929320119321346,-0.0,0.0019516530446708202
0.00986852589994669,0.006774714216589928,-0.012035572901368141,0.0054167285561561584,-0.0,0.001908211736008525
0.010330218821763992,0.006082106381654739,-0.012168805114924908,0.005533529911190271,-0.0,0.0017852546880021691
0.009888258762657642,0.006551572121679783,-0.012154631316661835,0.0059070345014333725,-0.0,0.0015212369617074728
0.009898385033011436,0.006721602287143469,-0.012705499306321144,0.006033753510564566,-0.0,0.0013293849769979715
0.010651015676558018,0.006501735653728247,-0.011885073035955429,0.006006970070302486,-0.0,0.001262824167497456
0.010738085024058819,0.006707061547785997,-0.012930192984640598,0.005890757776796818,-0.0,0.0012127428781241179
0.009841080754995346,0.006425638683140278,-0.01165528129786253,0.005665764212608337,-0.0,0.0011859711958095431
0.010267331264913082,0.0069228787906467915,-0.012454786337912083,0.0056544579565525055,-0.0,0.0012045381590723991
0.010512126609683037,0.006626259069889784,-0.012819139286875725,0.006040164269506931,-0.0,0.0013603309635072947
0.010342302732169628,0.006177716422826052,-0.012893112376332283,0.0058932825922966,-0.0,0.001469245064072311
0.010342302732169628,0.006177716422826052,-0.012893112376332283,0.0058932825922966,-0.0,0.001469245064072311
0.011044069193303585,0.006781720090657473,-0.01250250544399023,0.00572708435356617,-0.0,0.001492481678724289
0.011044069193303585,0.006781720090657473,-0.01250250544399023,0.00572708435356617,-0.0,0.001492481678724289
0.010032759979367256,0.006388370413333178,-0.012511867098510265,0.006159852258861065,-0.0,0.0014037610962986946
0.00962265208363533,0.006170875858515501,-0.013357714749872684,0.006070123985409737,-0.0,0.0013821847969666123
0.009999055415391922,0.006188622210174799,-0.013105038553476334,0.006219580769538879,-0.0,0.0013411948457360268
0.01029194612056017,0.006899407599121332,-0.012785607948899269,0.006231899373233318,-0.0,0.0012648393167182803
0.010329002514481544,0.006456394214183092,-0.012588173151016235,0.006111344322562218,-0.0,0.0011680528987199068
0.011307695880532265,0.006032705307006836,-0.011867152526974678,0.006581855472177267,-0.0,0.0011492448393255472
0.010423531755805016,0.006311087403446436,-0.012706844136118889,0.006810515187680721,-0.0,0.0011181086301803589
0.00985328946262598,0.006909722927957773,-0.01276196725666523,0.006222360301762819,-0.0,0.001085464027710259
0.01058298721909523,0.006875632796436548,-0.013408390805125237,0.005966418422758579,-0.0,0.0010536061599850655
0.010361825115978718,0.006398869212716818,-0.012374965474009514,0.006525159347802401,-0.0,0.0009984313510358334
0.010562566109001637,0.006372399628162384,-0.012587251141667366,0.006608770694583654,-0.0,0.0009443012531846762
0.011205902323126793,0.006638725288212299,-0.01249243225902319,0.006429784931242466,-0.0,0.0008757440955378115
0.010461313650012016,0.006847260054200888,-0.012435682117938995,0.0065204971469938755,-0.0,0.0008744663791731
0.01023870985955,0.0065931761637330055,-0.012765323743224144,0.006565178744494915,-0.0,0.0007947063422761858
0.01091795228421688,0.006272556260228157,-0.012664061971008778,0.006468833889812231,-0.0,0.0007978980429470539
0.010373715311288834,0.006556565873324871,-0.012927268631756306,0.005931226536631584,-0.0,0.0008104857988655567
0.010429231449961662,0.0072649517096579075,-0.012468895874917507,0.006391494534909725,-0.0,0.0008208340150304139
0.010877583175897598,0.006999841425567865,-0.012858924455940723,0.006512732245028019,-0.0,0.0009495475678704679
0.010792652145028114,0.006567528937011957,-0.012603187002241611,0.00638900650665164,-0.0,0.0009533917182125151
0.010570844635367393,0.006292732432484627,-0.013031759299337864,0.0066343676298856735,-0.0,0.000945979030802846
0.01085803285241127,0.006498765200376511,-0.012865879572927952,0.0067472211085259914,-0.0,0.0009242586675100029
0.010426957160234451,0.007174694444984198,-0.012417139485478401,0.00617626029998064,-0.0,0.0008490254986099899
0.010577629320323467,0.0069011845625936985,-0.012898975051939487,0.006088043097406626,-0.0,0.0008102745632641017
0.010887091979384422,0.006243325769901276,-0.011995109729468822,0.006868611555546522,-0.0,0.0008111435454338789
0.010208296589553356,0.006270016077905893,-0.012832234613597393,0.006944040302187204,-0.0,0.0007765580667182803
0.010892733931541443,0.006836806423962116,-0.01234107930213213,0.006516172084957361,-0.0,0.0007373522385023534
0.010807037353515625,0.006861677393317223,-0.012932701967656612,0.006124158855527639,-0.0,0.0006630448624491692
0.010807037353515625,0.006861677393317223,-0.012932701967656612,0.006124158855527639,-0.0,0.0006630448624491692
0.011017213575541973,0.006409835070371628,-0.012176694348454475,0.006965515203773975,-0.0,0.0006152443820610642
0.010711228474974632,0.006711755879223347,-0.012513852678239346,0.006969159003347158,-0.0,0.0005752262659370899
0.011762437410652637,0.00679133553057909,-0.012378128245472908,0.006482969503849745,-0.0,0.0005331958527676761
0.01129266805946827,0.0064954510889947414,-0.012993241660296917,0.006339318584650755,-0.0,0.0004964452236890793
0.011261431500315666,0.0061280508525669575,-0.012215277180075645,0.0068231807090342045,-0.0,0.0004644067957997322
0.011468606069684029,0.00619118707254529,-0.012575137428939342,0.006749325431883335,-0.0,0.0004362533218227327
0.011993448249995708,0.007196210790425539,-0.012367368675768375,0.006349804345518351,-0.0,0.0003811227506957948
0.012871396727859974,0.006787898018956184,-0.013101494871079922,0.0063694254495203495,-0.0,0.0003268654108978808
0.012282428331673145,0.0063760788179934025,-0.012939897365868092,0.0066695199348032475,-0.0,0.000303089153021574
0.012200657278299332,0.006634935270994902,-0.012761195190250874,0.0068280380219221115,-0.0,0.00032563440618105233
0.012511110864579678,0.006822630763053894,-0.012875473126769066,0.0066919163800776005,-0.0,0.0003194082237314433
0.011962939985096455,0.00660583283752203,-0.01206910889595747,0.006394595373421907,-0.0,0.0003023702884092927
0.012252229265868664,0.006689102854579687,-0.012652786448597908,0.006632566452026367,-0.0,0.00028638390358537436
0.012203213758766651,0.006737965624779463,-0.012591123580932617,0.007117284461855888,-0.0,0.0002719597250688821
0.012756587006151676,0.00648590549826622,-0.012713308446109295,0.006887340452522039,-0.0,0.0002589159121271223
0.012363509275019169,0.006532183848321438,-0.012764783576130867,0.006434172857552767,-0.0,0.00024706654949113727
0.01241719163954258,0.006885438691824675,-0.012546679936349392,0.006301753222942352,-0.0,0.00023625466565135866
0.012760640121996403,0.0066140927374362946,-0.012651764787733555,0.0067541650496423244,-0.0,0.00022634933702647686
0.012548658065497875,0.006476417649537325,-0.01214866153895855,0.007037487346678972,-0.0,0.00021724159887526184
0.013089175336062908,0.00648203631862998,-0.013066515326499939,0.007129748351871967,-0.0,0.00020883858087472618
0.01270824484527111,0.006183037534356117,-0.011954153887927532,0.006850898265838623,-0.0,0.00020106101874262094
0.012897174805402756,0.0063631306402385235,-0.012524813413619995,0.006590339355170727,-0.0,0.00019384267216082662
0.012827571481466293,0.0065142991952598095,-0.012556234374642372,0.006933285389095545,-0.0,0.00018712457676883787
0.012827571481466293,0.0065142991952598095,-0.012556234374642372,0.006933285389095545,-0.0,0.00018712457676883787
0.012935986742377281,0.00634998083114624,-0.012197914533317089,0.007137680891901255,-0.0,0.0001808563683880493
0.012597847729921341,0.006780603900551796,-0.012146941386163235,0.0066039846278727055,-0.0,0.00016950155259110034
0.012958606705069542,0.006681844592094421,-0.01301889680325985,0.007202448323369026,-0.0,0.00016434250574093312
0.01241264957934618,0.0061158896423876286,-0.012191159650683403,0.007088272366672754,-0.0,0.00015948795771691948
0.012709013186395168,0.006411110982298851,-0.012693135999143124,0.006399729289114475,-0.0,0.00015491231170017272
0.012460793368518353,0.006460828240960836,-0.01204419694840908,0.006071743555366993,-0.0,0.0001505919499322772
0.012910651974380016,0.007124324794858694,-0.012054012157022953,0.00686743063852191,-0.0,0.00014650585944764316
0.012959044426679611,0.00645057950168848,-0.012520247139036655,0.007593594025820494,-0.0,0.00014263574848882854
0.012886895798146725,0.006462812423706055,-0.012122775427997112,0.006777290254831314,-0.0,0.0001389649696648121
0.012910132296383381,0.006832607090473175,-0.013113764114677906,0.006504352670162916,-0.0,0.00013547834532801062
0.01291314885020256,0.006962093524634838,-0.012166563421487808,0.006792837288230658,-0.0,0.00013216235674917698
0.013164469972252846,0.006406538188457489,-0.012529147788882256,0.007434933912009001,-0.0,0.00012900483852718025
0.013158961199223995,0.006332010962069035,-0.01224181242287159,0.00711551820859313,-0.0,0.00011567282490432262
0.013431386090815067,0.0068007404915988445,-0.012422455474734306,0.007141618523746729,-0.0,0.00010329864744562656
0.012485664337873459,0.006173769477754831,-0.012783152051270008,0.006647105328738689,-0.0,0.00010035969171440229
0.013266532681882381,0.006437952630221844,-0.012007016688585281,0.007100946269929409,-0.0,9.812969801714644e-05
0.012743933126330376,0.006554369814693928,-0.01267393771559,0.0074735707603394985,-0.0,7.934750465210527e-05
0.013133884407579899,0.0063646938651800156,-0.012027964927256107,0.00725870905444026,-0.0,7.538538193330169e-05
0.012974186800420284,0.006217688787728548,-0.01274882908910513,0.007139207329601049,-0.0,7.369196100626141e-05
0.013102457858622074,0.006312199868261814,-0.012653705663979053,0.007187757175415754,-0.0,5.5355922086164355e-05
0.013471740297973156,0.00674422224983573,-0.012413430958986282,0.007249113172292709,-0.0,3.8837970350869e-06
0.012637360021471977,0.006640009582042694,-0.012674430385231972,0.006826040800660849,-0.0,-5.4021387768443674e-05
0.013102303259074688,0.006428387016057968,-0.012202396057546139,0.007134580984711647,-0.0,-6.636921170866117e-05
0.012933965772390366,0.006380646955221891,-0.013056674040853977,0.007093380205333233,-0.0,-8.467077714158222e-05
0.013102552853524685,0.006630541756749153,-0.011563250795006752,0.007367375306785107,-0.0,-0.00010391418618382886
0.012937923893332481,0.006647083908319473,-0.013530648313462734,0.00753408158197999,-0.0,-0.000653248920571059
0.012937923893332481,0.006647083908319473,-0.013530648313462734,0.00753408158197999,-0.0,-0.000653248920571059
0.013340079225599766,0.006421940866857767,-0.013122827745974064,0.007307183463126421,-0.0,-0.0007519780774600804
0.01371669489890337,0.006773455534130335,-0.012803115881979465,0.008122969418764114,-0.0,-0.0007417290471494198
0.013650293461978436,0.0068220105022192,-0.013752014376223087,0.007965530268847942,-0.0,-0.0006855298415757716
0.01331651583313942,0.006445153150707483,-0.013569911941885948,0.00757448747754097,-0.0,-0.0006622663931921124
0.013448395766317844,0.006441140081733465,-0.013240908272564411,0.007642602082341909,-0.0,-0.0006417742697522044
0.013651094399392605,0.006664487533271313,-0.013441143557429314,0.007766297552734613,-0.0,-0.0006662642699666321
0.01396938506513834,0.006745762191712856,-0.012998182326555252,0.007843464612960815,-0.0,-0.000695474969688803
0.01319797057658434,0.006445139180868864,-0.013642568141222,0.007565196603536606,-0.0,-0.0007416297448799014
0.013736344873905182,0.006278071086853743,-0.012776317074894905,0.007515016011893749,-0.0,-0.0011694194981828332
0.01354770828038454,0.0065496512688696384,-0.01343837846070528,0.00764121999964118,-0.0,-0.0013042836217209697
0.013576793484389782,0.007188235409557819,-0.013120785355567932,0.007816570810973644,-0.0,-0.0014837003545835614
0.013238836079835892,0.0069998749531805515,-0.013782096095383167,0.007544310297816992,-0.0,-0.0014853881439194083
0.013955764472484589,0.00611942308023572,-0.013203790411353111,0.007448519580066204,-0.0,-0.001363814459182322
0.013672885484993458,0.004927379544824362,-0.013320473954081535,0.00676812743768096,-0.0,-0.0012785340659320354
0.014404510147869587,0.004634960554540157,-0.01280213613063097,0.007983635179698467,-0.0,-0.0011066931765526533
0.013348553329706192,0.004959316458553076,-0.01335550844669342,0.007808221969753504,-0.0,-0.001026565209031105
0.01356033980846405,0.005875615868717432,-0.01337121706455946,0.00815526582300663,-0.0,-0.0010225269943475723
0.0134601891040802,0.0055028959177434444,-0.012838934548199177,0.007951747626066208,-0.0,-0.001006108708679676
0.014000060968101025,0.005025346297770739,-0.013702454045414925,0.007655729074031115,-0.0,-0.001233976217918098
0.014139984734356403,0.0053042517974972725,-0.013187862001359463,0.00772485975176096,-0.0,-0.0019374245312064886
0.014528018422424793,0.005403521005064249,-0.013409176841378212,0.008120507001876831,-0.0,-0.002669363282620907
0.014332053251564503,0.006008447613567114,-0.013100451789796352,0.00794179830700159,-0.0,-0.003194301389157772
0.014572837390005589,0.00558215007185936,-0.013860265724360943,0.007374057546257973,-0.0,-0.0026929727755486965
0.014518246054649353,0.005550973583012819,-0.013026229105889797,0.0070244139060378075,-0.0,-0.0023917173966765404
0.014587657526135445,0.005080072674900293,-0.01363613922148943,0.007034453563392162,-0.0,-0.0019777282141149044
0.014587657526135445,0.005080072674900293,-0.01363613922148943,0.007034453563392162,-0.0,-0.0019777282141149044
0.014586873352527618,0.005740517284721136,-0.013322027400135994,0.007328148931264877,-0.0,-0.002876648213714361
0.01514966320246458,0.005446318536996841,-0.013712606392800808,0.0080233383923769,-0.0,-0.003105707699432969
0.01514966320246458,0.005446318536996841,-0.013712606392800808,0.0080233383923769,-0.0,-0.003105707699432969
0.01475418359041214,0.00497437221929431,-0.013326436281204224,0.008119512349367142,-0.0,-0.0029491293244063854
0.015206176787614822,0.004833996295928955,-0.01328138168901205,0.008204298093914986,-0.0,-0.002576972357928753
0.014484855346381664,0.004947135224938393,-0.013482971116900444,0.007961086928844452,-0.0,-0.0022951816208660603
0.015057004056870937,0.005905213765799999,-0.01334679126739502,0.008408000692725182,-0.0,-0.0022040458861738443
0.014762312173843384,0.005480282474309206,-0.013621401973068714,0.008564199320971966,-0.0,-0.002710903063416481
0.015186256729066372,0.0053641460835933685,-0.012918760068714619,0.007989608682692051,-0.0,-0.003006529761478305
0.015012445859611034,0.005095173604786396,-0.013818382285535336,0.0082474984228611,-0.0,-0.003449387848377228
0.015412689186632633,0.004979677032679319,-0.013387089595198631,0.008268334902822971,-0.0,-0.0036219069734215736
0.014985795132815838,0.0056975232437253,-0.013725840486586094,0.008438680320978165,-0.0,-0.0031602371018379927
0.015164238400757313,0.005785229615867138,-0.013074317947030067,0.00862537045031786,-0.0,-0.0028630471788346767
0.015142511576414108,0.005703797563910484,-0.013544942252337933,0.008615443482995033,-0.0,-0.003016277216374874
0.015357489697635174,0.005183028522878885,-0.01338928658515215,0.008386438712477684,-0.0,-0.0036074956879019737
0.015531601384282112,0.005674532614648342,-0.013578828424215317,0.008266768418252468,-0.0,-0.003441409207880497
0.015447382815182209,0.005430698860436678,-0.013437489047646523,0.00859797839075327,-0.0,-0.0035767508670687675
0.015373552218079567,0.006036814302206039,-0.013538524508476257,0.0088422866538167,-0.0,-0.003649085992947221
0.015493989922106266,0.005945421289652586,-0.013321696780622005,0.00849352777004242,-0.0,-0.0036768363788723946
0.015536817722022533,0.00563219515606761,-0.013233027420938015,0.008525406941771507,-0.0,-0.0036671985872089863
0.015155431814491749,0.005496670491993427,-0.013659708201885223,0.008891423232853413,-0.0,-0.0036869633477181196
0.015907401219010353,0.005540277808904648,-0.013539377599954605,0.00904458574950695,-0.0,-0.0037718976382166147
0.015402333810925484,0.00555947283282876,-0.013668918050825596,0.008356353268027306,-5.559103101404617e-06,-0.004287887830287218
0.015691271051764488,0.006150216329842806,-0.013146509416401386,0.008913601748645306,-3.629697289397882e-07,-0.004118240904062986
0.015800558030605316,0.00563204288482666,-0.01373958494514227,0.009336654096841812,-2.369933227441834e-08,-0.004021255765110254
0.016196686774492264,0.005800151731818914,-0.013170373626053333,0.009242372587323189,-1.5473969883217364e-09,-0.0039443098939955235
0.01614367589354515,0.005541842896491289,-0.013639485463500023,0.009213373996317387,-1.0103397285465832e-10,-0.00433276267722249
0.01596219278872013,0.0059051513671875,-0.013261023908853531,0.009665357880294323,-6.596796459784615e-12,-0.004294630140066147
0.015737086534500122,0.005840363912284374,-0.01338653638958931,0.008605060167610645,-2.8123176056276018e-14,-0.004164285492151976
0.015737086534500122,0.005840363912284374,-0.01338653638958931,0.008605060167610645,-2.8123176056276018e-14,-0.004164285492151976
0.015979604795575142,0.005487987771630287,-0.014123350381851196,0.008923076093196869,-1.83624270404584e-15,-0.004511338658630848
0.015976794064044952,0.005677463486790657,-0.013494083657860756,0.008819738402962685,-1.1989351674712636e-16,-0.004782256670296192
0.016535213217139244,0.005974470172077417,-0.014306923374533653,0.008662719279527664,-0.0003269375301897526,-0.005060391966253519
0.016513658687472343,0.005933000240474939,-0.013859882019460201,0.008659926243126392,-0.00039576319977641106,-0.004661040846258402
0.016575787216424942,0.00605425052344799,-0.013590987771749496,0.008455510251224041,-0.0004383980995044112,-0.004413077607750893
0.017046472057700157,0.005543441046029329,-0.013755612075328827,0.008250036276876926,-0.00041000242345035076,-0.004580168519169092
0.016545496881008148,0.005738645326346159,-0.014443767257034779,0.008737113326787949,-0.00044044447713531554,-0.004697633907198906
0.016090508550405502,0.005509683396667242,-0.014303290285170078,0.008626758120954037,-0.0004589510499499738,-0.004622848238795996
0.015775952488183975,0.005984877701848745,-0.014876811765134335,0.008940787985920906,-0.00044448484550230205,-0.004787759389728308
0.01684647798538208,0.006262429989874363,-0.014016150496900082,0.009071392938494682,-0.0005816704360768199,-0.004861363209784031
0.016678158193826675,0.005770294927060604,-0.01446391548961401,0.009640910662710667,-0.0006300349486991763,-0.0048635718412697315
0.01695629209280014,0.005570749286562204,-0.014457209035754204,0.009485450573265553,-0.0005768436240032315,-0.004667812027037144
0.016818741336464882,0.005299325101077557,-0.014512860216200352,0.009117593057453632,-0.0006026552873663604,-0.005101283546537161
0.016123073175549507,0.006328056566417217,-0.01440197043120861,0.009125440381467342,-0.0005931759951636195,-0.004985400941222906
0.017441200092434883,0.006766637787222862,-0.014481964521110058,0.009175731800496578,-0.0005804428947158158,-0.005116246175020933
0.01725141517817974,0.005830264184623957,-0.014688624069094658,0.008490200154483318,-0.0006418577977456152,-0.005267780739814043
0.017225991934537888,0.005849876441061497,-0.014870825223624706,0.00927949883043766,-0.0006811486091464758,-0.0050961971282958984
0.017088210210204124,0.005844667553901672,-0.01462053507566452,0.009457425214350224,-0.000707231811247766,-0.004781677853316069
0.017119674012064934,0.006283943075686693,-0.01480510551482439,0.009582341648638248,-0.0007275387179106474,-0.004977184813469648
0.017846014350652695,0.006217408925294876,-0.014597252942621708,0.009858961217105389,-0.0009307460277341306,-0.005477756727486849
0.01727532595396042,0.005794092547148466,-0.015283426269888878,0.009784490801393986,-0.0010011564008891582,-0.006108210887759924
0.017144910991191864,0.006152150686830282,-0.015048865228891373,0.00907159224152565,-0.0008578520501032472,-0.005764124449342489
0.017156200483441353,0.005650194361805916,-0.015250395983457565,0.008828661404550076,-0.0008304403745569289,-0.005671984050422907
0.017352908849716187,0.005796162411570549,-0.015014752745628357,0.009199724532663822,-0.0008096245001070201,-0.00533321825787425
0.01834246702492237,0.0055915843695402145,-0.015878327190876007,0.009344741702079773,-0.0007709521451033652,-0.005480666179209948
0.017837565392255783,0.005413978360593319,-0.01581433229148388,0.010355958715081215,-0.000672201334964484,-0.006075023207813501
0.018096163868904114,0.00575659517198801,-0.014425776898860931,0.009297028183937073,-0.0006958958692848682,-0.0060061379335820675
0.01780366152524948,0.005454527214169502,-0.015416820533573627,0.00941559486091137,-0.0006712604081258178,-0.005589070729911327
0.01780366152524948,0.005454527214169502,-0.015416820533573627,0.00941559486091137,-0.0006712604081258178,-0.005589070729911327
0.018343472853302956,0.005801755003631115,-0.014717367477715015,0.010031510144472122,-0.0006924208137206733,-0.00614918814972043
0.01825871877372265,0.0054901945404708385,-0.015254572965204716,0.009373918175697327,-0.0009750282624736428,-0.006170529406517744
0.017869552597403526,0.0056398180313408375,-0.015181656926870346,0.010614624246954918,-0.0009793611243367195,-0.005979434587061405
0.018673814833164215,0.005475918762385845,-0.015468569472432137,0.010484438389539719,-0.0009858454577624798,-0.006095032673329115
0.018556023016572,0.005714301485568285,-0.015266680158674717,0.01001390628516674,-0.0010082866065204144,-0.006237287539988756
0.018294354900717735,0.005827608518302441,-0.015238906256854534,0.010356002487242222,-0.0009296799544245005,-0.006132554262876511
0.018697358667850494,0.005584804806858301,-0.015511266887187958,0.010214656591415405,-0.0009203890804201365,-0.006276222877204418
0.018633859232068062,0.005162184592336416,-0.015398463234305382,0.009659688919782639,-0.0009078190196305513,-0.006024331785738468
0.018953876569867134,0.005292937159538269,-0.015600659884512424,0.009305079467594624,-0.0008623315370641649,-0.006373521871864796
0.018989823758602142,0.005264571867883205,-0.015339277684688568,0.009787842631340027,-0.0008146475302055478,-0.006112871691584587
0.01884179189801216,0.005701614078134298,-0.016047175973653793,0.009858538396656513,-0.0007355521665886045,-0.005439805332571268
0.01885787397623062,0.005895388778299093,-0.015394574031233788,0.010338757187128067,-0.000699382449965924,-0.006617481354624033
0.019062010571360588,0.005514055024832487,-0.016127636656165123,0.010023028589785099,-0.0007204935536719859,-0.007019828073680401
0.018783211708068848,0.005027749575674534,-0.015620025806128979,0.009708108380436897,-0.000692418368998915,-0.007002048660069704
0.019293302670121193,0.005662613548338413,-0.015914225950837135,0.00981017667800188,-0.0007038759649731219,-0.006335650570690632
0.018954681232571602,0.005399321671575308,-0.015261583030223846,0.010038536041975021,-0.0006508707883767784,-0.006137053016573191
0.01873406581580639,0.00599283492192626,-0.015548383817076683,0.00986036192625761,-0.00059749954380095,-0.006476148031651974
0.01940085180103779,0.005387329962104559,-0.015636274591088295,0.010283539071679115,-0.0006080845487304032,-0.006690594367682934
0.019468192011117935,0.0049826474860310555,-0.015815608203411102,0.010027862153947353,-0.0006385950255207717,-0.007274124305695295
0.01913798600435257,0.005069915670901537,-0.015596526674926281,0.009619357995688915,-0.0006296905921772122,-0.006947208195924759
0.019389834254980087,0.005195613019168377,-0.01536277774721384,0.010355701670050621,-0.0006113730487413704,-0.006789211183786392
0.019752267748117447,0.005647738464176655,-0.01610204577445984,0.010352126322686672,-0.0005598084535449743,-0.006700264289975166
0.019615884870290756,0.0052221911028027534,-0.01563827320933342,0.010381311178207397,-0.0005408631404861808,-0.007135333027690649
0.01997557282447815,0.004930244293063879,-0.01564752496778965,0.010455116629600525,-0.0005050346371717751,-0.007367929443717003
0.01936180703341961,0.0048087895847857,-0.01616572216153145,0.010111748240888119,-0.0004923127708025277,-0.007169577293097973
0.01947156712412834,0.005038652569055557,-0.015258876606822014,0.010406793095171452,-0.0004624194116331637,-0.007236492354422808
0.01947156712412834,0.005038652569055557,-0.015258876606822014,0.010406793095171452,-0.0004624194116331637,-0.007236492354422808
0.01984795555472374,0.005327847320586443,-0.015680832788348198,0.0104481540620327,-0.00042051656055264175,-0.007086887024343014
0.020402997732162476,0.005048304330557585,-0.015611179172992706,0.010979984886944294,-0.00038462330121546984,-0.007264513988047838
0.020226124674081802,0.004893460310995579,-0.01586204022169113,0.010631601326167583,-0.00035431465948931873,-0.0076378886587917805
0.020085608586668968,0.0051611317321658134,-0.015991317108273506,0.009898191317915916,-0.0003894997062161565,-0.007453149650245905
0.019761674106121063,0.005019410513341427,-0.015368732623755932,0.010353711433708668,-0.00036699461634270847,-0.007101979572325945
0.01828777976334095,0.005378013011068106,-0.01579943671822548,0.010633580386638641,-0.0003438723215367645,-0.00772800762206316
0.020510833710432053,0.005261758808046579,-0.015499376691877842,0.010110989212989807,-0.00032329632085748017,-0.007715493906289339
0.021024663001298904,0.005467893555760384,-0.015916286036372185,0.00995807908475399,-0.00030502351000905037,-0.0079988744109869
0.020239055156707764,0.005116233602166176,-0.015456192195415497,0.010501540265977383,-0.0002887090086005628,-0.00777412299066782
0.019836043938994408,0.005201412830501795,-0.016154661774635315,0.010010442696511745,-0.00031359330751001835,-0.007466958370059729
0.02049366571009159,0.005527244880795479,-0.015544109977781773,0.010327309370040894,-0.00030388342565856874,-0.0073308926075696945
0.02033500373363495,0.005196825601160526,-0.015789728611707687,0.010415065102279186,-0.0002902309352066368,-0.007625785190612078
0.02054356411099434,0.005930149462074041,-0.01539051067084074,0.009748687036335468,-0.000277468265267089,-0.008051232434809208
0.020945027470588684,0.005435303319245577,-0.015720784664154053,0.010220355354249477,-0.0002657651493791491,-0.008242367766797543
0.020960524678230286,0.004934167489409447,-0.015918133780360222,0.010517304763197899,-0.0002865814312826842,-0.007776719518005848
0.019852839410305023,0.005274967290461063,-0.015461801551282406,0.01005234569311142,-0.0002797761117108166,-0.007554784882813692
0.020061932504177094,0.005197679158300161,-0.015822511166334152,0.01067859586328268,-0.00026958505623042583,-0.0076576117426157
0.020396780222654343,0.005966296885162592,-0.015168698504567146,0.010657072067260742,-0.00025987194385379553,-0.007831403985619545
0.021097008138895035,0.0054733892902731895,-0.015860334038734436,0.011018505319952965,-0.00025081902276724577,-0.007500041276216507
0.021258043125271797,0.004957795143127441,-0.015220658853650093,0.01068868301808834,-0.00024242083600256592,-0.0077334437519311905
0.021258441731333733,0.005153651349246502,-0.016077645123004913,0.01059256587177515,-0.00020479153317864984,-0.007660700008273125
0.02110082283616066,0.0050476728938519955,-0.015315648168325424,0.011010142974555492,-0.0001942088274518028,-0.008102111518383026
0.021038644015789032,0.0051958910189569,-0.015571966767311096,0.011059210635721684,-0.00018606298544909805,-0.007839083671569824
0.020999420434236526,0.00557317491620779,-0.015490919351577759,0.010967306792736053,-0.00017866682901512831,-0.008129599504172802
0.021535253152251244,0.005545510910451412,-0.01586134359240532,0.011735394597053528,-0.00018867031030822545,-0.008171155117452145
0.021484553813934326,0.0052371760830283165,-0.015777526423335075,0.011348716914653778,-0.00019150166190229356,-0.008499613031744957
0.021483618766069412,0.00552600622177124,-0.015675410628318787,0.011430606245994568,-0.00020782582578249276,-0.008540194481611252
0.02167813666164875,0.005389991216361523,-0.015328355133533478,0.01071211975067854,-0.00020817398035433143,-0.008119224570691586
0.02186330407857895,0.005638685077428818,-0.016363101080060005,0.01086507923901081,-0.00021612252749036998,-0.008375021629035473
0.02186330407857895,0.005638685077428818,-0.016363101080060005,0.01086507923901081,-0.00021612252749036998,-0.008375021629035473
0.02186092548072338,0.00527961365878582,-0.016019288450479507,0.010832257568836212,-0.00022272777277976274,-0.008087419904768467
0.02206079289317131,0.005812257993966341,-0.016329631209373474,0.010831591673195362,-0.0002168866340070963,-0.008662687614560127
0.022261902689933777,0.005371115170419216,-0.01573416031897068,0.01089692022651434,-0.00021059777645859867,-0.008241464383900166
0.02216087467968464,0.005300664808601141,-0.016211729496717453,0.010692679323256016,-0.00030967843485996127,-0.00851824413985014
0.021811312064528465,0.005635139998048544,-0.016451779752969742,0.011239264160394669,-0.00030398849048651755,-0.008580588735640049
0.021944282576441765,0.005673572421073914,-0.015884658321738243,0.011468978598713875,-0.00032774341525509953,-0.008657910861074924
0.022274818271398544,0.005817321129143238,-0.016190916299819946,0.010942282155156136,-0.0003214313182979822,-0.00868451502174139
0.02210112288594246,0.0053895688615739346,-0.016056617721915245,0.010810649022459984,-0.0003041828749701381,-0.008857986889779568
0.021717969328165054,0.005656327120959759,-0.01689193956553936,0.010985727421939373,-0.00031141817453317344,-0.009281245060265064
0.021894430741667747,0.005832044407725334,-0.01638493873178959,0.011221243999898434,-0.0003173904260620475,-0.009127562865614891
0.02244892157614231,0.005947251804172993,-0.016168752685189247,0.01221940666437149,-0.0003035131667274982,-0.008716159500181675
0.02254682406783104,0.005945201497524977,-0.016262410208582878,0.011418323963880539,-0.0002896479854825884,-0.008707859553396702
0.02265825867652893,0.005143474787473679,-0.016494913026690483,0.01146297249943018,-0.0002769197162706405,-0.008952576667070389
0.022540351375937462,0.004519721958786249,-0.016677802428603172,0.011376888491213322,-0.0002652580733411014,-0.009024562314152718
0.022537261247634888,0.005029755644500256,-0.016393473371863365,0.01127649750560522,-0.0002545384340919554,-0.009155908599495888
0.02247883938252926,0.0054886071011424065,-0.016499610617756844,0.01155826635658741,-0.0002446520666126162,-0.009057269431650639
0.02270963415503502,0.005138637963682413,-0.015836965292692184,0.011372783221304417,-0.00023550521291326731,-0.00907155778259039
0.022923069074749947,0.0049059116281569,-0.016445312649011612,0.011840022169053555,-0.00025725073646754026,-0.008932873606681824
0.02262967824935913,0.004850808531045914,-0.015789510682225227,0.011664548888802528,-0.00025028022355400026,-0.009353181347250938
0.02184874750673771,0.004684773739427328,-0.016418971121311188,0.012010335922241211,-0.00023413379676640034,-0.009474311955273151
0.02184874750673771,0.004684773739427328,-0.016418971121311188,0.012010335922241211,-0.00023413379676640034,-0.009474311955273151
0.023591062054038048,0.005177613347768784,-0.016702434048056602,0.0118378521874547,-0.00022651827021036297,-0.009297358803451061
0.023591062054038048,0.005177613347768784,-0.016702434048056602,0.0118378521874547,-0.00022651827021036297,-0.009297358803451061
0.023000171408057213,0.004922436084598303,-0.016714131459593773,0.011249137111008167,-0.00020838328055106103,-0.009357579052448273
0.023679109290242195,0.005299102049320936,-0.016336532309651375,0.011640417389571667,-0.0001991703757084906,-0.009387332014739513
0.023679109290242195,0.005299102049320936,-0.016336532309651375,0.011640417389571667,-0.0001991703757084906,-0.009387332014739513
0.023069530725479126,0.005048722960054874,-0.016550110653042793,0.011654263362288475,-0.00022627151338383555,-0.009339557029306889
0.022348644211888313,0.005542549304664135,-0.01680925488471985,0.011757373809814453,-0.00021939558791927993,-0.00974002294242382
0.02311212196946144,0.005381988361477852,-0.016359159722924232,0.011603625491261482,-0.0002109738125000149,-0.009778419509530067
0.023596473038196564,0.00486132362857461,-0.01678677834570408,0.011752787046134472,-0.00023459523799829185,-0.009715095162391663
0.022908110171556473,0.004782059229910374,-0.016119297593832016,0.012101147323846817,-0.00024413227220065892,-0.010015880689024925
0.023212537169456482,0.004952733404934406,-0.016858840361237526,0.011466804891824722,-0.00025069891125895083,-0.01005694642663002
0.02402665838599205,0.004862333182245493,-0.017198441550135612,0.01198344025760889,-0.00024321397359017283,-0.009502208791673183
0.02396089769899845,0.005112078506499529,-0.01693905144929886,0.011658359318971634,-0.00035417781327851117,-0.00989097636193037
0.022977538406848907,0.005424742586910725,-0.016744770109653473,0.01194829773157835,-0.0003996115119662136,-0.009530478157103062
0.023572172969579697,0.00476658483967185,-0.016254624351859093,0.011454387567937374,-0.00040455436101183295,-0.00928240641951561
0.02343466319143772,0.004526762291789055,-0.016901275143027306,0.010906054638326168,-0.0004329780349507928,-0.0098916906863451
0.023313423618674278,0.004917782731354237,-0.016606129705905914,0.011597138829529285,-0.0004122192331124097,-0.009768173098564148
0.023112282156944275,0.005131142679601908,-0.01680070161819458,0.012289365753531456,-0.0004281082656234503,-0.009607923217117786
0.02392423525452614,0.004795496817678213,-0.016548248007893562,0.012286894023418427,-0.0004161232500337064,-0.009884126484394073
0.02380756288766861,0.005401110742241144,-0.01633741706609726,0.012508307583630085,-0.0003941692702937871,-0.010606875643134117
0.023917902261018753,0.0052528404630720615,-0.016911834478378296,0.01207995880395174,-0.0005063611315563321,-0.010293292813003063
0.023998554795980453,0.004718630108982325,-0.016442900523543358,0.012132814154028893,-0.000519199704285711,-0.010640262626111507
0.02422521635890007,0.0048807114362716675,-0.01675966940820217,0.01172465831041336,-0.0005123233422636986,-0.009707118384540081
0.023690346628427505,0.005001737270504236,-0.01624434068799019,0.012226881459355354,-0.0004704367311205715,-0.010389953851699829
0.02362978272140026,0.004964936524629593,-0.016783034428954124,0.012196396477520466,-0.0004677973920479417,-0.011111137457191944
0.024311918765306473,0.005148440133780241,-0.016698623076081276,0.012708844617009163,-0.00043504300992935896,-0.01060409378260374
0.023973563686013222,0.004537544213235378,-0.017143933102488518,0.011980804614722729,-0.00044985057320445776,-0.010991754941642284
0.024355165660381317,0.0049944231286644936,-0.0164698027074337,0.012426251545548439,-0.000435965193901211,-0.011082055978477001
0.02410539984703064,0.005069485399872065,-0.017251335084438324,0.012105163186788559,-0.0004132381291128695,-0.011348683387041092
0.0239274762570858,0.005045469384640455,-0.016751369461417198,0.012284190393984318,-0.0004228933248668909,-0.011028039269149303
0.024395756423473358,0.005681246984750032,-0.016894476488232613,0.012941395863890648,-0.0004271147190593183,-0.011158428154885769
0.024087412282824516,0.005335679277777672,-0.017416758462786674,0.012253014370799065,-0.0004276872205082327,-0.011201782152056694
0.024087412282824516,0.005335679277777672,-0.017416758462786674,0.012253014370799065,-0.0004276872205082327,-0.011201782152056694
0.02290627546608448,0.0047118947841227055,-0.01715405099093914,0.012941582128405571,-0.00039837355143390596,-0.011723678559064865
0.025421813130378723,0.004911957308650017,-0.01795409992337227,0.01216353289783001,-0.00042455532820895314,-0.011483615264296532
0.025027140974998474,0.004980573430657387,-0.017596861347556114,0.013056451454758644,-0.00040457979775965214,-0.01128168124705553
0.02445465512573719,0.004918037448078394,-0.017298033460974693,0.013207092881202698,-0.0003806034801527858,-0.011519590392708778
0.02386314608156681,0.005650386214256287,-0.01745160110294819,0.012671008706092834,-0.0003967289230786264,-0.011496168561279774
0.024638008326292038,0.005296486895531416,-0.0166229996830225,0.013095368631184101,-0.00038721904275007546,-0.010965557768940926
0.024429548531770706,0.004687012638896704,-0.017841918393969536,0.013348584063351154,-0.0003681863599922508,-0.011053201742470264
0.025047866627573967,0.004795249551534653,-0.018205998465418816,0.012854687869548798,-0.00038021913496777415,-0.01138050016015768
0.025823282077908516,0.004836545325815678,-0.01788046956062317,0.012715174816548824,-0.0003774571232497692,-0.011097105219960213
0.02560826577246189,0.0049108401872217655,-0.017860127612948418,0.013182631693780422,-0.0003499935264699161,-0.011082434095442295
0.025069747120141983,0.004969216417521238,-0.01722116395831108,0.013244399800896645,-0.00038523037801496685,-0.011101290583610535
0.024109335616230965,0.005043655168265104,-0.018123185262084007,0.013399358838796616,-0.0003926869831047952,-0.011214964091777802
0.024991024285554886,0.004872259683907032,-0.018595091998577118,0.01242506131529808,-0.00039532079244963825,-0.01119457371532917
0.025319164618849754,0.004661122336983681,-0.017547018826007843,0.012911945581436157,-0.0003736533399205655,-0.011695434339344501
0.025160251185297966,0.00470251590013504,-0.01759754866361618,0.012528171762824059,-0.0003899876610375941,-0.011456581763923168
0.025502651929855347,0.005152658559381962,-0.017908500507473946,0.01311977207660675,-0.000380988756660372,-0.011172277852892876
0.025675131008028984,0.005153005011379719,-0.01827264577150345,0.01285376213490963,-0.0003625594254117459,-0.011158823035657406
0.026148894801735878,0.00531119154766202,-0.017649490386247635,0.012883852235972881,-0.0004142803081776947,-0.011165622621774673
0.02565746009349823,0.004542068112641573,-0.017116917297244072,0.012899539433419704,-0.0004010488628409803,-0.01095840334892273
0.02552933059632778,0.004519972484558821,-0.017846206203103065,0.012695720419287682,-0.00042387645225971937,-0.011154492385685444
0.024998797103762627,0.004639422986656427,-0.018641989678144455,0.012950905598700047,-0.0004086945264134556,-0.011355501599609852
0.026336731389164925,0.005237078294157982,-0.018040407449007034,0.013531637378036976,-0.00041465534013696015,-0.010203401558101177
0.026086434721946716,0.005447519477456808,-0.017726339399814606,0.012989959679543972,-0.0004376091237645596,-0.010419228114187717
0.026504160836338997,0.0055019124411046505,-0.01774756982922554,0.013334890827536583,-0.000418756710132584,-0.010801734402775764
0.026701830327510834,0.004803545773029327,-0.01826762966811657,0.013366157189011574,-0.000515578780323267,-0.011162444949150085
0.026344729587435722,0.005065771751105785,-0.017824841663241386,0.013151749968528748,-0.0004794557171408087,-0.010523049160838127
0.026344729587435722,0.005065771751105785,-0.017824841663241386,0.013151749968528748,-0.0004794557171408087,-0.010523049160838127
0.026627399027347565,0.004966611973941326,-0.018110454082489014,0.013489569537341595,-0.00047622909187339246,-0.01070620957762003
0.02659839764237404,0.0049864761531353,-0.018259242177009583,0.013566559180617332,-0.0004724434111267328,-0.010842529125511646
0.025600053369998932,0.005184212699532509,-0.017554696649312973,0.013581681996583939,-0.0004366981447674334,-0.010416464880108833
0.02743963897228241,0.004825434647500515,-0.01827413961291313,0.013665364123880863,-0.0004041483625769615,-0.010445983149111271
0.027157386764883995,0.004687671549618244,-0.01804771088063717,0.013785623013973236,-0.0004342672764323652,-0.010920098051428795
0.026897378265857697,0.0044494797475636005,-0.01798531599342823,0.013639870099723339,-0.00045291593414731324,-0.010935049504041672
0.02661086991429329,0.004222552292048931,-0.018250927329063416,0.014050156809389591,-0.00044017372420057654,-0.010936307720839977
0.026876334100961685,0.004820593632757664,-0.01804528571665287,0.013327524065971375,-0.0004673986113630235,-0.010636726394295692
0.02712123654782772,0.004904451780021191,-0.01819520629942417,0.013880717568099499,-0.0005014415364712477,-0.010435480624437332
0.027226652950048447,0.004845255520194769,-0.018223216757178307,0.013660505414009094,-0.0005356242181733251,-0.010594133287668228
0.027750298380851746,0.0048753428272902966,-0.01769677922129631,0.013879744336009026,-0.0005554719245992601,-0.010869446210563183
0.027395492419600487,0.004724032245576382,-0.018060985952615738,0.01365357730537653,-0.000531466503161937,-0.011068344116210938
0.027465539053082466,0.004730137065052986,-0.017451278865337372,0.014056816697120667,-0.0006900246953591704,-0.010980329476296902
0.028026312589645386,0.004764077253639698,-0.01782083883881569,0.013774307444691658,-0.0006548498058691621,-0.010795047506690025
0.027757706120610237,0.005577290430665016,-0.01830974966287613,0.013889987953007221,-0.0005752723081968725,-0.010625769384205341
0.028033416718244553,0.004814609885215759,-0.017591655254364014,0.013516601175069809,-0.0005845876876264811,-0.010722135193645954
0.028166353702545166,0.004580551292747259,-0.017797524109482765,0.01386457122862339,-0.0005480045219883323,-0.010802207514643669
0.027994878590106964,0.004950148053467274,-0.018084537237882614,0.013545911759138107,-0.0004988211439922452,-0.011066221632063389
0.0284247025847435,0.004514568950980902,-0.01749233342707157,0.01411790307611227,-0.00045668642269447446,-0.011184066534042358
0.028538595885038376,0.004526094067841768,-0.018296189606189728,0.013950362801551819,-0.0004862552450504154,-0.011099343188107014
0.028983311727643013,0.0045169941149652,-0.017811667174100876,0.01403964962810278,-0.0004553423204924911,-0.011081875301897526
0.028928667306900024,0.00468162028118968,-0.018533281981945038,0.014188364148139954,-0.000454376102425158,-0.011222685687243938
0.029052607715129852,0.004756126552820206,-0.01792478747665882,0.014391073025763035,-0.0003969153331127018,-0.01120059099048376
0.029428528621792793,0.00457908445969224,-0.018346969038248062,0.014599240384995937,-0.0004241472342982888,-0.011401048861443996
0.030271485447883606,0.004369892179965973,-0.018589626997709274,0.014523683115839958,-0.00040092208655551076,-0.011998040601611137
0.030271485447883606,0.004369892179965973,-0.018589626997709274,0.014523683115839958,-0.00040092208655551076,-0.011998040601611137
0.030157169327139854,0.004442163743078709,-0.017993196845054626,0.014571438543498516,-0.00043161967187188566,-0.01141527108848095
0.029277782887220383,0.0048299189656972885,-0.018503667786717415,0.014505069702863693,-0.0006887342315167189,-0.011697286739945412
0.029277782887220383,0.0048299189656972885,-0.018503667786717415,0.014505069702863693,-0.0006887342315167189,-0.011697286739945412
0.030320335179567337,0.00471475999802351,-0.018326014280319214,0.013648557476699352,-0.000768359168432653,-0.012115714140236378
0.029794372618198395,0.004516931250691414,-0.01870507374405861,0.013459953479468822,-0.0007033803849481046,-0.012067104689776897
0.0296311192214489,0.004576005972921848,-0.018188847228884697,0.013771265745162964,-0.0007135806372389197,-0.012087357230484486
0.030624527484178543,0.004673265386372805,-0.018447112292051315,0.013738310895860195,-0.000696740229614079,-0.012259080074727535
0.03068758174777031,0.005216571502387524,-0.018820151686668396,0.014634816907346249,-0.0006727512809447944,-0.011909018270671368
0.02973298542201519,0.004896297585219145,-0.01796550303697586,0.013972410932183266,-0.0006845298921689391,-0.011579119600355625
0.029088115319609642,0.004745075013488531,-0.018120432272553444,0.014129283837974072,-0.0007069112616591156,-0.012081561610102654
0.03009970858693123,0.004450688138604164,-0.01884452812373638,0.013699314557015896,-0.0007027461542747915,-0.01222485862672329
0.030515193939208984,0.004537537228316069,-0.01904808171093464,0.014245294965803623,-0.0006756598013453186,-0.012391104362905025
0.030549418181180954,0.004478194750845432,-0.019508956000208855,0.013365313410758972,-0.0006942825857549906,-0.012424902059137821
0.030328812077641487,0.005044089630246162,-0.019295599311590195,0.014350137673318386,-0.0007769730873405933,-0.012364127673208714
0.030320731922984123,0.00491382647305727,-0.01805628091096878,0.014134803786873817,-0.0008077226229943335,-0.012463491410017014
0.029940716922283173,0.004593915771692991,-0.018502211198210716,0.014658944681286812,-0.0007906529353931546,-0.012735369615256786
0.030259450897574425,0.004372750874608755,-0.019015688449144363,0.014746115542948246,-0.0007502486114390194,-0.01288219727575779
0.030202293768525124,0.004547818098217249,-0.018804004415869713,0.01495099812746048,-0.0007626859587617218,-0.012548279017210007
0.030346808955073357,0.004685505293309689,-0.019428960978984833,0.014769523404538631,-0.0007858668686822057,-0.01249337662011385
0.030543634667992592,0.004475846886634827,-0.019150950014591217,0.015261586755514145,-0.0007666476303711534,-0.01271255873143673
0.03024190664291382,0.004842560738325119,-0.019046563655138016,0.015566054731607437,-0.0007450032280758023,-0.012816604226827621
0.03024190664291382,0.004842560738325119,-0.019046563655138016,0.015566054731607437,-0.0007450032280758023,-0.012816604226827621
0.03024190664291382,0.004842560738325119,-0.019046563655138016,0.015566054731607437,-0.0007450032280758023,-0.012816604226827621
0.03051033988595009,0.00447849091142416,-0.01912260241806507,0.015583805739879608,-0.000901830499060452,-0.012548698112368584
0.030539819970726967,0.004565959330648184,-0.019484661519527435,0.01563902199268341,-0.00092027906794101,-0.012831617146730423
0.029338525608181953,0.0045889029279351234,-0.019070439040660858,0.014905995689332485,-0.0008599674329161644,-0.012912248261272907
0.03004671074450016,0.004626417066901922,-0.018165143206715584,0.01506565511226654,-0.0008608784410171211,-0.012983053922653198
0.030635593459010124,0.004650864750146866,-0.01996777020394802,0.014766563661396503,-0.0009021292789839208,-0.013202768750488758
0.03126534819602966,0.004521948751062155,-0.01823600009083748,0.015178583562374115,-0.0009070715750567615,-0.01283707283437252
0.03073161654174328,0.004520091228187084,-0.01834782026708126,0.014349703676998615,-0.0009064663900062442,-0.013164552859961987
0.029316287487745285,0.004727726336568594,-0.019833838567137718,0.01463965605944395,-0.000820299843326211,-0.012440618127584457
0.030102824792265892,0.00500493636354804,-0.018990691751241684,0.014485042542219162,-0.0008237814763560891,-0.012375980615615845
0.03128350153565407,0.0046752565540373325,-0.018793607130646706,0.015314138494431973,-0.0008198384894058108,-0.012608882039785385
0.03073871321976185,0.004839885979890823,-0.01911504752933979,0.01499270647764206,-0.0008279177127406001,-0.012901627458631992
0.03098953329026699,0.004754537250846624,-0.018802547827363014,0.015470783226191998,-0.0007326638442464173,-0.01274779997766018
0.03151955083012581,0.0043150014244019985,-0.019118838012218475,0.014617523178458214,-0.0006459649885073304,-0.012830903753638268
0.03188101947307587,0.004449212923645973,-0.01934640109539032,0.015004198998212814,-0.0006595385493710637,-0.013074633665382862
0.0307241752743721,0.004366117063909769,-0.018835898488759995,0.014794575981795788,-0.0006071149255149066,-0.013310544192790985
0.03057088889181614,0.004297566134482622,-0.01902456022799015,0.015173926018178463,-0.0005926199373789132,-0.01349768415093422
0.031544506549835205,0.004416681360453367,-0.018975133076310158,0.015084969811141491,-0.0005796480691060424,-0.013021518476307392
0.03123227134346962,0.004617332015186548,-0.01848362572491169,0.015350735746324062,-0.0005385425174608827,-0.01303461380302906
0.03134991228580475,0.004483163822442293,-0.019436649978160858,0.015519491396844387,-0.00047458629705943167,-0.013154794462025166
0.031368184834718704,0.004288354888558388,-0.019343385472893715,0.015561792999505997,-0.0004231445782352239,-0.013237270526587963
0.03094824217259884,0.0044347732327878475,-0.018357321619987488,0.015456235967576504,-0.0004580680397339165,-0.01322304829955101
0.03110092505812645,0.004592127166688442,-0.01899835094809532,0.015579317696392536,-0.0004265149764250964,-0.013127175159752369
0.031272828578948975,0.004164419136941433,-0.018914425745606422,0.01597130484879017,-0.00045683764619752765,-0.013009156100451946
0.031272828578948975,0.004164419136941433,-0.018914425745606422,0.01597130484879017,-0.00045683764619752765,-0.013009156100451946
0.03173995763063431,0.004332700744271278,-0.019301537424325943,0.015590238384902477,-0.0005667046061716974,-0.013204561546444893
0.031702470034360886,0.004481719806790352,-0.019021088257431984,0.01518184132874012,-0.0006512420950457454,-0.013089696876704693
0.032099638134241104,0.004026151727885008,-0.019170382991433144,0.015754343941807747,-0.0006608637049794197,-0.012906062416732311
0.032099638134241104,0.004026151727885008,-0.019170382991433144,0.015754343941807747,-0.0006608637049794197,-0.012906062416732311
0.031013451516628265,0.0039855968207120895,-0.01903994008898735,0.015885809436440468,-0.0006749199237674475,-0.013099880889058113
0.03204474225640297,0.004482998047024012,-0.019501155242323875,0.015406711027026176,-0.0008361599175259471,-0.012755372561514378
0.03204474225640297,0.004482998047024012,-0.019501155242323875,0.015406711027026176,-0.0008361599175259471,-0.012755372561514378
0.031516335904598236,0.004164699465036392,-0.019614163786172867,0.015374011360108852,-0.0008183194440789521,-0.012873120605945587
0.03174088895320892,0.00447063148021698,-0.018583761528134346,0.015190125443041325,-0.0007735665421932936,-0.012708640657365322
0.03222411870956421,0.004514513537287712,-0.018990809097886086,0.015285182744264603,-0.0007642818964086473,-0.013442754745483398
0.03214016929268837,0.004064686130732298,-0.01892378367483616,0.015771901234984398,-0.0007110455189831555,-0.013869811780750751
0.03214016929268837,0.004064686130732298,-0.01892378367483616,0.015771901234984398,-0.0007110455189831555,-0.013869811780750751
0.03226619213819504,0.004004376474767923,-0.019141489639878273,0.015596805140376091,-0.0007154739578254521,-0.013625454157590866
0.03215089812874794,0.004010286182165146,-0.019646266475319862,0.01623118482530117,-0.0007092544110491872,-0.013742743991315365
0.03258466348052025,0.004382459446787834,-0.019403070211410522,0.01599896140396595,-0.0006811809726059437,-0.013222265057265759
0.03253424912691116,0.004460485186427832,-0.01947922445833683,0.016420450061559677,-0.0006993920542299747,-0.013566556386649609
0.03256538510322571,0.004093758761882782,-0.01925404742360115,0.01603362150490284,-0.0007040916825644672,-0.013453592546284199
0.03252289071679115,0.00395976984873414,-0.0192751232534647,0.016014087945222855,-0.00076190015533939,-0.013947871513664722
0.03252917528152466,0.003983468748629093,-0.019291479140520096,0.015595737844705582,-0.0007527588168159127,-0.014439727179706097
0.03289142996072769,0.003964882809668779,-0.019361203536391258,0.015657007694244385,-0.0007936944020912051,-0.014229420572519302
0.03383374214172363,0.004357077647000551,-0.019204968586564064,0.01599591039121151,-0.0009010875946842134,-0.013655113987624645
0.0334683395922184,0.004138311371207237,-0.019567180424928665,0.016038531437516212,-0.0008844084804877639,-0.013144904747605324
0.03177709877490997,0.004376228433102369,-0.0195988267660141,0.016846071928739548,-0.0008856254280544817,-0.013474764302372932
0.03300445154309273,0.004173905588686466,-0.018935559317469597,0.016471032053232193,-0.0008618950960226357,-0.01359068974852562
0.034140221774578094,0.004011752083897591,-0.019848676398396492,0.01694737747311592,-0.0007833532872609794,-0.0138347577303648
0.03368793800473213,0.003964339382946491,-0.020377373322844505,0.01668880321085453,-0.00078397843753919,-0.013705350458621979
0.03437507152557373,0.003926769830286503,-0.019710008054971695,0.016089005395770073,-0.0007208097376860678,-0.013892033137381077
0.03335747495293617,0.004116795025765896,-0.019237250089645386,0.015975384041666985,-0.0006417857948690653,-0.014267836697399616
0.03303373605012894,0.004108859691768885,-0.020107684656977654,0.01612449437379837,-0.0006594372680410743,-0.013755648396909237
0.032562773674726486,0.004438917152583599,-0.019637364894151688,0.016904013231396675,-0.0006722707767039537,-0.013601901941001415
0.03453180566430092,0.0043143052607774734,-0.01986887864768505,0.016367556527256966,-0.0006432067020796239,-0.013867538422346115
0.033352889120578766,0.003993977326899767,-0.020063402131199837,0.016156313940882683,-0.0006019069696776569,-0.014254525303840637
0.033352889120578766,0.003993977326899767,-0.020063402131199837,0.016156313940882683,-0.0006019069696776569,-0.014254525303840637
0.03440793976187706,0.004388297442346811,-0.02007344923913479,0.016650870442390442,-0.0006485310732387006,-0.014276981353759766
0.03440798446536064,0.004139931872487068,-0.020116019994020462,0.017392508685588837,-0.0006580447661690414,-0.014151242561638355
0.03393930196762085,0.004138548858463764,-0.019827950745821,0.017072644084692,-0.0006586224772036076,-0.014137383550405502
0.034829020500183105,0.004076556768268347,-0.019515234977006912,0.016942724585533142,-0.0006814883672632277,-0.014331405982375145
0.03451870009303093,0.00433597806841135,-0.020242534577846527,0.016148723661899567,-0.0006615185411646962,-0.014128115959465504
0.03427516669034958,0.004337843041867018,-0.019447090104222298,0.016171034425497055,-0.0006552407285198569,-0.014217792078852654
0.03427516669034958,0.004337843041867018,-0.019447090104222298,0.016171034425497055,-0.0006552407285198569,-0.014217792078852654
0.03463590145111084,0.004373383242636919,-0.020243264734745026,0.016588084399700165,-0.0006099530728533864,-0.014218560419976711
0.03463590145111084,0.004373383242636919,-0.020243264734745026,0.016588084399700165,-0.0006099530728533864,-0.014218560419976711
0.03426234424114227,0.00410713953897357,-0.019713738933205605,0.01649620570242405,-0.0005927701131440699,-0.01455058716237545
0.03441784158349037,0.003925435710698366,-0.0201791450381279,0.017548570409417152,-0.000578048697207123,-0.014433234930038452
0.03588433191180229,0.004021438769996166,-0.020613951608538628,0.01733953319489956,-0.000568570860195905,-0.014706355519592762
0.03481666371226311,0.004120965022593737,-0.020000291988253593,0.0173607487231493,-0.0005580539582297206,-0.01474713534116745
0.03401302918791771,0.004042380955070257,-0.01968938671052456,0.01737678237259388,-0.0005233209813013673,-0.014699732884764671
0.03534635156393051,0.004275660030543804,-0.020492544397711754,0.017136724665760994,-0.00047605810686945915,-0.01453346386551857
0.03502785414457321,0.004445041064172983,-0.020344559103250504,0.01749964989721775,-0.0004939997452311218,-0.014483950100839138
0.03558531031012535,0.0046431864611804485,-0.019807355478405952,0.01686280034482479,-0.0005084127187728882,-0.014233490452170372
0.0361592136323452,0.004470963962376118,-0.02028406783938408,0.017323512583971024,-0.0005035359645262361,-0.014452743344008923
0.036099959164857864,0.004067280329763889,-0.020537465810775757,0.017131946980953217,-0.0005262012127786875,-0.014428870752453804
0.033787671476602554,0.004019768908619881,-0.01971360296010971,0.017230115830898285,-0.0007887524552643299,-0.014673617668449879
0.03534622862935066,0.004033604636788368,-0.01983007974922657,0.017680050805211067,-0.0008351606084033847,-0.014556629583239555
0.036187730729579926,0.004471961874514818,-0.02005571685731411,0.01677306741476059,-0.0008454803610220551,-0.014734926633536816
0.0354190357029438,0.004594900645315647,-0.01977761834859848,0.016931181773543358,-0.000803372182417661,-0.01465274766087532
0.03563341870903969,0.004316524136811495,-0.019778301939368248,0.01700465753674507,-0.0009221806540153921,-0.01486275251954794
0.03528168797492981,0.004040427040308714,-0.01990596204996109,0.016522426158189774,-0.0009087368380278349,-0.014761392027139664
0.03588438779115677,0.004399012308567762,-0.019802886992692947,0.01713203266263008,-0.0009068844956345856,-0.015091114677488804
0.03575419262051582,0.004141862038522959,-0.019848719239234924,0.017109880223870277,-0.000876710400916636,-0.014598394744098186
0.03542475029826164,0.004168148152530193,-0.020001420751214027,0.017277490347623825,-0.0008330001146532595,-0.014353223145008087
0.035879068076610565,0.004286512732505798,-0.019632622599601746,0.016840772703289986,-0.0008821613737381995,-0.014839266426861286
0.036605529487133026,0.004449870903044939,-0.020032372325658798,0.017085488885641098,-0.0008280026377178729,-0.014713093638420105
0.036605529487133026,0.004449870903044939,-0.020032372325658798,0.017085488885641098,-0.0008280026377178729,-0.014713093638420105
0.03624940291047096,0.004384329542517662,-0.020521130412817,0.017096588388085365,-0.0008325802045874298,-0.014643254689872265
0.03612740337848663,0.004607293289154768,-0.019928958266973495,0.017532266676425934,-0.0008293098653666675,-0.014513359405100346
0.0365288183093071,0.004145070444792509,-0.019943099468946457,0.017650753259658813,-0.000875430996529758,-0.014931083656847477
0.03647775575518608,0.0038848272524774075,-0.02056138776242733,0.017493901774287224,-0.0008486523875035346,-0.014855045825242996
0.036157913506031036,0.0040963697247207165,-0.020957689732313156,0.017619701102375984,-0.0007984589319676161,-0.014828094281256199
0.036830298602581024,0.0046797944232821465,-0.02082095295190811,0.017255187034606934,-0.000786046264693141,-0.01458542887121439
0.037030499428510666,0.00432201661169529,-0.021374275907874107,0.017581522464752197,-0.000731137115508318,-0.01501106470823288
0.03674014285206795,0.004411250818520784,-0.021440912038087845,0.01782831735908985,-0.0007185221184045076,-0.01509263925254345
0.036166366189718246,0.004295565187931061,-0.02107447013258934,0.01751759648323059,-0.0007324569160118699,-0.015079564414918423
0.036603428423404694,0.004508572164922953,-0.020421471446752548,0.017703188583254814,-0.000710513792000711,-0.01479312963783741
0.03683361038565636,0.004252495244145393,-0.02083921618759632,0.017077213153243065,-0.0006813939544372261,-0.014616115018725395
0.03673037141561508,0.004344715736806393,-0.021404996514320374,0.017386840656399727,-0.0006936084828339517,-0.014592161402106285
0.036639440804719925,0.0046512670814991,-0.020941991358995438,0.017675556242465973,-0.000644716143142432,-0.01458297111093998
0.03686444088816643,0.004662045277655125,-0.020733006298542023,0.01823851466178894,-0.0006553547573275864,-0.014731714501976967
0.03659477457404137,0.004665409680455923,-0.02140011638402939,0.018885482102632523,-0.0006620411877520382,-0.01479884423315525
0.037119682878255844,0.004607974085956812,-0.021327489987015724,0.018321538344025612,-0.0006128786480985582,-0.014754941686987877
0.0380961075425148,0.004643857013434172,-0.021013198420405388,0.017595570534467697,-0.0005961294518783689,-0.014387356117367744
0.03720366954803467,0.004711561370640993,-0.021147774532437325,0.017226632684469223,-0.0005810734000988305,-0.014327858574688435
0.036059148609638214,0.004434842150658369,-0.021536843851208687,0.016604270786046982,-0.0006052842363715172,-0.014705818146467209
0.03685801103711128,0.004545195493847132,-0.020736970007419586,0.017839530482888222,-0.0006280392408370972,-0.01496841199696064
0.037063006311655045,0.004510147962719202,-0.020643914118409157,0.018087955191731453,-0.000573478639125824,-0.016085660085082054
0.0384376086294651,0.004821349401026964,-0.02078516222536564,0.017749762162566185,-0.0005976638640277088,-0.015645306557416916
0.03844591602683067,0.004735151305794716,-0.021818405017256737,0.01810208149254322,-0.0005488226306624711,-0.015166769735515118
0.03844591602683067,0.004735151305794716,-0.021818405017256737,0.01810208149254322,-0.0005488226306624711,-0.015166769735515118
0.03692103549838066,0.004468720871955156,-0.021189546212553978,0.018249748274683952,-0.0005760132917203009,-0.015517694875597954
0.03783983364701271,0.004095131065696478,-0.020914386957883835,0.019454143941402435,-0.0006858097622171044,-0.015786735340952873
0.037571266293525696,0.004290286917239428,-0.021324535831809044,0.019021764397621155,-0.0007031952263787389,-0.015788326039910316
0.03778347745537758,0.00475013442337513,-0.020866811275482178,0.01827223226428032,-0.000647357024718076,-0.01544647291302681
0.03825846686959267,0.004904408939182758,-0.021077444776892662,0.018149401992559433,-0.0006626853137277067,-0.01568995974957943
0.03753479942679405,0.0047681150026619434,-0.02135710045695305,0.017554892227053642,-0.0006518841837532818,-0.015886731445789337
0.037942416965961456,0.004260774236172438,-0.02113691344857216,0.01815708726644516,-0.000633220886811614,-0.015997199341654778
0.037869494408369064,0.004296134226024151,-0.02071099728345871,0.01835561729967594,-0.0006686396664008498,-0.01632484793663025
0.03755516931414604,0.004656172823160887,-0.02104920707643032,0.018411139026284218,-0.0006823536823503673,-0.016204843297600746
0.0379098504781723,0.004774097353219986,-0.0213529821485281,0.018907206133008003,-0.000680531666148454,-0.015770453959703445
0.03775225207209587,0.00475850747898221,-0.020811133086681366,0.01886364258825779,-0.0007018104661256075,-0.016282515600323677
0.03809376060962677,0.004511068109422922,-0.020990580320358276,0.01856030337512493,-0.0006794033688493073,-0.01637979969382286
0.039060045033693314,0.004126785788685083,-0.021126432344317436,0.01840410754084587,-0.0006283293478190899,-0.016286492347717285
0.03784729167819023,0.003916705492883921,-0.02147185057401657,0.018106771633028984,-0.0006723393453285098,-0.016255056485533714
0.03707984834909439,0.004385138396173716,-0.021049687638878822,0.01827656663954258,-0.0006789625622332096,-0.01591319590806961
0.038194332271814346,0.004694237373769283,-0.020822402089834213,0.018204547464847565,-0.0006268698489293456,-0.015736311674118042
0.037888962775468826,0.004771668929606676,-0.02115674316883087,0.017761988565325737,-0.0006501944735646248,-0.015630776062607765
0.03884404897689819,0.0043828231282532215,-0.020927520468831062,0.018503867089748383,-0.0005945650627836585,-0.015714338049292564
0.03870397433638573,0.004487758036702871,-0.02058636024594307,0.018849128857254982,-0.0006105168722569942,-0.015778129920363426
0.03756512328982353,0.004931304603815079,-0.021163076162338257,0.018556535243988037,-0.0005743342917412519,-0.016579758375883102
0.03790893033146858,0.0044883317314088345,-0.021194739267230034,0.01869018003344536,-0.0005634363042190671,-0.016798242926597595
0.0388411208987236,0.0045069619081914425,-0.021116070449352264,0.018295753747224808,-0.0005977169494144619,-0.016853807494044304
0.039172183722257614,0.004403778351843357,-0.021193616092205048,0.01830333285033703,-0.0006279571098275483,-0.01661728508770466
0.038605913519859314,0.0042372350580990314,-0.02108827419579029,0.018920758739113808,-0.0006528428639285266,-0.016635676845908165
0.038769133388996124,0.00485513499006629,-0.021289687603712082,0.018461914733052254,-0.0008679417660459876,-0.016752682626247406
0.038767099380493164,0.004774154629558325,-0.020894741639494896,0.0186544768512249,-0.0009050004882737994,-0.016898011788725853
0.039286643266677856,0.004385421052575111,-0.021065881475806236,0.018790358677506447,-0.000897240883205086,-0.016832837834954262
0.039286643266677856,0.004385421052575111,-0.021065881475806236,0.018790358677506447,-0.000897240883205086,-0.016832837834954262
0.03899660333991051,0.004216942936182022,-0.021547380834817886,0.01871144212782383,-0.000879360013641417,-0.016489272937178612
0.03912587836384773,0.004445175174623728,-0.02155565656721592,0.01958906278014183,-0.000799667788669467,-0.016939107328653336
0.039552994072437286,0.004586729686707258,-0.02176721580326557,0.01915683224797249,-0.0008091289782896638,-0.016757212579250336
0.039522118866443634,0.004856135696172714,-0.022201459854841232,0.018755892291665077,-0.0007109479629434645,-0.017201147973537445
0.04033268615603447,0.004667535424232483,-0.021390456706285477,0.019022639840841293,-0.0006549277459271252,-0.0169902965426445
0.04033268615603447,0.004667535424232483,-0.021390456706285477,0.019022639840841293,-0.0006549277459271252,-0.0169902965426445
0.039969056844711304,0.0047187404707074165,-0.021814769133925438,0.01912037655711174,-0.0006677149794995785,-0.017059827223420143
0.0396997444331646,0.004826798569411039,-0.022473176941275597,0.01887386664748192,-0.0006250204751268029,-0.016970254480838776
