davideferrari95/blind_handover_controller/data/Test 27 - [2024-02-07 -- 14-38-39]/joint_states_data.csv
shoulder_pan_joint,shoulder_lift_joint,elbow_joint,wrist_1_joint,wrist_2_joint,wrist_3_joint
0.005970760714262724,0.0036394058261066675,-0.006978911813348532,0.001967479707673192,-0.0009525156929157674,0.0059923348017036915
0.005970760714262724,0.0036394058261066675,-0.006978911813348532,0.001967479707673192,-0.0009525156929157674,0.0059923348017036915
0.006499398034065962,0.00360622676089406,-0.007370632607489824,0.002430201042443514,-0.0006062641623429954,0.005632736720144749
0.006651070900261402,0.003758963430300355,-0.007424457464367151,0.0026376345194876194,-0.0005578324780799448,0.006088278256356716
0.006237765308469534,0.003882445627823472,-0.007159602362662554,0.002656676573678851,-0.0005807802663184702,0.006300019565969706
0.006237765308469534,0.003882445627823472,-0.007159602362662554,0.002656676573678851,-0.0005807802663184702,0.006300019565969706
0.006214464083313942,0.003444062080234289,-0.006994151975959539,0.0028999289497733116,-0.0005415311898104846,0.005602141376584768
0.006415531039237976,0.0035214389208704233,-0.006774528417736292,0.002596031641587615,-0.0005079745897091925,0.005802604369819164
0.006136448122560978,0.00373454880900681,-0.0070906938053667545,0.0024960548616945744,-0.00042572771781124175,0.005824755877256393
0.006337724160403013,0.003994065802544355,-0.007056245114654303,0.002668811473995447,-0.00038683362072333694,0.006185780744999647
0.005767605733126402,0.0041136834770441055,-0.0069508859887719154,0.002881328109651804,-0.000408306485041976,0.006153965834528208
0.005950071383267641,0.003980709705501795,-0.006631487514823675,0.0030897713731974363,-0.0003946591750718653,0.005946673918515444
0.006223510950803757,0.0038218810223042965,-0.007101114373654127,0.0029177647083997726,-0.0003687546122819185,0.005994805600494146
0.0063497405499219894,0.00375802512280643,-0.006908875424414873,0.0029068884905427694,-0.00039876275695860386,0.005599502939730883
0.006034632679075003,0.00375516340136528,-0.006700488738715649,0.0028454174753278494,-0.0003783015999943018,0.005412163212895393
0.005247786641120911,0.003807627595961094,-0.006630831863731146,0.0026906586717814207,-0.0003570820263121277,0.005705081392079592
0.005060015711933374,0.00383965577930212,-0.006812285631895065,0.0025086423847824335,-0.00036147155333310366,0.005976782646030188
0.0058847228065133095,0.003931978717446327,-0.007068514358252287,0.002442526863887906,-0.0003649285645224154,0.005915035028010607
0.006273272447288036,0.003976221662014723,-0.0067782592959702015,0.002247084164991975,-0.0003486766654532403,0.005976663902401924
0.0057813082821667194,0.004017491824924946,-0.006829959340393543,0.002257951768115163,-0.0003326559963170439,0.005666564684361219
0.005781800486147404,0.003996813204139471,-0.0065580555237829685,0.0023443158715963364,-0.0003179677005391568,0.005994303617626429
0.005694999359548092,0.00400663772597909,-0.007185606751590967,0.0024375582579523325,-0.0003058730799239129,0.005610864143818617
0.005541987717151642,0.004041224252432585,-0.006602671928703785,0.002873775316402316,-0.00029950065072625875,0.005625263322144747
0.005317176692187786,0.003997095860540867,-0.0061089531518518925,0.0029890600126236677,-0.000281663378700614,0.006023268681019545
0.006280682049691677,0.0038694804534316063,-0.006153092719614506,0.0027752311434596777,-0.0003109780082013458,0.0060067493468523026
0.005751203745603561,0.004218452610075474,-0.006811138242483139,0.0026929578743875027,-0.00029997320962138474,0.006423029582947493
0.0054476261138916016,0.004400068428367376,-0.006103428080677986,0.0025842750910669565,-0.00027034542290493846,0.00611397298052907
0.005329619627445936,0.0042693656869232655,-0.005936671048402786,0.0024733177851885557,-0.0002574543468654156,0.006078658625483513
0.005329619627445936,0.0042693656869232655,-0.005936671048402786,0.0024733177851885557,-0.0002574543468654156,0.006078658625483513
0.005794901866465807,0.0038808053359389305,-0.007224859669804573,0.0025966851972043514,-0.0002350371069042012,0.00641536945477128
0.005794901866465807,0.0038808053359389305,-0.007224859669804573,0.0025966851972043514,-0.0002350371069042012,0.00641536945477128
0.005760339088737965,0.003856796771287918,-0.006447587162256241,0.002613774035125971,-0.0002497964014764875,0.006190503481775522
0.005760339088737965,0.003856796771287918,-0.006447587162256241,0.002613774035125971,-0.0002497964014764875,0.006190503481775522
0.005941510666161776,0.0040726731531322,-0.006495162844657898,0.002560602268204093,-0.00023353195865638554,0.00591987743973732
0.005941510666161776,0.0040726731531322,-0.006495162844657898,0.002560602268204093,-0.00023353195865638554,0.00591987743973732
0.005647394806146622,0.004270670469850302,-0.0070009902119636536,0.0026023860555142164,-0.00022519240155816078,0.0061757625080645084
0.005672042723745108,0.004042826127260923,-0.006606231443583965,0.002614690223708749,-0.00021742047101724893,0.006124224979430437
0.005526594817638397,0.00424670334905386,-0.0056030708365142345,0.0024448547046631575,-0.0002101664140354842,0.005682813003659248
0.005481266882270575,0.0042295195162296295,-0.005872594658285379,0.002602718770503998,-0.00022858880402054638,0.005555069074034691
0.005290517117828131,0.004447384737432003,-0.007250754628330469,0.0029926318675279617,-0.00022491480922326446,0.007031964138150215
0.0058490498922765255,0.004261789843440056,-0.006907039321959019,0.0031268324237316847,-0.00021832114725839347,0.006487867794930935
0.005453597754240036,0.003977315966039896,-0.006129498593509197,0.003203296335414052,-0.00021190906409174204,0.005711808800697327
0.0052578202448785305,0.004089453257620335,-0.00650033401325345,0.0029706070199608803,-0.00020585153833962977,0.005423442460596561
0.005182543769478798,0.0040912446565926075,-0.006278929300606251,0.002939153229817748,-0.00020334747387096286,0.005959643516689539
0.005569107364863157,0.004330162890255451,-0.006637366488575935,0.0030562630854547024,-0.0001959531509783119,0.00658124964684248
0.005380809307098389,0.004069465212523937,-0.006528745871037245,0.0030713160522282124,-0.00018786605505738407,0.006339639890938997
0.00533774308860302,0.004311589989811182,-0.006763610988855362,0.0027245236560702324,-0.0001803416380425915,0.006255012936890125
0.005471334792673588,0.004161644261330366,-0.005985222291201353,0.002776161767542362,-0.0001733920071274042,0.005812064278870821
0.005499416496604681,0.00439229141920805,-0.006135936826467514,0.0030234665609896183,-0.00016695799422450364,0.005989816039800644
0.0054616183042526245,0.004168855492025614,-0.0066992612555623055,0.0030479938723146915,-0.00018890701176133007,0.006302242167294025
0.005288904998451471,0.004134247079491615,-0.006574103143066168,0.00299084116704762,-0.00018622918287292123,0.006401685066521168
0.005998772103339434,0.0041284216567873955,-0.006214391905814409,0.002762245712801814,-0.0001802624756237492,0.006163453217595816
0.005701650399714708,0.004011613316833973,-0.006092439405620098,0.0026105456054210663,-0.00017445442790631205,0.005687101278454065
0.005746647249907255,0.004248606041073799,-0.006819018628448248,0.0025530492421239614,-0.000189849641174078,0.005619402974843979
0.005293907597661018,0.00408235052600503,-0.00637445691972971,0.0031305914744734764,-0.00019852294644806534,0.006313011981546879
0.005639961920678616,0.004074558150023222,-0.006117076147347689,0.0030931748915463686,-0.0002051030460279435,0.006309328600764275
0.005875970236957073,0.0040651652961969376,-0.006240369752049446,0.0028898254968225956,-0.00020019918156322092,0.00587040139362216
0.005756058264523745,0.004088506568223238,-0.007084205746650696,0.0028364185709506273,-0.00019483364303596318,0.005720243789255619
0.005756058264523745,0.004088506568223238,-0.007084205746650696,0.0028364185709506273,-0.00019483364303596318,0.005720243789255619
0.0056676724925637245,0.004017941653728485,-0.0065873791463673115,0.002871478209272027,-0.0002626761270221323,0.005272973328828812
0.005529734306037426,0.004321935120970011,-0.0060221953317523,0.002960745245218277,-0.0002582586894277483,0.005868606269359589
0.005775782745331526,0.004252999555319548,-0.006189572159200907,0.0031331470236182213,-0.00028101811767555773,0.006270170211791992
0.0062260557897388935,0.004063795320689678,-0.006158766336739063,0.003003019141033292,-0.00027791608590632677,0.006132147274911404
0.005996710155159235,0.003845460945740342,-0.006353719625622034,0.0026550274342298508,-0.0002650169190019369,0.006161184515804052
0.00569107523187995,0.003716284641996026,-0.006031283643096685,0.002720325253903866,-0.00025266187731176615,0.005950228776782751
0.00554601289331913,0.0036852494813501835,-0.006255769636482,0.002832119818776846,-0.0002762205258477479,0.0059537263587117195
0.00596721051260829,0.004221239127218723,-0.00602073734626174,0.003142718691378832,-0.0002691953850444406,0.006024105008691549
0.005729250609874725,0.004216550383716822,-0.006664205342531204,0.003101917216554284,-0.00025846200878731906,0.00609276769682765
0.00599282281473279,0.0040179044008255005,-0.006854278035461903,0.002951184054836631,-0.00024829478934407234,0.006115461699664593
0.0056900158524513245,0.0037998149637132883,-0.006165733560919762,0.003023790894076228,-0.0002388798020547256,0.006219828501343727
0.005684057716280222,0.003890193300321698,-0.006343279965221882,0.002929121255874634,-0.00026080181123688817,0.006288192700594664
0.005650247447192669,0.00391924986615777,-0.0068739536218345165,0.002918487647548318,-0.00025361301959492266,0.006208606995642185
0.005848516710102558,0.0037428392097353935,-0.006581454072147608,0.0028211975004523993,-0.0002461225085426122,0.00653145182877779
0.00620339997112751,0.003545215120539069,-0.0063812932930886745,0.0029705618508160114,-0.0003046322090085596,0.005905842874199152
0.0056013441644608974,0.0040664998814463615,-0.006206636782735586,0.003260259283706546,-0.00033265145611949265,0.005863831378519535
0.005854582414031029,0.004471624735742807,-0.0059163859114050865,0.0032941289246082306,-0.00032620818819850683,0.006466955412179232
0.005518650636076927,0.004022988490760326,-0.006418158300220966,0.0034171915613114834,-0.0003084613417740911,0.0063128224574029446
0.005802594590932131,0.004237992689013481,-0.006494287401437759,0.002997713629156351,-0.00027687742840498686,0.006146810483187437
0.005904873367398977,0.004231371451169252,-0.005865218583494425,0.0029266076162457466,-0.0003013785753864795,0.005913113243877888
0.005904873367398977,0.004231371451169252,-0.005865218583494425,0.0029266076162457466,-0.0003013785753864795,0.005913113243877888
0.005785299930721521,0.003953917417675257,-0.005745203234255314,0.003211375791579485,-0.0002925873559433967,0.006189335603266954
0.005838009528815746,0.004195000976324081,-0.007116053253412247,0.0032083787955343723,-0.00027992381365038455,0.0058296723291277885
0.006284189876168966,0.004185306373983622,-0.006558211054652929,0.0030583017505705357,-0.00028675960493274033,0.0060018813237547874
0.005664752330631018,0.0040200152434408665,-0.006181803531944752,0.002864178968593478,-0.0002925460285041481,0.005636595189571381
0.005887051112949848,0.004057430662214756,-0.0058558001182973385,0.002947862260043621,-0.00028221856337040663,0.005743088200688362
0.005873950198292732,0.003970332443714142,-0.005905033554881811,0.0032212811056524515,-0.0003066607750952244,0.0060793268494307995
0.005876588169485331,0.003836472984403372,-0.006572127807885408,0.0032163483556360006,-0.00031925650546327233,0.006001107860356569
0.006530467886477709,0.0037027844227850437,-0.006641858723014593,0.003448188304901123,-0.0003002012672368437,0.006333349738270044
0.005909428931772709,0.003668757388368249,-0.00582995405420661,0.0032321929465979338,-0.00028155610198155046,0.005824602674692869
0.006471449974924326,0.00373760424554348,-0.0063544888980686665,0.002936653094366193,-0.0003142965433653444,0.0058834184892475605
0.006627908442169428,0.004340730607509613,-0.006195839028805494,0.002966591389849782,-0.00030004503787495196,0.00607134448364377
0.006139516830444336,0.004058901220560074,-0.0064018117263913155,0.0034073172137141228,-0.00032547774026170373,0.006037736311554909
0.006373388227075338,0.003898576134815812,-0.006373422686010599,0.0033450438641011715,-0.0003148411342408508,0.006124185398221016
0.005686055403202772,0.0038654652889817953,-0.005799985956400633,0.00355515256524086,-0.00033186443033628166,0.0061804610304534435
0.00605419185012579,0.0038129922468215227,-0.006027928553521633,0.0036605773493647575,-0.0003267723659519106,0.006118308287113905
0.006272980477660894,0.0037314542569220066,-0.00673280144110322,0.003727533621713519,-0.00031320753623731434,0.006445284001529217
0.006052057258784771,0.003683230374008417,-0.006809846963733435,0.00370698980987072,-0.000392373331123963,0.00619077542796731
0.0063159572891891,0.0037001960445195436,-0.00621778704226017,0.0033238790929317474,-0.00037368948687799275,0.006062377709895372
0.006360004656016827,0.004311201628297567,-0.006070335395634174,0.0030034095980226994,-0.0003458574938122183,0.006160062737762928
0.006119745317846537,0.00411154655739665,-0.00621291296556592,0.003192675532773137,-0.0003809383779298514,0.0067041534930467606
0.006374016869813204,0.003933512140065432,-0.007285993080586195,0.003585306229069829,-0.00035946728894487023,0.00651579862460494
0.006363742519170046,0.003810893977060914,-0.0068714129738509655,0.0035682059824466705,-0.00037864461774006486,0.005935679655522108
0.00639959005638957,0.00367865152657032,-0.0064034778624773026,0.003628647653385997,-0.000349715119227767,0.006178076844662428
0.006366258952766657,0.003720477456226945,-0.006886966526508331,0.003915014676749706,-0.0003662842500489205,0.00654266495257616
0.006050491705536842,0.003790452843531966,-0.0076316180638968945,0.003726958530023694,-0.0003589713014662266,0.006514312233775854
0.006372465752065182,0.00384029233828187,-0.00663386844098568,0.0035749610979110003,-0.0003426009207032621,0.00678553432226181
0.006372465752065182,0.00384029233828187,-0.00663386844098568,0.0035749610979110003,-0.0003426009207032621,0.00678553432226181
0.006575882900506258,0.004251053556799889,-0.00636700727045536,0.003236570628359914,-0.00032708130311220884,0.00631911912932992
0.006359774153679609,0.004143144469708204,-0.006844214163720608,0.0034493901766836643,-0.0003128678654320538,0.006469799671322107
0.006303270813077688,0.00394816929474473,-0.007028533611446619,0.003303889650851488,-0.00031989236595109105,0.00658024987205863
0.006649186834692955,0.003795779310166836,-0.007450554519891739,0.003475867211818695,-0.00030552680254913867,0.0063222553580999374
0.0067690517753362656,0.0037609869614243507,-0.006572764832526445,0.0036410465836524963,-0.0002865444985218346,0.006364916916936636
0.007125218864530325,0.0037188460119068623,-0.006485725287348032,0.0037451793905347586,-0.00026941171381622553,0.006559988018125296
0.006451756693422794,0.003677787957713008,-0.006811968982219696,0.003720066975802183,-0.00025418796576559544,0.0065838429145514965
0.006437988951802254,0.0033910658676177263,-0.007296924479305744,0.003219893667846918,-0.00024059282441157848,0.0067131235264241695
0.007018780801445246,0.003427210496738553,-0.00686947675421834,0.003093963721767068,-0.0002283792127855122,0.006348314229398966
0.006971239577978849,0.0036506634205579758,-0.00717935711145401,0.0030853725038468838,-0.00021734500478487462,0.006456062197685242
0.006472833454608917,0.003870747284963727,-0.006691284012049437,0.00338315824046731,-0.00020732826669700444,0.006706043146550655
0.006316835526376963,0.003400381188839674,-0.007145932409912348,0.0037302495911717415,-0.00019819503359030932,0.006856213789433241
0.006925741210579872,0.0031060234177857637,-0.007051932159811258,0.003944275435060263,-0.00021788766025565565,0.0060245259664952755
0.007152522914111614,0.0030984128825366497,-0.006648664362728596,0.003548592561855912,-0.00021792844927404076,0.006090422626584768
0.00712475273758173,0.0033161360770463943,-0.006779492367058992,0.0035371449775993824,-0.00021002953872084618,0.006564175710082054
0.007036746013909578,0.0034142560325562954,-0.0073080663569271564,0.003638813504949212,-0.00020220129226800054,0.006899712141603231
0.0066342223435640335,0.0035735126584768295,-0.007404254283756018,0.003385460004210472,-0.0001949040888575837,0.006630806718021631
0.007248800713568926,0.003788701957091689,-0.006860258523374796,0.0031034976709634066,-0.00018811416521202773,0.006292981561273336
0.007294226437807083,0.0038729386869817972,-0.006496543996036053,0.0028871209360659122,-0.00018178064783569425,0.006726852618157864
0.007037868723273277,0.003444422036409378,-0.0068786246702075005,0.003195027820765972,-0.00017585986643098295,0.006940779276192188
0.006596532184630632,0.003216841956600547,-0.008142035454511642,0.0031811778899282217,-0.00017031273455359042,0.006792800035327673
0.007063168101012707,0.0033404361456632614,-0.00785755179822445,0.0034600882790982723,-0.00016510527348145843,0.00639506708830595
0.007025552913546562,0.0031929248943924904,-0.006930078379809856,0.0038322475738823414,-0.00015559013991151005,0.006422325037419796
0.007182037923485041,0.0031713321805000305,-0.007484026253223419,0.0037532602436840534,-0.00015123221965041012,0.006306979805231094
0.007765242829918861,0.003056867979466915,-0.007214096374809742,0.0036956421099603176,-0.00014711180119775236,0.0064941453747451305
0.007765242829918861,0.003056867979466915,-0.007214096374809742,0.0036956421099603176,-0.00014711180119775236,0.0064941453747451305
0.0077951508574187756,0.0033419758547097445,-0.006724617909640074,0.0032855472527444363,-0.00014320995251182467,0.006494473200291395
0.0075253709219396114,0.0037000365555286407,-0.007000654470175505,0.003064297139644623,-0.00013951024448033422,0.006364866159856319
0.007352448999881744,0.0037869238294661045,-0.007261413149535656,0.003271802794188261,-0.00013599623343907297,0.006441692356020212
0.007588754408061504,0.003439474618062377,-0.006927742622792721,0.0032901745289564133,-0.00013265546294860542,0.006653530988842249
0.0069449651055037975,0.003311102045699954,-0.006242121569812298,0.0034014370758086443,-0.0001482152147218585,0.006558338645845652
0.0071068136021494865,0.0029670761432498693,-0.006597168743610382,0.003702007234096527,-0.00014733108400832862,0.006739605683833361
0.006417115218937397,0.003196373349055648,-0.00745562044903636,0.0039206985384225845,-0.0001441291387891397,0.006695186719298363
0.006484357640147209,0.003509247675538063,-0.0068092308938503265,0.003916670568287373,-0.00014091620687395334,0.006915926467627287
0.00731740752235055,0.003553615417331457,-0.006557729095220566,0.003814044641330838,-0.00013783379108645022,0.006854097358882427
0.007150568533688784,0.003591876244172454,-0.006672057323157787,0.0037432443350553513,-0.00013488296826835722,0.006754138506948948
0.0073130568489432335,0.0037888819351792336,-0.0074744815938174725,0.004221970681101084,-0.00013205548748373985,0.006829516496509314
0.0069036828354001045,0.0038234014064073563,-0.007347822189331055,0.004134216345846653,-0.0001293442619498819,0.006909423507750034
0.007468276657164097,0.003758431877940893,-0.006586805451661348,0.003985739778727293,-0.00012674217578023672,0.007191130425781012
0.008083458989858627,0.0033400377724319696,-0.006272821221500635,0.003985069692134857,-0.00012424254964571446,0.0069317263551056385
0.007968064397573471,0.003450458636507392,-0.007064735982567072,0.004027759190648794,-0.00012183965736767277,0.00668740039691329
0.0071209087036550045,0.003305442165583372,-0.007361755706369877,0.003988041542470455,-0.00011952802015002817,0.006689588539302349
0.006750220898538828,0.0035027421545237303,-0.007033077999949455,0.004026825539767742,-0.00011730245023500174,0.007332185748964548
0.008075605146586895,0.004007465671747923,-0.006908685900270939,0.003774476470425725,-0.00011515831283759326,0.006857925094664097
0.0074907164089381695,0.004232822917401791,-0.007371907122433186,0.0035931554157286882,-0.00011309100955259055,0.007002884987741709
0.007563757244497538,0.004013439640402794,-0.007799691986292601,0.0033257727045565844,-0.00011109669867437333,0.006581366527825594
0.007981671020388603,0.0037783829029649496,-0.007045424077659845,0.003400299232453108,-0.00010917142208199948,0.00699705071747303
0.007878167554736137,0.003712642937898636,-0.006743988953530788,0.003645597957074642,-0.00010731187649071217,0.0066825090907514095
0.007600630633533001,0.003808549139648676,-0.006764312274754047,0.003834574483335018,-0.00010551470040809363,0.006863412447273731
0.007496701553463936,0.003403485519811511,-0.007394385989755392,0.003794159973040223,-0.00010377655416959897,0.006759456358850002
0.007879180833697319,0.003637258894741535,-0.006791185587644577,0.0033114037942141294,-0.0001004667064989917,0.007064899429678917
0.007081594783812761,0.0037771607749164104,-0.007270743139088154,0.0033785623963922262,-9.888964996207505e-05,0.0073263212107121944
0.007081594783812761,0.0037771607749164104,-0.007270743139088154,0.0033785623963922262,-9.888964996207505e-05,0.0073263212107121944
0.0072343782521784306,0.004393718205392361,-0.007757072802633047,0.0032394493464380503,-9.736145875649527e-05,0.008349145762622356
0.008102807216346264,0.00407547177746892,-0.007052547764033079,0.0032923936378210783,-9.587965905666351e-05,0.00658742431551218
0.008218077011406422,0.0037835866678506136,-0.0071760741993784904,0.003546113381162286,-9.444234456168488e-05,0.006127042230218649
0.007708600256592035,0.00370819796808064,-0.006697277072817087,0.0042457543313503265,-9.304754348704591e-05,0.006734475027769804
0.0075448681600391865,0.003772724885493517,-0.007283907849341631,0.004091112874448299,-9.169328404823318e-05,0.007068317849189043
0.007635768037289381,0.003907601814717054,-0.008193240500986576,0.003922656178474426,-9.037782001541927e-05,0.007415497675538063
0.007775675039738417,0.0034635907504707575,-0.007188871968537569,0.0038614580407738686,-8.909968892112374e-05,0.007954266853630543
0.0074437931180000305,0.0035267702769488096,-0.006768862251192331,0.0039158170111477375,-8.785713725956157e-05,0.007432887330651283
0.007426050491631031,0.0041003297083079815,-0.006830873899161816,0.003909279592335224,-8.664886991027743e-05,0.007129034027457237
0.007931473664939404,0.004244568757712841,-0.007377914153039455,0.003895767265930772,-8.547316974727437e-05,0.007039407268166542
0.008547739125788212,0.00395824434235692,-0.00716927507892251,0.003967322874814272,-8.432911999989301e-05,0.0070332689210772514
0.007341437507420778,0.0037789579946547747,-0.007050364278256893,0.004046015441417694,-8.321523637278005e-05,0.007207935210317373
0.007116406690329313,0.003782420651987195,-0.007340947166085243,0.004014585632830858,-8.213042747229338e-05,0.007315425667911768
0.007791922893375158,0.003844635095447302,-0.0074392156675457954,0.0039502535946667194,-8.107356552500278e-05,0.007331445813179016
0.008321751840412617,0.0039425198920071125,-0.007106378674507141,0.004279507789760828,-8.00434427219443e-05,0.007527144625782967
0.00824751053005457,0.0035048930440098047,-0.00745584350079298,0.0041363839991390705,-7.903922960394993e-05,0.007027263753116131
0.007939741015434265,0.003585516707971692,-0.0077320123091340065,0.003769584698602557,-8.77573256730102e-05,0.007314241956919432
0.008331960998475552,0.0042570955120027065,-0.00767176691442728,0.0035179187543690205,-8.802465163171291e-05,0.007578282617032528
0.00797868613153696,0.004113325383514166,-0.007385917007923126,0.003906773868948221,-8.704784704605117e-05,0.00768355093896389
0.008132568560540676,0.0039199767634272575,-0.007362378295511007,0.004292231518775225,-8.601371519034728e-05,0.0069098100066185
0.008441544137895107,0.003438714426010847,-0.007444729097187519,0.004533976782113314,-8.499873365508392e-05,0.006643376778811216
0.008495630696415901,0.003530768444761634,-0.007611230481415987,0.004212810192257166,-8.400698425248265e-05,0.00698104128241539
0.008640462532639503,0.0036958102136850357,-0.007575404364615679,0.004096733406186104,-8.303821232402697e-05,0.007011473644524813
0.008483673445880413,0.0037857017014175653,-0.007044278550893068,0.0039347028359770775,-8.209145744331181e-05,0.0071427784860134125
0.008465909399092197,0.003840545890852809,-0.0072983126156032085,0.003739431267604232,-8.116599929053336e-05,0.007308758795261383
0.008136761374771595,0.0039166235364973545,-0.007754960097372532,0.004023310728371143,-4.023582732770592e-05,0.00736228609457612
0.008418472483754158,0.0034562337677925825,-0.007410863880068064,0.004404511768370867,-2.6271120532328496e-06,0.007822856307029724
0.008782638236880302,0.0035182691644877195,-0.007770334370434284,0.004170320462435484,-1.7153165288164018e-07,0.007601642515510321
0.009100604802370071,0.004177674185484648,-0.007930063642561436,0.003938806708902121,-1.1199792204763526e-08,0.0073820860125124454
0.009100604802370071,0.004177674185484648,-0.007930063642561436,0.003938806708902121,-1.1199792204763526e-08,0.0073820860125124454
0.008375473320484161,0.0036847072187811136,-0.008120672777295113,0.003935764543712139,-7.312664362935095e-10,0.007707670331001282
0.008800158277153969,0.0034667595755308867,-0.007836037315428257,0.003959439229220152,-4.774647691108136e-11,0.00755692133679986
0.008969033136963844,0.0035022818483412266,-0.00796740036457777,0.0043593961745500565,-3.11750386790266e-12,0.007390799932181835
0.008559396490454674,0.003631109371781349,-0.007955947890877724,0.004130767658352852,-2.0355071794764257e-13,0.007443960756063461
0.00960035715252161,0.0036851237528026104,-0.007888754829764366,0.00396603113040328,-1.3290407728343279e-14,0.00813852995634079
0.008817036636173725,0.003728399286046624,-0.006995891686528921,0.0042754425667226315,-8.677686314404408e-16,0.007848060689866543
0.008617457933723927,0.003704455215483904,-0.008313522674143314,0.004137399140745401,-5.665909263302422e-17,0.008079390972852707
0.0090046850964427,0.0036549698561429977,-0.00788192544132471,0.003932762425392866,-3.69943376792602e-18,0.00775561947375536
0.009092050604522228,0.0036056910175830126,-0.007386390585452318,0.003926578909158707,-2.415465874846523e-19,0.007623101584613323
0.008960714563727379,0.0035823057405650616,-0.007383828051388264,0.004237480461597443,-1.577126789700611e-20,0.007429133635014296
0.008656051941215992,0.0036583298351615667,-0.008139383979141712,0.004707019310444593,-1.0297510053361554e-21,0.007755635771900415
0.009499520063400269,0.003656273940578103,-0.008009065873920918,0.004811723716557026,-6.723538488023033e-23,0.007733320351690054
0.008993200957775116,0.0036194489803165197,-0.007487266790121794,0.004682969301939011,-4.389990032740942e-24,0.007994831539690495
0.009678398258984089,0.0035169452894479036,-0.007018791977316141,0.00414106622338295,-2.866349764947703e-25,0.007699116598814726
0.009126419201493263,0.003589788218960166,-0.008011694997549057,0.004128940403461456,-1.871521499011923e-26,0.007586619816720486
0.00891814287751913,0.003866178449243307,-0.00789596140384674,0.004195244982838631,-1.2219699052011438e-27,0.008176707662642002
0.00889724213629961,0.003791951574385166,-0.007468742318451405,0.00438957242295146,-7.97859090662432e-29,0.00793206226080656
0.009900453500449657,0.003517415374517441,-0.007377778645604849,0.004467414692044258,-5.209450163522188e-30,0.008049411699175835
0.0090989014133811,0.003608246799558401,-0.007796537596732378,0.004704408347606659,-3.4013991687936032e-31,0.007939107716083527
0.008876207284629345,0.0038453221786767244,-0.0080829793587327,0.00454888679087162,-2.2208704401529728e-32,0.008363225497305393
0.009430879727005959,0.003924197982996702,-0.007631456013768911,0.004423306789249182,-1.450069535529723e-33,0.00837842095643282
0.009662365540862083,0.004033227451145649,-0.00761345075443387,0.0041314782574772835,-9.467918229652341e-35,0.008164117112755775
0.009223109111189842,0.0035535937640815973,-0.008253460749983788,0.0039445022121071815,-6.181873420493747e-36,0.00828828290104866
0.009296372532844543,0.003597110277041793,-0.007736646104604006,0.00425946107134223,-4.036321620585615e-37,0.008412160910665989
0.009132102131843567,0.003895253874361515,-0.008025574497878551,0.00495725916698575,-1.7207468700430883e-39,0.008307376876473427
0.009527363814413548,0.003998807165771723,-0.00812616292387247,0.005126555450260639,-1.1235190697417086e-40,0.008431813679635525
0.009414990432560444,0.0036601389292627573,-0.007449049036949873,0.004907363560050726,-7.335797460740417e-42,0.008107812143862247
0.009414990432560444,0.0036601389292627573,-0.007449049036949873,0.004907363560050726,-7.335797460740417e-42,0.008107812143862247
0.009182266891002655,0.003520886180922389,-0.0070242309011518955,0.00470513803884387,-4.792440747990874e-43,0.007658390328288078
0.008920219726860523,0.003628695383667946,-0.007730035576969385,0.004308318719267845,-3.0828566215145976e-44,0.008019396103918552
0.009372184984385967,0.004377327859401703,-0.008406651206314564,0.004394454415887594,-1.401298464324817e-45,0.008871185593307018
0.009245514869689941,0.0041869631968438625,-0.007919659838080406,0.004995353054255247,-0.0,0.008607997559010983
0.009916101582348347,0.00399052957072854,-0.007802701089531183,0.004905042704194784,-0.0,0.008218235336244106
0.0092775858938694,0.0034101756755262613,-0.007960310205817223,0.004537211265414953,-0.0,0.007918335497379303
0.00960809551179409,0.0039010276086628437,-0.008210386149585247,0.00439427699893713,-0.0,0.008703949861228466
0.009644356556236744,0.004213081207126379,-0.007630849257111549,0.004122177138924599,-0.0,0.008427301421761513
0.009613415226340294,0.004043641500174999,-0.007743025664240122,0.004291004966944456,-0.0,0.00817793421447277
0.009813661687076092,0.003858505515381694,-0.007951537147164345,0.0051682619377970695,-0.0,0.008955360390245914
0.009065911173820496,0.0035415447782725096,-0.0077705467119812965,0.0051938979886472225,-0.0,0.008342403918504715
0.009986463002860546,0.003884949255734682,-0.007548111490905285,0.005410679616034031,-0.0,0.008392028510570526
0.01035998947918415,0.004192864056676626,-0.008125423453748226,0.005256445147097111,-0.0,0.00805866438895464
0.00939115695655346,0.0035481280647218227,-0.008513071574270725,0.004634222947061062,-0.0,0.00869718473404646
0.009848116897046566,0.0036008444149047136,-0.007728316355496645,0.004515527281910181,-0.0,0.008616054430603981
0.010495275259017944,0.0037833228707313538,-0.007419263012707233,0.004875701852142811,-0.0,0.008769425563514233
0.00924895703792572,0.0037921189796179533,-0.008107978850603104,0.005449159536510706,-0.0,0.008765146136283875
0.009826785884797573,0.003699198830872774,-0.008252501487731934,0.005685776937752962,-0.0,0.00881269108504057
0.010500849224627018,0.0036722098011523485,-0.007065482437610626,0.005245102569460869,-0.0,0.00910443626344204
0.009411954320967197,0.0037613080348819494,-0.008470566011965275,0.004507973790168762,-0.0,0.008615920320153236
0.0101407989859581,0.0037420433945953846,-0.008504095487296581,0.004338393919169903,-0.0,0.00878231506794691
0.010047395713627338,0.0036003149580210447,-0.00816200952976942,0.004676867742091417,-0.0,0.00872048456221819
0.00969681516289711,0.003079004120081663,-0.007630516774952412,0.0053576454520225525,-0.0,0.008749892935156822
0.010451589711010456,0.0029961345717310905,-0.00751086138188839,0.005148078314960003,-0.0,0.00948257651180029
0.010002873837947845,0.003418079810217023,-0.008093373849987984,0.004719520919024944,-0.0,0.009279102087020874
0.010002873837947845,0.003418079810217023,-0.008093373849987984,0.004719520919024944,-0.0,0.009279102087020874
0.010623211041092873,0.0032590266782790422,-0.007899087853729725,0.004710780456662178,-0.0,0.010178202763199806
0.009773465804755688,0.0030787442810833454,-0.00832001119852066,0.004792477004230022,-0.0,0.00938303954899311
0.00984098855406046,0.003128612646833062,-0.008600988425314426,0.005317136645317078,-0.0,0.008228038437664509
0.010784528218209743,0.0033726911060512066,-0.007864462211728096,0.005397276487201452,-0.0,0.008426527492702007
0.010216142982244492,0.0034865401685237885,-0.008211331441998482,0.0054687499068677425,-0.0,0.008981568738818169
0.01043652929365635,0.003406704403460026,-0.00875013042241335,0.004953758325427771,-0.0,0.009023504331707954
0.01076793298125267,0.0031289004255086184,-0.009027192369103432,0.004506117198616266,-0.0,0.009047707542777061
0.010232776403427124,0.0034816376864910126,-0.008586322888731956,0.00496146222576499,-0.0,0.009196116589009762
0.010636166669428349,0.003801810322329402,-0.008066000416874886,0.005443824455142021,-0.0,0.009187398478388786
0.010958206839859486,0.0034151249565184116,-0.008654236793518066,0.005474057514220476,-2.928393996626255e-06,0.009561787359416485
0.009748953394591808,0.003123236820101738,-0.007910777814686298,0.005736934021115303,-1.9120318484056043e-07,0.009670024737715721
0.009950593113899231,0.003056385088711977,-0.008114159107208252,0.004677171818912029,-1.2484203004703431e-08,0.009495236910879612
0.01050019171088934,0.0032342830672860146,-0.008497225120663643,0.0040374379605054855,-8.151291863711663e-10,0.00950687937438488
0.009828310459852219,0.0031601653899997473,-0.008230607025325298,0.004843506962060928,-5.322211421576739e-11,0.009612098336219788
0.010450214147567749,0.0034764455631375313,-0.008033571764826775,0.005479105748236179,-3.4750236542480106e-12,0.009101811796426773
0.01016138680279255,0.0033158690202981234,-0.0076285554096102715,0.0054381838999688625,-2.2689422769003181e-13,0.00886670034378767
0.010195000097155571,0.003569302847608924,-0.008832852356135845,0.00497971847653389,-1.4814570672093928e-14,0.009447712451219559
0.010783077217638493,0.0031664548441767693,-0.008490580134093761,0.004815686959773302,-9.67285579501283e-16,0.009298720397055149
0.010387349873781204,0.0031273295171558857,-0.008285067975521088,0.005009715911000967,-6.315684119008957e-17,0.009262926876544952
0.010841515846550465,0.0033449928741902113,-0.009171082638204098,0.005426367279142141,-4.123690154611099e-18,0.009234330616891384
0.010366201400756836,0.0032203635200858116,-0.008577828295528889,0.005572513677179813,-2.6924749618116365e-19,0.009693536907434464
0.010475057177245617,0.0035115412902086973,-0.008447858504951,0.005463257897645235,-1.7579937080444518e-20,0.009601986035704613
0.010545753873884678,0.00331376981921494,-0.00910137314349413,0.005564868915826082,-1.1478443663719547e-21,0.009751818142831326
0.010637858882546425,0.0034553927835077047,-0.008564149029552937,0.005540305282920599,-7.494603322310983e-23,0.00955820083618164
0.010374411940574646,0.003434138372540474,-0.008952987380325794,0.005260760430246592,-3.1950668715581342e-25,0.009817066602408886
0.010402022860944271,0.0033958996646106243,-0.008922833949327469,0.004912161733955145,-2.0861505216511388e-26,0.009676583111286163
0.01001655776053667,0.0034331667702645063,-0.009054652415215969,0.005220013204962015,-1.36210711611657e-27,0.009276599623262882
0.010337251238524914,0.003506383625790477,-0.008612642996013165,0.0051880693063139915,-8.893585778728113e-29,0.009820963256061077
0.010337251238524914,0.003506383625790477,-0.008612642996013165,0.0051880693063139915,-8.893585778728113e-29,0.009820963256061077
0.01115854550153017,0.003591097192838788,-0.009239744395017624,0.005711010191589594,-3.7914754492693413e-31,0.009806865826249123
0.01115854550153017,0.003591097192838788,-0.009239744395017624,0.005711010191589594,-3.7914754492693413e-31,0.009806865826249123
0.01028425619006157,0.0034998103510588408,-0.008945233188569546,0.005437017884105444,-2.47556259709373e-32,0.010319575667381287
0.009399523958563805,0.0034632771275937557,-0.009199420921504498,0.0055691758170723915,-1.616365527479102e-33,0.009393066167831421
0.009978286921977997,0.003672688966616988,-0.0090864272788167,0.005225230939686298,-1.055371225960231e-34,0.009432909078896046
0.010563449934124947,0.0038197801914066076,-0.009355832822620869,0.005385930649936199,-6.890819774494586e-36,0.009643138386309147
0.010322150774300098,0.0037694815546274185,-0.008891363628208637,0.0051564485765993595,-4.499212878617663e-37,0.010503756813704967
0.010847220197319984,0.0037937993183732033,-0.009533197619020939,0.0053990688174963,-2.937664724509589e-38,0.009986898861825466
0.011230671778321266,0.003386677009984851,-0.009385431185364723,0.005797792226076126,-1.9180847262816307e-39,0.010063748806715012
0.010048354044556618,0.0036086735781282187,-0.008955477736890316,0.0056059290654957294,-1.2523684635363755e-40,0.009869645349681377
0.010145055130124092,0.003824496641755104,-0.00934679713100195,0.0056830644607543945,-8.176576539335308e-42,0.009760708548128605
0.010440593585371971,0.003355190856382251,-0.008934292010962963,0.0059239910915493965,-5.338947149077553e-43,0.010150470770895481
0.010376250371336937,0.0034125358797609806,-0.008686321787536144,0.005847813095897436,-3.5032461608120427e-44,0.010409001260995865
0.010146945714950562,0.003747486276552081,-0.009647100232541561,0.005559393670409918,-0.0,0.010399178601801395
0.010309186764061451,0.0036567337810993195,-0.008857505396008492,0.005544390995055437,-0.0,0.01014061737805605
0.010309186764061451,0.0036567337810993195,-0.008857505396008492,0.005544390995055437,-0.0,0.01014061737805605
0.010343138128519058,0.003513398813083768,-0.009021592326462269,0.005488386377692223,-0.0,0.009718304499983788
0.010252149775624275,0.003489255905151367,-0.008998277597129345,0.005660092458128929,-0.0,0.010392281226813793
0.010079211555421352,0.003439027816057205,-0.008919094689190388,0.006003090646117926,-0.0,0.010145826265215874
0.010784856975078583,0.0035832864232361317,-0.009378205053508282,0.006008894182741642,-0.0,0.009906964376568794
0.010261431336402893,0.003673139726743102,-0.009833586402237415,0.005243334453552961,-0.0,0.010135844349861145
0.010627101175487041,0.0036719872150570154,-0.008911429904401302,0.0051418389193713665,-0.0,0.0103566600009799
0.010880250483751297,0.00366759835742414,-0.008619027212262154,0.005619119852781296,-0.0,0.010777093470096588
0.009839722886681557,0.003590923035517335,-0.009404229931533337,0.006340677384287119,-0.0,0.010561993345618248
0.010020691901445389,0.0036381667014211416,-0.008915994316339493,0.006180205382406712,-0.0,0.010707017034292221
0.010733352042734623,0.0036709432024508715,-0.009074848145246506,0.005745439324527979,-0.0,0.010907945223152637
0.011003456078469753,0.003698404412716627,-0.009595295414328575,0.005560644902288914,-0.0,0.010849152691662312
0.010442875325679779,0.003723337547853589,-0.009098038077354431,0.005633270367980003,-0.0,0.010232599452137947
0.0107076745480299,0.003750144736841321,-0.008580228313803673,0.006219926290214062,-0.0,0.01031936053186655
0.010172084905207157,0.003831125097349286,-0.009673228487372398,0.0065246266312897205,-0.0,0.010345561429858208
0.010751146823167801,0.003806627355515957,-0.009552080184221268,0.0062829372473061085,-0.0,0.010539333336055279
0.010559117421507835,0.003929372876882553,-0.009349987842142582,0.006230460479855537,-0.0,0.01108031440526247
0.01024583913385868,0.003773963078856468,-0.008955387398600578,0.006453927140682936,-0.0,0.010523883625864983
0.010687836445868015,0.003538863267749548,-0.009625012055039406,0.006430562119930983,-0.0,0.011635717004537582
0.010491149500012398,0.0038493459578603506,-0.00890969205647707,0.006568899378180504,-7.387269579339772e-05,0.010133888572454453
0.01081506535410881,0.0040092384442687035,-0.008958187885582447,0.006630051881074905,-8.029973832890391e-05,0.010009506717324257
0.011035549454391003,0.003908986691385508,-0.009087389335036278,0.006648597307503223,-7.938889757497236e-05,0.01085623074322939
0.010725908912718296,0.004276159219443798,-0.009355394169688225,0.0059408824890851974,-7.804507185937837e-05,0.011212778277695179
0.010984532535076141,0.003571519162505865,-0.010048509575426579,0.005731950979679823,-8.854355110088363e-05,0.010634131729602814
0.011073564179241657,0.004041489213705063,-0.009522045962512493,0.005766117479652166,-8.889595483196899e-05,0.010967891663312912
0.011248738504946232,0.004142052959650755,-0.009269269183278084,0.005890892818570137,-8.757246541790664e-05,0.010427060537040234
0.011031567119061947,0.004054374527186155,-0.00924998614937067,0.006122566759586334,-8.618261927040294e-05,0.010852199979126453
0.011031567119061947,0.004054374527186155,-0.00924998614937067,0.006122566759586334,-8.618261927040294e-05,0.010852199979126453
0.011054168455302715,0.003937280271202326,-0.00938096921890974,0.00564609793946147,-8.351731958100572e-05,0.010335622355341911
0.010742852464318275,0.003894474357366562,-0.009723858907818794,0.005812305491417646,-8.224526391131803e-05,0.010883750393986702
0.010989552363753319,0.0037718003150075674,-0.009343596175312996,0.005844779312610626,-8.101148705463856e-05,0.011340317316353321
0.010989552363753319,0.0037718003150075674,-0.009343596175312996,0.005844779312610626,-8.101148705463856e-05,0.011340317316353321
0.010886267758905888,0.00326154544018209,-0.00860210508108139,0.0061220088973641396,-8.969195187091827e-05,0.01139121875166893
0.010915482416749,0.003196222707629204,-0.008956419304013252,0.006347692105919123,-9.153650898952037e-05,0.010926788672804832
0.011269832961261272,0.0033162785694003105,-0.009354211390018463,0.006263064686208963,-9.042829333338886e-05,0.01046688761562109
0.012325801886618137,0.0035852151922881603,-0.008903146721422672,0.006346292793750763,-8.916192746255547e-05,0.011012248694896698
0.01317331101745367,0.0036824247799813747,-0.009289081208407879,0.005782494321465492,-9.883875463856384e-05,0.010943247936666012
0.012820125557482243,0.003647611243650317,-0.009467624127864838,0.005790926516056061,-9.898839198285714e-05,0.01082121953368187
0.01287242490798235,0.003689130302518606,-0.008721038699150085,0.006122364662587643,-9.774311911314726e-05,0.011546880938112736
0.012951730750501156,0.00368784018792212,-0.008668242022395134,0.006167721468955278,-9.644031524658203e-05,0.011170461773872375
0.012941264547407627,0.003701658919453621,-0.009476679377257824,0.006384155713021755,-9.516606223769486e-05,0.011653166264295578
0.013152840547263622,0.0037409828510135412,-0.009446881711483002,0.005832557566463947,-9.392471838509664e-05,0.01147555373609066
0.012695446610450745,0.003797888522967696,-0.009000066667795181,0.006227776408195496,-9.271520684706047e-05,0.011402033269405365
0.013041851110756397,0.0039177932776510715,-0.010325158014893532,0.006673687603324652,-9.153650898952037e-05,0.011578923091292381
0.01291500125080347,0.003642638213932514,-0.009153333492577076,0.006881491281092167,-9.038739517563954e-05,0.011532643809914589
0.013157117180526257,0.0034993530716747046,-0.00883764773607254,0.006800743751227856,-0.00015866632747929543,0.010707144625484943
0.012871291488409042,0.0036875782534480095,-0.009176373481750488,0.006409569643437862,-0.00016268450417555869,0.011527236551046371
0.013936438597738743,0.003802897874265909,-0.010003576055169106,0.006609225645661354,-0.00015762323164381087,0.011460486799478531
0.01342388428747654,0.0037108324468135834,-0.009082654491066933,0.0066291107796132565,-0.0001523285754956305,0.01155042927712202
0.013363724574446678,0.0036806201096624136,-0.009820083156228065,0.006203929893672466,-0.00014734301657881588,0.011388806626200676
0.012998519465327263,0.0034990760032087564,-0.00921902246773243,0.006504245102405548,-0.00013828655937686563,0.011316804215312004
0.012998519465327263,0.0034990760032087564,-0.00921902246773243,0.006504245102405548,-0.00013828655937686563,0.011316804215312004
0.013238094747066498,0.0033192557748407125,-0.009428941644728184,0.0070970188826322556,-0.00013027864042669535,0.011418628506362438
0.013238094747066498,0.0033192557748407125,-0.009428941644728184,0.0070970188826322556,-0.00013027864042669535,0.011418628506362438
0.01348433829843998,0.0033421663101762533,-0.008933455683290958,0.006551132537424564,-0.00013904360821470618,0.011230402626097202
0.012574941851198673,0.003507741028442979,-0.009226176887750626,0.006426346022635698,-0.00014693557750433683,0.011114919558167458
0.013320221565663815,0.0034692396875470877,-0.009902367368340492,0.006945464294403791,-0.00014378572814166546,0.011690648272633553
0.012818863615393639,0.0032515814527869225,-0.009535818360745907,0.007038992363959551,-0.00014010485028848052,0.011346559971570969
0.012892299331724644,0.0033134932164102793,-0.00884197000414133,0.006522877607494593,-0.00013656460214406252,0.011506102979183197
0.012708085589110851,0.0036442663986235857,-0.00909176655113697,0.0063398368656635284,-0.0001331962994299829,0.011586658656597137
0.013331564143300056,0.003364020958542824,-0.00928063690662384,0.006824391428381205,-0.00012998978490941226,0.011417018249630928
0.013311066664755344,0.0035317731089890003,-0.010276338085532188,0.0069419993087649345,-0.00012693418830167502,0.011701121926307678
0.013165956363081932,0.003208954120054841,-0.010009745135903358,0.0068367524072527885,-0.00013934518210589886,0.011714658699929714
0.013923447579145432,0.003325554309412837,-0.009100829251110554,0.0063996631652116776,-0.00014109113544691354,0.011486601084470749
0.013317075558006763,0.003575733397156,-0.009101241827011108,0.006283207796514034,-0.00013831155956722796,0.011516335420310497
0.013254263438284397,0.0035806908272206783,-0.00950903631746769,0.007052244618535042,-0.00013536021288018674,0.011612087488174438
0.012987450696527958,0.0033582900650799274,-0.009691433981060982,0.0071049705147743225,-0.00013251451309770346,0.011938531883060932
0.013718166388571262,0.0030316063202917576,-0.00944414734840393,0.007118575274944305,-0.0001297847047680989,0.011747467331588268
0.012929007411003113,0.0033033324871212244,-0.00962371751666069,0.0069608911871910095,-0.0001271648652618751,0.012870517559349537
0.013370242901146412,0.00371976918540895,-0.009238609112799168,0.006715529598295689,-0.00014012111932970583,0.011542165651917458
0.013019554316997528,0.003896138397976756,-0.008943534456193447,0.007993497885763645,-0.00013953934831079096,0.01103115826845169
0.013363257050514221,0.0034069991670548916,-0.010001531802117825,0.007906290702521801,-0.00013702308933716267,0.01191882137209177
0.013234217651188374,0.003126469673588872,-0.010251279920339584,0.0074385711923241615,-0.00013447304081637412,0.012081913650035858
0.013738593086600304,0.003199087455868721,-0.00943679641932249,0.007449430879205465,-0.00013200822286307812,0.012382890097796917
0.013633414171636105,0.003455190919339657,-0.010385570116341114,0.007471542339771986,-0.00014852630556561053,0.012318072840571404
0.013684437610208988,0.0034370722714811563,-0.009259902872145176,0.007344558835029602,-0.00014649041986558586,0.012306795455515385
0.013701788149774075,0.0031509252730757,-0.009398828260600567,0.00722531508654356,-0.0001559834781801328,0.012725256383419037
0.01382539514452219,0.0031423179898411036,-0.010145389474928379,0.007773380260914564,-0.0001734009711071849,0.012724807485938072
0.01382539514452219,0.0031423179898411036,-0.010145389474928379,0.007773380260914564,-0.0001734009711071849,0.012724807485938072
0.014837764203548431,0.003547262167558074,-0.009149846620857716,0.0076159024611115456,-0.0001807862427085638,0.01246668677777052
0.01352135930210352,0.0037766180466860533,-0.00958231370896101,0.0071310019120574,-0.0001952165039256215,0.012488308362662792
0.012839016504585743,0.00391069520264864,-0.009385469369590282,0.007947422564029694,-0.00019587927090469748,0.01219900418072939
0.014212554320693016,0.003431366290897131,-0.008781787939369678,0.007992872968316078,-0.0001910710270749405,0.012139069847762585
0.01415002066642046,0.003478512866422534,-0.010088668204843998,0.007903268560767174,-0.0004296015831641853,0.012549884617328644
0.014607089571654797,0.0035442691296339035,-0.00980643555521965,0.007169212214648724,-0.0004236864624544978,0.012424071319401264
0.013744420371949673,0.003492020769044757,-0.010043448768556118,0.007051876280456781,-0.000389271677704528,0.012733935378491879
0.014212504029273987,0.0033743614330887794,-0.010027742944657803,0.007223685272037983,-0.0003583884099498391,0.01225066464394331
0.013954710215330124,0.0035382178612053394,-0.009360375814139843,0.007355873007327318,-0.0003892494714818895,0.012253960594534874
0.014362432062625885,0.0037248004227876663,-0.009020759724080563,0.007397672161459923,-0.00037035500281490386,0.01240265741944313
0.013736630789935589,0.003398207714781165,-0.00983817595988512,0.007613903842866421,-0.00037517386954277754,0.012589149177074432
0.01430870033800602,0.0035523499827831984,-0.009947028942406178,0.007655119989067316,-0.0003785266017075628,0.013015694916248322
0.01390640065073967,0.003746989881619811,-0.009795675985515118,0.007378506939858198,-0.00035866492544300854,0.012884550727903843
0.014139449223876,0.0037893468979746103,-0.010500050149857998,0.007365082856267691,-0.0003752014017663896,0.013021178543567657
0.014034230262041092,0.003449901007115841,-0.010248549282550812,0.007734529674053192,-0.0003672718012239784,0.012783586047589779
0.014351450838148594,0.0033671234268695116,-0.009342626668512821,0.007942240685224533,-0.00035052798921242356,0.012728200294077396
0.014349010773003101,0.003104765899479389,-0.010088510811328888,0.007590272463858128,-0.00035483582178130746,0.012719657272100449
0.01449946966022253,0.003199328202754259,-0.010225008241832256,0.007125353906303644,-0.000379464850993827,0.012912692502140999
0.014000970870256424,0.0034449377562850714,-0.009753000922501087,0.007087919395416975,-0.0003688000433612615,0.012956872582435608
0.014475265517830849,0.003596523543819785,-0.010283023118972778,0.007308498490601778,-0.00039602004108019173,0.012758186087012291
0.01442416850477457,0.003499305574223399,-0.009729498997330666,0.007448208052664995,-0.0003790610935539007,0.013091313652694225
0.014534239657223225,0.0035753792617470026,-0.009426570497453213,0.007507312577217817,-0.0003956544096581638,0.013116630725562572
0.014448664151132107,0.0034009390510618687,-0.010337517596781254,0.008063063025474548,-0.00038625203887932,0.013699093833565712
0.014930590987205505,0.0034150658175349236,-0.01008313987404108,0.008065849542617798,-0.0006015816470608115,0.013174590654671192
0.014772273600101471,0.0031793417874723673,-0.00958919245749712,0.007594311144202948,-0.0006093831616453826,0.013362344354391098
0.014301612041890621,0.0037364191375672817,-0.01013146061450243,0.008183005265891552,-0.0005413266480900347,0.013064666651189327
0.014855551533401012,0.0033322747331112623,-0.010187093168497086,0.008260438218712807,-0.0005320658092387021,0.01331999059766531
0.014855551533401012,0.0033322747331112623,-0.010187093168497086,0.008260438218712807,-0.0005320658092387021,0.01331999059766531
0.014597675763070583,0.003309910651296377,-0.01091550849378109,0.00792018510401249,-0.0004928087582811713,0.014017251320183277
0.015214561484754086,0.0034628368448466063,-0.01024263072758913,0.007749312091618776,-0.0005051690386608243,0.013931172899901867
0.014672189950942993,0.0034656128846108913,-0.01002124510705471,0.008143707178533077,-0.0004859932232648134,0.015220140106976032
0.015227945521473885,0.003576472634449601,-0.010554085485637188,0.007932575419545174,-0.00045616543502546847,0.01339013036340475
0.014919617213308811,0.003427525283768773,-0.010228398256003857,0.007643135264515877,-0.00045513929217122495,0.01294738706201315
0.015131284482777119,0.0034036305733025074,-0.01034011971205473,0.008211725391447544,-0.0004537155036814511,0.013188949786126614
0.015122178941965103,0.0031448935624212027,-0.010945511050522327,0.008284973911941051,-0.00043113500578328967,0.013064853847026825
0.015543702989816666,0.002896014368161559,-0.010073860175907612,0.008156952448189259,-0.00040943725616671145,0.01327262818813324
0.015089250169694424,0.003190363058820367,-0.01045375969260931,0.007915443740785122,-0.0003897373389918357,0.01305188238620758
0.015256593935191631,0.0033244239166378975,-0.010732240043580532,0.007880553603172302,-0.00037517613964155316,0.013567682355642319
0.01568419672548771,0.0035576028749346733,-0.010242195799946785,0.0080650569871068,-0.00035200334968976676,0.013701464980840683
0.015900691971182823,0.0037248264998197556,-0.010512325912714005,0.00820272695273161,-0.00033053112565539777,0.01376947108656168
0.015598539263010025,0.0033430459443479776,-0.010435248725116253,0.007833162322640419,-0.00034971314016729593,0.013811120763421059
0.01539195328950882,0.003058027010411024,-0.010984888300299644,0.008238276466727257,-0.0003426579642109573,0.013930363580584526
0.015613971278071404,0.0028472826816141605,-0.011411809362471104,0.008327928371727467,-0.0003257201169617474,0.013624470680952072
0.01514415442943573,0.0031482246704399586,-0.010466526262462139,0.008081012405455112,-0.00030975198023952544,0.013901719823479652
0.015973664820194244,0.0033013697247952223,-0.01063052099198103,0.008336314000189304,-0.00029523466946557164,0.013909230940043926
0.016038453206419945,0.0034891171380877495,-0.01096202339977026,0.008735680021345615,-0.0002820156223606318,0.014211784116923809
0.01581401936709881,0.0032398116309195757,-0.010108010843396187,0.008483952842652798,-0.0002887844748329371,0.014418259263038635
0.015791092067956924,0.003521439153701067,-0.010752376168966293,0.007400288246572018,-0.00029452709713950753,0.0142814414575696
0.01633860357105732,0.003319681389257312,-0.010808798484504223,0.008842374198138714,-0.0002840535598807037,0.014093391597270966
0.016221066936850548,0.0035002129152417183,-0.010470324195921421,0.008971084840595722,-0.0002900716208387166,0.013958155177533627
0.016394468024373055,0.003346987534314394,-0.01130139920860529,0.008189416490495205,-0.00029512823675759137,0.014223814010620117
0.01650160551071167,0.0033273694571107626,-0.010657836683094501,0.008419491350650787,-0.0002857374493032694,0.014205994084477425
0.01650160551071167,0.0033273694571107626,-0.010657836683094501,0.008419491350650787,-0.0002857374493032694,0.014205994084477425
0.016270913183689117,0.0031505136284977198,-0.010584283620119095,0.008360842242836952,-0.00025844969786703587,0.014291170984506607
0.016270913183689117,0.0031505136284977198,-0.010584283620119095,0.008360842242836952,-0.00025844969786703587,0.014291170984506607
0.01640521176159382,0.003386720549315214,-0.011187865398824215,0.008646895177662373,-0.00023109444009605795,0.014898640103638172
0.01640521176159382,0.003386720549315214,-0.011187865398824215,0.008646895177662373,-0.00023109444009605795,0.014898640103638172
0.016572602093219757,0.003614831482991576,-0.011175068095326424,0.008248573169112206,-0.00021877276594750583,0.014760750345885754
0.01707429625093937,0.0036613645497709513,-0.010726194828748703,0.008751488290727139,-0.0002085590676870197,0.01473572850227356
0.01645752601325512,0.003320241579785943,-0.01043427549302578,0.008744694292545319,-0.00019931464339606464,0.014651617966592312
0.016657836735248566,0.003205576678737998,-0.00988577026873827,0.007855964824557304,-0.00019085875828750432,0.014658226631581783
0.0164632685482502,0.0033405630383640528,-0.010683411732316017,0.008156192488968372,-0.00021015839593019336,0.01495980005711317
0.016807185485959053,0.003441793378442526,-0.010376694612205029,0.008740593679249287,-0.0002104948798660189,0.014750300906598568
0.016819214448332787,0.0032095112837851048,-0.01041883509606123,0.008548911660909653,-0.0002031332260230556,0.014983675442636013
0.016463644802570343,0.0033959669526666403,-0.010737771168351173,0.007973697036504745,-0.00019580275693442672,0.014922667294740677
0.016911035403609276,0.0038256582338362932,-0.010040218010544777,0.008853153325617313,-0.0001889529958134517,0.01503743790090084
0.01709502749145031,0.0034834120888262987,-0.01061243750154972,0.009038855321705341,-0.00018256405019201338,0.01546233706176281
0.017068995162844658,0.003558874363079667,-0.011158546432852745,0.008316184394061565,-0.0001765931083355099,0.014308606274425983
0.016735868528485298,0.0037151065189391375,-0.010466708801686764,0.008539892733097076,-0.00017100026889238507,0.014213147573173046
0.01701880432665348,0.0033016803208738565,-0.011170191690325737,0.009052778594195843,-0.00018620704940985888,0.01520171295851469
0.01747913844883442,0.003380861831828952,-0.011920799501240253,0.008735439740121365,-0.0001871487038442865,0.015356776304543018
0.01699451357126236,0.003434238489717245,-0.011907502077519894,0.008806134574115276,-0.00018216014723293483,0.015245635062456131
0.01765652559697628,0.0033905848395079374,-0.012172689661383629,0.009279612451791763,-0.00017706745711620897,0.014792521484196186
0.01764282025396824,0.003134693019092083,-0.012062457390129566,0.009694690816104412,-0.00017222824681084603,0.015018596313893795
0.01746893674135208,0.0035837460309267044,-0.012153434567153454,0.008592292666435242,-0.00016764510655775666,0.015049545094370842
0.01769990473985672,0.0034669029992073774,-0.012002353556454182,0.00882986094802618,-0.00018355456995777786,0.015264789573848248
0.01723194681107998,0.0035309463273733854,-0.01184874027967453,0.008934089913964272,-0.00018171164265368134,0.015021463856101036
0.01751401647925377,0.0036331063602119684,-0.012052980251610279,0.008330094628036022,-0.00017741599003784359,0.015297789126634598
0.017750322818756104,0.003308343468233943,-0.011660893447697163,0.00831377599388361,-0.00018608673417475075,0.015482453629374504
0.01793539710342884,0.003385916817933321,-0.012196824885904789,0.00882687047123909,-0.00018367248412687331,0.015895992517471313
0.01793539710342884,0.003385916817933321,-0.012196824885904789,0.00882687047123909,-0.00018367248412687331,0.015895992517471313
0.01728879101574421,0.003430243581533432,-0.012583022005856037,0.00859941728413105,-0.00017651947564445436,0.015557109378278255
0.01789652742445469,0.003280902747064829,-0.011979740113019943,0.008654359728097916,-0.00020152537035755813,0.015325410291552544
0.01777436025440693,0.003369552083313465,-0.011938363313674927,0.008462745696306229,-0.00019626504217740148,0.01543390192091465
0.017388878390192986,0.003685035277158022,-0.012238666415214539,0.00830076728016138,-0.00018951145466417074,0.015119989402592182
0.018268754705786705,0.0033600330352783203,-0.011982198804616928,0.008796878159046173,-0.0001830938272178173,0.014795161783695221
0.017906345427036285,0.003444733563810587,-0.012698475271463394,0.008970644325017929,-0.00017708919767756015,0.01537113357335329
0.017916042357683182,0.0037067565135657787,-0.012082427740097046,0.00856752973049879,-0.00019626121502369642,0.015592532232403755
0.01804734393954277,0.003367535537108779,-0.012233796529471874,0.008382085710763931,-0.0001936389453476295,0.016109704971313477
0.017892394214868546,0.0033824786078184843,-0.012331398203969002,0.008792816661298275,-0.00018808031745720655,0.015788985416293144
0.018173029646277428,0.00336744193919003,-0.011944570578634739,0.009031802415847778,-0.00019544691895134747,0.015686361119151115
0.018250882625579834,0.0033472145441919565,-0.012371144257485867,0.008724040351808071,-0.00020198579295538366,0.01556378323584795
0.017827186733484268,0.0036379708908498287,-0.010411402210593224,0.00890747644007206,-0.00019723782315850258,0.015807699412107468
0.018360868096351624,0.003994349390268326,-0.01303947065025568,0.008698598481714725,-0.00026762144989334047,0.015621659345924854
0.0183254424482584,0.003674505976960063,-0.012679331004619598,0.008652175776660442,-0.00027581784524954855,0.016463814303278923
0.01832536980509758,0.0035299770534038544,-0.01226127054542303,0.009135396219789982,-0.00026140091358684003,0.016190603375434875
0.018774978816509247,0.003614871995523572,-0.012238617986440659,0.009255207143723965,-0.0002471443440299481,0.0156619343906641
0.018159955739974976,0.004238407593220472,-0.011719576083123684,0.009277691133320332,-0.0002342796215089038,0.016853109002113342
0.018624404445290565,0.004105791449546814,-0.012422757223248482,0.008978498168289661,-0.0002226829092251137,0.014784111641347408
0.01867665909230709,0.003944770433008671,-0.012331929989159107,0.009532389231026173,-0.00021217981702648103,0.014746477827429771
0.019422128796577454,0.003953917417675257,-0.012382037937641144,0.009159496054053307,-0.00020262348698452115,0.015551173128187656
0.01940176822245121,0.0040266020223498344,-0.012181923724710941,0.009362857788801193,-0.00022749269555788487,0.01615530624985695
0.0193632785230875,0.00401739776134491,-0.01287380326539278,0.009663229808211327,-0.00022271832858677953,0.016314735636115074
0.018734648823738098,0.003826428670436144,-0.012626955285668373,0.009475781582295895,-0.00021418419783003628,0.016220934689044952
0.018518665805459023,0.004109537694603205,-0.012087862938642502,0.009114706888794899,-0.00020603049779310822,0.01622168906033039
0.01909729279577732,0.004106445703655481,-0.012642238289117813,0.009688968770205975,-0.00019845868519041687,0.016400273889303207
0.019076388329267502,0.003961425740271807,-0.012106096372008324,0.00969319511204958,-0.00019142254313919693,0.016362294554710388
0.019412722438573837,0.003932312596589327,-0.012514629401266575,0.009732171893119812,-0.00019335300021339208,0.016345612704753876
0.019412722438573837,0.003932312596589327,-0.012514629401266575,0.009732171893119812,-0.00019335300021339208,0.016345612704753876
0.019135503098368645,0.0038679437711834908,-0.012812509201467037,0.00986589677631855,-0.00020086535369046032,0.016387343406677246
0.019626790657639503,0.0035896662157028913,-0.012782424688339233,0.009478334337472916,-0.00019552453886717558,0.01656677946448326
0.020150652155280113,0.0035243274178355932,-0.012496516108512878,0.009988313540816307,-0.00018969530356116593,0.016286659985780716
0.019993534311652184,0.003665274241939187,-0.013055098243057728,0.010031060315668583,-0.00018415378872305155,0.016404885798692703
0.01978067308664322,0.003996382467448711,-0.012329555116593838,0.009520631283521652,-0.00019146970589645207,0.016519717872142792
0.02004985325038433,0.003867147024720907,-0.013155984692275524,0.009838811121881008,-0.0001979866501642391,0.016376368701457977
0.018708346411585808,0.003692199010401964,-0.01229286938905716,0.0102250836789608,-0.00019343680469319224,0.0163872092962265
0.01953279599547386,0.0036815658677369356,-0.013020540587604046,0.009202445857226849,-0.00018842463032342494,0.01634278893470764
0.020282240584492683,0.0036738337948918343,-0.013038869947195053,0.00994793139398098,-0.00018362232367508113,0.016495293006300926
0.020393917337059975,0.0035197860561311245,-0.012447587214410305,0.010301775299012661,-0.00017905559798236936,0.016281621530652046
0.020240625366568565,0.003707914613187313,-0.012932321056723595,0.00996455829590559,-0.00017044077685568482,0.01668463833630085
0.020605795085430145,0.004016364458948374,-0.012835221365094185,0.010278272442519665,-0.0001638910180190578,0.01690814271569252
0.020497972145676613,0.004013211466372013,-0.012933104299008846,0.009996780194342136,-0.00015810932382009923,0.016958260908722878
0.02037343569099903,0.004282352980226278,-0.012362590990960598,0.00998024269938469,-0.0001792395196389407,0.016998937353491783
0.020328259095549583,0.004137156531214714,-0.01326192356646061,0.010038871318101883,-0.00019149181025568396,0.016803326085209846
0.02077081799507141,0.003955130465328693,-0.012334379367530346,0.009703689254820347,-0.00019924102525692433,0.01668585278093815
0.02063465677201748,0.0037805892061442137,-0.013003071770071983,0.00998658500611782,-0.00021806581935379654,0.016945073381066322
0.020422453060746193,0.0037320933770388365,-0.01247352734208107,0.010107532143592834,-0.00021546139032579958,0.01790870539844036
0.020854709669947624,0.0037196639459580183,-0.012518809176981449,0.010144887492060661,-0.0005555160460062325,0.01752696931362152
0.020857615396380424,0.004323652479797602,-0.012668968178331852,0.010900277644395828,-0.0005635387497022748,0.01646074466407299
0.02076866291463375,0.0041508544236421585,-0.012114646844565868,0.01125740073621273,-0.0005879873060621321,0.0168620552867651
0.020741725340485573,0.00391794741153717,-0.01269286498427391,0.01039612665772438,-0.0006045519257895648,0.0174555703997612
0.020855743438005447,0.0038227715995162725,-0.01212900597602129,0.01058233343064785,-0.0005746906972490251,0.017623577266931534
0.02104010619223118,0.004235107451677322,-0.012676319107413292,0.010517986491322517,-0.0006932180258445442,0.017542097717523575
0.020998705178499222,0.004161834251135588,-0.012302659451961517,0.010438279248774052,-0.0007428720709867775,0.01700969785451889
0.021112147718667984,0.003972592297941446,-0.01204875111579895,0.010706641711294651,-0.0007040129858069122,0.017774704843759537
0.020973270758986473,0.0039256480522453785,-0.011810052208602428,0.009995765052735806,-0.0007204605499282479,0.017590824514627457
0.02096443809568882,0.0041615660302340984,-0.012903177179396152,0.010770331136882305,-0.0007743047317489982,0.017631378024816513
0.021392807364463806,0.004138238728046417,-0.012743393890559673,0.010865719988942146,-0.0006980233592912555,0.017386406660079956
0.02132297307252884,0.0043661040253937244,-0.013144521042704582,0.010884524323046207,-0.0007187806768342853,0.01716790348291397
0.02132297307252884,0.0043661040253937244,-0.013144521042704582,0.010884524323046207,-0.0007187806768342853,0.01716790348291397
0.021046971902251244,0.004524151794612408,-0.012883920222520828,0.011025551706552505,-0.0007398399757221341,0.017541419714689255
0.02111239917576313,0.004106513224542141,-0.012664079666137695,0.009956982918083668,-0.0007379736052826047,0.01748218573629856
0.021265054121613503,0.004372757393866777,-0.012845971621572971,0.010012577287852764,-0.000690487795509398,0.01760750450193882
0.021265054121613503,0.004372757393866777,-0.012845971621572971,0.010012577287852764,-0.000690487795509398,0.01760750450193882
0.021101677790284157,0.004189125262200832,-0.01348777487874031,0.009685765020549297,-0.0007279973942786455,0.0173104926943779
0.021101266145706177,0.00452294060960412,-0.012025370262563229,0.00976230576634407,-0.000706826860550791,0.017448104918003082
0.021387265995144844,0.004732408095151186,-0.01305682398378849,0.010503487661480904,-0.0006782489945180714,0.0175151489675045
0.02104712650179863,0.0043999310582876205,-0.012403498403728008,0.009918684139847755,-0.0006574190920218825,0.017492905259132385
0.021412286907434464,0.0042813001200556755,-0.012749622575938702,0.01077081635594368,-0.0005879968521185219,0.01781952753663063
0.021412286907434464,0.0042813001200556755,-0.012749622575938702,0.01077081635594368,-0.0005879968521185219,0.01781952753663063
0.02218497544527054,0.004338434431701899,-0.013416998088359833,0.010005762800574303,-0.0005716106970794499,0.01807701773941517
0.021814564242959023,0.004357220605015755,-0.013077395968139172,0.01053099799901247,-0.0005126346368342638,0.01787801831960678
0.021365493535995483,0.0041809286922216415,-0.012631447054445744,0.010333308018743992,-0.0005459031090140343,0.01809033192694187
0.020992612466216087,0.004435149021446705,-0.013229728676378727,0.010356361046433449,-0.0005619766307063401,0.018321864306926727
0.021288450807332993,0.0040475004352629185,-0.012419174425303936,0.010641664266586304,-0.0005335917812772095,0.01884942129254341
0.021308138966560364,0.0033497759141027927,-0.013339449651539326,0.010390638373792171,-0.00055383873404935,0.018021224066615105
0.02136559598147869,0.0031996057368814945,-0.01317785494029522,0.010078071616590023,-0.0005220235325396061,0.017705490812659264
0.020987406373023987,0.003351521911099553,-0.013526233844459057,0.010603592731058598,-0.0005664319614879787,0.01800161600112915
0.021448295563459396,0.003910588100552559,-0.01315007358789444,0.010761152021586895,-0.0005905583966523409,0.01817924715578556
0.021690260618925095,0.004027135670185089,-0.01332320086658001,0.01052353996783495,-0.0005538811674341559,0.018456073477864265
0.021465443074703217,0.0036765760742127895,-0.014212620444595814,0.010660294443368912,-0.0005368363345041871,0.01941283419728279
0.021739384159445763,0.0036716933827847242,-0.013527954928576946,0.011021072044968605,-0.0005609889631159604,0.018806030973792076
0.020875755697488785,0.0035779380705207586,-0.013053691014647484,0.010782580822706223,-0.0005244344938546419,0.01813633367419243
0.020875755697488785,0.0035779380705207586,-0.013053691014647484,0.010782580822706223,-0.0005244344938546419,0.01813633367419243
0.020939571782946587,0.0034492018166929483,-0.013560013845562935,0.010189604014158249,-0.0005365306278690696,0.018481455743312836
0.02121967077255249,0.003343302523717284,-0.013091044500470161,0.010731477290391922,-0.000522028305567801,0.018576983362436295
0.021748533472418785,0.0035248417407274246,-0.013487562537193298,0.010271716862916946,-0.0004705169121734798,0.019422415643930435
0.021506566554307938,0.0033339860383421183,-0.013093817047774792,0.010487863793969154,-0.00042610548553057015,0.01952294073998928
0.021920107305049896,0.0035376788582652807,-0.013687933795154095,0.010798108763992786,-0.00038921929080970585,0.018630661070346832
0.021584050729870796,0.003759162500500679,-0.013013822957873344,0.010298573412001133,-0.0003582069475669414,0.018909797072410583
0.021338067948818207,0.003854263573884964,-0.013753770850598812,0.010613407008349895,-0.00038905523251742125,0.01873849146068096
0.021729661151766777,0.003814928699284792,-0.013228404335677624,0.011008230037987232,-0.0003701819805428386,0.01936904527246952
0.021537311375141144,0.0038164311554282904,-0.013784448616206646,0.01028470043092966,-0.00034690016764216125,0.019369084388017654
0.02184137888252735,0.0033863671123981476,-0.01346579659730196,0.010927881114184856,-0.0003259805962443352,0.019227469339966774
0.021881118416786194,0.0035667011979967356,-0.014312597922980785,0.011150024831295013,-0.00034517672611400485,0.018814533948898315
0.021751122549176216,0.0032504796981811523,-0.013439632020890713,0.010770030319690704,-0.000338447920512408,0.018145402893424034
0.021624475717544556,0.0034594296012073755,-0.013903038576245308,0.011509786359965801,-0.00032192174694500864,0.01851341314613819
0.02212563529610634,0.004193725995719433,-0.013809794560074806,0.011845960281789303,-0.0003063147305510938,0.019077690318226814
0.022418716922402382,0.004195168614387512,-0.013882148079574108,0.010678069666028023,-0.00029211127548478544,0.019605975598096848
0.022129198536276817,0.003981303423643112,-0.013897416181862354,0.010752870701253414,-0.0002791646693367511,0.020307285711169243
0.02200288139283657,0.0034426602069288492,-0.013893271796405315,0.011308083310723305,-0.0002673165872693062,0.018949147313833237
0.02180539444088936,0.003316511632874608,-0.013873656280338764,0.011738530360162258,-0.00025643306435085833,0.01866382732987404
0.022151296958327293,0.0034378492273390293,-0.013593638315796852,0.011780274100601673,-0.00024640210904181004,0.0191615279763937
0.022112544625997543,0.0036827384028583765,-0.014280091039836407,0.011145533062517643,-0.0002371257869526744,0.019918791949748993
0.022124772891402245,0.0037163719534873962,-0.01407161820679903,0.011268851347267628,-0.00022852317488286644,0.02049640566110611
0.021866047754883766,0.003700875909999013,-0.013872592709958553,0.01098009292036295,-0.00022052298299968243,0.020017623901367188
0.02238568849861622,0.0037240132223814726,-0.013688119128346443,0.011641033925116062,-0.0002130640350515023,0.019444270059466362
0.02259927988052368,0.0037014672998338938,-0.014158927835524082,0.011338409036397934,-0.00020609294006135315,0.019718512892723083
0.02249530516564846,0.00362820434384048,-0.014320949092507362,0.01113145798444748,-0.00022430080571211874,0.019696710631251335
0.02249530516564846,0.00362820434384048,-0.014320949092507362,0.01113145798444748,-0.00022430080571211874,0.019696710631251335
0.022892048582434654,0.0035598010290414095,-0.014119156636297703,0.011384096927940845,-0.00021446724713314325,0.02023490145802498
0.02300296165049076,0.0034392245579510927,-0.014498216100037098,0.011976365931332111,-0.00020827719708904624,0.020108647644519806
0.022766096517443657,0.0035312105901539326,-0.014767725020647049,0.01181627158075571,-0.00020242217578925192,0.019790809601545334
0.022833993658423424,0.0037217563949525356,-0.01526516955345869,0.011572281830012798,-0.00019721192074939609,0.020281633362174034
0.023024888709187508,0.003929946571588516,-0.014568290673196316,0.011923476122319698,-0.00015231341239996254,0.02046763151884079
0.023348383605480194,0.0040040151216089725,-0.01483901683241129,0.011694350279867649,-0.00014490772446151823,0.020671553909778595
0.023506872355937958,0.0035247572232037783,-0.014307203702628613,0.01189609058201313,-0.00014022820687387139,0.02039184607565403
0.023733552545309067,0.0035709040239453316,-0.015024975873529911,0.011611211113631725,-0.00015611948037985712,0.0201480183750391
0.023808078840374947,0.003798490623012185,-0.015446178615093231,0.011408056132495403,-0.00015792768681421876,0.020185120403766632
0.023829856887459755,0.00393092492595315,-0.015255371108651161,0.012128149159252644,-0.00015384437574539334,0.020406274124979973
0.02376696653664112,0.003503147279843688,-0.0150094423443079,0.011993720196187496,-0.00014960886619519442,0.020780278369784355
0.023058399558067322,0.003561168210580945,-0.015003562904894352,0.012192346155643463,-0.00016664112627040595,0.02085542120039463
0.023472420871257782,0.003706038696691394,-0.01570144109427929,0.012449149042367935,-0.00016517243057023734,0.02046046406030655
0.024194177240133286,0.004302978049963713,-0.01534365676343441,0.012484890408813953,-0.00016113716992549598,0.019501058384776115
0.023963546380400658,0.004086327273398638,-0.015703950077295303,0.012685662135481834,-0.00017807444965001196,0.020864766091108322
0.023295260965824127,0.003485082183033228,-0.015161851420998573,0.012362723238766193,-0.00017511029727756977,0.020168686285614967
0.024166662245988846,0.0035392555873841047,-0.015595086850225925,0.01238324772566557,-0.0003245594853069633,0.020279396325349808
0.024721628054976463,0.0036888110917061567,-0.015270995907485485,0.01181226409971714,-0.00032309599919244647,0.02039608545601368
0.024923570454120636,0.0037106508389115334,-0.016011308878660202,0.012254206463694572,-0.0003591138229239732,0.02101423218846321
0.024683060124516487,0.004215611610561609,-0.01532807294279337,0.012393191456794739,-0.00034024514025077224,0.021352069452404976
0.02394438348710537,0.004174094181507826,-0.015645721927285194,0.012379494495689869,-0.00036646920489147305,0.022097984328866005
0.02356736920773983,0.003673788160085678,-0.015336716547608376,0.012219839729368687,-0.0003768538299482316,0.02124793268740177
0.025086572393774986,0.0040067085064947605,-0.01605088822543621,0.012859818525612354,-0.0005515266675502062,0.020989352837204933
0.02470189519226551,0.004262890666723251,-0.015787841752171516,0.012793201021850109,-0.0006059210281819105,0.020765552297234535
0.02493039146065712,0.004068720620125532,-0.015675121918320656,0.013296475633978844,-0.0006252611055970192,0.021171173080801964
0.024961985647678375,0.004333330783993006,-0.01528718788176775,0.013123163022100925,-0.000650329515337944,0.02189141884446144
0.024961985647678375,0.004333330783993006,-0.01528718788176775,0.013123163022100925,-0.000650329515337944,0.02189141884446144
0.02472575381398201,0.004132244735956192,-0.01573241502046585,0.013518651947379112,-0.0006216696347109973,0.022039560601115227
0.025002937763929367,0.004160390701144934,-0.016898127272725105,0.012726902030408382,-0.0009394040098413825,0.021728048101067543
0.024980952963232994,0.004197850823402405,-0.015338636003434658,0.012618613429367542,-0.0009208586998283863,0.021533597260713577
0.024980952963232994,0.004197850823402405,-0.015338636003434658,0.012618613429367542,-0.0009208586998283863,0.021533597260713577
0.025343619287014008,0.004451274871826172,-0.015058222226798534,0.012806250713765621,-0.0008408016874454916,0.02160685695707798
0.02574034221470356,0.0040953694842755795,-0.015378687530755997,0.013817457482218742,-0.0008198446012102067,0.02192484773695469
0.025639042258262634,0.0038638380356132984,-0.0161008071154356,0.013149507343769073,-0.0007479748455807567,0.021689165383577347
0.025637971237301826,0.003790067508816719,-0.016139261424541473,0.012708906084299088,-0.0007061086362227798,0.021522054448723793
0.025706833228468895,0.004256837535649538,-0.01584610901772976,0.012501516379415989,-0.0006723905680701137,0.021800773218274117
0.025703350082039833,0.0046827709302306175,-0.015920285135507584,0.013219536282122135,-0.0006490994710475206,0.021804960444569588
0.025825561955571175,0.004413336515426636,-0.015607467852532864,0.013092739507555962,-0.0006276973872445524,0.021686440333724022
0.02526172064244747,0.004064510576426983,-0.016184497624635696,0.012628404423594475,-0.0006439346470870078,0.022904593497514725
0.025820085778832436,0.003894172376021743,-0.015660207718610764,0.012789581902325153,-0.0006091944524087012,0.021298998966813087
0.026143163442611694,0.0039060788694769144,-0.0163872092962265,0.012436148710548878,-0.0006268607103265822,0.02115248143672943
0.026283910498023033,0.004092962946742773,-0.01583957113325596,0.012811086140573025,-0.0006554207066074014,0.021708408370614052
0.02611630968749523,0.0038982422556728125,-0.016082677990198135,0.012513994239270687,-0.0006793554639443755,0.021886292845010757
0.025906842201948166,0.0037946105003356934,-0.016278238967061043,0.01318067405372858,-0.000645982741843909,0.02186070755124092
0.026299307122826576,0.00381000735796988,-0.016096487641334534,0.012933734804391861,-0.0008433648617938161,0.021609226241707802
0.02522318996489048,0.004263598937541246,-0.01606658846139908,0.013085611164569855,-0.0008624183246865869,0.021778661757707596
0.02592143416404724,0.0041872840374708176,-0.015451372601091862,0.013180172070860863,-0.0008432343602180481,0.02194255404174328
0.026493487879633904,0.0039902301505208015,-0.01608242653310299,0.013295293785631657,-0.0007684854208491743,0.022044701501727104
0.026448816061019897,0.004422670230269432,-0.015825526788830757,0.013253285549581051,-0.00073355867061764,0.022027071565389633
0.02671758271753788,0.004137413110584021,-0.016597701236605644,0.013209997676312923,-0.0007041333010420203,0.022356703877449036
0.02466905489563942,0.003948207013309002,-0.015962539240717888,0.013618779368698597,-0.0006438791751861572,0.022400451824069023
0.026352981105446815,0.004359671846032143,-0.01620832085609436,0.013600416481494904,-0.0005911431508138776,0.022145994007587433
0.02647656761109829,0.004023421090096235,-0.016389137133955956,0.013624670915305614,-0.0004531640443019569,0.02255411446094513
0.02647656761109829,0.004023421090096235,-0.016389137133955956,0.013624670915305614,-0.0004531640443019569,0.02255411446094513
0.02684262953698635,0.004100168589502573,-0.016487907618284225,0.01385949645191431,-0.00048233612324111164,0.02247191034257412
0.027256639674305916,0.0044733877293765545,-0.015979688614606857,0.013207719661295414,-0.0004515868495218456,0.02277897112071514
0.027354003861546516,0.004227084573358297,-0.016510233283042908,0.013300031423568726,-0.0004819239256903529,0.02248082309961319
0.02707470953464508,0.004383288323879242,-0.016535967588424683,0.012940234504640102,-0.00045161458547227085,0.022374214604496956
0.026300551369786263,0.004323258996009827,-0.016697188839316368,0.01330808736383915,-0.0004216485540382564,0.022533578798174858
0.025960350409150124,0.004490200895816088,-0.016448484733700752,0.013148275204002857,-0.00039520295104011893,0.022568674758076668
0.026868367567658424,0.004229167476296425,-0.01601838879287243,0.013328681699931622,-0.00042130041401833296,0.022524455562233925
0.027416981756687164,0.004298965912312269,-0.01700771413743496,0.013605523854494095,-0.00040104982326738536,0.022289497777819633
0.027081504464149475,0.004487259779125452,-0.016925565898418427,0.013505339622497559,-0.00040228344732895494,0.023793073371052742
0.026650603860616684,0.004507139325141907,-0.01693202182650566,0.01344167161732912,-0.0003894168767146766,0.02259078435599804
0.02690504863858223,0.004345206543803215,-0.016512181609869003,0.012931840494275093,-0.000359704892616719,0.021649139001965523
0.02726920135319233,0.00453581940382719,-0.01730787567794323,0.01322577241808176,-0.000333147996570915,0.02192610502243042
0.027268975973129272,0.004240464419126511,-0.017246149480342865,0.013186666183173656,-0.00031017468427307904,0.02252105437219143
0.02727782167494297,0.0042329514399170876,-0.016736887395381927,0.013855395838618279,-0.00031837349524721503,0.02338670752942562
0.027739645913243294,0.004132856149226427,-0.017200414091348648,0.01355618517845869,-0.0003251457819715142,0.023779725655913353
0.027549689635634422,0.004403905011713505,-0.016673702746629715,0.013980908319354057,-0.0003082754265051335,0.02386903204023838
0.027795519679784775,0.004482517950236797,-0.017409658059477806,0.013767069205641747,-0.0002917264064308256,0.023251257836818695
0.02803022228181362,0.004328299313783646,-0.017944682389497757,0.014422818087041378,-0.0002767757105175406,0.02252662554383278
0.027956388890743256,0.004511064384132624,-0.01757011003792286,0.014033345505595207,-0.00026327790692448616,0.022924276068806648
0.027732301503419876,0.004209423437714577,-0.018135661259293556,0.01383577473461628,-0.0002900089311879128,0.02308660000562668
0.02800430729985237,0.004197472706437111,-0.017765821889042854,0.013414428569376469,-0.0002796740154735744,0.023529447615146637
0.02778869867324829,0.004702744074165821,-0.017787333577871323,0.013716352172195911,-0.0002679427561815828,0.02323700487613678
0.027668314054608345,0.004819517955183983,-0.01787240244448185,0.013445769436657429,-0.0002749832929112017,0.02330254577100277
0.028323976323008537,0.004828356206417084,-0.016852471977472305,0.013343249447643757,-0.00028099765768274665,0.023886077105998993
0.028323976323008537,0.004828356206417084,-0.016852471977472305,0.013343249447643757,-0.00028099765768274665,0.023886077105998993
0.027804357931017876,0.004357266705483198,-0.0176638662815094,0.01305953599512577,-0.000261696899542585,0.023176588118076324
0.028376324102282524,0.004072313196957111,-0.017592400312423706,0.013357984833419323,-0.00024960332666523755,0.02276516519486904
0.02791627310216427,0.003927204292267561,-0.018590861931443214,0.013412756845355034,-0.00023457698989659548,0.0229206345975399
0.027880633249878883,0.00430879695340991,-0.01761001907289028,0.013866964727640152,-0.00022282617283053696,0.023158717900514603
0.02844361774623394,0.004606042988598347,-0.017519017681479454,0.013770720921456814,-0.00024364929413422942,0.023842494934797287
0.028200499713420868,0.004643955267965794,-0.01832679845392704,0.014184122905135155,-0.0002425552229396999,0.023970000445842743
0.028272239491343498,0.004272623918950558,-0.01798395998775959,0.014062590897083282,-0.0002688941021915525,0.02384309098124504
0.027426209300756454,0.00419630017131567,-0.01756657287478447,0.014360158704221249,-0.0002876754442695528,0.023583024740219116
0.02887406200170517,0.003918839152902365,-0.017661644145846367,0.014024468138813972,-0.00028510051197372377,0.02373211272060871
0.02929132804274559,0.0037599082570523024,-0.017846735194325447,0.014126459136605263,-0.00047589436871930957,0.024397745728492737
0.02887526899576187,0.003844484919682145,-0.017791539430618286,0.014052475802600384,-0.0004891228163614869,0.023329375311732292
0.028739290311932564,0.004297110717743635,-0.017119672149419785,0.014651864767074585,-0.0005275887669995427,0.023652799427509308
0.027305295690894127,0.0045971013605594635,-0.01783444732427597,0.014363868162035942,-0.0006000954890623689,0.023793822154402733
0.028144583106040955,0.0047118039801716805,-0.018380580469965935,0.014689154922962189,-0.0005944001604802907,0.023925315588712692
0.028828803449869156,0.004267670214176178,-0.017501074820756912,0.014684672467410564,-0.0008922663982957602,0.023846449330449104
0.028160864487290382,0.004157956689596176,-0.017725810408592224,0.015149625949561596,-0.0009099750895984471,0.02366628684103489
0.028915835544466972,0.003979881294071674,-0.017820198088884354,0.014614860527217388,-0.0008515000226907432,0.023751050233840942
0.029526187106966972,0.0044080032967031,-0.01798509620130062,0.014674123376607895,-0.0008461239049211144,0.02374192513525486
0.028596118092536926,0.004641278646886349,-0.017852915450930595,0.014376196078956127,-0.0008369957213290036,0.023956190794706345
0.028580080717802048,0.004764980170875788,-0.01723962090909481,0.014551498927175999,-0.0008754953159950674,0.023914948105812073
0.028357595205307007,0.0045239063911139965,-0.017641080543398857,0.013925816863775253,-0.000848294934257865,0.023869477212429047
0.028710922226309776,0.004534542094916105,-0.01762341521680355,0.014137070626020432,-0.0008529327460564673,0.024006683379411697
0.029262831434607506,0.004444602411240339,-0.017558768391609192,0.013605059124529362,-0.0008186010527424514,0.02420135773718357
0.028922291472554207,0.004110109992325306,-0.017505168914794922,0.013960590586066246,-0.0009378531249240041,0.024291282519698143
0.02876579575240612,0.004060179926455021,-0.017030585557222366,0.013770676217973232,-0.0008697882294654846,0.025106966495513916
0.02900105156004429,0.004434359725564718,-0.018022781237959862,0.014336620457470417,-0.000869710638653487,0.02498457208275795
0.028945621103048325,0.004706759471446276,-0.017898574471473694,0.014234599657356739,-0.0008655632846057415,0.024323442950844765
0.028945621103048325,0.004706759471446276,-0.017898574471473694,0.014234599657356739,-0.0008655632846057415,0.024323442950844765
0.0290298443287611,0.004702826961874962,-0.017632344737648964,0.014932455494999886,-0.0008655699202790856,0.023896710947155952
0.02901468239724636,0.004212595522403717,-0.01775030978024006,0.014375942759215832,-0.0007776323473080993,0.025432806462049484
0.02901468239724636,0.004212595522403717,-0.01775030978024006,0.014375942759215832,-0.0007776323473080993,0.025432806462049484
0.029273005202412605,0.004461438395082951,-0.017736461013555527,0.014249773696064949,-0.0007522159139625728,0.024676118046045303
0.02913026511669159,0.0044858274050056934,-0.017923714593052864,0.014636344276368618,-0.0006631037103943527,0.02508118562400341
0.02913026511669159,0.0044858274050056934,-0.017923714593052864,0.014636344276368618,-0.0006631037103943527,0.02508118562400341
0.027993544936180115,0.004390088841319084,-0.01784987561404705,0.014488592743873596,-0.0006178595940582454,0.02531263791024685
0.02987210638821125,0.0041882628574967384,-0.01786649599671364,0.015049632638692856,-0.0005457931547425687,0.02458900585770607
0.02974715828895569,0.003918703179806471,-0.017896926030516624,0.01451089046895504,-0.0005705066141672432,0.024039702489972115
0.02952742762863636,0.0042437342926859856,-0.017385872080922127,0.014583561569452286,-0.000526202202308923,0.024533051997423172
0.0293186716735363,0.004147734958678484,-0.017657527700066566,0.014080125838518143,-0.0005187545903027058,0.024379510432481766
0.028984175994992256,0.003988033626228571,-0.01711081713438034,0.014472266659140587,-0.000511702208314091,0.02494608797132969
0.02941795065999031,0.0038903551176190376,-0.01766492985188961,0.014108853414654732,-0.0005252599366940558,0.025468358770012856
0.031207524240016937,0.004305133130401373,-0.018480416387319565,0.014952232129871845,-0.0005041176336817443,0.025324972346425056
0.030897032469511032,0.004369150847196579,-0.017822422087192535,0.01437858585268259,-0.00047207233728840947,0.02513771317899227
0.0295111071318388,0.004027513787150383,-0.01758480817079544,0.014941881410777569,-0.0004510867584031075,0.025235645473003387
0.029308514669537544,0.0038017146289348602,-0.018198678269982338,0.014775875955820084,-0.0004520779475569725,0.025301598012447357
0.030379464849829674,0.00424093147739768,-0.01814829558134079,0.01565937139093876,-0.00045056556700728834,0.025515645742416382
0.030352776870131493,0.004217473790049553,-0.01898498274385929,0.014387506060302258,-0.00045180239249020815,0.025468934327363968
0.030328406020998955,0.003992435988038778,-0.018134944140911102,0.01485272403806448,-0.0004504667595028877,0.025413578376173973
0.030850013718008995,0.0038303243927657604,-0.017626138404011726,0.014878759160637856,-0.00042228703387081623,0.02500343881547451
0.030775325372815132,0.004144166596233845,-0.018743500113487244,0.015523910522460938,-0.0003958700690418482,0.025159591808915138
0.030799804255366325,0.004083328414708376,-0.018002482131123543,0.015488121658563614,-0.000372463371604681,0.02538248524069786
0.030003132298588753,0.0042342450469732285,-0.018201304599642754,0.014918570406734943,-0.0003761421248782426,0.025848645716905594
0.030079709365963936,0.004019808489829302,-0.018427621573209763,0.01557471975684166,-0.00037896374124102294,0.026098869740962982
0.031316984444856644,0.0034347097389400005,-0.018341002985835075,0.015339660458266735,-0.00036141605232842267,0.025499098002910614
0.03114490956068039,0.003472390817478299,-0.018238430842757225,0.015630081295967102,-0.0003442285524215549,0.025752298533916473
0.03129202872514725,0.00429867347702384,-0.01956287771463394,0.015496527776122093,-0.0003402713336981833,0.025674959644675255
0.031148141250014305,0.0046112979762256145,-0.01848778687417507,0.015675991773605347,-0.0003274603222962469,0.025569844990968704
0.03141351789236069,0.004011519718915224,-0.0186053104698658,0.015495154075324535,-0.00034277295344509184,0.02578996866941452
0.031499557197093964,0.003926500212401152,-0.018211975693702698,0.015044087544083595,-0.00037330432678572834,0.026098579168319702
0.031499557197093964,0.003926500212401152,-0.018211975693702698,0.015044087544083595,-0.00037330432678572834,0.026098579168319702
0.03188377246260643,0.0034773771185427904,-0.01850474625825882,0.01509857177734375,-0.00039953080704435706,0.02583598904311657
0.03170836344361305,0.0036677659954875708,-0.01869720220565796,0.015547221526503563,-0.0006054332479834557,0.02634265087544918
0.03161274269223213,0.003724397625774145,-0.01884978450834751,0.015248017385601997,-0.0006438403506763279,0.026492586359381676
0.03161274269223213,0.003724397625774145,-0.01884978450834751,0.015248017385601997,-0.0006438403506763279,0.026492586359381676
0.031678687781095505,0.003791053779423237,-0.018428782001137733,0.015784181654453278,-0.0006592489080503583,0.02670079842209816
0.03204868733882904,0.003842846257612109,-0.018691549077630043,0.015814393758773804,-0.0006600628839805722,0.026621365919709206
0.032415036112070084,0.003809687215834856,-0.01913602463901043,0.01561042107641697,-0.0006412037764675915,0.026859110221266747
0.032075729221105576,0.0038893860764801502,-0.01857973262667656,0.015929026529192924,-0.0007080134237185121,0.02656065672636032
0.032486069947481155,0.0035447226837277412,-0.018930703401565552,0.01575418934226036,-0.0006487464415840805,0.02682078629732132
0.03262864798307419,0.003482587169855833,-0.01904042437672615,0.01616557687520981,-0.0006669571157544851,0.027576422318816185
0.03276717662811279,0.0035345517098903656,-0.018405569717288017,0.015658466145396233,-0.0006054452969692647,0.02626720815896988
0.032412029802799225,0.003663035575300455,-0.019043445587158203,0.016147999092936516,-0.000611516588833183,0.025672178715467453
0.03264138102531433,0.004226675257086754,-0.019179359078407288,0.01616961695253849,-0.0005760440835729241,0.026877138763666153
0.032689206302165985,0.004122606478631496,-0.018148548901081085,0.016308747231960297,-0.0005991680081933737,0.02758544497191906
0.03346893563866615,0.0035153746139258146,-0.01904168725013733,0.01610584743320942,-0.0005961483693681657,0.026467114686965942
0.03382661193609238,0.003372183768078685,-0.01946677640080452,0.01618005335330963,-0.0005935435765422881,0.025794945657253265
0.03314988315105438,0.0034645397681742907,-0.01870495080947876,0.016593297943472862,-0.0005775030003860593,0.02665054239332676
0.03317782282829285,0.0037247862201184034,-0.019244639202952385,0.016063159331679344,-0.0005997344269417226,0.02757773920893669
0.03382382169365883,0.004292415454983711,-0.019469240680336952,0.016238033771514893,-0.0006154652801342309,0.02690340206027031
0.03486645966768265,0.0036320756189525127,-0.019327735528349876,0.016013717278838158,-0.0005842270329594612,0.027068082243204117
0.033351656049489975,0.0033941236324608326,-0.019643252715468407,0.016116522252559662,-0.0006912047974765301,0.028720557689666748
0.032759666442871094,0.0035414984449744225,-0.01915581338107586,0.01584768109023571,-0.0007269881316460669,0.02800680138170719
0.032759666442871094,0.0035414984449744225,-0.01915581338107586,0.01584768109023571,-0.0007269881316460669,0.02800680138170719
0.03438581898808479,0.0045377700589597225,-0.01847037859261036,0.016410570591688156,-0.0007070184801705182,0.02641417272388935
0.035084955394268036,0.0036749516148120165,-0.01914682425558567,0.016768861562013626,-0.0006377772078849375,0.027901357039809227
0.035084955394268036,0.0036749516148120165,-0.01914682425558567,0.016768861562013626,-0.0006377772078849375,0.027901357039809227
0.03464431315660477,0.0036581740714609623,-0.019436059519648552,0.01602550782263279,-0.0006584918010048568,0.02772136777639389
0.03330758213996887,0.003676482941955328,-0.01975223980844021,0.016371065750718117,-0.0006948636728338897,0.02756953053176403
0.033760976046323776,0.004262478090822697,-0.018929287791252136,0.015937210991978645,-0.0007188327726908028,0.027431171387434006
0.03454892337322235,0.004074614029377699,-0.019453968852758408,0.01601387746632099,-0.0007375707500614226,0.027741441503167152
0.03428160026669502,0.0038178779650479555,-0.01973121426999569,0.015876630321145058,-0.0008847324061207473,0.02766859158873558
0.034390151500701904,0.004208176862448454,-0.019002607092261314,0.015926405787467957,-0.000802172755356878,0.028140917420387268
0.03420967236161232,0.004171529319137335,-0.019522542133927345,0.016331523656845093,-0.0008017230429686606,0.027883024886250496
0.034189142286777496,0.003570551984012127,-0.020306257531046867,0.01596449315547943,-0.0007118731737136841,0.027796560898423195
0.034124404191970825,0.00352500774897635,-0.019614044576883316,0.016236554831266403,-0.0007062095683068037,0.028204094618558884
0.03400059789419174,0.0036827940493822098,-0.01934758573770523,0.015858691185712814,-0.0006560410256497562,0.02805725857615471
0.03458782657980919,0.004337747115641832,-0.019891535863280296,0.016319772228598595,-0.0006687475251965225,0.028236983343958855
0.03479825332760811,0.004426894709467888,-0.01973661594092846,0.016133544966578484,-0.0006210610154084861,0.02824312634766102
0.03443804010748863,0.0040173036977648735,-0.01966927759349346,0.016825739294290543,-0.0005491996998898685,0.02790450118482113
0.03418133407831192,0.0036846317816525698,-0.020319459959864616,0.016225578263401985,-0.0004859312321059406,0.027917658910155296
0.03438396379351616,0.0036895459052175283,-0.020360592752695084,0.016206219792366028,-0.0005195821286179125,0.027770871296525
0.03463088721036911,0.003908824175596237,-0.019871855154633522,0.016799766570329666,-0.0005475725047290325,0.027961472049355507
0.033993031829595566,0.004373651929199696,-0.02002088353037834,0.01626402884721756,-0.0005759375635534525,0.027671832591295242
0.03533400967717171,0.004630399867892265,-0.020652253180742264,0.016555611044168472,-0.0006785850855521858,0.02788725309073925
0.03620253503322601,0.0045673539862036705,-0.020562991499900818,0.016276905313134193,-0.0007695034728385508,0.028668418526649475
0.03515678271651268,0.004327511414885521,-0.02080395258963108,0.01685813069343567,-0.0007326353807002306,0.02923019602894783
0.033908698707818985,0.004061742685735226,-0.021397363394498825,0.017282284796237946,-0.0007006879895925522,0.028261950239539146
0.03519078344106674,0.003924821503460407,-0.02094912715256214,0.01685282215476036,-0.0006723180995322764,0.02747669257223606
0.03519078344106674,0.003924821503460407,-0.02094912715256214,0.01685282215476036,-0.0006723180995322764,0.02747669257223606
0.03493943437933922,0.004554937593638897,-0.02029874548316002,0.017287924885749817,-0.000594811630435288,0.02849135734140873
0.035714976489543915,0.004288325086236,-0.020990602672100067,0.017356878146529198,-0.0005815868498757482,0.02846367098391056
0.03640953078866005,0.004511748906224966,-0.021123897284269333,0.017245884984731674,-0.0005454381462186575,0.02879910357296467
0.03506159409880638,0.004625212866812944,-0.020590241998434067,0.016817761585116386,-0.0005629798397421837,0.029382187873125076
0.034867867827415466,0.004245252814143896,-0.020931867882609367,0.01768181100487709,-0.0005727196112275124,0.029154036194086075
0.03542688488960266,0.004217929672449827,-0.02268461138010025,0.01753203384578228,-0.0005616280250251293,0.02835715375840664
0.035970792174339294,0.004179985728114843,-0.021571289747953415,0.01735318824648857,-0.000553847523406148,0.027944691479206085
0.036007799208164215,0.004356176592409611,-0.020821869373321533,0.01767268218100071,-0.0005447078146971762,0.028990430757403374
0.03522086888551712,0.004617156460881233,-0.021410400047898293,0.017616480588912964,-0.0006522093899548054,0.02990543097257614
0.035093042999506,0.004715330898761749,-0.02080119401216507,0.01780008152127266,-0.0007027665269561112,0.029564011842012405
0.03566722944378853,0.004451166372746229,-0.02018403261899948,0.017090246081352234,-0.0007006898522377014,0.028996504843235016
0.0358818918466568,0.004236931446939707,-0.021569866687059402,0.017039839178323746,-0.0006739938398823142,0.029139595106244087
0.03589989244937897,0.004422372672706842,-0.022480295971035957,0.01741795614361763,-0.0006868919008411467,0.02938617579638958
0.036087896674871445,0.004261370282620192,-0.02164589986205101,0.016981229186058044,-0.0007259431295096874,0.02942557819187641
0.036600470542907715,0.0045500025153160095,-0.020706960931420326,0.01774781383574009,-0.0008046397124417126,0.02917010523378849
0.03490934893488884,0.004746659658849239,-0.02163005620241165,0.017965123057365417,-0.0007906301179900765,0.02904355712234974
0.03684037923812866,0.004652542527765036,-0.0221734456717968,0.017956798896193504,-0.0008020415552891791,0.02934309095144272
0.03683881834149361,0.0042642285116016865,-0.02221720479428768,0.01788041740655899,-0.0007662268471904099,0.029766162857413292
0.03665501996874809,0.0043825069442391396,-0.021531591191887856,0.017429398372769356,-0.0008510429179295897,0.029684148728847504
0.0367894284427166,0.004582120571285486,-0.021449441090226173,0.01775197498500347,-0.0008657833095639944,0.030033007264137268
0.036924608051776886,0.004403411876410246,-0.021895522251725197,0.01845391094684601,-0.0008710494148544967,0.029354477301239967
0.036885470151901245,0.004550440702587366,-0.022300243377685547,0.018179073929786682,-0.0008746539242565632,0.029901687055826187
0.037367161363363266,0.004704417660832405,-0.022028125822544098,0.018216144293546677,-0.0009279703954234719,0.02978224866092205
0.037358321249485016,0.004757341928780079,-0.022437116131186485,0.017504442483186722,-0.0009448216296732426,0.030059291049838066
0.03788875415921211,0.004394040443003178,-0.02257084846496582,0.01790686696767807,-0.0009233441669493914,0.03003755956888199
0.037681762129068375,0.004220149479806423,-0.022061437368392944,0.017437046393752098,-0.000913900148589164,0.03003036417067051
0.03741706535220146,0.004122904501855373,-0.021606693044304848,0.01769322156906128,-0.0009597576572559774,0.02987988479435444
0.037894219160079956,0.0040120468474924564,-0.021710366010665894,0.01769530214369297,-0.0009536881698295474,0.029805244877934456
0.03912148252129555,0.004814877174794674,-0.02214762195944786,0.017594309523701668,-0.0009466561023145914,0.02976587414741516
0.03912148252129555,0.004814877174794674,-0.02214762195944786,0.017594309523701668,-0.0009466561023145914,0.02976587414741516
0.03860867768526077,0.004467375576496124,-0.022526981309056282,0.017870470881462097,-0.0009911834495142102,0.029919695109128952
0.03670484572649002,0.004470293875783682,-0.022623451426625252,0.01736307330429554,-0.000940646801609546,0.029620012268424034
0.03835073858499527,0.0040995278395712376,-0.022492321208119392,0.01813312992453575,-0.0008634321275167167,0.029816724359989166
0.03836118429899216,0.0041356864385306835,-0.022669659927487373,0.018399275839328766,-0.0008636282291263342,0.02999880723655224
0.03958065062761307,0.004030873067677021,-0.021954668685793877,0.0179633516818285,-0.0008602128946222365,0.030638638883829117
0.03893711417913437,0.004365613684058189,-0.021719038486480713,0.018314436078071594,-0.0008310709381476045,0.031466733664274216
0.03815486654639244,0.004580399952828884,-0.022459030151367188,0.018038226291537285,-0.0008446791325695813,0.030879324302077293
