davideferrari95/blind_handover_controller/data/Test 177 - [2024-02-08 -- 11-20-47]/joint_states_data.csv
shoulder_pan_joint,shoulder_lift_joint,elbow_joint,wrist_1_joint,wrist_2_joint,wrist_3_joint
-0.00010664096043910831,-0.0063667758367955685,-0.012485736981034279,0.016428276896476746,0.00022659663227386773,-0.00023292552214115858
-0.00010664096043910831,-0.0063667758367955685,-0.012485736981034279,0.016428276896476746,0.00022659663227386773,-0.00023292552214115858
-0.00010480683704372495,-0.005781432613730431,-0.012051464058458805,0.016591820865869522,0.0002559180138632655,-0.0002508079051040113
-0.00010281460708938539,-0.006609727628529072,-0.012422054074704647,0.016203241422772408,0.00024683820083737373,-0.0002495382505003363
-0.0001008936669677496,-0.006671257317066193,-0.012065012007951736,0.016590464860200882,0.00023621032596565783,-0.00024057456175796688
-9.904320177156478e-05,-0.006614942569285631,-0.012041768990457058,0.016610965132713318,0.0002263188798679039,-0.00023176043760031462
-9.725926065584645e-05,-0.0062021855264902115,-0.012250462546944618,0.01653365045785904,0.0002172144886571914,-0.00022353818349074572
-9.553864947520196e-05,-0.00650312565267086,-0.011774154379963875,0.017050011083483696,0.00023454726033378392,-0.0002158772840630263
-0.00010889895202126354,-0.007176296319812536,-0.011995102278888226,0.016615208238363266,0.00023395246535073966,-0.0002307936956640333
-0.00010764408943941817,-0.007064973935484886,-0.011552373878657818,0.016765398904681206,0.00022608604922425002,-0.00023038552899379283
-0.00010584374103927985,-0.00572783499956131,-0.012216133996844292,0.01620001159608364,0.0002182864409405738,-0.00022368361533153802
-0.00010409506649011746,-0.004578660242259502,-0.012312427163124084,0.01634405180811882,0.00021097779972478747,-0.00021699476928915828
-0.00010240306437481195,-0.004034004174172878,-0.011859099380671978,0.016477219760417938,0.00020414096070453525,-0.0002643080661073327
-0.00010076520993607119,-0.004924616310745478,-0.01224772073328495,0.016683319583535194,0.00021864724112674594,-0.0002533552178647369
-9.917895658873022e-05,-0.005187784321606159,-0.011868247762322426,0.016601886600255966,0.00021862432186026126,-0.00024008988111745566
-9.764177957549691e-05,-0.0051509542390704155,-0.012595746666193008,0.016052624210715294,0.00021260032372083515,-0.00022794093820266426
-9.615156159270555e-05,-0.0052258726209402084,-0.012125412002205849,0.01628885231912136,0.00020653009414672852,-0.0002169495855923742
-9.47062362683937e-05,-0.004837440326809883,-0.011649712920188904,0.015353799797594547,0.00020077209046576172,-0.0002271917910547927
-9.330359171144664e-05,-0.0045476797968149185,-0.0117324935272336,0.015595355071127415,0.00021099649893585593,-0.00023605670139659196
-9.330359171144664e-05,-0.0045476797968149185,-0.0117324935272336,0.015595355071127415,0.00021099649893585593,-0.00023605670139659196
-9.061946911970153e-05,-0.004831018391996622,-0.01204927358776331,0.01613852195441723,0.00019803163013421,-0.00023603411682415754
-9.061946911970153e-05,-0.004831018391996622,-0.01204927358776331,0.01613852195441723,0.00019803163013421,-0.00023603411682415754
-8.933454228099436e-05,-0.00474553694948554,-0.011674284934997559,0.016941845417022705,0.00022258414537645876,-0.00024351045431103557
-8.808552229311317e-05,-0.004513295367360115,-0.012171839363873005,0.016819210723042488,0.00021810671023558825,-0.00023549242177978158
-8.687089575687423e-05,-0.004572699777781963,-0.011414027772843838,0.01604924537241459,0.00020992137433495373,-0.00022707381867803633
-8.56893602758646e-05,-0.0047722770832479,-0.010930524207651615,0.017406459897756577,0.0002312883298145607,-0.00021917758567724377
-8.453952614217997e-05,-0.004964774940162897,-0.011524036526679993,0.01749097928404808,0.00022696788073517382,-0.00021180794283282012
-9.394767403136939e-05,-0.004516102373600006,-0.011102795600891113,0.017203887924551964,0.00021932738309260458,-0.00022658724628854543
-9.28774315980263e-05,-0.004408912267535925,-0.011523145250976086,0.017024606466293335,0.0002338467602385208,-0.00021985359489917755
-9.1694833827205e-05,-0.004430689383298159,-0.011302839033305645,0.016805360093712807,0.00022693794744554907,-0.00021336702047847211
-9.054182737600058e-05,-0.004305084701627493,-0.011884805746376514,0.016795974224805832,0.00022003232152201235,-0.00020722727640531957
-8.941738633438945e-05,-0.004458555486053228,-0.011334946379065514,0.01680399850010872,0.0003029586805496365,-0.0002014297351706773
-8.83205357240513e-05,-0.004409211687743664,-0.01152811385691166,0.01674409583210945,0.00031115557067096233,-0.00019594724290072918
-8.725030056666583e-05,-0.004083268344402313,-0.01261355634778738,0.01665177009999752,0.0002928114263340831,-0.0001907554833451286
-8.620566222816706e-05,-0.0042223515920341015,-0.01176823116838932,0.016084201633930206,0.00027503076125867665,-0.00018583171186037362
-8.518576942151412e-05,-0.004566132090985775,-0.012289430946111679,0.016300005838274956,0.00029738908051513135,-0.0001811558468034491
-8.418971992796287e-05,-0.0041592419147491455,-0.012886250391602516,0.015831928700208664,0.0002931930939666927,-0.00017670958186499774
-8.321668428834528e-05,-0.003869094420224428,-0.012741725891828537,0.016061916947364807,0.00027883145958185196,-0.00017247618234250695
-8.226589125115424e-05,-0.004348196089267731,-0.012569647282361984,0.016184601932764053,0.0002651855756994337,-0.0001684409216977656
-8.133654773700982e-05,-0.004683255683630705,-0.012896443717181683,0.01606559194624424,0.000252772617386654,-0.00016459029575344175
-8.042798435781151e-05,-0.004320001695305109,-0.013102225959300995,0.0169953852891922,0.0002763315278571099,-0.00016091173165477812
-7.953952444950119e-05,-0.004256837535649538,-0.012844144366681576,0.015756947919726372,0.0002692993439268321,-0.00015739408263470978
-3.12693146042875e-06,-0.004134523216634989,-0.013240247964859009,0.015848489478230476,0.00025855746935121715,-0.00015402690041810274
-4.1951775386905865e-08,-0.004404172301292419,-0.01244205143302679,0.01511647179722786,0.0002483826829120517,-0.0001508008426753804
-5.628366106513738e-10,-0.004199613817036152,-0.012707225047051907,0.015594340860843658,0.00026420585345476866,-0.00014770700363442302
-7.551170626285408e-12,-0.004457595758140087,-0.013207635842263699,0.015359100885689259,0.0002625359920784831,-0.00014473768533207476
-7.845796790206805e-05,-0.004329860210418701,-0.01296634878963232,0.01604081317782402,0.0002538013504818082,-0.00014188540808390826
-8.076082303887233e-05,-0.00436230655759573,-0.012844769284129143,0.016018668189644814,0.00024543472682125866,-0.00013914337614551187
-8.076082303887233e-05,-0.00436230655759573,-0.012844769284129143,0.016018668189644814,0.00024543472682125866,-0.00013914337614551187
-6.8936227762606e-05,-0.004267643205821514,-0.012688695453107357,0.016703961417078972,0.000256313884165138,-0.0001365051866741851
-6.248115096241236e-05,-0.004217437002807856,-0.013043827377259731,0.017003295943140984,0.00024403801944572479,-0.00013396535359788686
-6.134589057182893e-05,-0.004243166651576757,-0.012592026963829994,0.016445230692625046,0.0002315804158570245,-0.00013151811435818672
-0.0001598670642124489,-0.004408365115523338,-0.012668605893850327,0.01695604808628559,0.0002417539362795651,-0.00012915892875753343
-0.0001393315033055842,-0.004500679671764374,-0.012120959348976612,0.016980009153485298,0.00025049271062016487,-0.0001268828200409189
-0.00010640463005984202,-0.00462131155654788,-0.012315617874264717,0.017450934275984764,0.0002492282656021416,-0.000122562880278565
-9.514819976175204e-05,-0.0044286116026341915,-0.012315701693296432,0.01689394935965538,0.00025657383957877755,-0.00012051151861669496
-8.60465515870601e-05,-0.004393146373331547,-0.012992845848202705,0.017161527648568153,0.0002476313093211502,-0.00011852776515297592
-7.853480929043144e-05,-0.004584790673106909,-0.012819528579711914,0.015074138529598713,0.0002383361425017938,-0.00011660798918455839
-7.222971908049658e-05,-0.0042254687286913395,-0.01291634701192379,0.015018302947282791,0.0002581026637926698,-0.00011474959319457412
-6.686214328510687e-05,-0.004016213119029999,-0.012365691363811493,0.0153715331107378,0.00025294290389865637,-0.00011294948490103707
-6.223725358722731e-05,-0.004336945712566376,-0.01278967410326004,0.016231290996074677,0.00024460419081151485,-0.00011120502313133329
-5.821112426929176e-05,-0.004179320298135281,-0.012503615580499172,0.016398100182414055,0.00031308556208387017,-0.00010951355943689123
-5.467412483994849e-05,-0.004150270018726587,-0.012226126156747341,0.016094081103801727,0.0003033379907719791,-0.00010787271457957104
-5.154247264727019e-05,-0.003991032484918833,-0.012387380003929138,0.01584211364388466,0.000284870300674811,-0.0001062805240508169
-4.875029844697565e-05,-0.003881961340084672,-0.012384799309074879,0.01533319428563118,0.0003178176411893219,-0.00010473449947312474
-4.6244997065514326e-05,-0.0038455340545624495,-0.012526104226708412,0.015960581600666046,0.00030322110978886485,-0.00010323282913304865
-6.204356850503245e-07,-0.004251633770763874,-0.012521682307124138,0.016041023656725883,0.0002872959594242275,-8.473525667795911e-05
-8.323936206977578e-09,-0.004583423491567373,-0.01275185402482748,0.016680795699357986,0.00031215191120281816,-8.088874164968729e-05
-1.1167623076291378e-10,-0.004521056544035673,-0.012065344490110874,0.01599946990609169,0.0003025511105079204,-7.931136497063562e-05
-1.4982790398979096e-12,-0.004314040765166283,-0.012224975973367691,0.016138313338160515,0.00028901963378302753,-7.792796532157809e-05
-2.0101326812381644e-14,-0.004271562676876783,-0.012281771749258041,0.015328028239309788,0.0002763617958407849,-7.660083065275103e-05
-2.6968491425216536e-16,-0.004270418547093868,-0.011402572505176067,0.016388462856411934,0.0002647480578161776,-7.531878509325907e-05
-2.6968491425216536e-16,-0.004270418547093868,-0.011402572505176067,0.016388462856411934,0.0002647480578161776,-7.531878509325907e-05
-4.854233169054723e-20,-0.0046931165270507336,-0.011818981729447842,0.016170481219887733,0.0002789446443784982,-7.287912012543529e-05
-4.854233169054723e-20,-0.0046931165270507336,-0.011818981729447842,0.016170481219887733,0.0002789446443784982,-7.287912012543529e-05
-6.512573605466395e-22,-0.004801240749657154,-0.012454823590815067,0.01623038575053215,0.00026867855922318995,-7.171764445956796e-05
-8.737447840915989e-24,-0.0043368213810026646,-0.011962116695940495,0.015995139256119728,0.0002590202202554792,-7.059255585772917e-05
-1.17224015610647e-25,-0.0043451739475131035,-0.01181556936353445,0.016404936090111732,0.0002677681914065033,-6.95022608852014e-05
-1.5727097703547503e-27,-0.004595113452523947,-0.012224187143146992,0.01600600779056549,0.0002696698938962072,-6.844515155535191e-05
-2.1099906177824933e-29,-0.004794876091182232,-0.012010442093014717,0.01605376787483692,0.000255528197158128,-6.741974357282743e-05
-2.83082173406831e-31,-0.0047422051429748535,-0.01225237362086773,0.01631382666528225,0.00024186490918509662,-6.642459629802033e-05
-5.095379431871498e-35,-0.004772856831550598,-0.012124382890760899,0.0157467070966959,0.0002612792595755309,-6.451985245803371e-05
-6.836101154594816e-37,-0.005135256331413984,-0.012041139416396618,0.015141784213483334,0.00024988141376525164,-6.360788393067196e-05
-9.171502652901321e-39,-0.004904847126454115,-0.011728177778422832,0.015535123646259308,0.00023887009592726827,-6.27213012194261e-05
-1.2304801815236219e-40,-0.0044896285980939865,-0.012226210907101631,0.015065030194818974,0.00026179058477282524,-6.185915844980627e-05
-1.6507295909746345e-42,-0.004384148400276899,-0.011667272076010704,0.015565404668450356,0.0002556966501288116,-6.102034240029752e-05
-2.2420775429197073e-44,-0.004126595798879862,-0.01221371628344059,0.015441368333995342,0.00024600717006251216,-6.020398359396495e-05
-0.0,-0.004448385443538427,-0.012379421852529049,0.015971016138792038,0.00023677930585108697,-5.9409241657704115e-05
0.0,-0.004603154491633177,-0.01196190994232893,0.015950994566082954,0.0002282023779116571,-5.863511614734307e-05
0.0,-0.004107573535293341,-0.012263213284313679,0.016182588413357735,0.00024751131422817707,-5.788095950265415e-05
0.0,-0.004102965351194143,-0.012336250394582748,0.01611809805035591,0.00024291039153467864,-5.7145887694787234e-05
0.0,-0.004002049565315247,-0.012011253274977207,0.015752000734210014,0.00023521922412328422,-5.6429322285111994e-05
0.0,-0.0038998150266706944,-0.011960968375205994,0.01595386676490307,0.00022831419482827187,-5.573047019424848e-05
0.0,-0.004214297980070114,-0.011974692344665527,0.015661437064409256,0.00026111415354534984,-5.50492295587901e-05
0.0,-0.004214297980070114,-0.011974692344665527,0.015661437064409256,0.00026111415354534984,-5.50492295587901e-05
0.0,-0.0040300749242305756,-0.011915179900825024,0.016121136024594307,0.00024963903706520796,-5.438396328827366e-05
0.0,-0.004427067004144192,-0.011413076892495155,0.016276150941848755,0.00023670044902246445,-5.3736417612526566e-05
0.0,-0.0041952007450163364,-0.011973069049417973,0.016551366075873375,0.00022488109243568033,-5.310066990205087e-05
0.0,-0.004449499770998955,-0.011660654097795486,0.016287121921777725,0.00024579738965258,-5.248301386018284e-05
0.0,-0.0042277742177248,-0.012313087470829487,0.0160931758582592,0.00024459886481054127,-5.1878116209991276e-05
0.0,-0.0040030828677117825,-0.01210816390812397,0.0158691443502903,0.00023461980163119733,-5.128688280819915e-05
0.0,-0.003967011347413063,-0.012036684900522232,0.01592389866709709,0.0002494343789294362,-5.014388443669304e-05
0.0,-0.003967011347413063,-0.012036684900522232,0.01592389866709709,0.0002494343789294362,-5.014388443669304e-05
0.0,-0.003951872233301401,-0.01157437451183796,0.015737995505332947,0.0002420371019979939,-2.5137233023997396e-05
0.0,-0.004142319783568382,-0.012026222422719002,0.0162921454757452,0.00023321853950619698,-1.6412817558375536e-06
0.0,-0.004050109069794416,-0.012003256939351559,0.016022512689232826,0.00022490127594210207,-1.0716397014221002e-07
0.0,-0.0037414829712361097,-0.011979859322309494,0.01601538620889187,0.00023963194689713418,-4.568567746332519e-10
0.0,-0.0037159123457968235,-0.011848718859255314,0.015939194709062576,0.00023214689281303436,-2.982948263396956e-11
0.0,-0.004305493552237749,-0.012265040539205074,0.01553944032639265,0.0002249098615720868,-1.9476521090355803e-12
0.0,-0.004224118776619434,-0.011690271086990833,0.015042138285934925,0.0002411323948763311,-1.2716776687671932e-13
0.0,-0.0045272596180438995,-0.011513179168105125,0.015064439736306667,0.00024998036678880453,-8.303146344578686e-15
0.0,-0.004159364849328995,-0.01205162238329649,0.014908084645867348,0.0002382000384386629,-5.421361851705041e-16
0.0,-0.003975795116275549,-0.01162201352417469,0.015222624875605106,0.00022631234605796635,-3.539761605359807e-17
0.0,-0.004344138316810131,-0.012003438547253609,0.014898897148668766,0.00024729117285460234,-2.311211080668848e-18
0.0,-0.004241620656102896,-0.011825773864984512,0.015137606300413609,0.0002460193063598126,-1.5090558352716349e-19
0.0,-0.0039720842614769936,-0.011561266146600246,0.015075872652232647,0.00023592323123011738,-9.853056378272722e-21
0.0,-0.004192376043647528,-0.012076943181455135,0.015314862132072449,0.00022608600556850433,-6.4333406685814865e-22
0.0,-0.004530122969299555,-0.011267626658082008,0.014759976416826248,0.00021700147772207856,-4.2005117175358255e-23
0.0,-0.004183426033705473,-0.011735380627214909,0.01399600226432085,0.00023876056366134435,-2.742634089688476e-24
0.0,-0.004355328157544136,-0.011696972884237766,0.015327585861086845,0.00023402998340316117,-1.7907440836546755e-25
0.0,-0.00430658832192421,-0.011684207245707512,0.01590995118021965,0.00022590754088014364,-1.1692279862660088e-26
0.0,-0.004087320528924465,-0.011996892280876637,0.015364602208137512,0.00021810302860103548,-7.63422259550573e-28
0.0,-0.004087320528924465,-0.011996892280876637,0.015364602208137512,0.00021810302860103548,-7.63422259550573e-28
0.0,-0.003870026906952262,-0.011363026686012745,0.015546680428087711,0.00021080567967146635,-4.9846019050234545e-29
0.0,-0.0038412867579609156,-0.01186259463429451,0.015349446795880795,0.0002039794926531613,-3.254588764093418e-30
0.0,-0.0042975591495633125,-0.011416908353567123,0.015158813446760178,0.00019758151029236615,-2.12501378353233e-31
0.0,-0.004111756104975939,-0.01166919432580471,0.015529774129390717,0.00021709756401833147,-1.3874821204288157e-32
0.0,-0.003932485356926918,-0.011823446489870548,0.015593880787491798,0.00021235854364931583,-9.059266802138588e-34
0.0,-0.003934620413929224,-0.011319512501358986,0.016193028539419174,0.00020637975831050426,-5.915053135026691e-35
0.0,-0.003667036537081003,-0.0118520213291049,0.015950288623571396,0.00020063553529325873,-3.862107352613261e-36
0.0,-0.0035618168767541647,-0.011948779225349426,0.01571892760694027,0.00019519632041919976,-2.521680082856841e-37
0.0,-0.003621078561991453,-0.011960452422499657,0.014662704430520535,0.00019004367641173303,2.2742169676348567e-05
0.0,-0.0037744685541838408,-0.011596101336181164,0.01523419376462698,0.00019350241927895695,2.70823402388487e-05
0.0,-0.003840459045022726,-0.01140917744487524,0.014662200585007668,0.00019374763360247016,2.6982115741702728e-05
0.0,-0.003476387122645974,-0.01166187971830368,0.014965694397687912,0.00017891553579829633,2.621715066197794e-05
0.0,-0.0034403225872665644,-0.012221419252455235,0.015613692812621593,0.0001720748987281695,3.543590355548076e-05
0.0,-0.0036118528805673122,-0.012051871046423912,0.015094749629497528,0.00016573657921981066,3.7995596358086914e-05
0.0,-0.0037436438724398613,-0.011999721638858318,0.014760952442884445,0.0001755121338646859,3.766532972804271e-05
0.0,-0.003711421974003315,-0.011846903711557388,0.014379244297742844,0.000184172997251153,3.7159981729928404e-05
0.00012762556434608996,-0.0037645550910383463,-0.01177829597145319,0.014634441584348679,0.00017902397667057812,3.665632175398059e-05
0.000134739835630171,-0.0034208798315376043,-0.012243006378412247,0.01416805200278759,0.00017333887808490545,3.616539834183641e-05
0.00015679672651458532,-0.0034466604702174664,-0.01188578736037016,0.014626139774918556,0.00016795149713288993,4.679607809521258e-05
0.00015271123265847564,-0.004166188649833202,-0.01178391370922327,0.014167331159114838,0.00016288562619592994,4.6911114623071626e-05
0.0001647848403081298,-0.004133695270866156,-0.012097394093871117,0.014446664601564407,0.00017104762082453817,4.6354376536328346e-05
0.00016851694090291858,-0.0036239377222955227,-0.01197040919214487,0.014308699406683445,0.00017834373284131289,5.140785651747137e-05
0.00016423313354607671,-0.0034127712715417147,-0.011866344138979912,0.014826907776296139,0.00017420518270228058,5.611344022327103e-05
0.000160062059876509,-0.0035034590400755405,-0.011545544490218163,0.0140060530975461,0.00016956809849943966,5.578764830715954e-05
0.00015609609545208514,-0.003663520095869899,-0.01178390346467495,0.013978264294564724,0.00017671179375611246,0.00024264334933832288
0.00015609609545208514,-0.003663520095869899,-0.01178390346467495,0.013978264294564724,0.00017671179375611246,0.00024264334933832288
0.00016987267008516937,-0.004172137007117271,-0.011203368194401264,0.014269224368035793,0.00017926447617355734,0.0002733308938331902
0.00016987267008516937,-0.004172137007117271,-0.011203368194401264,0.014269224368035793,0.00017926447617355734,0.0002733308938331902
0.0001660511625232175,-0.003518360201269388,-0.011790920980274677,0.014582696370780468,0.00017495504289399832,0.00026287499349564314
0.00016277498798444867,-0.0033944537863135338,-0.012181139551103115,0.014862099662423134,0.0002102529542753473,0.000250846118433401
0.0003299704403616488,-0.003474135184660554,-0.012508969753980637,0.014371650293469429,0.00021328916773200035,0.0002743348013609648
0.00030967395287007093,-0.0034305970184504986,-0.01200555358082056,0.014398830011487007,0.00020444754045456648,0.00026743681519292295
0.0002897616068366915,-0.0035732663236558437,-0.011717565357685089,0.013914540410041809,0.00022951248683966696,0.00027479827986098826
0.0003258977667428553,-0.0032806687522679567,-0.012610606849193573,0.013859319500625134,0.00022461860498879105,0.0002808320277836174
0.0003080274036619812,-0.0035086474381387234,-0.011523331515491009,0.013597788289189339,0.0002159389987355098,0.00035997951636090875
0.00033929210621863604,-0.0037743833381682634,-0.012053870595991611,0.01400486659258604,0.0002376598713453859,0.00041048330604098737
0.0003500765305943787,-0.0034589071292430162,-0.011520536616444588,0.013716756366193295,0.0002249407407362014,0.00042136714910157025
0.00033439768594689667,-0.003532084869220853,-0.011558950878679752,0.013309115543961525,0.0002461324038449675,0.0004520623479038477
0.0003201850922778249,-0.0037291906774044037,-0.011221648193895817,0.013712627813220024,0.00023982164566405118,0.00042551374644972384
0.0004052274744026363,-0.003796894336119294,-0.012097781524062157,0.013580123893916607,0.00023296481231227517,0.00045182532630860806
0.0004446503589861095,-0.003740874817594886,-0.012145467102527618,0.014059546403586864,0.00035281095188111067,0.0004284080059733242
0.00045846300781704485,-0.003261866047978401,-0.011758372187614441,0.013569011352956295,0.00033554743276908994,0.0005307493847794831
0.00044778292067348957,-0.0033267508260905743,-0.01186590176075697,0.013795502483844757,0.00035880354698747396,0.0005770840798504651
0.00047561986139044166,-0.0035424719098955393,-0.011508372612297535,0.013789089396595955,0.0003499128215480596,0.0005757210310548544
0.0006448192289099097,-0.0036805402487516403,-0.012062162160873413,0.0137453218922019,0.00032949450542218983,0.0005636735004372895
0.0007318807183764875,-0.003679482964798808,-0.011769793927669525,0.013490112498402596,0.00035537336952984333,0.0005837729549966753
0.000680300930980593,-0.0036577393766492605,-0.011981966905295849,0.013272952288389206,0.0003421930596232414,0.0005481878179125488
0.0006930257077328861,-0.0035102313850075006,-0.01215006597340107,0.01359381340444088,0.00034758655237965286,0.0005132541409693658
0.0006931361276656389,-0.0035818926990032196,-0.011429301463067532,0.013551839627325535,0.00035161577397957444,0.0005725882365368307
0.0006581839988939464,-0.0036627708468586206,-0.012389645911753178,0.012682465836405754,0.0003365506127011031,0.0005151765653863549
0.0007072896114550531,-0.0040251510217785835,-0.010747144930064678,0.013603588566184044,0.00038568011950701475,0.00046266213757917285
0.0007072896114550531,-0.0040251510217785835,-0.010747144930064678,0.013603588566184044,0.00038568011950701475,0.00046266213757917285
0.0007338537834584713,-0.003870661836117506,-0.011529259383678436,0.013781930319964886,0.00037529884139075875,0.0004973660688847303
0.0007541480590589345,-0.0035242370795458555,-0.012694675475358963,0.013437844812870026,0.0003477070131339133,0.0005261932965368032
0.0007700223941355944,-0.003475222270935774,-0.011898363009095192,0.013769502751529217,0.00038286394556052983,0.0005552169750444591
0.0009014952229335904,-0.0036537237465381622,-0.012385808862745762,0.01364980824291706,0.00036116837873123586,0.0007222303538583219
0.0010962203377857804,-0.004028486553579569,-0.01142766885459423,0.014127708971500397,0.00038032050360925496,0.0008299602195620537
0.0011046903673559427,-0.0037958899047225714,-0.01220981776714325,0.01357655692845583,0.00037092025741003454,0.0011741386260837317
0.0013047843240201473,-0.003383665345609188,-0.01290755532681942,0.014025003649294376,0.0003510926035232842,0.001377478358335793
0.0012492764508351684,-0.0035126805305480957,-0.011774060316383839,0.014088746160268784,0.0003676492196973413,0.0011555321980267763
0.001297804992645979,-0.003336691064760089,-0.011937404982745647,0.013532129116356373,0.0003602418291848153,0.0009549589594826102
0.0014098207466304302,-0.0037474455311894417,-0.012420685961842537,0.013691828586161137,0.00039140554144978523,0.0008211754029616714
0.001637118635699153,-0.0033679227344691753,-0.011829805560410023,0.013835490681231022,0.0004157334042247385,0.0007272047223523259
0.0017945352010428905,-0.00344985187985003,-0.01190128456801176,0.013597311452031136,0.00040149234700948,0.0007199132815003395
0.0018183374777436256,-0.0036815227940678596,-0.012765638530254364,0.013977196998894215,0.0004206355952192098,0.0006760585238225758
0.0018169272225350142,-0.003181898733600974,-0.011428975500166416,0.013702821917831898,0.00040777583490125835,0.0005539004923775792
0.0016609806334599853,-0.0030898929107934237,-0.011785155162215233,0.01330158393830061,0.0004312839300837368,0.0006127813248895109
0.0016836627619341016,-0.003052974585443735,-0.011761500500142574,0.01291730161756277,0.00041307444917038083,0.0006464055622927845
0.0017151175998151302,-0.003381880698725581,-0.011810502968728542,0.013510757125914097,0.00047092384193092585,0.001233127899467945
0.0021255332976579666,-0.003197338664904237,-0.011689320206642151,0.013285276480019093,0.0004945156397297978,0.0012000871356576681
0.0025010027457028627,-0.0031058802269399166,-0.011237313970923424,0.01384668331593275,0.0005158165586180985,0.0010777270654216409
0.002392189111560583,-0.0031338639091700315,-0.011581795290112495,0.013278739526867867,0.0004896052414551377,0.000924574735108763
0.0021877058316022158,-0.0032111317850649357,-0.01142093911767006,0.013282915577292442,0.0004501097137108445,0.0009049822692759335
0.0021498145069926977,-0.0031090157572180033,-0.011727062053978443,0.01277933456003666,0.0004798870359081775,0.0008156297844834626
0.0023215434048324823,-0.003285953076556325,-0.011737058870494366,0.01308402232825756,0.00044980947859585285,0.0006830438505858183
0.002291566925123334,-0.003195186611264944,-0.011256488040089607,0.012859625741839409,0.0004492287407629192,0.0006817085086368024
0.002517126500606537,-0.0031685233116149902,-0.011669142171740532,0.012412676587700844,0.00044806316145695746,0.0007867168169468641
0.002656772034242749,-0.003196860197931528,-0.011200274340808392,0.013138584792613983,0.0004234539810568094,0.0011168745113536716
0.002656772034242749,-0.003196860197931528,-0.011200274340808392,0.013138584792613983,0.0004234539810568094,0.0011168745113536716
0.0027088576462119818,-0.003347937949001789,-0.011271520517766476,0.012837186455726624,0.000433502224041149,0.0013300515711307526
0.002461578929796815,-0.003374972613528371,-0.01212704461067915,0.012953996658325195,0.00040088247624225914,0.001311830012127757
0.0023118851240724325,-0.0032174247317016125,-0.01150690671056509,0.012706773355603218,0.0004368751251604408,0.0014338879846036434
0.0024441336281597614,-0.0033264141529798508,-0.011804411187767982,0.013141695410013199,0.0004413212009239942,0.001327601377852261
0.0025618451181799173,-0.003135600360110402,-0.010971495881676674,0.012866448611021042,0.0004408873792272061,0.0012485721381381154
0.0027291649021208286,-0.0028828864451497793,-0.011058693751692772,0.01287812739610672,0.00045742373913526535,0.0011266128858551383
0.002440772484987974,-0.0031611169688403606,-0.011719194240868092,0.012667863629758358,0.00044297552085481584,0.0009346678270958364
0.0025078889448195696,-0.0033509910572320223,-0.011549235321581364,0.012471831403672695,0.0004181366239208728,0.0009906819323077798
0.002697888296097517,-0.0036612539552152157,-0.01195243839174509,0.012677006423473358,0.0004976101336069405,0.001031925668939948
0.0028239204548299313,-0.0027214789297431707,-0.011312823742628098,0.013068326748907566,0.00046098732855170965,0.0015650312416255474
0.0029003701638430357,-0.0027267958503216505,-0.01167637761682272,0.012404206208884716,0.00045859499368816614,0.0018825654406100512
0.002862274646759033,-0.0023984084837138653,-0.01193330530077219,0.012907871045172215,0.0004248969489708543,0.0016721956199035048
0.002986917970702052,-0.0019709079060703516,-0.012099198997020721,0.012160967104136944,0.00045072389184497297,0.0014964850852265954
0.0029757616575807333,-0.0017241560854017735,-0.011712534353137016,0.01186191476881504,0.00042784237302839756,0.0012654345482587814
0.0033868616446852684,-0.001414458965882659,-0.011399459093809128,0.01250400673598051,0.00042895838851109147,0.0009422186994925141
0.0035022615920752287,-0.0014417230850085616,-0.012197978794574738,0.012419939041137695,0.00042905783629976213,0.0009176943567581475
0.003455128986388445,-0.0017700687749311328,-0.011504102498292923,0.012817594222724438,0.00040650536539033055,0.0010094052413478494
0.0035896666813641787,-0.0018124525668099523,-0.011959030292928219,0.01240885816514492,0.0004177772207185626,0.0011986892204731703
0.0037701206747442484,-0.0020126868039369583,-0.012009668163955212,0.012785994447767735,0.0004445512895472348,0.0014167018234729767
0.004357452504336834,-0.0019077841425314546,-0.0122397905215621,0.012456974014639854,0.0004273446393199265,0.002179043833166361
0.00469896150752902,-0.0016192307230085135,-0.012091023847460747,0.012892190366983414,0.00045860587852075696,0.0020392152946442366
0.004856364335864782,-0.0014434556942433119,-0.011338201351463795,0.01270959060639143,0.00048454635543748736,0.0017943287966772914
0.004552006255835295,-0.0014557373942807317,-0.012306739576160908,0.012749233283102512,0.0006116292788647115,0.0016215986106544733
0.004552006255835295,-0.0014557373942807317,-0.012306739576160908,0.012749233283102512,0.0006116292788647115,0.0016215986106544733
0.004273800179362297,-0.001318732975050807,-0.011635423637926579,0.0123677346855402,0.0006638889317400753,0.0014717640588060021
0.0038879336789250374,-0.001293524750508368,-0.012586096301674843,0.012512733228504658,0.0006211753352545202,0.001200350932776928
0.0038879336789250374,-0.001293524750508368,-0.012586096301674843,0.012512733228504658,0.0006211753352545202,0.001200350932776928
0.004440468270331621,-0.0012767552398145199,-0.011477622203528881,0.012068756856024265,0.0006265920819714665,0.0012400222476571798
0.0047520603984594345,-0.0012472275411710143,-0.011649807915091515,0.012297431007027626,0.0005889832391403615,0.001779455691576004
0.004401736427098513,-0.0012963684275746346,-0.011233925819396973,0.012291179038584232,0.0006114685675129294,0.0022830297239124775
0.004020747262984514,-0.0011607002234086394,-0.011901930905878544,0.012009271420538425,0.0005730831762775779,0.002252670004963875
0.004168049897998571,-0.0011759258341044188,-0.0120505066588521,0.012438781559467316,0.000557440216653049,0.0018828239990398288
0.004323866218328476,-0.0011252020485699177,-0.012051056139171124,0.011907278560101986,0.0005720246117562056,0.0015853355871513486
0.00455316761508584,-0.0009976166766136885,-0.01229799259454012,0.012452500872313976,0.0005375996115617454,0.001450372044928372
0.004465634003281593,-0.0009868976194411516,-0.011735806241631508,0.01159278117120266,0.000566073227673769,0.0013887248933315277
0.004596500191837549,-0.0010114317992702127,-0.01209182571619749,0.011952388100326061,0.0005240023019723594,0.0013938646297901869
0.004817475564777851,-0.0010205572471022606,-0.011647251434624195,0.011877290904521942,0.0005738885374739766,0.00226214830763638
0.005135032348334789,-0.0011130659841001034,-0.011849082075059414,0.011823760345578194,0.0006145431543700397,0.002675093011930585
0.005125049501657486,-0.0010972460731863976,-0.011400911957025528,0.011925091035664082,0.0005983109003864229,0.0023187582846730947
0.004746962804347277,-0.0010639678221195936,-0.012294967658817768,0.012368676252663136,0.0006193366716615856,0.0019098945194855332
0.0054557747207582,-0.0010400856845080853,-0.011848651804029942,0.012247879058122635,0.0006337503436952829,0.0017701314063742757
0.005431654863059521,-0.0009753279155120254,-0.012334448285400867,0.011599400080740452,0.0007147979340516031,0.0014767850516363978
0.005961297079920769,-0.0009592914138920605,-0.012198117561638355,0.01135251298546791,0.0008187879575416446,0.0016007880913093686
0.005396618507802486,-0.0009391277562826872,-0.011392605490982533,0.011661635711789131,0.0008513935026712716,0.0020642178133130074
0.0053526731207966805,-0.0009338419185951352,-0.01191524788737297,0.011678756214678288,0.0008700700709596276,0.0022236178629100323
0.005620899610221386,-0.0009138963068835437,-0.011388885788619518,0.011450967751443386,0.0011814757017418742,0.0026683674659579992
0.006052085198462009,-0.0010444547515362501,-0.011835192330181599,0.011034308932721615,0.0011466307332739234,0.0027310140430927277
0.006000773049890995,-0.0010595242492854595,-0.011560432612895966,0.011439960449934006,0.0011071889894083142,0.0024052662774920464
0.005957933142781258,-0.0012929181102663279,-0.011101555079221725,0.011570962145924568,0.0010170810855925083,0.0021701313089579344
0.005641118623316288,-0.0012426839675754309,-0.012165426276624203,0.011353405192494392,0.0009235127363353968,0.0019169483566656709
0.005971332546323538,-0.001178439357317984,-0.011401990428566933,0.01096374075859785,0.000918450765311718,0.0017950823530554771
0.006882472895085812,-0.0011341774370521307,-0.011432401835918427,0.01080523431301117,0.0009063949692063034,0.0018571498803794384
0.006318801082670689,-0.0009989386890083551,-0.01141753327101469,0.01152833178639412,0.000904921384062618,0.002365501131862402
0.006357328500598669,-0.0009345356957055628,-0.010561298578977585,0.01103079691529274,0.0009262256207875907,0.0027502092998474836
0.006355177145451307,-0.0009286910644732416,-0.011038763448596,0.01095282007008791,0.0009418560657650232,0.002540500368922949
0.006355177145451307,-0.0009286910644732416,-0.011038763448596,0.01095282007008791,0.0009418560657650232,0.002540500368922949
0.006589255761355162,-0.0009249337599612772,-0.010939511470496655,0.01095742266625166,0.0009188831900246441,0.0024283064994961023
0.0064379083923995495,-0.0009828793117776513,-0.011381187476217747,0.011089809238910675,0.0008290495607070625,0.0023432637099176645
0.006576569750905037,-0.0010141913080587983,-0.011732524260878563,0.011377044022083282,0.0008314458536915481,0.0022080685012042522
0.006651074625551701,-0.000963292084634304,-0.011022703722119331,0.011140505783259869,0.0008005914278328419,0.0022457223385572433
0.006485837046056986,-0.0008733736467547715,-0.011069749481976032,0.010390980169177055,0.0008005889249034226,0.002402602694928646
0.007125936448574066,-0.000872351520229131,-0.0108322873711586,0.010530004277825356,0.0007828288362361491,0.0025675881188362837
0.006854860112071037,-0.0008586380863562226,-0.011574145406484604,0.010556806810200214,0.0007692202343605459,0.0022978736087679863
0.00702959019690752,-0.000835880811791867,-0.01109052449464798,0.010732577182352543,0.0009475665865465999,0.0022790965158492327
0.007265898864716291,-0.0007718635024502873,-0.010912987403571606,0.01020917296409607,0.000950582092627883,0.002177612856030464
0.006714203394949436,-0.0007848389795981348,-0.010837387293577194,0.010732649825513363,0.000960430596023798,0.002158273244276643
0.00489056296646595,-0.0008331707795150578,-0.010516151785850525,0.010978835634887218,0.0010413796408101916,0.002407667227089405
0.004039865452796221,-0.0008478328236378729,-0.011106128804385662,0.010458653792738914,0.001032816944643855,0.0026142762508243322
0.004288089461624622,-0.0008514256333000958,-0.010420979000627995,0.01081329956650734,0.0009742864640429616,0.0027340950910001993
0.00542120635509491,-0.0008240125025622547,-0.010179518721997738,0.011133333668112755,0.0009612705907784402,0.0027464977465569973
0.005393681116402149,-0.0007691962528042495,-0.01067844033241272,0.010141076520085335,0.0009590674890205264,0.002488035475835204
0.00567918736487627,-0.0007674722583033144,-0.010282292030751705,0.01016459334641695,0.0009725449490360916,0.0024921782314777374
0.005242409184575081,-0.0007446101517416537,-0.01084856502711773,0.010192115791141987,0.0009815300581976771,0.0026146192103624344
0.004892945755273104,-0.0006894500111229718,-0.011158386245369911,0.01042768731713295,0.0009554671705700457,0.0028035948053002357
0.005203434731811285,-0.000712245237082243,-0.010988441295921803,0.010955633595585823,0.0008751577115617692,0.002916268538683653
0.00505492277443409,-0.000731314008589834,-0.010389870963990688,0.010281037539243698,0.0008782664081081748,0.0030631222762167454
0.005327153950929642,-0.0007880567573010921,-0.010469304397702217,0.009725622832775116,0.0008516348316334188,0.003308339975774288
0.005704836454242468,-0.0008090522023849189,-0.009848810732364655,0.01005211565643549,0.0007639584946446121,0.0033102689776569605
0.0052650850266218185,-0.000817583582829684,-0.010453805327415466,0.009505524300038815,0.0007523520034737885,0.0028971261344850063
0.00514880521222949,-0.0007950778817757964,-0.010482331737875938,0.009256573393940926,0.0006942879408597946,0.00264437566511333
0.00514880521222949,-0.0007950778817757964,-0.010482331737875938,0.009256573393940926,0.0006942879408597946,0.00264437566511333
0.005274246912449598,-0.000744957709684968,-0.01066714245826006,0.009474802762269974,0.0006922269240021706,0.0024576925206929445
0.005610262509435415,-0.000764116644859314,-0.010550216771662235,0.009327063336968422,0.000649104593321681,0.0025674840435385704
0.005733654834330082,-0.0006650789291597903,-0.010206055827438831,0.008764213882386684,0.0006555183208547533,0.0026833247393369675
0.006054023280739784,-0.0006903762696310878,-0.009631461463868618,0.009005234576761723,0.0006946863722987473,0.002892973367124796
0.005888552870601416,-0.0006826521712355316,-0.010322704911231995,0.008812032639980316,0.0007270801579579711,0.003103384980931878
0.005842701997607946,-0.0006445928593166173,-0.01080819871276617,0.00863601453602314,0.0012135253055021167,0.0027516635600477457
0.005949369166046381,-0.0006674804026260972,-0.009987389668822289,0.008384310640394688,0.0013012484414502978,0.00255429744720459
0.006375588942319155,-0.0006983766215853393,-0.010291571728885174,0.008381625637412071,0.0013289895141497254,0.002623502630740404
0.006124284118413925,-0.0007249351474456489,-0.009829488582909107,0.008279216475784779,0.0013540617655962706,0.002795648528262973
0.005993242841213942,-0.0005747613031417131,-0.010783938691020012,0.008803952485322952,0.0011459637898951769,0.0033437982201576233
0.005973896011710167,-0.0006047355127520859,-0.010365301743149757,0.008613064885139465,0.001045016571879387,0.003113096347078681
0.006694029550999403,-0.0005528007168322802,-0.010265600867569447,0.00838170200586319,0.0008938651881180704,0.0030933727975934744
0.006636197213083506,-0.0005082066054455936,-0.010644499212503433,0.00855367910116911,0.0008853699546307325,0.0029356633313000202
0.006193556357175112,-0.000534634105861187,-0.009840566664934158,0.008877703920006752,0.0008866683929227293,0.003089010715484619
0.006288065575063229,-0.0005000650999136269,-0.010727757588028908,0.008328358642756939,0.0008881716057658195,0.003265342442318797
0.006839714478701353,-0.00046761499834246933,-0.010943218134343624,0.00828447937965393,0.0010131198214367032,0.003580151591449976
0.00677783926948905,-0.0004260210262145847,-0.010023528710007668,0.008871630765497684,0.0010521195363253355,0.0037883627228438854
0.0071845403872430325,-0.00038467798731289804,-0.010773519054055214,0.00916743278503418,0.0010334111284464598,0.0034597155172377825
0.00660330755636096,-0.0003543123311828822,-0.010317506268620491,0.008205601945519447,0.0011391282314434648,0.00337374210357666
0.0065763285383582115,-0.00039318157359957695,-0.010326424613595009,0.008402342908084393,0.0011537621030583978,0.0034625253174453974
0.006950862240046263,-0.00042118073906749487,-0.010968300513923168,0.009381591342389584,0.0011880878591910005,0.0034415179397910833
0.006958038546144962,-0.00040113969589583576,-0.010976496152579784,0.008738284930586815,0.0010904340306296945,0.003520222380757332
0.00734745105728507,-0.0004246593452990055,-0.01064980961382389,0.008703598752617836,0.0011235164711251855,0.003298545256257057
0.007077109534293413,-0.00040665388223715127,-0.01091416273266077,0.009210856631398201,0.0011288925306871533,0.0035094930790364742
0.006936817895621061,-0.0003875760012306273,-0.010062345303595066,0.008876625448465347,0.0011144982418045402,0.0041469088755548
0.006924991030246019,-0.0004889382980763912,-0.010934660211205482,0.008795253932476044,0.001110002282075584,0.004137591924518347
0.007308087777346373,-0.00044275051914155483,-0.01112721860408783,0.008832345716655254,0.0010952838929370046,0.003949989099055529
0.007198039907962084,-0.0004030999552924186,-0.010428654961287975,0.008327684365212917,0.001147379050962627,0.0034721801057457924
0.007344819605350494,-0.00041821872582659125,-0.011699770577251911,0.007466101553291082,0.0011818567290902138,0.0030489640776067972
0.007360378280282021,-0.0004098600475117564,-0.010870015248656273,0.0087303901091218,0.0011999481357634068,0.0032534876372665167
0.007360378280282021,-0.0004098600475117564,-0.010870015248656273,0.0087303901091218,0.0011999481357634068,0.0032534876372665167
0.007265789899975061,-0.00038123238482512534,-0.011215760372579098,0.008494148030877113,0.0011057411320507526,0.0030479023698717356
0.007092075888067484,-0.0003560922050382942,-0.011679411865770817,0.008343578316271305,0.0010021526832133532,0.0032020299695432186
0.008288819342851639,-0.0003874334506690502,-0.011465608142316341,0.007584947161376476,0.0009831335628405213,0.003385092131793499
0.007987040095031261,-0.0003669961297418922,-0.011783692985773087,0.007786162197589874,0.0009728918084874749,0.003201073966920376
0.007587180472910404,-0.000346818589605391,-0.011233056895434856,0.008685433305799961,0.0010016212472692132,0.003420311724767089
0.007479499094188213,-0.0003287200233899057,-0.010997812263667583,0.008108966052532196,0.0009899059077724814,0.0032455597538501024
0.008251559920608997,-0.00031241707620210946,-0.011581645347177982,0.007725290954113007,0.001133162877522409,0.0030476637184619904
0.00799491349607706,-0.00033957866253331304,-0.01104225404560566,0.008089463226497173,0.0012487404746934772,0.0030005169101059437
0.007594509981572628,-0.0003248208959121257,-0.010788913816213608,0.00773169519379735,0.0012588703539222479,0.0030140115413814783
0.008279894478619099,-0.00029794371221214533,-0.01090290304273367,0.008001919835805893,0.0013823789777234197,0.0028047149535268545
0.007978028617799282,-0.0002861033717636019,-0.010853908024728298,0.007835705764591694,0.0013510705903172493,0.0028520168270915747
0.007974404841661453,-0.00027516865520738065,-0.010381619445979595,0.008081197738647461,0.0014238645089790225,0.0028702416457235813
0.00823970977216959,-0.0002650391252245754,-0.01025580894201994,0.007743527181446552,0.0013482014182955027,0.0031003314070403576
0.008045760914683342,-0.0002556289837229997,-0.010962066240608692,0.007670427672564983,0.001269639004021883,0.0030919737182557583
0.00803224928677082,-0.0002468640450388193,-0.010693800635635853,0.007631225045770407,0.0013016540324315429,0.0034569536801427603
0.007838225923478603,-0.00023867985873948783,-0.01099465787410736,0.007194260600954294,0.0013432855485007167,0.003252251073718071
0.008313511498272419,-0.00023102144768927246,-0.011451729573309422,0.0073098670691251755,0.0016654491191729903,0.0034238570369780064
0.008488824591040611,-0.00022383926261682063,-0.011152590624988079,0.007906935177743435,0.0017801516223698854,0.003640074050053954
0.00783720426261425,-0.0002170898369513452,-0.011518485844135284,0.007843616418540478,0.0016718043480068445,0.0037005767226219177
0.007959230802953243,-0.00021073613606858999,-0.011297229677438736,0.007383677177131176,0.0016762117156758904,0.0035744085907936096
0.008287454955279827,-0.00020474387565627694,-0.010125529952347279,0.007115032523870468,0.001579831587150693,0.0034815510734915733
0.00874285027384758,-0.00019908236572518945,-0.011144692078232765,0.007365581579506397,0.0013768111821264029,0.0035622126888483763
0.008344032801687717,-0.0001937256020028144,-0.010494792833924294,0.007385801523923874,0.0013784744078293443,0.0035569658502936363
0.008317846804857254,-0.00018865001038648188,-0.01030856091529131,0.007307934109121561,0.0013652885099872947,0.0035637880209833384
0.009092678315937519,-0.00018383322458248585,-0.011131820268929005,0.007311269640922546,0.001534097595140338,0.0036906723398715258
0.009092678315937519,-0.00018383322458248585,-0.011131820268929005,0.007311269640922546,0.001534097595140338,0.0036906723398715258
0.008515963330864906,-0.0001792563998606056,-0.010762086138129234,0.0074904668144881725,0.0015702631790190935,0.0034085989464074373
0.00831350963562727,-0.00017490181198809296,-0.010443064384162426,0.007515125907957554,0.0018463642336428165,0.0035658511333167553
0.009170740842819214,-0.00017075428331736475,-0.011257759295403957,0.007065964862704277,0.0018543285550549626,0.003707034047693014
0.008521851152181625,-0.00016679834516253322,-0.010254750959575176,0.007126506417989731,0.0017081958940252662,0.003339976305142045
0.008353665471076965,-0.000163021803018637,-0.0105616245418787,0.007550565525889397,0.0016394484555348754,0.0030616135336458683
0.00866615492850542,-0.00015941253514029086,-0.010630333796143532,0.007689652498811483,0.0015613667201250792,0.0032299491576850414
0.008781840093433857,-0.00015595942386426032,-0.009876854717731476,0.006794184911996126,0.0014802719233557582,0.0036314695607870817
0.008731815963983536,-0.00015265292313415557,-0.01075827982276678,0.006362150423228741,0.0015391695778816938,0.00427932059392333
0.008999237790703773,-0.00014948382158763707,-0.010608186013996601,0.006787105463445187,0.0017096636584028602,0.004519673064351082
0.009266401641070843,-0.00014644341717939824,-0.009926439262926579,0.006899472326040268,0.0020285798236727715,0.004361048340797424
0.009251028299331665,-0.0001435241283616051,-0.01092600915580988,0.006440853234380484,0.0018748192815110087,0.003997845109552145
0.00868153665214777,-0.00014071923214942217,-0.010455860756337643,0.006398291792720556,0.0018286565318703651,0.003794431919232011
0.009188518859446049,-0.00011850675218738616,-0.010651352815330029,0.006672816816717386,0.0013962278608232737,0.0035425382666289806
0.009613118134438992,-6.551307888003066e-05,-0.010642838664352894,0.006588328164070845,0.0013735792599618435,0.003887835657224059
0.009231113828718662,-2.0245839550625533e-05,-0.011418784968554974,0.0062425751239061356,0.0013316961703822017,0.0041563669219613075
0.009603133425116539,-2.716237759159412e-07,-0.0105841513723135,0.006025945767760277,0.0013652745401486754,0.004442703444510698
0.008940061554312706,-3.6441791806396395e-09,-0.009984835982322693,0.005978230386972427,0.0014684924390166998,0.004229838959872723
0.009768581949174404,-4.889131460794616e-11,-0.010811347514390945,0.006425864528864622,0.0016339555149897933,0.0038848109543323517
0.009192856959998608,-6.559393870078645e-13,-0.010767110623419285,0.006605808157473803,0.0017236421117559075,0.003932153806090355
0.008917643688619137,-8.800264899124551e-15,-0.010313392616808414,0.006042187567800283,0.001584734651260078,0.003991029225289822
0.008936293423175812,-1.1806678431725405e-16,-0.010517612099647522,0.005860733333975077,0.001354112522676587,0.0038709728978574276
0.009344859048724174,-1.5840167518387802e-18,-0.010360542684793472,0.0059467400424182415,0.001355794258415699,0.003728208364918828
0.008946130983531475,-2.1251607642634144e-20,-0.01100591104477644,0.005964404437690973,0.0013187112053856254,0.0038000375498086214
0.008931552059948444,-2.851174542377275e-22,-0.011547833681106567,0.006262553855776787,0.0012462817830964923,0.00444750813767314
0.0091945705935359,-3.8252145339788216e-24,-0.01031442079693079,0.005765685811638832,0.0012969726230949163,0.004735366906970739
0.0091945705935359,-3.8252145339788216e-24,-0.01031442079693079,0.005765685811638832,0.0012969726230949163,0.004735366906970739
0.009183123707771301,-5.1320131968570233e-26,-0.010026871226727962,0.00571699533611536,0.0012956428108736873,0.00486068706959486
0.008785736747086048,-6.885250588327894e-28,-0.010432835668325424,0.006075657904148102,0.0015025816392153502,0.004373989999294281
0.009197424165904522,-9.237442364241948e-30,-0.010093670338392258,0.006061202380806208,0.0014288112288340926,0.003993410151451826
0.009252236224710941,-1.2393207553360607e-31,-0.010011457838118076,0.006109040696173906,0.0013569920556619763,0.003815482836216688
0.009822008199989796,-1.6627070045373705e-33,-0.010705897584557533,0.005859153810888529,0.001379838096909225,0.004223720170557499
0.009463019669055939,-2.230733850242717e-35,-0.00991976261138916,0.005788093898445368,0.0014156566467136145,0.004972014110535383
0.009420610964298248,-2.9928143389754335e-37,-0.010273350402712822,0.005475490354001522,0.0013881713384762406,0.005027716513723135
0.009240569546818733,-4.015242784617794e-39,-0.010353919118642807,0.005626854952424765,0.001550255692563951,0.004424888174980879
0.00948780681937933,-5.387011686403894e-41,-0.010558297857642174,0.00607545068487525,0.001701405388303101,0.004028859548270702
0.009563502855598927,-7.230700075916056e-43,-0.010212457738816738,0.0056138415820896626,0.0018833763897418976,0.003874062793329358
0.009630606509745121,-9.80908925027372e-45,-0.009733423590660095,0.005364400800317526,0.0017030206508934498,0.004169673193246126
0.00935030821710825,0.00042007508454844356,-0.010902551002800465,0.005319047253578901,0.0015135857975110412,0.004722961224615574
0.008996381424367428,0.0003871052176691592,-0.01015452854335308,0.005589074455201626,0.0014202762395143509,0.004715627525001764
0.009354899637401104,0.00042476149974390864,-0.009817436337471008,0.0052217599004507065,0.001398715190589428,0.004352871794253588
0.009775993414223194,0.0003963188792113215,-0.010562648996710777,0.004949816502630711,0.0014149927301332355,0.004402372520416975
0.00988802220672369,0.00036925062886439264,-0.010199148207902908,0.004783133044838905,0.0016171849565580487,0.004502849653363228
0.009272005409002304,0.0004023913643322885,-0.010392873547971249,0.00474195834249258,0.0015759397065266967,0.004475574940443039
0.009643579833209515,0.0004266165487933904,-0.010836143046617508,0.004847245756536722,0.0016542094526812434,0.004436778835952282
0.009582344442605972,0.0004084310494363308,-0.010043434798717499,0.005084726959466934,0.0017156696412712336,0.00469927117228508
0.010056429542601109,0.0004980871453881264,-0.009965549223124981,0.004599486943334341,0.0016463035717606544,0.004973320290446281
0.009499276988208294,0.0005396855412982404,-0.010623865760862827,0.0046802400611341,0.0018440935527905822,0.004836780950427055
0.009214870631694794,0.0005473014316521585,-0.01014743559062481,0.005151089280843735,0.0017504582647234201,0.004495447035878897
0.009557013399899006,0.0005275329458527267,-0.010434676893055439,0.005259754601866007,0.0018730793381109834,0.004047634545713663
0.00987612921744585,0.0005556581309065223,-0.010190213099122047,0.005032990127801895,0.0018274005269631743,0.004260205198079348
0.009482080116868019,0.0005219742306508124,-0.01042141392827034,0.004913043230772018,0.0017301251646131277,0.004228722304105759
0.00959727168083191,0.0006602667854167521,-0.011061516590416431,0.004711811430752277,0.0017365061212331057,0.004465640988200903
0.00959727168083191,0.0006602667854167521,-0.011061516590416431,0.004711811430752277,0.0017365061212331057,0.004465640988200903
0.01010430883616209,0.0006888578645884991,-0.010254459455609322,0.004166197497397661,0.0018085771007463336,0.004825375974178314
0.00977831520140171,0.0006435266113840044,-0.011025750078260899,0.004204906057566404,0.0022561175283044577,0.00477965222671628
0.00977831520140171,0.0006435266113840044,-0.011025750078260899,0.004204906057566404,0.0022561175283044577,0.00477965222671628
0.009664395824074745,0.0006664821994490921,-0.010460810735821724,0.004227440804243088,0.002316781785339117,0.004913496784865856
0.010494399815797806,0.0007329547661356628,-0.01020707469433546,0.004322196822613478,0.0024547928478568792,0.004855732899159193
0.0098491832613945,0.0008428815053775907,-0.011117379181087017,0.004408510401844978,0.0020957805681973696,0.00489521911367774
0.009922785684466362,0.0008765950333327055,-0.010507292114198208,0.004071505274623632,0.0019743291195482016,0.004798844922333956
0.00925661064684391,0.0011331484420225024,-0.010714766569435596,0.0038714255206286907,0.0018102261237800121,0.005047239828854799
0.009258752688765526,0.0012490198714658618,-0.010782775469124317,0.004319639410823584,0.001742306281812489,0.005113895516842604
0.009754665195941925,0.0012393947690725327,-0.01023741066455841,0.004133981186896563,0.0016671376070007682,0.005369179882109165
0.009822305291891098,0.0012506364146247506,-0.011032692156732082,0.003919380251318216,0.0019082536455243826,0.005518814083188772
0.009538686834275723,0.0013257843675091863,-0.010855646803975105,0.00423985393717885,0.00204591010697186,0.005448734853416681
0.00948256067931652,0.001199045218527317,-0.011737925000488758,0.004212634637951851,0.0021823495626449585,0.00459356838837266
0.009759937413036823,0.0011589820496737957,-0.010818238370120525,0.004018930718302727,0.002106903586536646,0.0051536113023757935
0.009674283675849438,0.0011127336183562875,-0.010461519472301006,0.003768146736547351,0.0023879706859588623,0.0054580033756792545
0.008314210921525955,0.0010803276672959328,-0.010873605497181416,0.003504897700622678,0.0022170832380652428,0.005780823528766632
0.009916950948536396,0.0009706796263344586,-0.010563802905380726,0.003561723977327347,0.002187573118135333,0.005310465581715107
0.010137968696653843,0.0010117486817762256,-0.011221673339605331,0.0037769367918372154,0.0020161885768175125,0.004488289821892977
0.009483658708631992,0.0010997015051543713,-0.01099648792296648,0.004041766747832298,0.001960453111678362,0.0044621857814490795
0.00938301533460617,0.0018660901114344597,-0.01064478512853384,0.0040858411230146885,0.001854651840403676,0.00494154030457139
0.009980237111449242,0.002275910461321473,-0.01174368616193533,0.003979003522545099,0.0019362122984603047,0.004953631199896336
0.010456552729010582,0.002556866267696023,-0.010851908475160599,0.003419723827391863,0.001995365833863616,0.005219853948801756
0.009906101040542126,0.002446258207783103,-0.011064181104302406,0.0032284201588481665,0.002218713518232107,0.005556758027523756
0.00975556019693613,0.0022651897743344307,-0.011163918301463127,0.003210955997928977,0.002194721717387438,0.004920724779367447
0.010197284631431103,0.0022802141029387712,-0.010757781565189362,0.00300224288366735,0.002116488991305232,0.004817296750843525
0.00994526781141758,0.002197836060076952,-0.01208485011011362,0.0031727422028779984,0.002001816174015403,0.004784534685313702
0.009914341382682323,0.002345931949093938,-0.011342550627887249,0.0035360127221792936,0.0019519719062373042,0.004942856729030609
0.009914341382682323,0.002345931949093938,-0.011342550627887249,0.0035360127221792936,0.0019519719062373042,0.004942856729030609
0.009722357615828514,0.0026944486889988184,-0.011354057118296623,0.003516294527798891,0.0019267648458480835,0.005904159974306822
0.010073283687233925,0.002565484493970871,-0.01216716505587101,0.003618240589275956,0.0019126287661492825,0.005446522030979395
0.010215707123279572,0.0026358284521847963,-0.011331130750477314,0.00331476959399879,0.0017587275942787528,0.0049474178813397884
0.009561278857290745,0.002697586314752698,-0.01221119798719883,0.0035274545662105083,0.001756703364662826,0.005028887651860714
0.009729867801070213,0.0028360742144286633,-0.011224987916648388,0.0033061704598367214,0.0017496205400675535,0.005069108679890633
0.010208792984485626,0.0026857643388211727,-0.011467901058495045,0.0034150145947933197,0.0018126973882317543,0.005682219285517931
0.009872510097920895,0.003001018427312374,-0.012358443811535835,0.003197072772309184,0.0017936467193067074,0.0058173672296106815
0.010141908191144466,0.0030262512154877186,-0.011305494233965874,0.003258530981838703,0.001981899840757251,0.0056550996378064156
0.010727616026997566,0.003140639280900359,-0.011123685166239738,0.0033244751393795013,0.0021121064200997353,0.005229772999882698
0.010050773620605469,0.0033296174369752407,-0.011223308742046356,0.0034403405152261257,0.0020832824520766735,0.004975862335413694
0.010130777955055237,0.003267379943281412,-0.010955432429909706,0.0032017629127949476,0.001821476616896689,0.005153252277523279
0.010004665702581406,0.0032126568257808685,-0.011463469825685024,0.0027252270374447107,0.001808827742934227,0.006066011730581522
0.01008987333625555,0.0034284854773432016,-0.010658797807991505,0.0027487343177199364,0.001883169636130333,0.005631585139781237
0.01044109184294939,0.003734452184289694,-0.01160949096083641,0.002736995229497552,0.0018809456378221512,0.0058225467801094055
0.009731604717671871,0.0034484420903027058,-0.011471702717244625,0.002602673601359129,0.0021130188833922148,0.0056123579852283
0.010133490897715092,0.0036066370084881783,-0.011632964015007019,0.002524086507037282,0.0024618140887469053,0.005875048227608204
0.010602069087326527,0.0038010680582374334,-0.011113806627690792,0.0025554175954312086,0.00226653553545475,0.006325141992419958
0.010190571658313274,0.0043109566904604435,-0.010184932500123978,0.0023969581816345453,0.0021861596032977104,0.006102120503783226
0.010404650121927261,0.004261071793735027,-0.011764327995479107,0.0025045492220669985,0.0019341515144333243,0.0058135949075222015
0.012250137515366077,0.0037146618124097586,-0.011277437210083008,0.0027306044939905405,0.0017760761547833681,0.005528813693672419
0.012666892260313034,0.004057050682604313,-0.011215564794838428,0.002956664189696312,0.0017773847794160247,0.00559168541803956
0.013046229258179665,0.004139855969697237,-0.011172893457114697,0.0029141060076653957,0.0019106405088678002,0.005738152656704187
0.011978153139352798,0.0043895975686609745,-0.01089072972536087,0.00253062741830945,0.001909229438751936,0.0061533269472420216
0.012239689938724041,0.005205726716667414,-0.011445418000221252,0.002296809107065201,0.001957185100764036,0.006023892667144537
0.01238380465656519,0.0051497044041752815,-0.011087710037827492,0.00206271861679852,0.001935107633471489,0.00595653522759676
0.012985866516828537,0.00485563138499856,-0.010492237284779549,0.001987300580367446,0.0019299299456179142,0.006043937522917986
0.012571850791573524,0.004793704021722078,-0.011010720394551754,0.0021261496003717184,0.0019089644774794579,0.0060111447237432
0.012957591563463211,0.005321614909917116,-0.010884182527661324,0.0021631962154060602,0.0020587360486388206,0.005964148323982954
0.012957591563463211,0.005321614909917116,-0.010884182527661324,0.0021631962154060602,0.0020587360486388206,0.005964148323982954
0.012934330850839615,0.005161728709936142,-0.011108094826340675,0.0023921621032059193,0.0019618342630565166,0.006277977954596281
0.013522898778319359,0.005876131355762482,-0.010995935648679733,0.0023993803188204765,0.002212770516052842,0.005782257299870253
0.0133909797295928,0.005404313560575247,-0.010541543364524841,0.0022797000128775835,0.0027695863973349333,0.005822028033435345
0.013117367401719093,0.005378694273531437,-0.011354450136423111,0.0022745414171367884,0.0029603498987853527,0.006085153669118881
0.013567806221544743,0.005569193512201309,-0.010988655500113964,0.002197811845690012,0.0028430938255041838,0.0058054011315107346
0.01277443952858448,0.00534390565007925,-0.010883277282118797,0.002153465524315834,0.0027849830221384764,0.005775149911642075
0.013265343382954597,0.005711838603019714,-0.011477029882371426,0.0019813328981399536,0.0023892982862889767,0.006254734471440315
0.01291024312376976,0.005932262632995844,-0.0110267149284482,0.0018708528950810432,0.0023606838658452034,0.006673550698906183
0.013177425600588322,0.005377623718231916,-0.011237609200179577,0.0017463072435930371,0.0021453944500535727,0.0063888635486364365
0.012930385768413544,0.005747375078499317,-0.010853896848857403,0.0016890398692339659,0.002117551863193512,0.0057871388271451
0.013066789135336876,0.005876679439097643,-0.01124951895326376,0.001841273158788681,0.002634110627695918,0.00602826289832592
0.013062873855233192,0.006006669253110886,-0.010900814086198807,0.0018524426268413663,0.0025244143325835466,0.006089172326028347
0.013076230883598328,0.005972687155008316,-0.01198684610426426,0.0018531234236434102,0.002160596428439021,0.00608246261253953
0.012888201512396336,0.006288875825703144,-0.011472431942820549,0.0018504172330722213,0.0021024548914283514,0.00578233040869236
0.013344346545636654,0.006144504528492689,-0.01050941739231348,0.0016216767253354192,0.002015375066548586,0.006227070931345224
0.0130426324903965,0.0065074097365140915,-0.011791812255978584,0.001571341068483889,0.0020634157117456198,0.006345428992062807
0.013440086506307125,0.006392691284418106,-0.01135963760316372,0.001484295236878097,0.002489333041012287,0.006127246655523777
0.013350864872336388,0.006236767861992121,-0.01037286501377821,0.00127391517162323,0.002688467735424638,0.006203737575560808
0.013381635770201683,0.006362563464790583,-0.011915508657693863,0.0011805063113570213,0.0025757451076060534,0.00625074515119195
0.013010085560381413,0.00663635041564703,-0.01131461188197136,0.0012170604895800352,0.002648222027346492,0.006180819123983383
0.013631395995616913,0.00729668652638793,-0.01124472077935934,0.001197748351842165,0.0023490292951464653,0.0063982256688177586
0.01349650789052248,0.0069716330617666245,-0.010981962084770203,0.0011827839771285653,0.002250339835882187,0.006870778277516365
0.013701239600777626,0.006421382073312998,-0.010666261427104473,0.001234923372976482,0.002293879399076104,0.006375973112881184
0.013743381947278976,0.006385400891304016,-0.010998491197824478,0.0011430277954787016,0.0026260369922965765,0.006408903282135725
0.013356245122849941,0.007046138867735863,-0.010691997595131397,0.0012168711982667446,0.0025991646107286215,0.006409813649952412
0.013353066518902779,0.007097396533936262,-0.011101819574832916,0.0010776601266115904,0.0026033450849354267,0.006535455584526062
0.013353066518902779,0.007097396533936262,-0.011101819574832916,0.0010776601266115904,0.0026033450849354267,0.006535455584526062
0.013401048257946968,0.006483082193881273,-0.011264738626778126,0.0010423476342111826,0.002521669026464224,0.007079118397086859
0.013655753806233406,0.007140491157770157,-0.010775654576718807,0.0010213229106739163,0.0024428744800388813,0.0066297054290771484
0.012929210439324379,0.006725449580699205,-0.011040807701647282,0.0009121233597397804,0.0025733904913067818,0.006422298960387707
0.013971739448606968,0.007246091030538082,-0.010889210738241673,0.0007676664972677827,0.002567514544352889,0.006565026938915253
0.0137972142547369,0.007244789972901344,-0.010934674181044102,0.0007772596436552703,0.0023578049149364233,0.0066987499594688416
0.013877945020794868,0.007199844345450401,-0.011613447219133377,0.0006862463196739554,0.0020768684335052967,0.006530444603413343
0.013174498453736305,0.007064267992973328,-0.010426403023302555,0.000609192589763552,0.001977656502276659,0.006529050413519144
0.014236334711313248,0.007488948293030262,-0.010017716325819492,0.0005473699420690536,0.002042770152911544,0.006670961156487465
0.01404520869255066,0.007280439604073763,-0.011189203709363937,0.0004969292203895748,0.0020857080817222595,0.006708815693855286
0.014201258309185505,0.007179046515375376,-0.010596155188977718,0.0005254386342130601,0.0023260798770934343,0.0070951092056930065
0.014130348339676857,0.00719792302697897,-0.010376528836786747,0.0004892022698186338,0.0023838896304368973,0.006943851243704557
0.014466352760791779,0.007237219717353582,-0.010262132622301579,0.00042366451816633344,0.0025162133388221264,0.006695216055959463
0.014783660881221294,0.007164145354181528,-0.010861662216484547,0.0003969565441366285,0.002481395611539483,0.007165209855884314
0.014093883335590363,0.0072160642594099045,-0.010712593793869019,0.00037341713323257864,0.002406496787443757,0.007174123544245958
0.014496922492980957,0.007658808492124081,-0.010465223342180252,0.000352512754034251,0.002680606208741665,0.0070114172995090485
0.014192984439432621,0.007980301044881344,-0.0111839035525918,0.0003338272508699447,0.0029490250162780285,0.006715090945363045
0.014585979282855988,0.007553393486887217,-0.010886027477681637,0.000317022466333583,0.0029611303471028805,0.006666105706244707
0.01476133894175291,0.00819834042340517,-0.010681573301553726,0.00030183064518496394,0.0028276974335312843,0.006509610917419195
0.015035784803330898,0.008038017898797989,-0.011009201407432556,0.0002880269312299788,0.0027387540321797132,0.006489159073680639
0.014398566447198391,0.007604156620800495,-0.010892562568187714,0.000275432103080675,0.00231909635476768,0.007028957828879356
0.015009497292339802,0.007444330956786871,-0.011242217384278774,0.0002638929581735283,0.002275436418130994,0.007433273829519749
0.014798020012676716,0.008128421381115913,-0.010920197702944279,0.00025328126503154635,0.0023431931622326374,0.007094461005181074
0.015239748172461987,0.008198358118534088,-0.010708547197282314,0.00024349016894120723,0.002323779044672847,0.007102444767951965
0.014951533637940884,0.008204358629882336,-0.011229736730456352,0.00023442835663445294,0.0024351344909518957,0.006697933189570904
0.01533594448119402,0.008592849597334862,-0.01101113110780716,0.00022601721866521984,0.0021995503921061754,0.00692073255777359
0.015064147301018238,0.00813276693224907,-0.010930727235972881,0.00021818827372044325,0.0022745393216609955,0.006816464941948652
0.015535013750195503,0.007815954275429249,-0.01102204155176878,0.00021088433277327567,0.0026687795761972666,0.006816188804805279
0.015303489752113819,0.007694934960454702,-0.010671627707779408,0.00020405273244250566,0.0031624063849449158,0.006834088359028101
0.015303489752113819,0.007694934960454702,-0.010671627707779408,0.00020405273244250566,0.0031624063849449158,0.006834088359028101
0.015499433502554893,0.007600276730954647,-0.011209169402718544,0.00019765067554544657,0.003136869054287672,0.007107257843017578
0.015367328189313412,0.008808081969618797,-0.010381760075688362,0.00019163801334798336,0.0028302688151597977,0.006802813615649939
0.015115631744265556,0.008417266421020031,-0.010362647473812103,0.0001859798067016527,0.002611083909869194,0.006960138212889433
0.015558755956590176,0.007927333936095238,-0.011123092845082283,0.00018064699543174356,0.002357213059440255,0.006929438095539808
0.015465842559933662,0.007985207252204418,-0.010715920478105545,0.00017561102868057787,0.002507225377485156,0.007063687313348055
0.015545515343546867,0.007528288755565882,-0.010016684420406818,0.00017084837600123137,0.0029643590096384287,0.007386361248791218
0.015462858602404594,0.005344575736671686,-0.010885062627494335,0.00016633738414384425,0.0026818341575562954,0.007759816478937864
0.01595333218574524,0.0046858699060976505,-0.01077326014637947,0.0001620583498151973,0.0025147281121462584,0.00740622216835618
0.015432010404765606,0.004933068994432688,-0.01077907346189022,0.0001579939853399992,0.0023313474375754595,0.006998262833803892
0.015820642933249474,0.005955981090664864,-0.011333836242556572,0.00015412854554597288,0.00216124439612031,0.007185781374573708
0.015800969675183296,0.006108715198934078,-0.010892744176089764,0.00015044794417917728,0.0024435697123408318,0.007276345044374466
0.016318725422024727,0.0057351053692400455,-0.011282514780759811,0.00014358977205120027,0.002893388969823718,0.00734737329185009
0.016099315136671066,0.005761775653809309,-0.010697133839130402,0.0001403898641001433,0.003202368039637804,0.00754476897418499
0.015904152765870094,0.006113537587225437,-0.011320449411869049,0.0001373294071527198,0.0030563795007765293,0.006584563292562962
0.015892433002591133,0.006237954832613468,-0.010792572051286697,0.00013439985923469067,0.003048058832064271,0.007498682010918856
0.016492271795868874,0.00611977418884635,-0.011045733466744423,0.00013159227091819048,0.0028976916801184416,0.007725112605839968
0.01606520637869835,0.005708146840333939,-0.01152624562382698,5.210254676057957e-05,0.002847764641046524,0.007588951848447323
0.01656382344663143,0.0058089871890842915,-0.010838992893695831,4.0365575841860846e-05,0.002570211188867688,0.007687301840633154
0.01652698777616024,0.006523377727717161,-0.011142916046082973,3.88046246371232e-05,0.00255241128616035,0.007176670711487532
0.016738828271627426,0.006162175443023443,-0.011010989546775818,3.794152507907711e-05,0.002654769690707326,0.007218047510832548
0.016738802194595337,0.0058082458563148975,-0.012372910045087337,3.7155426980461925e-05,0.0025937433820217848,0.007739135529845953
0.016228333115577698,0.005522709805518389,-0.011416868306696415,2.0589224732248113e-05,0.002722713630646467,0.0077516562305390835
0.016900599002838135,0.0057115075178444386,-0.0106056435033679,1.7996928363572806e-05,0.003015901194885373,0.008016521111130714
0.016859740018844604,0.006674589589238167,-0.011266232468187809,4.524262294580694e-06,0.0030568100046366453,0.007701759692281485
0.017225928604602814,0.007016381248831749,-0.010983958840370178,2.9540197488131525e-07,0.002957290969789028,0.008184777572751045
0.01665273681282997,0.006001140922307968,-0.010855342261493206,1.9287639929643774e-08,0.0029746578074991703,0.007847554981708527
0.016849732026457787,0.006393803749233484,-0.011718207970261574,1.2593450726683386e-09,0.002886352827772498,0.007877024821937084
0.016849732026457787,0.006393803749233484,-0.011718207970261574,1.2593450726683386e-09,0.002886352827772498,0.007877024821937084
0.017061060294508934,0.00668775849044323,-0.011057503521442413,8.222623970599585e-11,0.0029042663518339396,0.007495657540857792
0.017758026719093323,0.00688491016626358,-0.011807560920715332,-0.00025812737294472754,0.0028386448975652456,0.007716969586908817
0.017758026719093323,0.00688491016626358,-0.011807560920715332,-0.00025812737294472754,0.0028386448975652456,0.007716969586908817
0.017360499128699303,0.0067496756091713905,-0.011010637506842613,-0.0010545639088377357,0.002552075544372201,0.008090867660939693
0.017063135281205177,0.007208012044429779,-0.010838677175343037,-0.001430853153578937,0.0027009977493435144,0.0076235150918364525
0.017063135281205177,0.007208012044429779,-0.010838677175343037,-0.001430853153578937,0.0027009977493435144,0.0076235150918364525
0.014781178906559944,0.007657918147742748,-0.011093090288341045,-0.0013888170942664146,0.002622573170810938,0.007950062863528728
0.018173379823565483,0.006966458633542061,-0.0115630142390728,-0.0013935158494859934,0.0025511044077575207,0.00793073046952486
0.018062714487314224,0.007534803822636604,-0.010593095794320107,-0.0012948533985763788,0.0028130984865128994,0.007711117155849934
0.017281249165534973,0.007141888607293367,-0.01124817505478859,-0.0014030453749001026,0.0028081301134079695,0.007650269195437431
0.017352698370814323,0.007132415659725666,-0.011196563951671124,-0.0018155172001570463,0.002499684924259782,0.007984681986272335
0.017109021544456482,0.007140386383980513,-0.01038068812340498,-0.002115722047165036,0.0023160299751907587,0.00790781993418932
0.017315376549959183,0.007206353824585676,-0.010405903682112694,-0.0029945538844913244,0.0021582061890512705,0.00808151438832283
0.017435941845178604,0.007651455234736204,-0.010967754758894444,-0.003008084837347269,0.0027442132122814655,0.008120555430650711
0.017705734819173813,0.0073574865236878395,-0.011010033078491688,-0.0028240338433533907,0.003103892784565687,0.007964777760207653
0.017534898594021797,0.007323877420276403,-0.010244149714708328,-0.002967407228425145,0.003071865765377879,0.008181523531675339
0.01732240803539753,0.007335782516747713,-0.010918572545051575,-0.003250200767070055,0.002761977491900325,0.008116665296256542
0.017014402896165848,0.008161655627191067,-0.011357438750565052,-0.0033618721645325422,0.0026451083831489086,0.008129320107400417
0.017097143456339836,0.008209439925849438,-0.010600833222270012,-0.0035984469577670097,0.0030420238617807627,0.008290870115160942
0.017823031172156334,0.007947904989123344,-0.011393380351364613,-0.0038830656558275223,0.0031858847942203283,0.008566588163375854
0.017889034003019333,0.007854234427213669,-0.011002743616700172,-0.003551896195858717,0.003076032269746065,0.008047660812735558
0.01775421015918255,0.008368881419301033,-0.010768973268568516,-0.0034993800800293684,0.003012225730344653,0.008616872131824493
0.017649296671152115,0.007887440733611584,-0.010859406553208828,-0.0036274699959903955,0.002892433200031519,0.008485350757837296
0.01731041446328163,0.008037556894123554,-0.01067368220537901,-0.0040991054847836494,0.0024341566022485495,0.008391189388930798
0.017678387463092804,0.00833579245954752,-0.01157465111464262,-0.004279761109501123,0.002389492467045784,0.00802726112306118
0.017743157222867012,0.008225666359066963,-0.01079499814659357,-0.004042248707264662,0.0024830452166497707,0.008723586797714233
0.01774708554148674,0.008018317632377148,-0.009899969212710857,-0.0035654876846820116,0.002744052093476057,0.00869265291839838
0.018088145181536674,0.0083409883081913,-0.010760544799268246,-0.003391086356714368,0.002855043625459075,0.008371882140636444
0.017714444547891617,0.008722932077944279,-0.010786322876811028,-0.0035835381131619215,0.0031589765567332506,0.008685063570737839
0.017761478200554848,0.008436255156993866,-0.010535669513046741,-0.004061230458319187,0.003227576147764921,0.00887000560760498
0.017991773784160614,0.008338268846273422,-0.010417613200843334,-0.004278653301298618,0.0030725591350346804,0.00888040754944086
0.01777511276304722,0.00864714290946722,-0.010753844864666462,-0.0037384110037237406,0.0030256055761128664,0.008623500354588032
0.01839374378323555,0.008822651579976082,-0.010418607853353024,-0.003465083660557866,0.002969847759231925,0.008267542347311974
0.01839374378323555,0.008822651579976082,-0.010418607853353024,-0.003465083660557866,0.002969847759231925,0.008267542347311974
0.018324585631489754,0.009041612967848778,-0.010464075021445751,-0.0038966836873441935,0.0028725715819746256,0.009088338352739811
0.01779135875403881,0.008876046165823936,-0.00972999632358551,-0.004543996881693602,0.0027882414869964123,0.008732295595109463
0.018296794965863228,0.009444729425013065,-0.010090532712638378,-0.004572558682411909,0.002778066322207451,0.008459137752652168
0.018300358206033707,0.008883551694452763,-0.010736404918134212,-0.004464514087885618,0.0029076319187879562,0.008893881924450397
0.018329797312617302,0.009122028015553951,-0.010052372701466084,-0.004070641472935677,0.0030309082940220833,0.008583868853747845
0.01834006793797016,0.008662888780236244,-0.010629258118569851,-0.004240493290126324,0.0031478055752813816,0.008395498618483543
0.01856815256178379,0.00831309799104929,-0.009933356195688248,-0.004453841596841812,0.003357520792633295,0.008765372447669506
0.018229711800813675,0.008973143994808197,-0.011245849542319775,-0.00423148600384593,0.0033935289829969406,0.009238488972187042
0.017667507752776146,0.008883493021130562,-0.01020725630223751,-0.0044530765153467655,0.0031512214336544275,0.008949445560574532
0.01840376853942871,0.009329701773822308,-0.009396029636263847,-0.004599274601787329,0.002895649056881666,0.008979934267699718
0.018292561173439026,0.009091936983168125,-0.010392346419394016,-0.005129873286932707,0.003109458601102233,0.00896015577018261
0.018372444435954094,0.008925089612603188,-0.010103857144713402,-0.0051001450046896935,0.0034044431522488594,0.009006645530462265
0.018485821783542633,0.008675878867506981,-0.01030481606721878,-0.004379020072519779,0.003239409765228629,0.009248738177120686
0.01827438920736313,0.008960284292697906,-0.010338104330003262,-0.003892249660566449,0.003004055703058839,0.008767867460846901
0.01860041357576847,0.009337000548839569,-0.009999238885939121,-0.00418493989855051,0.002797683933749795,0.00884124357253313
0.0186908096075058,0.009216519072651863,-0.010355109348893166,-0.0048550632782280445,0.0031271695625036955,0.008824316784739494
0.018417805433273315,0.009003604762256145,-0.010904272086918354,-0.004972441587597132,0.0033180294558405876,0.008929443545639515
0.018930144608020782,0.009450030513107777,-0.010061236098408699,-0.004461025819182396,0.00334906461648643,0.009006120264530182
0.01850084774196148,0.008863390423357487,-0.009709157980978489,-0.004359441343694925,0.0029298276640474796,0.009071556851267815
0.018152808770537376,0.009413530118763447,-0.010344517417252064,-0.004522094503045082,0.0028106148820370436,0.009066594764590263
0.018835604190826416,0.009176635183393955,-0.010236170142889023,-0.005066100507974625,0.002948154928162694,0.009128216654062271
0.018575873225927353,0.008718201890587807,-0.01093157846480608,-0.00476844934746623,0.0034041334874927998,0.008677010424435139
0.018625624477863312,0.008929905481636524,-0.010266570374369621,-0.004657685291022062,0.003498082049190998,0.008820713497698307
0.019244512543082237,0.009248449467122555,-0.009981244802474976,-0.0049183061346411705,0.003164202906191349,0.008853504434227943
0.018859094008803368,0.009138212539255619,-0.011030761525034904,-0.005024501588195562,0.0028931498527526855,0.008642585016787052
0.01826724037528038,0.00882741715759039,-0.010440669022500515,-0.005139803048223257,0.0026434508617967367,0.00806832779198885
0.01826724037528038,0.00882741715759039,-0.010440669022500515,-0.005139803048223257,0.0026434508617967367,0.00806832779198885
0.019550800323486328,0.0092933876439929,-0.010022000409662724,-0.005527763161808252,0.002939173486083746,0.009229958988726139
0.019086336717009544,0.008957735262811184,-0.010545073077082634,-0.00560344522818923,0.003546933177858591,0.009616711176931858
0.01893310248851776,0.008832787163555622,-0.010525946505367756,-0.005181230138987303,0.0034607972484081984,0.009601911529898643
0.01942293904721737,0.008670154958963394,-0.009813235141336918,-0.00529744615778327,0.0032029948197305202,0.00927176047116518
0.019411735236644745,0.00959199108183384,-0.010357217863202095,-0.005956202279776335,0.0028789157513529062,0.008925365284085274
0.019619030877947807,0.009097747504711151,-0.010634247213602066,-0.005724264774471521,0.0027959311846643686,0.009503844194114208
0.019265051931142807,0.00914089847356081,-0.010644706897437572,-0.005373428575694561,0.0031788372434675694,0.00938964169472456
0.019064459949731827,0.010001682676374912,-0.0108280498534441,-0.0048948973417282104,0.0033071450889110565,0.009544325061142445
0.020063385367393494,0.008522169664502144,-0.010922194458544254,-0.005430987570434809,0.0032045049592852592,0.009329857304692268
0.019857726991176605,0.00920130219310522,-0.011309504508972168,-0.005628535058349371,0.0030171547550708055,0.009294223040342331
0.01907850243151188,0.009683958254754543,-0.010729493573307991,-0.005652891471982002,0.003130892524495721,0.00943766999989748
0.020015999674797058,0.009851357899606228,-0.011086785234510899,-0.005733366124331951,0.0034092855639755726,0.009536192752420902
0.02030615322291851,0.009686156176030636,-0.010575700551271439,-0.005667467135936022,0.003405126044526696,0.009113263338804245
0.020026028156280518,0.009643197990953922,-0.01109864842146635,-0.0055717844516038895,0.003153702476993203,0.00991331972181797
0.01983906328678131,0.010124711319804192,-0.011900746263563633,-0.005565751809626818,0.0030266738031059504,0.009991501457989216
0.02006777748465538,0.009997199289500713,-0.011078733019530773,-0.0053089335560798645,0.00291233928874135,0.009897330775856972
0.01994277536869049,0.009716925211250782,-0.012160071171820164,-0.0057070194743573666,0.0033631790429353714,0.009944932535290718
0.019825872033834457,0.010225106962025166,-0.011512978002429008,-0.005872352980077267,0.004203484393656254,0.010056540369987488
0.019809266552329063,0.009999389760196209,-0.010848249308764935,-0.0062114521861076355,0.004432635847479105,0.010283124633133411
0.01998296193778515,0.009995995089411736,-0.011211995035409927,-0.005715603474527597,0.0042606256902217865,0.009593800641596317
0.020431239157915115,0.009782923385500908,-0.011034402064979076,-0.005731227807700634,0.0036000185646116734,0.009310903958976269
0.02068491466343403,0.00994815956801176,-0.011700741946697235,-0.0056874435395002365,0.0035208521876484156,0.009340019896626472
0.02051221951842308,0.010023931041359901,-0.011621548794209957,-0.005939306225627661,0.0036579985171556473,0.009897919371724129
0.0199036356061697,0.00958502758294344,-0.010680079460144043,-0.006386240944266319,0.0036740454379469156,0.010084429755806923
0.020470179617404938,0.010727742686867714,-0.01109491940587759,-0.0059094298630952835,0.0034870950039476156,0.0102480947971344
0.020711194723844528,0.010179695673286915,-0.010423622094094753,-0.00599405774846673,0.003229736117646098,0.009866501204669476
0.020711194723844528,0.010179695673286915,-0.010423622094094753,-0.00599405774846673,0.003229736117646098,0.009866501204669476
0.02022102102637291,0.00988003145903349,-0.010923969559371471,-0.006743907928466797,0.0031964087393134832,0.010267543606460094
0.020368117839097977,0.01037125289440155,-0.011556528508663177,-0.006862829439342022,0.003476544748991728,0.010036940686404705
0.020808245986700058,0.010380523279309273,-0.012211015447974205,-0.00667499890550971,0.0036287002731114626,0.009706651791930199
0.02077161893248558,0.010441390797495842,-0.010830760933458805,-0.0062741851434111595,0.0036402964033186436,0.010134752839803696
0.020201632753014565,0.01009403821080923,-0.010446527972817421,-0.006460659205913544,0.0036435790825635195,0.010194540023803711
0.020355848595499992,0.009698905982077122,-0.010630165226757526,-0.006780597381293774,0.003727911040186882,0.009833604097366333
0.020479990169405937,0.010032940655946732,-0.01160246692597866,-0.006818974390625954,0.003401916241273284,0.010077965445816517
0.020518796518445015,0.01070740632712841,-0.011229189112782478,-0.007222672458738089,0.0035747529473155737,0.010397080332040787
0.02069256082177162,0.010673195123672485,-0.010941465385258198,-0.007222321815788746,0.0037329131737351418,0.010293861851096153
0.021187758073210716,0.009799166582524776,-0.011075924150645733,-0.007057335693389177,0.0037440015003085136,0.010364171117544174
0.020593468099832535,0.010953758843243122,-0.011436332948505878,-0.006945942994207144,0.0032510196324437857,0.010181037709116936
0.020893016830086708,0.010442976839840412,-0.010828152298927307,-0.00702889496460557,0.003054871456697583,0.01048341579735279
0.02190733142197132,0.010560277849435806,-0.010956388898193836,-0.007451628800481558,0.003176931757479906,0.010762231424450874
0.021521562710404396,0.010350611992180347,-0.01124266255646944,-0.007672454230487347,0.0035104909911751747,0.010876650922000408
0.0214665699750185,0.010582653805613518,-0.01097178366035223,-0.007955905981361866,0.0037312847562134266,0.010150415822863579
0.021571723744273186,0.010719211772084236,-0.011147732846438885,-0.007823845371603966,0.003813943127170205,0.010391129180788994
0.021597247570753098,0.01038399152457714,-0.010704990476369858,-0.008756130933761597,0.004236883949488401,0.011025747284293175
0.0213991217315197,0.01083880104124546,-0.010557537898421288,-0.008761702105402946,0.004098886623978615,0.010593912564218044
0.02115768939256668,0.010771689936518669,-0.010997965931892395,-0.007849875837564468,0.0035037831403315067,0.010618363507091999
0.022385630756616592,0.011220808140933514,-0.010861099697649479,-0.007684831973165274,0.003204501233994961,0.010253667831420898
0.023025020956993103,0.011304461397230625,-0.010844322852790356,-0.008362949825823307,0.003143181325867772,0.010185908526182175
0.02281482145190239,0.011228452436625957,-0.011192806996405125,-0.00864800252020359,0.0036185479257255793,0.010208263993263245
0.022224601358175278,0.011690963990986347,-0.010909250006079674,-0.008035575971007347,0.004100355319678783,0.010417739860713482
0.021012915298342705,0.010636952705681324,-0.011090820655226707,-0.007501759100705385,0.004010366275906563,0.009854773990809917
0.022459398955106735,0.01056538987904787,-0.01106935366988182,-0.007831396535038948,0.0037006980273872614,0.010052785277366638
0.022459398955106735,0.01056538987904787,-0.01106935366988182,-0.007831396535038948,0.0037006980273872614,0.010052785277366638
0.022912070155143738,0.011104239150881767,-0.010611460544168949,-0.008333811536431313,0.00361126777715981,0.010385695844888687
0.022758977487683296,0.010694488883018494,-0.011173306964337826,-0.007819455116987228,0.003755981335416436,0.010224894620478153
0.02228279411792755,0.010659411549568176,-0.011092149652540684,-0.008058971725404263,0.004175382200628519,0.010030649602413177
0.023066291585564613,0.011021547019481659,-0.010924847796559334,-0.008442971855401993,0.0037893711123615503,0.01073739305138588
0.023715302348136902,0.010787605307996273,-0.011239382438361645,-0.008810469880700111,0.003376697190105915,0.01132106501609087
0.02374110370874405,0.010780569165945053,-0.010950902476906776,-0.008303359150886536,0.0029965618159621954,0.011167573742568493
0.023263124749064445,0.011279154568910599,-0.011829373426735401,-0.009430930949747562,0.003135262755677104,0.011093048378825188
0.023263558745384216,0.010468263179063797,-0.01129465363919735,-0.009358705021440983,0.003958242479711771,0.010619569569826126
0.02346898801624775,0.010983037762343884,-0.010722658596932888,-0.009780372492969036,0.00437356811016798,0.01067691296339035
0.023465747013688087,0.010644206777215004,-0.011605095118284225,-0.009815212339162827,0.004322183784097433,0.010433894582092762
0.02452722005546093,0.01101869996637106,-0.011287430301308632,-0.008628456853330135,0.0034027807414531708,0.01134147122502327
0.023846741765737534,0.010476050898432732,-0.011224668473005295,-0.009398949332535267,0.0031624329276382923,0.011105788871645927
0.023717129603028297,0.010240385308861732,-0.010980893857777119,-0.009541582316160202,0.00346372090280056,0.011097166687250137
0.024044405668973923,0.010517085902392864,-0.011522614397108555,-0.008990304544568062,0.003778040176257491,0.010864571668207645
0.02445768564939499,0.010819701477885246,-0.010852831415832043,-0.009052256122231483,0.004267847631126642,0.011058777570724487
0.02478722296655178,0.011315373703837395,-0.01098311971873045,-0.00930118653923273,0.004598658997565508,0.011161207221448421
0.0246433075517416,0.010407284833490849,-0.011481254361569881,-0.008180485107004642,0.004349032882601023,0.011087226681411266
0.024278227239847183,0.010497359558939934,-0.010737170465290546,-0.008866208605468273,0.003971976228058338,0.011292258277535439
0.025548486039042473,0.011087937280535698,-0.011263680644333363,-0.009137558750808239,0.0035380797926336527,0.011063025332987309
0.024662617594003677,0.010516042821109295,-0.011845099739730358,-0.008681945502758026,0.003550355089828372,0.010982746258378029
0.025021666660904884,0.009998233988881111,-0.011442610993981361,-0.009311322122812271,0.003787363413721323,0.011248673312366009
0.02557479962706566,0.010667085647583008,-0.01121249794960022,-0.009995833039283752,0.004298717249184847,0.010928746312856674
0.02551284432411194,0.010735055431723595,-0.010916593484580517,-0.009734287858009338,0.004565265960991383,0.010953636839985847
0.025485359132289886,0.010996990837156773,-0.011332905851304531,-0.009670085273683071,0.00421666307374835,0.011110684834420681
0.02565048635005951,0.010955029167234898,-0.011260380037128925,-0.009783295914530754,0.004342088010162115,0.011185032315552235
0.025623736903071404,0.01030539721250534,-0.010637795552611351,-0.009402002207934856,0.0042840284295380116,0.01140516810119152
0.02592531032860279,0.011160749942064285,-0.011341122910380363,-0.009457052685320377,0.004010958131402731,0.011625329963862896
0.02592531032860279,0.011160749942064285,-0.011341122910380363,-0.009457052685320377,0.004010958131402731,0.011625329963862896
0.02562582865357399,0.010819992050528526,-0.011268296279013157,-0.00985049270093441,0.0037995469756424427,0.01186530664563179
0.02551393210887909,0.010678024962544441,-0.010941702872514725,-0.01002923958003521,0.0037303802091628313,0.011181743815541267
0.02580554597079754,0.011248946189880371,-0.011195859871804714,-0.009310511872172356,0.003967495635151863,0.011045911349356174
0.026058753952383995,0.011058482341468334,-0.011211531236767769,-0.009622879326343536,0.0041317748837172985,0.011210915632545948
0.02628244273364544,0.011135895736515522,-0.011479165405035019,-0.010052785277366638,0.004741357639431953,0.011073178611695766
0.026592543348670006,0.01109576690942049,-0.010928829200565815,-0.010112586431205273,0.004530275706201792,0.011128942482173443
0.026247212663292885,0.010791271924972534,-0.010776846669614315,-0.009897594340145588,0.004077556077390909,0.011441641487181187
0.026768552139401436,0.011761880479753017,-0.011615767143666744,-0.009722363203763962,0.0037331492640078068,0.012198886834084988
0.026770412921905518,0.010971392504870892,-0.011064298450946808,-0.010205283761024475,0.0037182664964348078,0.012177030555903912
0.026950765401124954,0.010757329873740673,-0.011380084790289402,-0.010205221362411976,0.0039272187277674675,0.012164963409304619
0.02689492143690586,0.010857234708964825,-0.011080054566264153,-0.010017137974500656,0.004736937116831541,0.011794800870120525
0.02709110826253891,0.012245327234268188,-0.01185004971921444,-0.010279182344675064,0.004606711678206921,0.011748194694519043
0.027196962386369705,0.011515891179442406,-0.011103693395853043,-0.010465692728757858,0.0038521667011082172,0.011968569830060005
0.027812978252768517,0.011188770644366741,-0.012036151252686977,-0.010760567151010036,0.003664164338260889,0.012062745168805122
0.028318487107753754,0.011733206920325756,-0.011397494934499264,-0.011030361987650394,0.0036285477690398693,0.011797410435974598
0.02759571373462677,0.011834916658699512,-0.01084310095757246,-0.011100986041128635,0.004128247033804655,0.012085692957043648
0.025047795847058296,0.012400851584970951,-0.011554095894098282,-0.010578843764960766,0.004646457266062498,0.012078886851668358
0.028064783662557602,0.01142075378447771,-0.011385008692741394,-0.010610068216919899,0.00434356601908803,0.01268948893994093
0.02846970595419407,0.011026233434677124,-0.011327854357659817,-0.009895257651805878,0.004354511853307486,0.012596036307513714
0.027563270181417465,0.011648987419903278,-0.012446969747543335,-0.010426091961562634,0.0043863956816494465,0.012586710043251514
0.028039587661623955,0.011520001105964184,-0.011469182558357716,-0.010420544072985649,0.004659180995076895,0.011286827735602856
0.02864176593720913,0.01175332348793745,-0.011963139288127422,-0.010752925649285316,0.004559357650578022,0.012518025934696198
0.028329622000455856,0.011709755286574364,-0.011557950638234615,-0.010398024693131447,0.004156066104769707,0.012330296449363232
0.028131181374192238,0.01138876099139452,-0.012505429796874523,-0.00998531561344862,0.004191902000457048,0.01206663902848959
0.027189627289772034,0.011845160275697708,-0.012161549180746078,-0.010076813399791718,0.004549461882561445,0.012417862191796303
0.0273433867841959,0.011889832094311714,-0.011456411331892014,-0.010735022835433483,0.0049055530689656734,0.012118110433220863
0.027997950091958046,0.0119285574182868,-0.012051559053361416,-0.010465669445693493,0.004915924277156591,0.012295213527977467
0.027880877256393433,0.01207044068723917,-0.011833684518933296,-0.010809138417243958,0.004712711088359356,0.012602069415152073
0.027998438104987144,0.011706258170306683,-0.012148852460086346,-0.011120505630970001,0.004551342222839594,0.012610052712261677
0.027998438104987144,0.011706258170306683,-0.012148852460086346,-0.011120505630970001,0.004551342222839594,0.012610052712261677
0.027773864567279816,0.012274778448045254,-0.012669664807617664,-0.010856319218873978,0.00433274544775486,0.012298260815441608
0.02806256152689457,0.011911556124687195,-0.01211358793079853,-0.011034193448722363,0.0044600702822208405,0.0122896209359169
0.02798331342637539,0.012376190163195133,-0.011796435341238976,-0.011191783472895622,0.004312667064368725,0.012313788756728172
0.02821207232773304,0.012012904509902,-0.011611814610660076,-0.01067573856562376,0.004367505665868521,0.0125824473798275
0.028053198009729385,0.011837217025458813,-0.012180577032268047,-0.011035403236746788,0.004498891998082399,0.012485754676163197
0.0276875551789999,0.012176746502518654,-0.01152909267693758,-0.010841352865099907,0.0045857857912778854,0.012891123071312904
0.027696916833519936,0.012355624698102474,-0.011675350368022919,-0.011256338097155094,0.004142989404499531,0.012574809603393078
0.02801934815943241,0.012226900085806847,-0.011348000727593899,-0.011575068347156048,0.0037642880342900753,0.012189988046884537
0.027920328080654144,0.012406537309288979,-0.011588755063712597,-0.011843888089060783,0.004258848261088133,0.012344073504209518
0.028001831844449043,0.012416542507708073,-0.01128779910504818,-0.011229930445551872,0.004328634589910507,0.012173036113381386
0.027837781235575676,0.012985782697796822,-0.011733404360711575,-0.011408801190555096,0.004309208132326603,0.01221544947475195
0.02808922529220581,0.013791486620903015,-0.011950754560530186,-0.011806417256593704,0.00437051011249423,0.012551132589578629
0.02635529264807701,0.013709094375371933,-0.011253359727561474,-0.011941537261009216,0.004594417288899422,0.012330745346844196
0.02912619523704052,0.013864284381270409,-0.013007971458137035,-0.012385185807943344,0.004758629482239485,0.01252792589366436
0.029769957065582275,0.013621591031551361,-0.011853002943098545,-0.011955124326050282,0.004519870970398188,0.012801352888345718
0.02958882600069046,0.013876207172870636,-0.01122933067381382,-0.012043559923768044,0.004396154545247555,0.013068180531263351
0.028731396421790123,0.013095291331410408,-0.011313589289784431,-0.012378168292343616,0.0046287341974675655,0.012466712854802608
0.028012126684188843,0.013939110562205315,-0.011869508773088455,-0.012697935104370117,0.00482009956613183,0.013162324205040932
0.02879362553358078,0.013335829600691795,-0.012520127929747105,-0.012656846083700657,0.004793435800820589,0.012955179437994957
0.02973565086722374,0.0139937037602067,-0.012079526670277119,-0.012182333506643772,0.004361980594694614,0.013164780102670193
0.0291119534522295,0.01357248518615961,-0.0112700080499053,-0.01226847991347313,0.004363639745861292,0.01292173471301794
0.029133036732673645,0.01442433800548315,-0.011926870793104172,-0.01196560263633728,0.004531670827418566,0.012404446490108967
0.030103588476777077,0.014166504144668579,-0.011550405994057655,-0.012438000179827213,0.0045742252841591835,0.01280148420482874
0.029975013807415962,0.014553392305970192,-0.012039586901664734,-0.012461136095225811,0.004638624843209982,0.012778987176716328
0.029153110459446907,0.014296055771410465,-0.01221030205488205,-0.012711696326732635,0.004201741423457861,0.013331765308976173
0.02924657054245472,0.01449679583311081,-0.011920499615371227,-0.013434097170829773,0.004387809894979,0.013183879666030407
0.02924657054245472,0.01449679583311081,-0.011920499615371227,-0.013434097170829773,0.004387809894979,0.013183879666030407
0.029740121215581894,0.01393658947199583,-0.01159572135657072,-0.013073163107037544,0.004911547992378473,0.013203359209001064
0.03010193631052971,0.014716123230755329,-0.011011560447514057,-0.013170605525374413,0.004929622635245323,0.012945885770022869
0.030295563861727715,0.014090810902416706,-0.012191224843263626,-0.012917954474687576,0.004611149430274963,0.012935703620314598
0.030044447630643845,0.015001760795712471,-0.011583174578845501,-0.013326453976333141,0.004743186756968498,0.013242640532553196
0.029769953340291977,0.014593811705708504,-0.011654399335384369,-0.012202508747577667,0.004989880137145519,0.012310134246945381
0.029592812061309814,0.015240343287587166,-0.011331187561154366,-0.012984858825802803,0.0048454273492097855,0.013243184424936771
0.030001157894730568,0.014317088760435581,-0.010843715630471706,-0.013433022424578667,0.0046904683113098145,0.013640031218528748
0.029940590262413025,0.014914781786501408,-0.01163607556372881,-0.013483581133186817,0.0046180677600204945,0.013231655582785606
0.03043292835354805,0.013949372805655003,-0.012299207039177418,-0.013631395995616913,0.0047876546159386635,0.01292975153774023
0.030334696173667908,0.014568568207323551,-0.011757783591747284,-0.013854815624654293,0.004717323929071426,0.013408228754997253
0.030073577538132668,0.01494854036718607,-0.011309094727039337,-0.01365724392235279,0.004959887359291315,0.01323173101991415
0.03027327172458172,0.014460926875472069,-0.01209824625402689,-0.01376435998827219,0.004926483612507582,0.013087171129882336
0.03015902452170849,0.015412510372698307,-0.01170442160218954,-0.013860310427844524,0.004407267551869154,0.013485364615917206
0.030806729570031166,0.014751998707652092,-0.012405456975102425,-0.014457971788942814,0.004129054490476847,0.013537328690290451
0.030532756820321083,0.015147223137319088,-0.012540124356746674,-0.01409269217401743,0.004187379963696003,0.01341898925602436
0.030423352494835854,0.014505409635603428,-0.011808899231255054,-0.01436805259436369,0.004937141202390194,0.013448961079120636
0.03058694116771221,0.015293329022824764,-0.012092921882867813,-0.014111603610217571,0.0051505849696695805,0.013656106777489185
0.03077874332666397,0.014952749013900757,-0.011531266383826733,-0.0143223125487566,0.004724755883216858,0.013720816001296043
0.030830632895231247,0.015002214349806309,-0.011862725019454956,-0.013998433947563171,0.004851521458476782,0.013585652224719524
0.03067668341100216,0.014847354032099247,-0.011746278963983059,-0.014520027674734592,0.005227100104093552,0.01358507014811039
0.031224539503455162,0.014872437343001366,-0.01168042328208685,-0.014157317578792572,0.005083117168396711,0.013611458241939545
0.031031178310513496,0.01477112527936697,-0.011865637265145779,-0.014433237724006176,0.004868811462074518,0.013926498591899872
0.030972179025411606,0.01460612379014492,-0.01180386170744896,-0.014019476249814034,0.004730049520730972,0.013796254061162472
0.03123723901808262,0.014911642298102379,-0.011574995703995228,-0.014323613606393337,0.004767042119055986,0.01377875730395317
0.03122253715991974,0.014891098253428936,-0.011210830882191658,-0.013947402127087116,0.004908144474029541,0.01373317837715149
0.030856452882289886,0.01474047638475895,-0.011286992579698563,-0.014411172829568386,0.0051503595896065235,0.014065686613321304
0.030829617753624916,0.014988197013735771,-0.01170716155320406,-0.014223447069525719,0.004575696308165789,0.013657216913998127
0.031045889481902122,0.015122807584702969,-0.011476087383925915,-0.014381351880729198,0.004516984336078167,0.013595259748399258
0.03163348510861397,0.01458643563091755,-0.0118410000577569,-0.014002504758536816,0.004533273167908192,0.013679856434464455
0.032225023955106735,0.015022645704448223,-0.011259142309427261,-0.014308901503682137,0.004718269221484661,0.014105201698839664
0.032225023955106735,0.015022645704448223,-0.011259142309427261,-0.014308901503682137,0.004718269221484661,0.014105201698839664
0.03166811913251877,0.014712122268974781,-0.010962127707898617,-0.014010373502969742,0.004732984583824873,0.013922237791121006
0.030537378042936325,0.014771049842238426,-0.011374800466001034,-0.014585335738956928,0.0045052021741867065,0.013975147157907486
0.032253287732601166,0.014778200536966324,-0.011168304830789566,-0.01413294393569231,0.0046606166288256645,0.013997802510857582
0.032382458448410034,0.014953657984733582,-0.011245418339967728,-0.014663904905319214,0.005002845544368029,0.014080116525292397
0.03240645304322243,0.014626061543822289,-0.011322125792503357,-0.014565577730536461,0.004966128617525101,0.013805495575070381
0.03291812911629677,0.01509017962962389,-0.010877727530896664,-0.01485996413975954,0.004873942118138075,0.01414994802325964
0.03166966512799263,0.014600704424083233,-0.011292872950434685,-0.014432857744395733,0.00512230210006237,0.013811750337481499
0.03174357861280441,0.015180113725364208,-0.011261021718382835,-0.01551713328808546,0.0050600189715623856,0.013937167823314667
0.03163053095340729,0.01449626125395298,-0.011952312663197517,-0.015181601978838444,0.004847795702517033,0.01444376353174448
0.03338668495416641,0.014835463836789131,-0.011047828011214733,-0.015054348856210709,0.005145431030541658,0.014231186360120773
0.03338668495416641,0.014835463836789131,-0.011047828011214733,-0.015054348856210709,0.005145431030541658,0.014231186360120773
0.03370329365134239,0.014735891483724117,-0.01132243126630783,-0.014717986807227135,0.0059888423420488834,0.014923709444701672
0.0330185741186142,0.015612294897437096,-0.011307891458272934,-0.015043563209474087,0.005510393995791674,0.014900226145982742
0.032331690192222595,0.014401564374566078,-0.01190197840332985,-0.015409977175295353,0.004887839779257774,0.014464986510574818
