davideferrari95/blind_handover_controller/data/Test 272 - [2024-02-08 -- 12-54-39]/joint_states_data.csv
shoulder_pan_joint,shoulder_lift_joint,elbow_joint,wrist_1_joint,wrist_2_joint,wrist_3_joint
0.0049698492512106895,0.007675959262996912,-0.00937969796359539,0.0032402731012552977,-0.0,0.00483598280698061
0.0054525709711015224,0.007878167554736137,-0.010083979927003384,0.0036367974244058132,-0.0,0.005034904461354017
0.0054525709711015224,0.007878167554736137,-0.010083979927003384,0.0036367974244058132,-0.0,0.005034904461354017
0.0051146917976439,0.008349745534360409,-0.010527809150516987,0.0033778513316065073,-0.0,0.004941691644489765
0.004828221630305052,0.007539745420217514,-0.009319858625531197,0.003098312532529235,-0.0,0.004909016191959381
0.004331339616328478,0.00813023280352354,-0.009646092541515827,0.002669302513822913,-0.0,0.0050020902417600155
0.004393751733005047,0.007807244546711445,-0.009749052114784718,0.0026172855868935585,-0.0,0.004820484202355146
0.004931244067847729,0.007998328655958176,-0.009785558097064495,0.002777530811727047,-0.0,0.004878502804785967
0.00450280774384737,0.007566502783447504,-0.009983026422560215,0.003079500515013933,-0.0,0.004838286433368921
0.004568086005747318,0.007311254274100065,-0.009444153867661953,0.0030414497014135122,-0.0,0.004649385344237089
0.004534587264060974,0.007942895404994488,-0.008919274434447289,0.0029251747764647007,-0.0,0.004258007742464542
0.004538890905678272,0.00788548681885004,-0.00958163384348154,0.002717185765504837,-0.0,0.00447944737970829
0.004515544977039099,0.0072175730019807816,-0.00960881169885397,0.00264437566511333,-0.0,0.004633372183889151
0.0042747375555336475,0.007118572480976582,-0.009425975382328033,0.002416572067886591,-0.0,0.004519892856478691
0.004512800369411707,0.007526174187660217,-0.009482127614319324,0.002450675005093217,-0.0,0.004772892687469721
0.004677820950746536,0.007573631592094898,-0.008938079699873924,0.002377789467573166,-0.0,0.004752241540700197
0.004610955249518156,0.007257166318595409,-0.009051097556948662,0.0024730125442147255,-0.0,0.004373501520603895
0.004593571648001671,0.00798094179481268,-0.009552844800055027,0.0026878765784204006,-0.0,0.0043665324337780476
0.004503367003053427,0.007963603362441063,-0.00906255841255188,0.002740800380706787,-0.0,0.004443601705133915
0.0043632215820252895,0.007479470688849688,-0.008859309367835522,0.0024880466517060995,-0.0,0.004819647874683142
0.004459885880351067,0.007339738309383392,-0.009663043543696404,0.0024916615802794695,-0.0,0.004662333521991968
0.005196643527597189,0.008356691338121891,-0.008924405090510845,0.0023241096641868353,-0.0,0.004402176011353731
0.004650325980037451,0.008041998371481895,-0.009398628026247025,0.0023109170142561197,-0.0,0.004355274606496096
0.004569530952721834,0.007136571686714888,-0.009679127484560013,0.002382991136983037,-0.0,0.0042440458200871944
0.004569530952721834,0.007136571686714888,-0.009679127484560013,0.002382991136983037,-0.0,0.0042440458200871944
0.004399322438985109,0.0072518703527748585,-0.008879397064447403,0.002375654876232147,-0.0,0.004419543780386448
0.004399532917886972,0.008290882222354412,-0.009984554722905159,0.0024208708200603724,-0.0,0.004605787340551615
0.004290757700800896,0.007933386601507664,-0.009276624768972397,0.00223886058665812,-0.0,0.0046409606002271175
0.004509745631366968,0.007472793571650982,-0.009519488550722599,0.002275270875543356,-0.0,0.004556872881948948
0.004425704479217529,0.007723373826593161,-0.009320245124399662,0.002357895951718092,-0.0,0.004203891381621361
0.004260355606675148,0.007664841134101152,-0.009310112334787846,0.0023744977079331875,-0.0,0.004294399172067642
0.004426965489983559,0.007283354178071022,-0.00919305719435215,0.002685552230104804,-0.0,0.004476545378565788
0.004488611128181219,0.007288544438779354,-0.009060387499630451,0.0025173951871693134,-0.0,0.0044424086809158325
0.004281004890799522,0.007304374594241381,-0.009488990530371666,0.0024244519881904125,-0.0,0.00453305384144187
0.004521913826465607,0.007823964580893517,-0.008912701159715652,0.0025652849581092596,-0.0,0.004642372019588947
0.0043221102096140385,0.0074019362218678,-0.008846413344144821,0.0025445972569286823,-0.0,0.00470530753955245
0.004406982567161322,0.007170540746301413,-0.009207011200487614,0.0025014234706759453,-0.0,0.004697565920650959
0.004454473033547401,0.007254952099174261,-0.00893804244697094,0.0026580779813230038,-0.0,0.004368685185909271
0.004548821598291397,0.007591182831674814,-0.009193792007863522,0.0023842505179345608,-0.0,0.004474963527172804
0.004569572862237692,0.0075326720252633095,-0.009658345952630043,0.002307154703885317,-0.0,0.004536920227110386
0.004520999267697334,0.007416348438709974,-0.009222082793712616,0.002398843178525567,-0.0,0.004733778070658445
0.004722829908132553,0.008161443285644054,-0.00852549634873867,0.0023139810655266047,-0.0,0.005035317037254572
0.0049196770414710045,0.007886748760938644,-0.009528640657663345,0.002422878285869956,-0.0,0.004600699059665203
0.0047476207837462425,0.008041592314839363,-0.009852426126599312,0.00223038112744689,-0.0,0.0041313134133815765
0.004597913473844528,0.00796955730766058,-0.00904212985187769,0.0021167162340134382,-0.0,0.0042549436911940575
0.004777892027050257,0.007738099433481693,-0.009312939830124378,0.002324741566553712,-0.0,0.004500262904912233
0.004709198139607906,0.007583031430840492,-0.009181949310004711,0.00236609298735857,-0.0,0.004594122525304556
0.0044109392911195755,0.007447282783687115,-0.00980230700224638,0.0025375396944582462,-0.0,0.004793096333742142
0.0045905951410532,0.0074943965300917625,-0.009336796589195728,0.002601275686174631,-0.0,0.004886150360107422
0.004736386239528656,0.0075810616835951805,-0.00964457355439663,0.002371777780354023,-0.0,0.005028316285461187
0.004971311427652836,0.007687988691031933,-0.009358278475701809,0.0023313548881560564,-0.0,0.004378345794975758
0.004517221357673407,0.0075666713528335094,-0.009835387580096722,0.0023398662451654673,-0.0,0.004186497535556555
0.004273836500942707,0.007565012201666832,-0.009455371648073196,0.0025498676113784313,-0.0,0.004065783694386482
0.004273836500942707,0.007565012201666832,-0.009455371648073196,0.0025498676113784313,-0.0,0.004065783694386482
0.004913688637316227,0.007311205845326185,-0.010316137224435806,0.002116510411724448,-0.0,0.004667394794523716
0.004913688637316227,0.007311205845326185,-0.010316137224435806,0.002116510411724448,-0.0,0.004667394794523716
0.004887344315648079,0.008049972355365753,-0.009140116162598133,0.0019626605790108442,-0.0,0.004694848787039518
0.00487745925784111,0.008004424162209034,-0.009902059100568295,0.0020969838369637728,-0.0,0.00462210550904274
0.004958123434334993,0.00776124931871891,-0.00997151993215084,0.0022024009376764297,-0.0,0.0044559575617313385
0.004455171525478363,0.006914056837558746,-0.009430581703782082,0.0022464017383754253,-0.0,0.004316984210163355
0.004633829463273287,0.007281018886715174,-0.009201976470649242,0.002605472458526492,-0.0,0.004461581818759441
0.0050923763774335384,0.008197742514312267,-0.010373498313128948,0.0028471320401877165,-0.0,0.0046003637835383415
0.0049341898411512375,0.008215460926294327,-0.009708307683467865,0.002874709665775299,-0.0,0.004651964176446199
0.00481665413826704,0.007294868119060993,-0.01023192424327135,0.0026769733522087336,-0.0,0.0045335679315030575
0.004783035721629858,0.007222674787044525,-0.009575915522873402,0.002489299513399601,-0.0,0.004773179534822702
0.004969893489032984,0.0075348797254264355,-0.009375871159136295,0.002523771021515131,-0.0,0.00486005237326026
0.004860511515289545,0.007417552638798952,-0.009422939270734787,0.0023813785519450903,-0.0,0.005110050085932016
0.00484053697437048,0.007381217088550329,-0.009884541854262352,0.0025285801384598017,-0.0,0.005507126450538635
0.0053959679789841175,0.007494329009205103,-0.009912504814565182,0.0024070388171821833,-0.0,0.005243641324341297
0.005064217373728752,0.007741500623524189,-0.008982498198747635,0.002503389725461602,-0.0,0.0048568351194262505
0.004657324403524399,0.007578066550195217,-0.009655216708779335,0.002643197076395154,-0.0,0.004691306035965681
0.0050026061944663525,0.0075522661209106445,-0.009911900386214256,0.002824829425662756,-0.0,0.004712293855845928
0.004935535602271557,0.0077254148200154305,-0.009308218024671078,0.002688342472538352,-0.0,0.004770440980792046
0.0048500229604542255,0.007981657050549984,-0.009807799942791462,0.0026090971659868956,-0.0,0.004656321834772825
0.00509472843259573,0.007801722269505262,-0.008368948474526405,0.002553957048803568,-0.0,0.004963329527527094
0.0049387444742023945,0.006993574555963278,-0.009904499165713787,0.002709442051127553,-0.0,0.00493713840842247
0.0050810775719583035,0.008172949776053429,-0.00917082093656063,0.0025998391211032867,-0.0,0.004799839574843645
0.0050810775719583035,0.008172949776053429,-0.00917082093656063,0.0025998391211032867,-0.0,0.004799839574843645
0.005142651032656431,0.007657614070922136,-0.00978749617934227,0.002444422570988536,-0.0,0.004816845990717411
0.0052084061317145824,0.006855403073132038,-0.009710549376904964,0.002223217859864235,-0.0,0.004770541097968817
0.005140528082847595,0.007229425944387913,-0.00995663832873106,0.00230190297588706,-0.0,0.004591591656208038
0.005140528082847595,0.007229425944387913,-0.00995663832873106,0.00230190297588706,-0.0,0.004591591656208038
0.005799079313874245,0.007372657302767038,-0.010087747126817703,0.0021633245050907135,-0.0,0.0046326336450874805
0.005357484798878431,0.007114130537956953,-0.009671383537352085,0.0021624602377414703,-0.0,0.005076568108052015
0.005093574058264494,0.007133800070732832,-0.008913085795938969,0.002403055317699909,-0.0,0.005167227704077959
0.005629890598356724,0.007440580520778894,-0.009688225574791431,0.0025063552893698215,-0.0,0.005277813877910376
0.005253061186522245,0.007423114031553268,-0.009688257239758968,0.0024014778900891542,-0.0,0.005362654570490122
0.005351951811462641,0.007199886254966259,-0.00931735709309578,0.0022540937643498182,-0.0,0.005081242881715298
0.005133058875799179,0.00729813426733017,-0.009576846845448017,0.0022170187439769506,-0.0,0.004858548752963543
0.004925526212900877,0.007540472783148289,-0.009677274152636528,0.0024090076331049204,-0.0,0.004911801312118769
0.0057940129190683365,0.008057937026023865,-0.008838247507810593,0.002447702456265688,-0.0,0.0050881402567029
0.005610652267932892,0.007798612583428621,-0.009626349434256554,0.0023901970125734806,-0.0,0.0053462497889995575
0.005209124181419611,0.0069070616737008095,-0.009750131517648697,0.0024289547000080347,-0.0,0.005099961068481207
0.005004080943763256,0.007378871086984873,-0.008966839872300625,0.002561944304034114,-0.0,0.004890485666692257
0.005213906057178974,0.007937719114124775,-0.009338393807411194,0.002583959838375449,-0.0,0.004781364928930998
0.0054709529504179955,0.007493169512599707,-0.009428654797375202,0.0028472323901951313,-0.0,0.0048225270584225655
0.005528120789676905,0.008007021620869637,-0.00975180882960558,0.0025410617236047983,-0.0,0.005769771058112383
0.005020078271627426,0.007966323755681515,-0.009707729332149029,0.0024107194039970636,-0.0,0.005692374426871538
0.005152140744030476,0.00784369744360447,-0.009330043569207191,0.002123007783666253,-0.0,0.005156428087502718
0.005540459416806698,0.007604728918522596,-0.008905448950827122,0.002033552387729287,-0.0,0.0046851239167153835
0.005264802370220423,0.007484009955078363,-0.00925499852746725,0.002149911131709814,-0.0,0.0045903390273451805
0.005017706658691168,0.007952735759317875,-0.009629104286432266,0.002402709098532796,-0.0,0.004897720646113157
0.00578163331374526,0.007493127603083849,-0.009203381836414337,0.002479552524164319,-0.0,0.0050113569013774395
0.005447303876280785,0.007256357930600643,-0.008856088854372501,0.002543465932831168,-0.0,0.0051305717788636684
0.005336991045624018,0.007289326284080744,-0.009234098717570305,0.0025663103442639112,-0.0,0.005286920350044966
0.005336991045624018,0.007289326284080744,-0.009234098717570305,0.0025663103442639112,-0.0,0.005286920350044966
0.0055721537210047245,0.008157280273735523,-0.009176651015877724,0.0028233020566403866,-0.0,0.005223463289439678
0.005729740019887686,0.0074132950976490974,-0.009160089306533337,0.002679144963622093,-0.0,0.00539076142013073
0.0053954459726810455,0.008072610944509506,-0.008658893406391144,0.0026554951909929514,-0.0,0.005456683225929737
0.0053954459726810455,0.008072610944509506,-0.008658893406391144,0.0026554951909929514,-0.0,0.005456683225929737
0.0057169171050190926,0.007687725592404604,-0.009127842262387276,0.0024908247869461775,-0.0,0.005543287843465805
0.005431598983705044,0.007068559527397156,-0.009091141633689404,0.0023695745039731264,-0.0,0.005084793083369732
0.005717804655432701,0.007515692617744207,-0.008869637735188007,0.00239169062115252,-0.0,0.004597613587975502
0.005640053655952215,0.007644393481314182,-0.008973154239356518,0.00251074624247849,-0.0,0.0049087065272033215
0.005562920588999987,0.00801135040819645,-0.009212279692292213,0.0024505332112312317,-0.0,0.005544635467231274
0.005584443919360638,0.007968118414282799,-0.009201817214488983,0.002469845348969102,-0.0,0.005647031590342522
0.005656903143972158,0.007882439531385899,-0.009265465661883354,0.0023101079277694225,-0.0,0.005643043201416731
0.005325670354068279,0.007838627323508263,-0.009546995162963867,0.002387089654803276,-0.0,0.005072218365967274
0.0058003682643175125,0.007587957661598921,-0.009079801850020885,0.0025721080601215363,-0.0,0.004694530740380287
0.005709904711693525,0.007459885906428099,-0.008751312270760536,0.002783196745440364,-0.0,0.004609390627592802
0.005969266872853041,0.007497362792491913,-0.009486217983067036,0.0027915658429265022,-0.0,0.004950136877596378
0.005523509345948696,0.007830244489014149,-0.009001940488815308,0.0028837332502007484,-0.0,0.005466789938509464
0.00579505879431963,0.007362788077443838,-0.008820834569633007,0.00285716587677598,-0.0,0.005718621890991926
0.005965488962829113,0.007158617954701185,-0.009217575192451477,0.0025247212033718824,-0.0,0.0054589128121733665
0.0059071434661746025,0.007199282757937908,-0.009112069383263588,0.0025218843948096037,-0.0,0.005368025973439217
0.005968488287180662,0.007559597492218018,-0.008627912029623985,0.002507404424250126,-0.0,0.005011539440602064
0.005949091166257858,0.007038292475044727,-0.009904096834361553,0.00245259003713727,-0.0,0.005463852547109127
0.005925212986767292,0.007208782248198986,-0.00962147954851389,0.002586924470961094,-0.0,0.005328410305082798
0.006026847753673792,0.007441253867000341,-0.008512686938047409,0.0025327743496745825,-0.0,0.005027277860790491
0.00591388251632452,0.007442034315317869,-0.008877971209585667,0.002587679773569107,-0.0,0.004970623645931482
0.0060787382535636425,0.007339830510318279,-0.00989068578928709,0.002774957101792097,-0.0,0.004948156885802746
0.006770262494683266,0.007376012858003378,-0.009492704644799232,0.002770778024569154,-0.0,0.005075037945061922
0.006609747186303139,0.00738087622448802,-0.009113367646932602,0.002572895959019661,-0.0,0.00545987393707037
0.00556442653760314,0.007224022876471281,-0.009010283276438713,0.002657070057466626,-0.0,0.005524767562747002
0.005842920392751694,0.0074297054670751095,-0.008602233603596687,0.002815438900142908,-0.0,0.005449043586850166
0.005829031579196453,0.007063889876008034,-0.009427246637642384,0.0028826564084738493,-0.0,0.005570477806031704
0.005829031579196453,0.007063889876008034,-0.009427246637642384,0.0028826564084738493,-0.0,0.005570477806031704
0.005963223986327648,0.007368789985775948,-0.009001277387142181,0.002757858019322157,-0.0,0.005229542031884193
0.006516568828374147,0.0068326410837471485,-0.008600609377026558,0.002808168763294816,-0.0,0.005327260587364435
0.0061653414741158485,0.006722163874655962,-0.009415414184331894,0.002995820250362158,-0.0,0.005535913165658712
0.0062394714914262295,0.006853719241917133,-0.009459741413593292,0.003016653237864375,-0.0,0.006000061985105276
0.005675436928868294,0.007021182682365179,-0.008991340175271034,0.0028437450528144836,-0.0,0.00553496740758419
0.005867163650691509,0.006771337706595659,-0.009656473994255066,0.0028101010248064995,-0.0,0.005069423466920853
0.006254004780203104,0.006681593134999275,-0.009685308672487736,0.0027814069762825966,-0.0,0.005075151566416025
0.006212671287357807,0.006303169298917055,-0.009614162147045135,0.003024518257007003,-0.0,0.005488243419677019
0.006028914824128151,0.006882799789309502,-0.009199843741953373,0.0029556567315012217,-0.0,0.005504536908119917
0.006192966364324093,0.0069083478301763535,-0.00956331193447113,0.0031578594353049994,-0.0,0.005463419482111931
0.005927528254687786,0.006620307452976704,-0.00942155346274376,0.0029518958181142807,-0.0,0.005530016031116247
0.0064619299955666065,0.0067238714545965195,-0.009095550514757633,0.0027860195841640234,-0.0,0.005306749138981104
0.00604041013866663,0.006343022454530001,-0.009745911695063114,0.002602041931822896,-0.0,0.005111952777951956
0.005920429714024067,0.006512011401355267,-0.009328337386250496,0.002909634727984667,-0.0,0.0057301027700304985
0.006024139933288097,0.006349621806293726,-0.009945163503289223,0.003405274823307991,-0.0,0.005631831008940935
0.0059712422080338,0.0061750346794724464,-0.00992625392973423,0.003552039386704564,-0.0,0.005961755756288767
0.006459828000515699,0.006237630732357502,-0.00940073374658823,0.003417804604396224,-0.0,0.006099870894104242
0.006676387507468462,0.006693695671856403,-0.009154762141406536,0.003180375788360834,-0.0,0.005756402853876352
0.006095081102102995,0.006738248281180859,-0.010357224382460117,0.0029091688338667154,-0.0,0.0058643026277422905
0.005913862027227879,0.006418511271476746,-0.009562818333506584,0.0028766393661499023,-0.0,0.005460723768919706
0.006564473267644644,0.0061473120003938675,-0.009089813567698002,0.0028866897337138653,-0.0,0.005674869753420353
0.006749221123754978,0.006521843373775482,-0.00992624368518591,0.0028589360881596804,-0.0,0.005474442150443792
0.006280519068241119,0.0067122275941073895,-0.00983387604355812,0.0027432541828602552,-0.0,0.0058598825708031654
0.006219351198524237,0.0064054676331579685,-0.00956096313893795,0.002980629913508892,-0.0,0.006076192948967218
0.006219351198524237,0.0064054676331579685,-0.00956096313893795,0.002980629913508892,-0.0,0.006076192948967218
0.0071814414113759995,0.006128920242190361,-0.009684035554528236,0.0032296038698405027,-0.0,0.0056821322068572044
0.006544909905642271,0.00604684092104435,-0.009361621923744678,0.003097707871347666,-0.0,0.005666834302246571
0.006363744847476482,0.0064620072953403,-0.010178487747907639,0.002891816198825836,-0.0,0.006065267138183117
0.006277801003307104,0.006062689237296581,-0.00957912765443325,0.00287966919131577,-0.0,0.005723575130105019
0.0061774891801178455,0.005880007054656744,-0.009530614130198956,0.002846399787813425,-0.0,0.005814079195261002
0.006983467843383551,0.0060179526917636395,-0.010196139104664326,0.002857319777831435,-0.0,0.005690899211913347
0.0067041488364338875,0.006863228045403957,-0.009102294221520424,0.002880682237446308,-0.0,0.00571056641638279
0.0067133414559066296,0.006337876431643963,-0.008671389892697334,0.003119859378784895,-0.0,0.0056447722017765045
0.006758288014680147,0.006088773719966412,-0.010106238536536694,0.0032332558184862137,-0.0,0.006108763162046671
0.006537135690450668,0.006556570529937744,-0.010111311450600624,0.0032827688846737146,-0.0,0.005781418178230524
0.0067785740830004215,0.0065983072854578495,-0.009054114110767841,0.003047195030376315,-0.0,0.005792251322418451
0.006605735048651695,0.006360257975757122,-0.00966725591570139,0.0028015635907649994,-0.0,0.005826047156006098
0.006216052919626236,0.006438062526285648,-0.009871146641671658,0.002851960714906454,-0.0,0.005827621556818485
0.005989843513816595,0.006669430527836084,-0.009450471960008144,0.003132975660264492,-0.0,0.0061031123623251915
0.0065909079276025295,0.006134095601737499,-0.009230590425431728,0.0032033247407525778,-0.0,0.005860880948603153
0.0067640370689332485,0.006087921559810638,-0.010242687538266182,0.00302939023822546,-0.0,0.005738456733524799
0.006597104482352734,0.006754620932042599,-0.009921594522893429,0.0027761063538491726,-0.0,0.005880375392735004
0.006156613118946552,0.006334315519779921,-0.01012561097741127,0.0026620319113135338,-0.0,0.006147806067019701
0.0067199887707829475,0.006112521048635244,-0.009637437760829926,0.0028493450954556465,-0.0,0.006684246007353067
0.00705754105001688,0.006317357067018747,-0.009782915934920311,0.0032677173148840666,-0.0,0.006199371535331011
0.007082499098032713,0.006607909686863422,-0.010375406593084335,0.0032200482673943043,-0.0,0.005950108170509338
0.006903866771608591,0.0065857707522809505,-0.009748563170433044,0.003001057542860508,-0.0,0.005970054306089878
0.0065552289597690105,0.006395298521965742,-0.009973375126719475,0.0029499323572963476,-0.0,0.006046370603144169
0.00713388854637742,0.0061020213179290295,-0.01001070998609066,0.0030262204818427563,-0.0,0.006281731184571981
0.006835209205746651,0.0064894272945821285,-0.00940374843776226,0.003335959743708372,-0.0,0.006954240147024393
0.006803005002439022,0.006810132414102554,-0.009366155602037907,0.0032532226759940386,-0.0,0.006493949797004461
0.006803005002439022,0.006810132414102554,-0.009366155602037907,0.0032532226759940386,-0.0,0.006493949797004461
0.00649516424164176,0.00653697457164526,-0.009705288335680962,0.0030697283800691366,-0.0,0.005788810551166534
0.0072221592999994755,0.006025307346135378,-0.00954686850309372,0.003018083516508341,-0.0,0.006025504320859909
0.006656394340097904,0.006712326779961586,-0.009671472944319248,0.00338134728372097,-0.0,0.006793724372982979
0.006656394340097904,0.006712326779961586,-0.009671472944319248,0.00338134728372097,-0.0,0.006793724372982979
0.0070765200071036816,0.006305336952209473,-0.009545431472361088,0.003192732809111476,-0.0,0.0065744854509830475
0.007017356343567371,0.0062720682471990585,-0.00990547239780426,0.003390754107385874,-0.0,0.006583500653505325
0.0072491043247282505,0.0058856746181845665,-0.009358168579638004,0.0031549104023724794,-0.0,0.006386622320860624
0.006896787788718939,0.0064713903702795506,-0.009128110483288765,0.0033213163260370493,-0.0,0.006437795702368021
0.007368731778115034,0.00656821858137846,-0.00956922210752964,0.003561725141480565,-0.0,0.006326187867671251
0.006844655144959688,0.006073929835110903,-0.009290792979300022,0.003407790558412671,-0.0,0.005995779763907194
0.006971257738769054,0.006028374657034874,-0.009171489626169205,0.0030589522793889046,-0.0,0.006303754169493914
0.006795499473810196,0.006501929368823767,-0.010150709189474583,0.0030088822823017836,-0.0,0.006309911608695984
0.0067183151841163635,0.0074918996542692184,-0.01031638216227293,0.003336214693263173,-0.0,0.006477512884885073
0.007284629624336958,0.00668696966022253,-0.009067059494554996,0.0036309328861534595,-0.0,0.006486942060291767
0.007488985545933247,0.006188374478369951,-0.009703303687274456,0.003728739684447646,-0.0,0.0066794781014323235
0.00743454322218895,0.006300619337707758,-0.009909585118293762,0.0033373336773365736,-0.0,0.0068494705483317375
0.0069377971813082695,0.007248591631650925,-0.009476233273744583,0.0031041449401527643,-0.0,0.0068235620856285095
0.007238670252263546,0.006093814969062805,-0.009725306183099747,0.0032106118742376566,-0.0,0.006598437204957008
0.007238670252263546,0.006093814969062805,-0.009725306183099747,0.0032106118742376566,-0.0,0.006598437204957008
0.007175958249717951,0.0064051528461277485,-0.009143873117864132,0.0031227015424519777,-0.0,0.007233366370201111
0.007487951312214136,0.005886710714548826,-0.010010480880737305,0.0034603241365402937,-0.0,0.00729195773601532
0.007788924966007471,0.006455382332205772,-0.009724457748234272,0.003362206509336829,-0.0,0.0070734042674303055
0.007761288434267044,0.006574883125722408,-0.009268178604543209,0.003317968687042594,-0.0,0.007325182668864727
0.007054422050714493,0.006023641675710678,-0.010191375389695168,0.0033965865150094032,-0.0,0.007126954384148121
0.006872509606182575,0.006180229596793652,-0.00931165274232626,0.0033769949804991484,-0.0,0.007302263751626015
0.00720171956345439,0.00605921633541584,-0.00942535325884819,0.003226057393476367,-0.0,0.006903976667672396
0.0074144816026091576,0.006253685802221298,-0.00990570429712534,0.0033634628634899855,-0.0,0.006597421132028103
0.007354073226451874,0.006432130001485348,-0.009778019972145557,0.003183837281540036,-0.0,0.006916148122400045
0.007302948739379644,0.005762087181210518,-0.010964718647301197,0.0032396249007433653,-0.0,0.007001751568168402
0.007502016611397266,0.00584801472723484,-0.010106978937983513,0.004103748593479395,-0.0,0.007270777598023415
0.007502016611397266,0.00584801472723484,-0.010106978937983513,0.004103748593479395,-0.0,0.007270777598023415
0.0071468292735517025,0.00670203473418951,-0.010655234567821026,0.00357557344250381,-0.0,0.007177745923399925
0.0071468292735517025,0.00670203473418951,-0.010655234567821026,0.00357557344250381,-0.0,0.007177745923399925
0.006979247089475393,0.0061544193886220455,-0.009949537925422192,0.003330003237351775,-0.0,0.007288502063602209
0.0075463526882231236,0.006170854903757572,-0.009295783936977386,0.003263304941356182,-0.0,0.0074862269684672356
0.007416564505547285,0.006002470385283232,-0.010627061128616333,0.0034051118418574333,-0.0,0.007482606451958418
0.007093129213899374,0.006600833032280207,-0.010058681480586529,0.003615803085267544,-0.0,0.007616791874170303
0.00757528655230999,0.006826572585850954,-0.009418359026312828,0.0037744345609098673,-0.0,0.00703947339206934
0.007923006080091,0.005950541235506535,-0.00999942421913147,0.0035127270966768265,-0.0,0.00688139395788312
0.007803890388458967,0.0059159970842301846,-0.009864043444395065,0.0035142190754413605,-0.0,0.007155316416174173
0.007297172211110592,0.006185766309499741,-0.009662582539021969,0.0036145637277513742,-0.0,0.00754694314673543
0.007457496598362923,0.006351845804601908,-0.010129861533641815,0.0037028035148978233,-0.0,0.007454655133187771
0.007512677926570177,0.006106262560933828,-0.010342130437493324,0.0033605187200009823,-0.0,0.007282757665961981
0.008047875948250294,0.006160427816212177,-0.009323295205831528,0.003550334135070443,-0.0,0.007153964135795832
0.007768376264721155,0.005803581327199936,-0.009912478737533092,0.0037539582699537277,-0.0,0.007397245150059462
0.00838236790150404,0.006401135120540857,-0.010352011770009995,0.003778512589633465,-0.0,0.00739462673664093
0.007984872907400131,0.006772299762815237,-0.009586255066096783,0.003818074008449912,-0.0,0.007495699916034937
0.0077077653259038925,0.005931378807872534,-0.009902301244437695,0.0039057498797774315,-0.0,0.007108683697879314
0.007510425988584757,0.005815219599753618,-0.010186606086790562,0.003955153748393059,-0.0,0.0073386854492127895
0.00795650016516447,0.005866912193596363,-0.009725804440677166,0.003477484220638871,-0.0,0.007121209986507893
0.00807623378932476,0.0060553946532309055,-0.010087254457175732,0.003380879294127226,-0.0,0.00714355893433094
0.007632993161678314,0.006244111340492964,-0.009802906773984432,0.0033318116329610348,-0.0,0.0071265981532633305
0.007362270727753639,0.005896462127566338,-0.009786288253962994,0.0035197241231799126,-0.0,0.006998410448431969
0.008120176382362843,0.006233171559870243,-0.010382812470197678,0.0036494797095656395,-0.0,0.007172484416514635
0.008289950899779797,0.006034143269062042,-0.009701707400381565,0.003787463763728738,-0.0,0.007246844936162233
0.00785328820347786,0.0060822186060249805,-0.009992287494242191,0.003828975837677717,-0.0,0.0070757488720119
0.007784045767039061,0.006596724968403578,-0.01106986403465271,0.0037852348759770393,-0.0,0.007414636667817831
0.007784045767039061,0.006596724968403578,-0.01106986403465271,0.0037852348759770393,-0.0,0.007414636667817831
0.008033561520278454,0.005915347952395678,-0.010060425847768784,0.003733293153345585,-0.0,0.007501262705773115
0.007977987639605999,0.005913741420954466,-0.009716220200061798,0.0037737919483333826,-0.0,0.007465051952749491
0.00760434428229928,0.006132630631327629,-0.009671450592577457,0.0038977665826678276,-0.0,0.007620131131261587
0.008717776276171207,0.0063454206101596355,-0.01027838233858347,0.003533206647261977,-0.0,0.0073050567880272865
0.00801783800125122,0.005732316989451647,-0.01066701952368021,0.0034853576216846704,-0.0,0.007033084519207478
0.007877829484641552,0.0059411958791315556,-0.009908314794301987,0.004033875185996294,-0.0,0.007155919913202524
0.007984763011336327,0.006489207036793232,-0.010237010195851326,0.004416095558553934,-0.0,0.007554009556770325
0.008074973709881306,0.006620446220040321,-0.010794216766953468,0.004744022618979216,-0.0,0.007447098847478628
0.007890271954238415,0.006284773349761963,-0.009891766123473644,0.004379956983029842,-0.0,0.007342351600527763
0.00816347450017929,0.006248843390494585,-0.010186178609728813,0.004418753553181887,-0.0,0.007745090872049332
0.00833428930491209,0.006275660824030638,-0.010406572371721268,0.004110751207917929,-0.0,0.00890442356467247
0.008390712551772594,0.0060338834300637245,-0.010068382136523724,0.003936036489903927,-0.0,0.0078941835090518
0.00803640577942133,0.006410366389900446,-0.010674224235117435,0.003947412129491568,-0.0,0.006765319965779781
0.008366087451577187,0.006585197988897562,-0.010797814466059208,0.004063812084496021,-0.0,0.0068132346495985985
0.008564355783164501,0.0067182243801653385,-0.011157066561281681,0.004436238203197718,-0.0,0.00780084915459156
0.008138869889080524,0.006240655668079853,-0.010576179251074791,0.00450104009360075,-0.0,0.007714465260505676
0.007816487923264503,0.0063885897397994995,-0.010547597892582417,0.004343773704022169,-0.0,0.007736051455140114
0.008678671903908253,0.006565508898347616,-0.010556233115494251,0.003995504230260849,-0.0,0.007540521211922169
0.008491238579154015,0.0062987604178488255,-0.011331526562571526,0.004099161364138126,-0.0,0.007630935404449701
0.008002794347703457,0.006167239509522915,-0.010354982689023018,0.004075236152857542,-0.0,0.007508306298404932
0.008064579218626022,0.006209412589669228,-0.010650704614818096,0.0039966474287211895,-0.0,0.008095871657133102
0.008699196390807629,0.006147546228021383,-0.010471111163496971,0.004172614309936762,-0.0,0.00835316814482212
0.008394107222557068,0.006244136020541191,-0.01005847379565239,0.004261652007699013,-0.0,0.00809940043836832
0.008159265853464603,0.006127772852778435,-0.010820450261235237,0.003619892755523324,-0.0,0.007825585082173347
0.009144125506281853,0.006448154337704182,-0.01050616055727005,0.0035817502066493034,-0.0,0.007565926760435104
0.008653851225972176,0.00654459185898304,-0.010827391408383846,0.00424425071105361,-0.0,0.00794968567788601
0.008022690191864967,0.006624602247029543,-0.011075063608586788,0.004467965569347143,-0.0,0.007945923134684563
0.008022690191864967,0.006624602247029543,-0.011075063608586788,0.004467965569347143,-0.0,0.007945923134684563
0.00861793290823698,0.005758028011769056,-0.011744031682610512,0.004440882243216038,-0.0,0.008229643106460571
0.008685429580509663,0.006365993991494179,-0.010534092783927917,0.004640917759388685,-0.0,0.008106599561870098
0.008838537149131298,0.006150685716420412,-0.010468006134033203,0.004570927936583757,-0.0,0.008175916969776154
0.008977741003036499,0.006195127498358488,-0.012283163145184517,0.0046210018917918205,-0.0,0.008033530786633492
0.009329398162662983,0.0065531679429113865,-0.011411168612539768,0.004470483865588903,-0.0,0.007702496834099293
0.008632815442979336,0.006047281436622143,-0.00998715404421091,0.003971121273934841,-0.0,0.008052573539316654
0.009011640213429928,0.006093692500144243,-0.01029406487941742,0.004812260158360004,-0.0,0.008128848858177662
0.008666878566145897,0.006684488151222467,-0.010350546799600124,0.005181397311389446,-0.0,0.007929033599793911
0.008549956604838371,0.006436891853809357,-0.01034087035804987,0.00480265449732542,-0.0,0.008100287988781929
0.008740578778088093,0.005967324133962393,-0.011045897379517555,0.004123680293560028,-0.0,0.008290128782391548
0.008771980181336403,0.0061791627667844296,-0.01043389830738306,0.0038543585687875748,-1.6328406218235614e-06,0.00830788817256689
0.008608609437942505,0.006528024561703205,-0.01103807520121336,0.004421611316502094,-1.0661282345836298e-07,0.008397446945309639
0.009089704602956772,0.006391746457666159,-0.01115830335766077,0.005135839339345694,-6.961055731835586e-09,0.008391233161091805
0.00926444586366415,0.006228512618690729,-0.010224663652479649,0.005085465963929892,-4.545072096462377e-10,0.00819855835288763
0.008189581334590912,0.006156210787594318,-0.01067053060978651,0.0045352112501859665,-2.967607409809503e-11,0.00791874062269926
0.008943273685872555,0.005919330753386021,-0.01070176251232624,0.004336012993007898,-1.9376353820044212e-12,0.008204564452171326
0.009663259610533714,0.006357382517307997,-0.010025333613157272,0.004069986287504435,-1.2651374902122176e-13,0.008439846336841583
0.009336049668490887,0.006659276783466339,-0.010182561352849007,0.004166696220636368,-8.260444025575808e-15,0.008227511309087276
0.008805274032056332,0.006307569332420826,-0.011352574452757835,0.0045308200642466545,-5.393479644663797e-16,0.008068371564149857
0.009127338416874409,0.006287769414484501,-0.010506868362426758,0.004580778535455465,-3.52155701443874e-17,0.00889204628765583
0.009226024150848389,0.006331489887088537,-0.010559792630374432,0.004950262606143951,-2.2993249088567674e-18,0.00851468089967966
0.009060721844434738,0.006048567593097687,-0.010581803508102894,0.004969096276909113,-1.5012949424213268e-19,0.008606083691120148
0.009060721844434738,0.006048567593097687,-0.010581803508102894,0.004969096276909113,-1.5012949424213268e-19,0.008606083691120148
0.009265593253076077,0.006303342990577221,-0.011040992103517056,0.004839790519326925,-9.802381872231046e-21,0.00886466819792986
0.009185588918626308,0.005978751461952925,-0.010392122901976109,0.0043168929405510426,-4.178908919418529e-23,0.009233039803802967
0.009229623712599277,0.0061362870037555695,-0.010718629695475101,0.004646149463951588,-2.728529059487898e-24,0.008759218268096447
0.009593304246664047,0.006478478200733662,-0.010710041970014572,0.004815395455807447,-1.781534379105253e-25,0.008825773373246193
0.009834708645939827,0.006129707209765911,-0.011293783783912659,0.004626686219125986,-1.1632146166820496e-26,0.008616839535534382
0.009611494839191437,0.006074942648410797,-0.011596198193728924,0.004363694228231907,-7.594960106176966e-28,0.008811677806079388
0.00959861371666193,0.005843173712491989,-0.010415473021566868,0.004218245856463909,-4.9589662728308913e-29,0.009315083734691143
0.00924273207783699,0.0057486798614263535,-0.010235022753477097,0.00423943717032671,-3.237850476854093e-30,0.008894278667867184
0.00973774865269661,0.00616685813292861,-0.010677912272512913,0.004425357561558485,-2.114084977453865e-31,0.008991174399852753
0.010003147646784782,0.006248403340578079,-0.010399200022220612,0.005104103125631809,-1.380346428908943e-32,0.008984137326478958
0.009522580541670322,0.006135839037597179,-0.011166571639478207,0.005327898543328047,-9.012675899872755e-34,0.008809773251414299
0.009622746147215366,0.006149130407720804,-0.0110646802932024,0.005198476370424032,-5.884633200896208e-35,0.008764858357608318
0.010008012875914574,0.005907437764108181,-0.01047322154045105,0.004936861339956522,-3.8422454154422475e-36,0.009307506494224072
0.010209660977125168,0.006243834272027016,-0.011174625717103481,0.004647707100957632,-2.508711682140839e-37,0.009391550906002522
0.009965358301997185,0.006282770540565252,-0.010648293420672417,0.00476002087816596,-1.638009304164726e-38,0.009618105366826057
0.009937947615981102,0.005783157888799906,-0.010725829750299454,0.005297896917909384,-1.0695032178373799e-39,0.009112782776355743
0.009893888607621193,0.006111554801464081,-0.011128057725727558,0.005356647539883852,-6.983090637269861e-41,0.00954606756567955
0.010660480707883835,0.00584331713616848,-0.011043700389564037,0.005287942476570606,-4.559825202912955e-42,0.009088365361094475
0.010255790315568447,0.005965259857475758,-0.011217763647437096,0.004587836097925901,-2.970752744368612e-43,0.008900055661797523
0.0096958689391613,0.006223972421139479,-0.010409258306026459,0.0045134578831493855,-1.961817850054744e-44,0.009373531676828861
0.010375657118856907,0.005651069339364767,-0.010214690119028091,0.004535244777798653,-1.401298464324817e-45,0.010019377805292606
0.010375657118856907,0.005651069339364767,-0.010214690119028091,0.004535244777798653,-1.401298464324817e-45,0.010019377805292606
0.010463360697031021,0.005714107304811478,-0.010810360312461853,0.005523264408111572,-0.0,0.008966020308434963
0.010153377428650856,0.006386856082826853,-0.010859829373657703,0.00509105296805501,-0.0,0.008886351250112057
0.009883806109428406,0.006440571043640375,-0.011241559870541096,0.005126169882714748,-0.0,0.008845336735248566
0.011111457832157612,0.005940662231296301,-0.010709251277148724,0.004816336091607809,-0.0,0.01009155809879303
0.011111457832157612,0.005940662231296301,-0.010709251277148724,0.004816336091607809,-0.0,0.01009155809879303
0.009565604850649834,0.006398786325007677,-0.010808246210217476,0.005253218580037355,-3.453450062806951e-06,0.009527360089123249
0.009565604850649834,0.006398786325007677,-0.010808246210217476,0.005253218580037355,-3.453450062806951e-06,0.009527360089123249
0.010025793686509132,0.006688861642032862,-0.011651059612631798,0.005368185695260763,-9.989970567403361e-05,0.009750695899128914
0.010925253853201866,0.0060339742340147495,-0.011184697039425373,0.004973533563315868,-0.00010388961527496576,0.009547485038638115
0.010051426477730274,0.005736231338232756,-0.01065526157617569,0.004683631006628275,-0.00010194726928602904,0.00953246746212244
0.011199051514267921,0.005631152540445328,-0.010754689574241638,0.004654192831367254,-0.00011450509919086471,0.009533504955470562
0.011281265877187252,0.0062522562220692635,-0.010570353828370571,0.005047585815191269,-0.00011672952678054571,0.009488978423178196
0.012037834152579308,0.006593137048184872,-0.011342069134116173,0.005247342865914106,-0.0001145600326708518,0.009077319875359535
0.011398936621844769,0.005850065033882856,-0.011513929814100266,0.005214857403188944,-0.00012607121607288718,0.009456112049520016
0.010827885940670967,0.005786509718745947,-0.01086981501430273,0.004957470577210188,-0.0001279213174711913,0.009753087535500526
0.010997866280376911,0.005709454417228699,-0.011237530037760735,0.005211633630096912,-0.00012565782526507974,0.009723560884594917
0.011343458667397499,0.006208901759237051,-0.01158931478857994,0.005399842280894518,-0.0001232189533766359,0.009672614745795727
0.011134682223200798,0.006514252629131079,-0.011765701696276665,0.005770656745880842,-0.00012085636262781918,0.009399957954883575
0.011641629040241241,0.0059809088706970215,-0.011531083844602108,0.005872929934412241,-0.00011858154175570235,0.00894458033144474
0.011499125510454178,0.006192211993038654,-0.011215396225452423,0.005543784238398075,-0.00013191188918426633,0.009883793070912361
0.011984208598732948,0.005726682022213936,-0.01133212260901928,0.005475198850035667,-0.000130532804178074,0.009897087700664997
0.011612487025558949,0.006081155501306057,-0.010876107960939407,0.005308638326823711,-0.00012827343016397208,0.00989860575646162
0.011458364315330982,0.006129551213234663,-0.010630802251398563,0.005340432282537222,-0.0001260323915630579,0.010326494462788105
0.01174892857670784,0.0059655397199094296,-0.010963966138660908,0.0056569562293589115,-0.00012389665062073618,0.010336553677916527
0.011493578553199768,0.0060952408239245415,-0.010921791195869446,0.005442333873361349,-0.00024180114269256592,0.010688944719731808
0.011678917333483696,0.006271274760365486,-0.011425869539380074,0.00539949256926775,-0.00023719544697087258,0.01109931617975235
0.011600710451602936,0.0060538314282894135,-0.011318444274365902,0.005543524865061045,-0.00022582171368412673,0.010414622724056244
0.011679697781801224,0.006299689412117004,-0.011250016279518604,0.005376432090997696,-0.0002150610671378672,0.010544798336923122
0.011858014389872551,0.0057397689670324326,-0.011756950989365578,0.0057626571506261826,-0.00023556659289170057,0.010659953579306602
0.011067128740251064,0.00601802347227931,-0.010871860198676586,0.005996591877192259,-0.00023485455312766135,0.010237535461783409
0.011768183670938015,0.005728416610509157,-0.011097912676632404,0.006086449604481459,-0.00022566161351278424,0.010494515299797058
0.011410804465413094,0.006518641486763954,-0.011196338571608067,0.005104415118694305,-0.000208291647140868,0.00964994914829731
0.011763048358261585,0.00586813036352396,-0.011633622460067272,0.005211287178099155,-0.0002295387239428237,0.010679003782570362
0.011763048358261585,0.00586813036352396,-0.011633622460067272,0.005211287178099155,-0.0002295387239428237,0.010679003782570362
0.011698920279741287,0.005972194019705057,-0.01128692552447319,0.005568480584770441,-0.00022531027207151055,0.010528108105063438
0.012123783119022846,0.006317170336842537,-0.011020111851394176,0.005870315246284008,-0.0002177809801651165,0.010476330295205116
0.011990433558821678,0.006137877237051725,-0.01104235090315342,0.006126957945525646,-0.00021051954536233097,0.010863767936825752
0.012795613147318363,0.006420727353543043,-0.010835975408554077,0.005676828324794769,-0.00020371266873553395,0.010486818850040436
0.012025692500174046,0.005789065733551979,-0.011500127613544464,0.00577479787170887,-0.0001973312464542687,0.010277797468006611
0.01159599144011736,0.005897196009755135,-0.012192307971417904,0.006031611002981663,-0.00019133745809085667,0.009946606121957302
0.012415202334523201,0.00565532548353076,-0.011517336592078209,0.0058767241425812244,-0.0002104407612932846,0.009938673116266727
0.011928890831768513,0.005982950795441866,-0.01146910060197115,0.005988914053887129,-0.0002060318656731397,0.010152769275009632
0.012004481628537178,0.006470705382525921,-0.010858051478862762,0.005866560153663158,-0.00020040225354023278,0.010572230443358421
0.012130679562687874,0.005679355002939701,-0.011448743753135204,0.005975107196718454,-0.0001949817087734118,0.010620334185659885
0.011966094374656677,0.00580528425052762,-0.011898951604962349,0.006100196857005358,-0.00018984067719429731,0.010072011500597
0.012385914102196693,0.005560824181884527,-0.011471612378954887,0.006127168424427509,-0.0001851204433478415,0.010407160967588425
0.011742093600332737,0.006026462651789188,-0.012476504780352116,0.006114593241363764,-0.0001962397655006498,0.010250687599182129
0.012474236078560352,0.006277652457356453,-0.011966519057750702,0.006095332093536854,-0.00018924086180049926,0.010538230650126934
0.012639557011425495,0.005920552182942629,-0.011936841532588005,0.005997498519718647,-0.00019946137035731226,0.010437372140586376
0.012233501300215721,0.006047077011317015,-0.011814561672508717,0.006414252799004316,-0.0002083502331515774,0.010583896189928055
0.012000716291368008,0.005903305485844612,-0.011955413036048412,0.006305157672613859,-0.0002016529906541109,0.011263377964496613
0.012136167846620083,0.005965911317616701,-0.012656080536544323,0.005670563783496618,-0.00022256905504036695,0.009957412257790565
0.012964928522706032,0.006002021487802267,-0.011888218112289906,0.005739788990467787,-0.00021870860655326396,0.010261980816721916
0.012743931263685226,0.0057997615076601505,-0.01224589440971613,0.006090435665100813,-0.00022643306874670088,0.010609074495732784
0.012988518923521042,0.005950057879090309,-0.011959614232182503,0.006404890678822994,-0.00023299681197386235,0.010716177523136139
0.012847180478274822,0.005610431544482708,-0.01191574428230524,0.006502253003418446,-0.00022657144290860742,0.011085259728133678
0.013316703028976917,0.006003182847052813,-0.012269836850464344,0.005959768313914537,-0.00038797769229859114,0.011454381980001926
0.013163620606064796,0.006114503368735313,-0.012502351775765419,0.005899954587221146,-0.000379526405595243,0.011134407483041286
0.01284242607653141,0.005829581059515476,-0.013105375692248344,0.006515529938042164,-0.0004121215606573969,0.011214460246264935
0.012847852893173695,0.005904031451791525,-0.012624249793589115,0.0069675869308412075,-0.00036480152630247176,0.011456413194537163
0.01296976301819086,0.005958945490419865,-0.012548631057143211,0.006499466486275196,-0.0003417374682612717,0.011216600425541401
0.012687723152339458,0.006078547798097134,-0.012068748474121094,0.006497164722532034,-0.00037123513175174594,0.01095485407859087
0.013151027262210846,0.005735233426094055,-0.012062937952578068,0.006866954267024994,-0.00035364247742109,0.01132598053663969
0.012971733696758747,0.005686719436198473,-0.011848931200802326,0.0068467832170426846,-0.00033503948361612856,0.011491458863019943
0.013468820601701736,0.005291446577757597,-0.012873564846813679,0.006409589666873217,-0.00031812983797863126,0.011354835703969002
0.013468820601701736,0.005291446577757597,-0.012873564846813679,0.006409589666873217,-0.00031812983797863126,0.011354835703969002
0.013057632371783257,0.005761621054261923,-0.012738813646137714,0.0064157224260270596,-0.000302833883324638,0.011633134447038174
0.013340368866920471,0.00605139322578907,-0.012636210769414902,0.006915788631886244,-0.0002889412280637771,0.011502631939947605
0.01338766235858202,0.005852371919900179,-0.012112167663872242,0.0073532299138605595,-0.00027626752853393555,0.011741536669433117
0.013481267727911472,0.005769848357886076,-0.01208250317722559,0.007309083826839924,-0.0002974244416691363,0.011465663090348244
0.013439210131764412,0.005816804710775614,-0.01194669958204031,0.0072707319632172585,-0.000289942225208506,0.011548873037099838
0.013419656082987785,0.0045771184377372265,-0.011657207272946835,0.0075056483037769794,-0.0002789987192954868,0.01211793627589941
0.014016035944223404,0.004319448955357075,-0.012691725976765156,0.0075246794149279594,-0.0002686076913960278,0.012096714228391647
0.013640761375427246,0.004693607334047556,-0.012127804569900036,0.007452218793332577,-0.00025894661666825414,0.0117713063955307
0.013825682923197746,0.00517034949734807,-0.0121601028367877,0.00690462626516819,-0.00024395823129452765,0.011558596044778824
0.013647393323481083,0.005116749554872513,-0.012184632010757923,0.007853157818317413,-0.00023023363610263914,0.011501818895339966
0.013880079612135887,0.0052947052754461765,-0.012216532602906227,0.007966062985360622,-0.00021894685050938278,0.01217491365969181
0.013706326484680176,0.004572010133415461,-0.012259252369403839,0.007615238893777132,-0.000229179160669446,0.012258308008313179
0.014145397581160069,0.004652941133826971,-0.011739270761609077,0.007302102632820606,-0.0002380308578722179,0.012255517765879631
0.014010149985551834,0.005201177205890417,-0.012690654955804348,0.007713628467172384,-0.00025740088312886655,0.012027154676616192
0.01439707726240158,0.005019846372306347,-0.012234753929078579,0.007719526067376137,-0.0002738478942774236,0.01229847688227892
0.013588020578026772,0.004871286451816559,-0.012702509760856628,0.007568058557808399,-0.0002804839750751853,0.012506102211773396
0.014146022498607635,0.005054695066064596,-0.012101158499717712,0.007328630890697241,-0.0005001533427275717,0.012344298884272575
0.013879983685910702,0.0048499684780836105,-0.011913969181478024,0.0073140887543559074,-0.0005631234380416572,0.012770203873515129
0.014216824434697628,0.004925488959997892,-0.012498077005147934,0.007095827721059322,-0.0005971267237327993,0.012302486225962639
0.014418541453778744,0.004881463944911957,-0.01308631431311369,0.0070223151706159115,-0.0007606344297528267,0.012314174324274063
0.014418541453778744,0.004881463944911957,-0.01308631431311369,0.0070223151706159115,-0.0007606344297528267,0.012314174324274063
0.014604891650378704,0.005217157769948244,-0.012612100690603256,0.006774173118174076,-0.0008097922545857728,0.012795866467058659
0.014604891650378704,0.005217157769948244,-0.012612100690603256,0.006774173118174076,-0.0008097922545857728,0.012795866467058659
0.014386986382305622,0.005361566320061684,-0.012440009042620659,0.006923739332705736,-0.0007684669108130038,0.012772944755852222
0.015012132003903389,0.004951187409460545,-0.012425868771970272,0.007180242333561182,-0.0007300989236682653,0.012665058486163616
0.014416007325053215,0.004916077945381403,-0.012998794205486774,0.0071003069169819355,-0.0007379334419965744,0.012631836347281933
0.014837427996098995,0.005185561720281839,-0.012391321361064911,0.007143122144043446,-0.0006809572223573923,0.01297338679432869
0.014405740424990654,0.005120337009429932,-0.012619582004845142,0.0074560572393238544,-0.0006295914645306766,0.012989797629415989
0.015178652480244637,0.005350890569388866,-0.012026623822748661,0.007787075359374285,-0.0006574408034794033,0.013100472278892994
0.014640731737017632,0.0050028469413518906,-0.012557554990053177,0.007743815891444683,-0.0006770184845663607,0.012929575517773628
0.014988495968282223,0.004870185162872076,-0.012430623173713684,0.007662797346711159,-0.0006871155346743762,0.013802891597151756
0.014428230002522469,0.005392040126025677,-0.012422756291925907,0.007513473741710186,-0.0007749980431981385,0.012495605275034904
0.014879009686410427,0.005194247234612703,-0.012424499727785587,0.007607629988342524,-0.0008425692212767899,0.012203195132315159
0.015057334676384926,0.004882012959569693,-0.011830680072307587,0.007773510180413723,-0.0007912042201496661,0.012754545547068119
0.01520402729511261,0.005240288097411394,-0.012625448405742645,0.007969792000949383,-0.0008011262398213148,0.01314589288085699
0.01484838780015707,0.005134057253599167,-0.012110832147300243,0.007988397032022476,-0.0008051359909586608,0.013271712698042393
0.015225804410874844,0.005001428071409464,-0.01275143027305603,0.008015180937945843,-0.0008000960224308074,0.012997821904718876
0.015076412819325924,0.005069352686405182,-0.012505150400102139,0.008446753025054932,-0.000738575414288789,0.013461193069815636
0.015252945013344288,0.0049337102100253105,-0.012472584843635559,0.008491197600960732,-0.0007561535458080471,0.013244121335446835
0.015010692179203033,0.005210279021412134,-0.012467972002923489,0.00789694581180811,-0.0007736120605841279,0.013579572550952435
0.015260925516486168,0.005015203263610601,-0.01243026927113533,0.007823189720511436,-0.0007679049158468843,0.013412002474069595
0.015407086350023746,0.005120790097862482,-0.012492209672927856,0.008926869370043278,-0.0007191635086201131,0.013472041115164757
0.015480434522032738,0.005601759068667889,-0.011816246435046196,0.008673989214003086,-0.0008044908754527569,0.013464213348925114
0.016308603808283806,0.005218821577727795,-0.012659047730267048,0.007745001465082169,-0.0008219436276704073,0.012996998615562916
0.015515790320932865,0.0048996806144714355,-0.012360403314232826,0.0077592250891029835,-0.0008599205757491291,0.013000540435314178
0.016136419028043747,0.005277271848171949,-0.012735712341964245,0.007863796316087246,-0.00114883529022336,0.012830208986997604
0.015931840986013412,0.005141107365489006,-0.012682332657277584,0.008029400371015072,-0.0012286475393921137,0.013489095494151115
0.015698663890361786,0.005984437186270952,-0.012134639546275139,0.00728926807641983,-0.001475332654081285,0.013280363753437996
0.015017819590866566,0.0056052436120808125,-0.012322334572672844,0.007867756299674511,-0.0015397829702124,0.013559408485889435
0.016351433470845222,0.0053300135768949986,-0.013006904162466526,0.008037438616156578,-0.0011722141643986106,0.013924266211688519
0.016018962487578392,0.005157508887350559,-0.012774316594004631,0.007636801805347204,-0.0009884464088827372,0.013660082593560219
0.01631859503686428,0.005690067075192928,-0.01282547228038311,0.007678492926061153,-0.0009584882063791156,0.01396153960376978
0.01631859503686428,0.005690067075192928,-0.01282547228038311,0.007678492926061153,-0.0009584882063791156,0.01396153960376978
0.015876108780503273,0.005876899231225252,-0.01315999310463667,0.008305920287966728,-0.0008581129950471222,0.01387931127101183
0.01686219684779644,0.005556652322411537,-0.012734705582261086,0.008667170070111752,-0.0007022392237558961,0.014023343101143837
0.016180619597434998,0.004987157881259918,-0.013399983756244183,0.007882115431129932,-0.0005625811172649264,0.014054699800908566
0.01678854413330555,0.005464798305183649,-0.012793252244591713,0.00816858559846878,-0.0004968894645571709,0.014286614954471588
0.016424022614955902,0.005223923362791538,-0.013156727887690067,0.008287033997476101,-0.0004471978754736483,0.014158847741782665
0.01656131073832512,0.00601323414593935,-0.012607024051249027,0.008252572268247604,-0.0004067116242367774,0.013980693183839321
0.01683112420141697,0.006028167903423309,-0.01328999362885952,0.008789668790996075,-0.0003729655290953815,0.013877113349735737
0.01603589951992035,0.005705120507627726,-0.012060444802045822,0.008383034728467464,-0.00034439461887814105,0.013687752187252045
0.01645204797387123,0.005175943486392498,-0.013606332242488861,0.007977164350450039,-0.00036692028515972197,0.014082925394177437
0.016196664422750473,0.005804799497127533,-0.013507210649549961,0.007928027771413326,-0.0003572740824893117,0.01416784804314375
0.016880933195352554,0.005832286551594734,-0.01327631063759327,0.008859877474606037,-0.00033599205198697746,0.014162606559693813
0.01728714630007744,0.006301674991846085,-0.013191964477300644,0.008222809061408043,-0.0003163611690979451,0.014648303389549255
0.01698918454349041,0.0058322022669017315,-0.013776672072708607,0.007920650765299797,-0.0002988504129461944,0.014998105354607105
0.017154492437839508,0.0057118539698421955,-0.013985469937324524,0.007830113172531128,-0.0002831722958944738,0.014604141004383564
0.016787981614470482,0.005685620475560427,-0.013311752118170261,0.008101505227386951,-0.00026905862614512444,0.014579897746443748
0.01728237234055996,0.005832119844853878,-0.013571740128099918,0.00824601948261261,-0.000256284954957664,0.014526791870594025
0.017192097380757332,0.0056990766897797585,-0.013244124129414558,0.008616050705313683,-0.00027478611445985734,0.014750925824046135
0.017166292294859886,0.0056534758768975735,-0.01399861928075552,0.009358195587992668,-0.00027237655012868345,0.014587853103876114
0.01723846048116684,0.0054554445669054985,-0.013523503206670284,0.00911407358944416,-0.0002616799611132592,0.01439676620066166
0.01713600941002369,0.005528823938220739,-0.013781045563519001,0.009146904572844505,-0.0002512815117370337,0.014958612620830536
0.017985353246331215,0.005427655763924122,-0.013372005894780159,0.009483910165727139,-0.00024164428759831935,0.015362990088760853
0.01782522350549698,0.005949890706688166,-0.013933675363659859,0.009633517824113369,-0.00023271673126146197,0.01449745986610651
0.017626147717237473,0.006307252682745457,-0.013395344838500023,0.00949107389897108,-0.0002244257484562695,0.01466297172009945
0.01817256584763527,0.005623674485832453,-0.013634360395371914,0.009569641202688217,-0.0002167049824493006,0.015008846297860146
0.018064241856336594,0.005776981823146343,-0.013371368870139122,0.009697571396827698,-0.0002094976371154189,0.014878419227898121
0.017992233857512474,0.0063344212248921394,-0.013629828579723835,0.009363331831991673,-0.00019643225823529065,0.014871564693748951
0.01791149005293846,0.006304787006229162,-0.013565955683588982,0.009432444348931313,-0.00019049221009481698,0.015095742419362068
0.01791149005293846,0.006304787006229162,-0.013565955683588982,0.009432444348931313,-0.00019049221009481698,0.015095742419362068
0.01838936284184456,0.005955645348876715,-0.014240272343158722,0.009174230508506298,-0.000204464842681773,0.014927463605999947
0.018436171114444733,0.005919282790273428,-0.014043142087757587,0.009148298762738705,-0.00020484210108406842,0.015089043416082859
0.018011562526226044,0.005908060818910599,-0.013856695033609867,0.00928241852670908,-0.0001995687052840367,0.014987867325544357
0.01830236427485943,0.006014294922351837,-0.013985897414386272,0.008982790634036064,-0.00019421192700974643,0.014866012148559093
0.018214797601103783,0.0059891329146921635,-0.013811266049742699,0.009143096394836903,-0.00018911207735072821,0.014991536736488342
0.018398646265268326,0.005659001879394054,-0.013397559523582458,0.009212357923388481,-0.0001842718484112993,0.015293347649276257
0.018574701622128487,0.005637733265757561,-0.013891554437577724,0.009505094960331917,-0.0001796732103684917,0.0153466472402215
0.018482482060790062,0.005555349867790937,-0.013726001605391502,0.008813047781586647,-0.00017574040975887328,0.015678027644753456
0.018841801211237907,0.005667710676789284,-0.013895666226744652,0.008964817970991135,-0.0001313908287556842,0.01562688685953617
0.018727416172623634,0.005940241273492575,-0.013908888213336468,0.009317669086158276,-0.00012517356663011014,0.01561278197914362
0.018426213413476944,0.006055065896362066,-0.014114562422037125,0.009399371221661568,-0.00012162976781837642,0.015537106432020664
0.01887339912354946,0.0056678825058043,-0.014010248705744743,0.009644844569265842,-0.00011840956722153351,0.015654172748327255
0.019047746434807777,0.005696077831089497,-0.014254936017096043,0.009627102874219418,-0.00011537234968272969,0.01575157232582569
0.01882374845445156,0.006120595615357161,-0.013613448478281498,0.009564792737364769,-0.00011248807277297601,0.01595529168844223
0.01934734918177128,0.006099115125834942,-0.01409040205180645,0.009624820202589035,-0.00012601555499713868,0.01603512279689312
0.019111905246973038,0.006057209800928831,-0.013590903952717781,0.009339645504951477,-0.00012819819676224142,0.016018221154808998
0.018731284886598587,0.0058902353048324585,-0.014442428946495056,0.008900060318410397,-0.00012554497516248375,0.01605181396007538
0.019595537334680557,0.005787118803709745,-0.014074131846427917,0.00932982750236988,-0.00012272331514395773,0.01563437096774578
0.01966715045273304,0.006138540804386139,-0.014612951315939426,0.009553228504955769,-0.00012982264161109924,0.01613999903202057
0.01920051872730255,0.006145969964563847,-0.013883753679692745,0.009266465902328491,-0.00013629010936710984,0.01575055718421936
0.019418584182858467,0.006001523695886135,-0.014616591855883598,0.009144609794020653,-0.00013398908777162433,0.015798432752490044
0.020013295114040375,0.005794094409793615,-0.014324089512228966,0.009600214660167694,-0.0001312445820076391,0.015922825783491135
0.019046595320105553,0.005581424571573734,-0.014712437987327576,0.009744545444846153,-0.00012856913963332772,0.016010768711566925
0.02005111426115036,0.004803892225027084,-0.0142122283577919,0.009881819598376751,-0.00013934353773947805,0.016387173905968666
0.020052338019013405,0.005463613662868738,-0.014526981860399246,0.010430881753563881,-0.0001408703246852383,0.016973715275526047
0.020094409584999084,0.005311921238899231,-0.013992861844599247,0.009847822599112988,-0.00013843939814250916,0.016853969544172287
0.02023889310657978,0.0055882916785776615,-0.014106017537415028,0.009965883567929268,-0.000212829967495054,0.01617611199617386
0.02023889310657978,0.0055882916785776615,-0.014106017537415028,0.009965883567929268,-0.000212829967495054,0.01617611199617386
0.019534878432750702,0.005211828742176294,-0.014474118128418922,0.009700065478682518,-0.00021400210971478373,0.016282888129353523
0.0191800594329834,0.005360404960811138,-0.013976282440125942,0.009802195243537426,-0.0002050161565421149,0.0166875459253788
0.0198396947234869,0.005210507195442915,-0.014852695167064667,0.010330809280276299,-0.00021527988428715616,0.016476815566420555
0.02002427540719509,0.004975429270416498,-0.014079689979553223,0.009471449069678783,-0.00022421611356548965,0.01611895114183426
0.02009000815451145,0.005074131768196821,-0.014331229962408543,0.009679611772298813,-0.0002163987810490653,0.016154222190380096
0.02004249021410942,0.005017190705984831,-0.013997401110827923,0.010549054481089115,-0.00022509008704219013,0.01614684797823429
0.020094608888030052,0.005166162271052599,-0.014923135749995708,0.009729357436299324,-0.00023265658819582313,0.017260173335671425
0.019901398569345474,0.005436583422124386,-0.014205937273800373,0.009611077606678009,-0.00022537090990226716,0.01635107211768627
0.02091703750193119,0.005035694222897291,-0.014674042351543903,0.01019811350852251,-0.00021765143901575357,0.015811828896403313
0.02028779312968254,0.004522430244833231,-0.014043811708688736,0.010203744284808636,-0.000238411346799694,0.01665613241493702
0.019822148606181145,0.004335763864219189,-0.015055101364850998,0.010785709135234356,-0.00023253871768247336,0.016778361052274704
0.02021499164402485,0.004455365240573883,-0.014366273768246174,0.01074131391942501,-0.000289330433588475,0.0173107348382473
0.020463572815060616,0.00483569223433733,-0.014761457219719887,0.010675002820789814,-0.00032841929350979626,0.01698100008070469
0.020226316526532173,0.004596563056111336,-0.014626477845013142,0.011181057430803776,-0.00036329502472653985,0.01694551110267639
0.020099204033613205,0.004503039177507162,-0.01503268163651228,0.010721463710069656,-0.000347490276908502,0.01711219549179077
0.020683689042925835,0.004378472920507193,-0.015171119943261147,0.010514247231185436,-0.0003740440879482776,0.016861211508512497
0.0206417478621006,0.004573937505483627,-0.015055703930556774,0.010703997686505318,-0.0003591984568629414,0.016933204606175423
0.02049991488456726,0.0047652036882936954,-0.014816593378782272,0.009965979494154453,-0.0003402185975573957,0.016970662400126457
0.02064414508640766,0.004401456564664841,-0.015432093292474747,0.010253774002194405,-0.00032280856976285577,0.01722877472639084
0.02081865631043911,0.004441173747181892,-0.015150031074881554,0.010635617189109325,-0.0003394474333617836,0.0173628106713295
0.02073701284825802,0.004513110034167767,-0.015144753269851208,0.01067627314478159,-0.0003338735259603709,0.017419656738638878
0.020393019542098045,0.005069407634437084,-0.015117666684091091,0.010502359829843044,-0.0003213009040337056,0.017821723595261574
0.02091236226260662,0.004582091234624386,-0.015235990285873413,0.010488297790288925,-0.0003944234049413353,0.017626449465751648
0.020642366260290146,0.004438697826117277,-0.015376308932900429,0.01007969118654728,-0.0004323949688114226,0.017527442425489426
0.02069234289228916,0.004589907359331846,-0.015116224996745586,0.010728724300861359,-0.0004087708075530827,0.01799037866294384
0.02057868428528309,0.004676435608416796,-0.015799039974808693,0.010332612320780754,-0.0003805438755080104,0.01766996458172798
0.02093667723238468,0.004456944297999144,-0.01607007347047329,0.010760404169559479,-0.00038886527181603014,0.017819959670305252
0.02061324566602707,0.004379703663289547,-0.015719754621386528,0.010145093314349651,-0.000405045720981434,0.017983347177505493
0.02061324566602707,0.004379703663289547,-0.015719754621386528,0.010145093314349651,-0.000405045720981434,0.017983347177505493
0.020680585876107216,0.004655713215470314,-0.01643112115561962,0.01060827448964119,-0.00039490798371843994,0.018264416605234146
0.020956482738256454,0.004840522073209286,-0.015892770141363144,0.011088032275438309,-0.00046506000217050314,0.01776866428554058
0.020922290161252022,0.004780979361385107,-0.016256889328360558,0.010452673770487309,-0.0004493667802307755,0.01802637241780758
0.020672721788287163,0.0045345863327383995,-0.01612616889178753,0.010541802272200584,-0.0004499963251873851,0.018381139263510704
0.020703069865703583,0.0048393369652330875,-0.01576731726527214,0.01100114081054926,-0.0004486200341489166,0.01796138659119606
0.02189808338880539,0.004916897974908352,-0.016117187216877937,0.01020401157438755,-0.0004163698758929968,0.017684202641248703
0.02139052376151085,0.004737853538244963,-0.015643490478396416,0.01056336797773838,-0.0003866866754833609,0.017838850617408752
0.02140231616795063,0.004528219811618328,-0.01638239249587059,0.010304627940058708,-0.00041677075205370784,0.01804451271891594
0.021621374413371086,0.0045976461842656136,-0.016005782410502434,0.01056385412812233,-0.00039432354969903827,0.018109777942299843
0.021753396838903427,0.004696028772741556,-0.01662612147629261,0.011354670859873295,-0.00037131126737222075,0.01787785068154335
0.021665005013346672,0.004621371626853943,-0.016478069126605988,0.01097358949482441,-0.000397280789911747,0.018084734678268433
0.0215364471077919,0.004701168276369572,-0.016227182000875473,0.010704491287469864,-0.00037938178866170347,0.018254294991493225
0.02203277312219143,0.00493374140933156,-0.016264280304312706,0.010928208008408546,-0.0003605766105465591,0.017893187701702118
0.022524187341332436,0.004774013534188271,-0.016187019646167755,0.010864216834306717,-0.0003570987028069794,0.018560154363512993
0.022045381367206573,0.004666424822062254,-0.016697892919182777,0.011400463990867138,-0.0003363072464708239,0.019147979095578194
0.022229794412851334,0.00445957388728857,-0.016094977036118507,0.011298242956399918,-0.0003593347209971398,0.01890462078154087
0.021345190703868866,0.004883558489382267,-0.01657368429005146,0.011382547207176685,-0.0003503849729895592,0.018831612542271614
0.0218556746840477,0.005482993554323912,-0.016184108331799507,0.011471254751086235,-0.00032991060288622975,0.0190466046333313
0.02248396910727024,0.005311341490596533,-0.016517294570803642,0.011041941121220589,-0.0003362097486387938,0.019237719476222992
0.02259671315550804,0.004837519023567438,-0.01694590225815773,0.011117887683212757,-0.00034129907726310194,0.019183529540896416
0.02203858271241188,0.004698299337178469,-0.016438240185379982,0.01128136832267046,-0.00032520160311833024,0.019292104989290237
0.02257653698325157,0.004776539746671915,-0.016853148117661476,0.011257119476795197,-0.000341943436069414,0.019279632717370987
0.022857051342725754,0.00535085191950202,-0.01656491495668888,0.011696476489305496,-0.0003362211282365024,0.019294077530503273
0.02309231087565422,0.005561415571719408,-0.017106395214796066,0.011708268895745277,-0.00041929964208975434,0.019373277202248573
0.02277538552880287,0.005026601254940033,-0.017073236405849457,0.012165123596787453,-0.00046595686580985785,0.01985422521829605
0.02306419052183628,0.004872797057032585,-0.016776172444224358,0.012326917611062527,-0.0005015587084926665,0.01925305835902691
0.022886129096150398,0.004832082893699408,-0.015679625794291496,0.01234850287437439,-0.0004711967776529491,0.018940672278404236
0.022953849285840988,0.004734378773719072,-0.01638076640665531,0.012231108732521534,-0.00046857137931510806,0.019565140828490257
0.022953849285840988,0.004734378773719072,-0.01638076640665531,0.012231108732521534,-0.00046857137931510806,0.019565140828490257
0.02345900423824787,0.00496330950409174,-0.016672618687152863,0.012704676948487759,-0.00044165313011035323,0.019940664991736412
0.02366941049695015,0.005401682108640671,-0.016625963151454926,0.011915179900825024,-0.0004162309633102268,0.019771136343479156
0.023654824122786522,0.004773031920194626,-0.016487810760736465,0.01184637937694788,-0.0003948014636989683,0.019100690260529518
0.0233823973685503,0.005025036167353392,-0.016414469107985497,0.01268718484789133,-0.0004649538022931665,0.018820764496922493
0.023292910307645798,0.004937749821692705,-0.01694691739976406,0.011807573959231377,-0.00042799217044375837,0.019306274130940437
0.023709047585725784,0.004840882029384375,-0.016192395240068436,0.012065330520272255,-0.00039122291491366923,0.020458459854125977
0.023670613765716553,0.005073463544249535,-0.016611561179161072,0.012458782643079758,-0.00035993047640658915,0.020650189369916916
0.0234470646828413,0.005530581809580326,-0.016105642542243004,0.011930619366466999,-0.00039078848203644156,0.019718296825885773
0.023503249511122704,0.005035453476011753,-0.016512250527739525,0.012167268432676792,-0.0003717209037858993,0.0198921337723732
0.02461436204612255,0.005279731471091509,-0.016527146100997925,0.011689008213579655,-0.00039096715045161545,0.020395943894982338
0.023671653121709824,0.005259339697659016,-0.016086634248495102,0.01189506147056818,-0.0003806993772741407,0.020738068968057632
0.023869339376688004,0.005025121849030256,-0.016923289746046066,0.01154288649559021,-0.00039771024603396654,0.020304609090089798
0.024357860907912254,0.005298296920955181,-0.016361966729164124,0.011893068440258503,-0.0003881780430674553,0.01977173611521721
0.02413734793663025,0.005168571136891842,-0.01666802354156971,0.011764786206185818,-0.00040036329301074147,0.0192789938300848
0.02459377609193325,0.004855469800531864,-0.016228657215833664,0.011761266738176346,-0.0003785168519243598,0.01925061270594597
0.024900251999497414,0.005228530149906874,-0.01646406017243862,0.012262296862900257,-0.0004102214006707072,0.020155534148216248
0.02508598193526268,0.005025347229093313,-0.01662535034120083,0.011896224692463875,-0.00038893669261597097,0.020895343273878098
0.025128373876214027,0.004766759462654591,-0.01651569828391075,0.012266338802874088,-0.00041561370017006993,0.020709363743662834
0.02438439056277275,0.004992013331502676,-0.017165036872029305,0.01249021664261818,-0.00039661757182329893,0.02075779251754284
0.024709828197956085,0.005353429354727268,-0.01619553379714489,0.012348082847893238,-0.00041971317841671407,0.02088087797164917
0.02511971816420555,0.005133927334100008,-0.016680249944329262,0.012849181890487671,-0.0004025795788038522,0.020507775247097015
0.025578757748007774,0.004824173171073198,-0.016321029514074326,0.012765707448124886,-0.0005157560226507485,0.02052384614944458
0.025400374084711075,0.00504268566146493,-0.016815729439258575,0.012780572287738323,-0.0005517728859558702,0.020814789459109306
0.025794632732868195,0.004694291390478611,-0.016879672184586525,0.012625567615032196,-0.0005214586271904409,0.020757224410772324
0.025343134999275208,0.005073596723377705,-0.016325807198882103,0.01257207803428173,-0.0005506770103238523,0.02041533961892128
0.0255136676132679,0.005486227571964264,-0.01714652217924595,0.012511738575994968,-0.0005787493428215384,0.020861465483903885
0.025751186534762383,0.004691856913268566,-0.017158007249236107,0.012945644557476044,-0.0008058790699578822,0.020698685199022293
0.025934023782610893,0.005048990715295076,-0.01663699932396412,0.012522135861217976,-0.0008118086843751371,0.020883066579699516
0.025934023782610893,0.005048990715295076,-0.01663699932396412,0.012522135861217976,-0.0008118086843751371,0.020883066579699516
0.02618597075343132,0.005070684012025595,-0.016683535650372505,0.01283949427306652,-0.000731759937480092,0.02116224728524685
0.026405924931168556,0.005335598718374968,-0.01736774854362011,0.01257198117673397,-0.0006563451606780291,0.02116740122437477
0.02652730420231819,0.005151987541466951,-0.017268987372517586,0.013076783157885075,-0.000673181377351284,0.021075187250971794
0.02668575569987297,0.004868641495704651,-0.01757771708071232,0.012765643186867237,-0.0006219186470843852,0.021152526140213013
0.02711821161210537,0.005143400281667709,-0.016798224300146103,0.0129053620621562,-0.0005948053440079093,0.021105416119098663
0.027704166248440742,0.005110304336994886,-0.017369307577610016,0.012947196140885353,-0.000626386608928442,0.021192384883761406
0.02679816260933876,0.004946936387568712,-0.01785164140164852,0.012836093083024025,-0.000612642674241215,0.020808732137084007
0.025796012952923775,0.0051367930136621,-0.016895661130547523,0.012949868105351925,-0.000595969904679805,0.0211093220859766
0.026983728632330894,0.005090035032480955,-0.017253758385777473,0.012634850107133389,-0.0005846660933457315,0.021256543695926666
0.027319341897964478,0.005278907250612974,-0.0173844825476408,0.012517924420535564,-0.0005726098897866905,0.02114853449165821
0.026766343042254448,0.005448772571980953,-0.01811312511563301,0.01235224585980177,-0.0006395545788109303,0.020984269678592682
0.027324514463543892,0.0052069672383368015,-0.017990892753005028,0.01317583117634058,-0.0006750794127583504,0.020980561152100563
0.027635032311081886,0.005375190172344446,-0.017004985362291336,0.012849542312324047,-0.0007008337997831404,0.0212852880358696
0.027647731825709343,0.005140518769621849,-0.01759975589811802,0.012948378920555115,-0.000721205142326653,0.02173748053610325
0.027008019387722015,0.005390849430114031,-0.018098369240760803,0.012694156728684902,-0.0010225680889561772,0.021896621212363243
0.02659476548433304,0.005120151210576296,-0.01799795962870121,0.012575283646583557,-0.0010793262626975775,0.02187024988234043
0.027354523539543152,0.004854274448007345,-0.018033500760793686,0.0130523182451725,-0.0009579432662576437,0.021340861916542053
0.02815745584666729,0.005167563445866108,-0.017330428585410118,0.01268860511481762,-0.0009438241249881685,0.020811213180422783
0.028010547161102295,0.0049589853733778,-0.01755913719534874,0.013096429407596588,-0.000844469468574971,0.02093762718141079
0.027976300567388535,0.0047819712199270725,-0.017923036590218544,0.012619283981621265,-0.0007815592107363045,0.02197800949215889
0.02773384563624859,0.004698745906352997,-0.017571372911334038,0.013352050445973873,-0.0007849793182685971,0.022364215925335884
0.027987977489829063,0.004689178895205259,-0.018051104620099068,0.01260826364159584,-0.0007837555021978915,0.02185930125415325
0.02769656293094158,0.004691108129918575,-0.018287502229213715,0.013105438090860844,-0.0007703489973209798,0.022384563460946083
0.027695264667272568,0.004757543094456196,-0.018052522093057632,0.013244817033410072,-0.0007632123888470232,0.022602634504437447
0.028058255091309547,0.004669562913477421,-0.017713826149702072,0.013347800821065903,-0.000660629419144243,0.022505925968289375
0.028163235634565353,0.004696671385318041,-0.018104732036590576,0.013346746563911438,-0.0006830623606219888,0.022051703184843063
0.028163235634565353,0.004696671385318041,-0.018104732036590576,0.013346746563911438,-0.0006830623606219888,0.022051703184843063
0.027985138818621635,0.004735165741294622,-0.018337445333600044,0.013412481173872948,-0.0006124736974015832,0.021900391206145287
0.0277468953281641,0.00434073293581605,-0.017617732286453247,0.01360673364251852,-0.0006174395675770938,0.02219405025243759
0.02803073823451996,0.004357780329883099,-0.0180069487541914,0.013956299051642418,-0.0005810876609757543,0.023085400462150574
0.02847941778600216,0.004692521411925554,-0.018191760405898094,0.01289460901170969,-0.0005988900666125119,0.02325163222849369
0.027996648102998734,0.004809507168829441,-0.018112538382411003,0.013484657742083073,-0.0005634662811644375,0.02315964736044407
0.027684073895215988,0.004955808632075787,-0.018421297892928123,0.013187700882554054,-0.000555310514755547,0.022723708301782608
0.026866480708122253,0.005085645243525505,-0.018126362934708595,0.013317896984517574,-0.0006100054597482085,0.022656071931123734
0.028761358931660652,0.004823768511414528,-0.018050527200102806,0.012659874744713306,-0.0006380288396030664,0.0227163378149271
0.029156425967812538,0.004739619791507721,-0.018255576491355896,0.01316763274371624,-0.0006071923417039216,0.022712169215083122
0.029469342902302742,0.0046330830082297325,-0.018017465248703957,0.013122164644300938,-0.0008543322328478098,0.022702526301145554
0.028145842254161835,0.00475859921425581,-0.01889020763337612,0.013202066533267498,-0.0008642832981422544,0.02296712063252926
0.0276874341070652,0.004812882747501135,-0.018301114439964294,0.013280139304697514,-0.0007607779698446393,0.022772902622818947
0.028500812128186226,0.004695323295891285,-0.017658943310379982,0.013244475238025188,-0.000770699989516288,0.023056507110595703
0.029413966462016106,0.004381974693387747,-0.018383141607046127,0.013541447930037975,-0.000692644331138581,0.02290043979883194
0.02860996313393116,0.004089513793587685,-0.01843925192952156,0.013539831154048443,-0.000701087701600045,0.022973187267780304
0.02875310555100441,0.004460949916392565,-0.018038928508758545,0.013921546749770641,-0.0006552170962095261,0.023360710591077805
0.028878124430775642,0.004665358457714319,-0.01837979443371296,0.013564851135015488,-0.0006293329643085599,0.023131733760237694
0.029405290260910988,0.0043823327869176865,-0.01812141202390194,0.014328699558973312,-0.0006563020870089531,0.023650839924812317
0.028763459995388985,0.004556390922516584,-0.018631204962730408,0.01374744437634945,-0.0006368844769895077,0.022719044238328934
0.028319722041487694,0.004532878287136555,-0.01857025735080242,0.014069443568587303,-0.0006582351634278893,0.02272081933915615
0.02912898361682892,0.00465357257053256,-0.017857244238257408,0.01373727060854435,-0.0008531328057870269,0.023204950615763664
0.029414964839816093,0.00427915109321475,-0.018722020089626312,0.01481291837990284,-0.0008796200272627175,0.023443439975380898
0.029497547075152397,0.004467496648430824,-0.01845867745578289,0.013760543428361416,-0.0008669021772220731,0.023552516475319862
0.029420942068099976,0.004482874646782875,-0.018693415448069572,0.013478532433509827,-0.0007948820712044835,0.02345210313796997
0.029314599931240082,0.00445633614435792,-0.019389374181628227,0.014161081984639168,-0.0007797363214194775,0.023695960640907288
0.029095347970724106,0.004389265552163124,-0.018630387261509895,0.014522441662847996,-0.0008033373742364347,0.023584844544529915
0.029254218563437462,0.004375362303107977,-0.019147340208292007,0.014158442616462708,-0.0008165097096934915,0.02382008545100689
0.02958386205136776,0.0042524198070168495,-0.01903512515127659,0.014696376398205757,-0.00081263342872262,0.02400043234229088
0.02953662909567356,0.004524041432887316,-0.018462395295500755,0.015020851977169514,-0.0008675448480062187,0.023755909875035286
0.02953662909567356,0.004524041432887316,-0.018462395295500755,0.015020851977169514,-0.0008675448480062187,0.023755909875035286
0.03001890517771244,0.004398185759782791,-0.019280267879366875,0.014545585960149765,-0.0008336379542015493,0.02402682788670063
0.03001890517771244,0.004398185759782791,-0.019280267879366875,0.014545585960149765,-0.0008336379542015493,0.02402682788670063
0.03013049066066742,0.005083733703941107,-0.019459594041109085,0.014070750214159489,-0.0008180969743989408,0.023763317614793777
0.02809501439332962,0.005030693486332893,-0.019243504852056503,0.01437772624194622,-0.0008262892952188849,0.02378043346107006
0.03031933680176735,0.0043490370735526085,-0.018834270536899567,0.014008548110723495,-0.0007711108773946762,0.02385682798922062
0.029984667897224426,0.004276754800230265,-0.019372789189219475,0.014660551212728024,-0.0008082565618678927,0.023789141327142715
0.02980843558907509,0.004514877684414387,-0.0200185589492321,0.01413488108664751,-0.0007616794900968671,0.023723432794213295
0.029757771641016006,0.004544164519757032,-0.01903284713625908,0.014400949701666832,-0.0007748439093120396,0.024570709094405174
0.030271828174591064,0.0049127801321446896,-0.018871966749429703,0.013898786157369614,-0.0007816632860340178,0.024819327518343925
0.029968447983264923,0.0048655057325959206,-0.019961845129728317,0.01442738901823759,-0.0008025403949432075,0.02381264418363571
0.029923826456069946,0.004685425199568272,-0.01934346742928028,0.014118469320237637,-0.0007552693132311106,0.02335529588162899
0.030467316508293152,0.0042615304701030254,-0.018400128930807114,0.01463244017213583,-0.0007718520937487483,0.023819921538233757
0.03029916249215603,0.004405837040394545,-0.019043022766709328,0.01439308375120163,-0.0007367788930423558,0.024508263915777206
0.029934344813227654,0.004351360257714987,-0.019564535468816757,0.014777039177715778,-0.0007033203728497028,0.024332184344530106
0.030640900135040283,0.004531438462436199,-0.019580328837037086,0.014535916037857533,-0.0006354914512485266,0.02421843819320202
0.030848555266857147,0.0045970892533659935,-0.019519386813044548,0.015472338534891605,-0.000648429908324033,0.02511441335082054
0.030524419620633125,0.004730790387839079,-0.01905094087123871,0.015151415951550007,-0.0006036804406903684,0.02563268132507801
0.03050074726343155,0.004641091916710138,-0.018943659961223602,0.015333547256886959,-0.000555208302102983,0.02496759407222271
0.030426081269979477,0.004624726716428995,-0.0195429939776659,0.014837491326034069,-0.0004944682004861534,0.022719066590070724
0.030426081269979477,0.004624726716428995,-0.0195429939776659,0.014837491326034069,-0.0004944682004861534,0.022719066590070724
0.03213619440793991,0.0043190293945372105,-0.019155841320753098,0.014816973358392715,-0.00046465740888379514,0.025180038064718246
0.03213619440793991,0.0043190293945372105,-0.019155841320753098,0.014816973358392715,-0.00046465740888379514,0.025180038064718246
0.030618399381637573,0.004854070022702217,-0.019072730094194412,0.015343007631599903,-0.0004443046054802835,0.02447652630507946
0.03196791559457779,0.0046746619045734406,-0.019580110907554626,0.015222235582768917,-0.00046836643014103174,0.024555420503020287
0.03196791559457779,0.0046746619045734406,-0.019580110907554626,0.015222235582768917,-0.00046836643014103174,0.024555420503020287
0.031322870403528214,0.004682039376348257,-0.01934141479432583,0.015440534800291061,-0.00044849832192994654,0.02475660666823387
0.03200453519821167,0.004210757091641426,-0.01900266483426094,0.015624383464455605,-0.0004844696377404034,0.025116126984357834
0.032279398292303085,0.004416635725647211,-0.019547894597053528,0.015257183462381363,-0.0005185490008443594,0.025116203352808952
0.031540580093860626,0.004666928667575121,-0.019633285701274872,0.01554157491773367,-0.0005523012368939817,0.02488132007420063
0.03130508214235306,0.004846236202865839,-0.018906131386756897,0.01544209010899067,-0.0005713445134460926,0.024932581931352615
0.031031835824251175,0.004504095762968063,-0.01935518905520439,0.0160446148365736,-0.0005455147475004196,0.025115108117461205
0.03223105147480965,0.0044555626809597015,-0.019411349669098854,0.015577290207147598,-0.0007222405401989818,0.025099683552980423
0.03226771205663681,0.004159921780228615,-0.019202593713998795,0.015890344977378845,-0.0006516898865811527,0.02507464773952961
0.0313294492661953,0.004439420998096466,-0.01966065913438797,0.015763359144330025,-0.0006541131879203022,0.02538035437464714
0.03243016451597214,0.00442969286814332,-0.019407201558351517,0.016076071187853813,-0.0006060670129954815,0.025018054991960526
0.03185776248574257,0.0048723379150033,-0.018636904656887054,0.01566828042268753,-0.0006307923467829823,0.025388311594724655
0.0317612923681736,0.004806607961654663,-0.01945841684937477,0.015521633438766003,-0.000649666297249496,0.025417542085051537
0.032125890254974365,0.004374917130917311,-0.01964230090379715,0.015664247795939445,-0.0006747315055690706,0.02583906054496765
0.03267420083284378,0.004504467360675335,-0.019087594002485275,0.015264037996530533,-0.0007102188537828624,0.025558946654200554
0.03220951557159424,0.004451367072761059,-0.019423652440309525,0.01572517305612564,-0.0007257114630192518,0.026137659326195717
0.03236112371087074,0.0042068613693118095,-0.019318995997309685,0.0155777707695961,-0.0006621733773499727,0.025820018723607063
0.032741378992795944,0.004422166384756565,-0.019129890948534012,0.016330353915691376,-0.0006736578070558608,0.02582748606801033
0.03273650258779526,0.004674884490668774,-0.01954474300146103,0.015999464318156242,-0.0007088427664712071,0.02548413723707199
0.032394904643297195,0.004753407556563616,-0.019599849358201027,0.015820404514670372,-0.0006863257731311023,0.025590788573026657
0.03204554319381714,0.004454324021935463,-0.01880304329097271,0.015569495968520641,-0.0006002442096360028,0.025936320424079895
0.03204554319381714,0.004454324021935463,-0.01880304329097271,0.015569495968520641,-0.0006002442096360028,0.025936320424079895
0.03361004963517189,0.004271185025572777,-0.01953526772558689,0.01595662720501423,-0.0006279032677412033,0.027045000344514847
0.0324728861451149,0.004389046225696802,-0.018941253423690796,0.016272449865937233,-0.0005939506227150559,0.026042480021715164
0.03353727608919144,0.004619417246431112,-0.019487163051962852,0.015316370874643326,-0.0005733703728765249,0.026187801733613014
0.03353727608919144,0.004619417246431112,-0.019487163051962852,0.015316370874643326,-0.0005733703728765249,0.026187801733613014
0.033063407987356186,0.004265590105205774,-0.019357096403837204,0.01501784473657608,-0.0004965122207067907,0.026223016902804375
0.03403135761618614,0.004391486756503582,-0.019232677295804024,0.015697795897722244,-0.00045001442776992917,0.026192892342805862
0.03455810621380806,0.004551100078970194,-0.019008202478289604,0.015430903993546963,-0.00040924566565081477,0.027183735743165016
0.03263304382562637,0.0045612892135977745,-0.020002610981464386,0.016167445108294487,-0.00044478484778665006,0.02649797312915325
0.03263304382562637,0.0045612892135977745,-0.020002610981464386,0.016167445108294487,-0.00044478484778665006,0.02649797312915325
0.033042434602975845,0.0043070949614048,-0.020928530022501945,0.01652410440146923,-0.00044867079122923315,0.02620772086083889
0.03428999334573746,0.004383414518088102,-0.01952802576124668,0.017114022746682167,-0.0004477039910852909,0.026095259934663773
0.033793382346630096,0.004487974103540182,-0.019256241619586945,0.0173031035810709,-0.00047172236372716725,0.026113897562026978
0.033281292766332626,0.004616310819983482,-0.019703570753335953,0.016755854710936546,-0.0004494742606766522,0.027399351820349693
0.03432793170213699,0.004428958520293236,-0.019638707861304283,0.01688726618885994,-0.0005084720905870199,0.027737075462937355
0.03420901298522949,0.004542104434221983,-0.019997378811240196,0.0166628435254097,-0.00048390214215032756,0.0272638201713562
0.034053269773721695,0.004435029812157154,-0.020629020407795906,0.01690598763525486,-0.0005141841829754412,0.0272081159055233
0.03416711091995239,0.00484851747751236,-0.02022935450077057,0.017136240378022194,-0.00047892454313114285,0.02739758975803852
0.034282173961400986,0.004323170520365238,-0.019440816715359688,0.017214763909578323,-0.0005087050376459956,0.027133403345942497
0.034473344683647156,0.0044654239900410175,-0.020318588241934776,0.01768418587744236,-0.0005334219895303249,0.027309879660606384
0.03442811593413353,0.004676317796111107,-0.020574720576405525,0.017348390072584152,-0.0005055898800492287,0.02757364697754383
0.0349915586411953,0.004392736125737429,-0.02065085433423519,0.017393797636032104,-0.0006084676133468747,0.027799280360341072
0.03460715711116791,0.00443376274779439,-0.020579900592565536,0.0173597764223814,-0.0005982178845442832,0.02730046585202217
0.03457991033792496,0.004488272126764059,-0.02050028182566166,0.016991520300507545,-0.0005811576265841722,0.02722855657339096
0.03554966673254967,0.0046149808913469315,-0.019472699612379074,0.01741580292582512,-0.0005274421419017017,0.02728993259370327
0.03475514426827431,0.004730310291051865,-0.02034701034426689,0.016691148281097412,-0.0005393240135163069,0.027355467900633812
0.03414259850978851,0.0043052262626588345,-0.019473200663924217,0.01633203588426113,-0.000513488776050508,0.027698131278157234
0.03568187728524208,0.004213397391140461,-0.020510941743850708,0.015514055266976357,-0.0005257980665192008,0.0279335156083107
0.03578413277864456,0.004775626119226217,-0.02064553275704384,0.01569482311606407,-0.0005045300931669772,0.02781512774527073
0.03578413277864456,0.004775626119226217,-0.02064553275704384,0.01569482311606407,-0.0005045300931669772,0.02781512774527073
0.03515522554516792,0.004963221959769726,-0.020625794306397438,0.016713015735149384,-0.0004524042014963925,0.028232650831341743
0.03534134849905968,0.004408848937600851,-0.020195724442601204,0.01735331490635872,-0.00041598218376748264,0.027943294495344162
0.03545759245753288,0.004121322650462389,-0.020522627979516983,0.01705090142786503,-0.0004467802355065942,0.028147654607892036
0.035691577941179276,0.003995149862021208,-0.020842188969254494,0.01706375740468502,-0.00045157247222959995,0.02844144031405449
0.035691577941179276,0.003995149862021208,-0.020842188969254494,0.01706375740468502,-0.00045157247222959995,0.02844144031405449
0.03555169329047203,0.004378847312182188,-0.02042301557958126,0.017058422788977623,-0.0004250775382388383,0.028450265526771545
0.03540182113647461,0.004072688054293394,-0.02058515138924122,0.017541702836751938,-0.0004513961903285235,0.027970630675554276
0.03712634742259979,0.0041143158450722694,-0.020622774958610535,0.017655542120337486,-0.0005027930601499975,0.02894113026559353
0.036505624651908875,0.0041954414919018745,-0.020754048600792885,0.017764434218406677,-0.0005533980438485742,0.02908061072230339
0.036505624651908875,0.0041954414919018745,-0.020754048600792885,0.017764434218406677,-0.0005533980438485742,0.02908061072230339
0.03460978344082832,0.00421485211700201,-0.02135305665433407,0.017417263239622116,-0.0005877187359146774,0.029637573286890984
0.03505542129278183,0.004041655454784632,-0.021069983020424843,0.01761106215417385,-0.0005955830565653741,0.02907566912472248
0.036018721759319305,0.003853909205645323,-0.02085142768919468,0.01715855859220028,-0.0007775964331813157,0.02797599881887436
0.03614793345332146,0.0037732496857643127,-0.021029386669397354,0.0175330750644207,-0.0009406154276803136,0.02779715694487095
0.03749212995171547,0.003762762760743499,-0.021054156124591827,0.017706912010908127,-0.0008419608930125833,0.029105503112077713
0.03739975020289421,0.004078064579516649,-0.0214979350566864,0.01766864024102688,-0.0008435022318735719,0.028890131041407585
0.03538176044821739,0.0038583260029554367,-0.021296048536896706,0.01817007176578045,-0.0008017903892323375,0.02887515351176262
0.035585686564445496,0.0034297031816095114,-0.021299220621585846,0.017622655257582664,-0.0007630636100657284,0.029945874586701393
0.03676940128207207,0.003455775324255228,-0.021386580541729927,0.017744893208146095,-0.000727001519408077,0.02944641374051571
0.037235647439956665,0.0033626453951001167,-0.02151544578373432,0.0181503277271986,-0.0007024940568953753,0.028693387284874916
0.03680475056171417,0.003519415855407715,-0.021037278696894646,0.017716271802783012,-0.0006702726241201162,0.027946921065449715
0.036946650594472885,0.0036963995080441236,-0.02133510634303093,0.017917966470122337,-0.0006919780862517655,0.02870451658964157
0.03708426654338837,0.003726863069459796,-0.021728752180933952,0.01757166162133217,-0.0007124966359697282,0.03031342662870884
0.037377387285232544,0.003787295427173376,-0.021192530170083046,0.01753615215420723,-0.000822327274363488,0.030346114188432693
0.036810312420129776,0.0034193373285233974,-0.021473530679941177,0.01793747767806053,-0.0008533157524652779,0.030048398301005363
0.0369347408413887,0.0035019253846257925,-0.02177635207772255,0.01806722953915596,-0.0008608886273577809,0.029943043366074562
0.037666261196136475,0.0036260178312659264,-0.022353125736117363,0.018370170146226883,-0.0008582318550907075,0.029699265956878662
0.036846306174993515,0.003688791999593377,-0.021477026864886284,0.01905934326350689,-0.0008624863112345338,0.029492396861314774
0.036846306174993515,0.003688791999593377,-0.021477026864886284,0.01905934326350689,-0.0008624863112345338,0.029492396861314774
0.03750211000442505,0.003675757674500346,-0.02140253782272339,0.018181199207901955,-0.0008734564762562513,0.029929328709840775
0.036645591259002686,0.0032807127572596073,-0.021765556186437607,0.018056664615869522,-0.0009104684577323496,0.029750701040029526
0.03624793887138367,0.0033521035220474005,-0.021738549694418907,0.01765606552362442,-0.0009531721007078886,0.029377000406384468
0.03738163039088249,0.003665862139314413,-0.02179901674389839,0.01829705387353897,-0.0010111879091709852,0.029882414266467094
0.03811109811067581,0.00417265435680747,-0.021963734179735184,0.019118010997772217,-0.0008890024037100375,0.030394572764635086
0.03811109811067581,0.00417265435680747,-0.021963734179735184,0.019118010997772217,-0.0008890024037100375,0.030394572764635086
0.03781707584857941,0.003937010653316975,-0.022178050130605698,0.019362673163414,-0.000878482183907181,0.030421586707234383
0.03615717962384224,0.003825073828920722,-0.022487157955765724,0.018757296726107597,-0.0008242478361353278,0.03145913407206535
0.03646041080355644,0.003785810898989439,-0.02215036004781723,0.01877385564148426,-0.0008339830092154443,0.030459759756922722
0.03774576261639595,0.004269111435860395,-0.02279418148100376,0.019839631393551826,-0.0008431537426076829,0.030377909541130066
0.038306742906570435,0.004150231368839741,-0.022197166457772255,0.01945558935403824,-0.0008645231719128788,0.030574262142181396
0.03776666894555092,0.004428287968039513,-0.021624118089675903,0.01901227980852127,-0.0010033025173470378,0.030931590124964714
0.037505242973566055,0.0038293192628771067,-0.02175077050924301,0.01912948116660118,-0.0010483763180673122,0.03060527890920639
0.03779665008187294,0.0035481294617056847,-0.02286556363105774,0.018519265577197075,-0.0010279389098286629,0.03026765212416649
0.03795144706964493,0.003637088695541024,-0.022767487913370132,0.018329178914427757,-0.0010098678758367896,0.03155185654759407
0.038460154086351395,0.00428644148632884,-0.022607073187828064,0.018705299124121666,-0.000965045066550374,0.03209046274423599
0.03802124038338661,0.004115010611712933,-0.02203972451388836,0.019108830019831657,-0.0008220940944738686,0.03145992010831833
0.03778228536248207,0.003843993181362748,-0.022168448194861412,0.019757334142923355,-0.0008251299732364714,0.029777271673083305
0.037943631410598755,0.003801305079832673,-0.022341985255479813,0.019772907719016075,-0.0007229496259242296,0.030165303498506546
0.038641318678855896,0.0038385556545108557,-0.022116782143712044,0.019389886409044266,-0.0007291598594747484,0.030975766479969025
0.03862297534942627,0.0038239159621298313,-0.022060025483369827,0.018973559141159058,-0.0006645234534516931,0.0311726201325655
0.03845885396003723,0.0037982147186994553,-0.022117916494607925,0.019268903881311417,-0.0006646594847552478,0.03223061189055443
0.038995012640953064,0.004007888957858086,-0.02283458039164543,0.01923464424908161,-0.000626255408860743,0.03204928711056709
0.038829490542411804,0.003970657475292683,-0.02302083931863308,0.019247964024543762,-0.0005465706926770508,0.03128844127058983
0.038528718054294586,0.0037777204997837543,-0.022133277729153633,0.019192518666386604,-0.0005518958787433803,0.030086802318692207
0.038528718054294586,0.0037777204997837543,-0.022133277729153633,0.019192518666386604,-0.0005518958787433803,0.030086802318692207
0.03906464949250221,0.0036950435023754835,-0.02195988968014717,0.019171006977558136,-0.0005834445473738015,0.030804062262177467
0.03931794315576553,0.003787051886320114,-0.022375963628292084,0.019161144271492958,-0.0006112417322583497,0.031996551901102066
0.03900604322552681,0.003833363065496087,-0.022391753271222115,0.018997957929968834,-0.0007857464370317757,0.031196946278214455
0.03913548216223717,0.004254449624568224,-0.02255058102309704,0.01844373345375061,-0.0010515388567000628,0.03279848396778107
0.03914739191532135,0.004088253248482943,-0.022230001166462898,0.018849892541766167,-0.0011628329521045089,0.03215014189481735
0.040070079267024994,0.003948555793613195,-0.022521957755088806,0.018638599663972855,-0.0011735614389181137,0.03187603875994682
0.03970395028591156,0.004230428487062454,-0.0225968174636364,0.018813172355294228,-0.0010432126000523567,0.03209492936730385
0.03904220461845398,0.004233537241816521,-0.02190210111439228,0.018859516829252243,-0.0010142844403162599,0.03166525810956955
0.03976263850927353,0.004466915503144264,-0.02185659110546112,0.01830545999109745,-0.000997688272036612,0.03190741315484047
0.040465228259563446,0.004174784757196903,-0.02248508669435978,0.018600331619381905,-0.0009676814661361277,0.03200940415263176
0.03976048156619072,0.003909374587237835,-0.022736670449376106,0.019069651141762733,-0.0009568538516759872,0.031970735639333725
0.03845647722482681,0.003954099025577307,-0.022508220747113228,0.019329333677887917,-0.0009807057213038206,0.03217794746160507
0.039934780448675156,0.004127661231905222,-0.021751299500465393,0.019543088972568512,-0.0011078532552346587,0.032226573675870895
0.04058941453695297,0.004431232810020447,-0.022081898525357246,0.019760889932513237,-0.0011192396050319076,0.03219388797879219
0.04059809446334839,0.0042114341631531715,-0.022233115509152412,0.019374342635273933,-0.0010238605318590999,0.03261804208159447
0.04175827279686928,0.004480308853089809,-0.022258607670664787,0.01937612146139145,-0.0009375863592140377,0.032437972724437714
0.039131272584199905,0.0040993401780724525,-0.022144827991724014,0.01920231804251671,-0.000928036926779896,0.03249580040574074
0.03967486694455147,0.004331591539084911,-0.02192048542201519,0.019036347046494484,-0.000837983563542366,0.03252292796969414
0.041078247129917145,0.004211159888654947,-0.022159188985824585,0.019458787515759468,-0.0008464223355986178,0.03282403573393822
0.040575943887233734,0.0042145163752138615,-0.02246294915676117,0.019230160862207413,-0.0009123378549702466,0.033132683485746384
0.0402647964656353,0.00410231901332736,-0.02283552847802639,0.019114956259727478,-0.0010464403312653303,0.03094448894262314
0.04004398360848427,0.0045052580535411835,-0.022078443318605423,0.019421633332967758,-0.0011440787930041552,0.03305399790406227
0.04020391032099724,0.004201787523925304,-0.022584669291973114,0.02035289630293846,-0.0011080773547291756,0.034209370613098145
0.040769096463918686,0.004290098324418068,-0.022668518126010895,0.01947215013206005,-0.001076298882253468,0.03433624655008316
0.040298037230968475,0.004245569929480553,-0.021783702075481415,0.019103454425930977,-0.0009769079042598605,0.03184295818209648
0.040028415620326996,0.004106687847524881,-0.022378789260983467,0.01882106438279152,-0.000980110839009285,0.032090913504362106
0.041802726686000824,0.004043790511786938,-0.0230307225137949,0.018419701606035233,-0.0009681166266091168,0.033220238983631134
0.040689606219530106,0.004022654145956039,-0.022187411785125732,0.019717833027243614,-0.000897193152923137,0.033632855862379074
0.040689606219530106,0.004022654145956039,-0.022187411785125732,0.019717833027243614,-0.000897193152923137,0.033632855862379074
0.04094254970550537,0.004296433180570602,-0.02250058390200138,0.020227866247296333,-0.0009855239186435938,0.03416003659367561
0.041119154542684555,0.004196362569928169,-0.022530561313033104,0.019436422735452652,-0.0009053926914930344,0.03341706097126007
0.041817519813776016,0.0038895239122211933,-0.022334858775138855,0.020374435931444168,-0.0009000348509289324,0.032235968858003616
0.04209107533097267,0.003774332581087947,-0.022758185863494873,0.020512940362095833,-0.0008996062097139657,0.033322613686323166
0.04027324914932251,0.004413340240716934,-0.0217629112303257,0.020391402766108513,-0.0008633846300654113,0.03430219367146492
0.040495965629816055,0.0041752345860004425,-0.02176974155008793,0.020342396572232246,-0.0008463319391012192,0.034160714596509933
0.04189345985651016,0.004390650428831577,-0.02175028994679451,0.0200123880058527,-0.0008858354995027184,0.03371373936533928
0.04149207845330238,0.0045526716858148575,-0.022878529503941536,0.019383996725082397,-0.0008898320375010371,0.03367549180984497
0.04116399586200714,0.004390145651996136,-0.02262980118393898,0.02007376030087471,-0.0009222991648130119,0.033706605434417725
0.040991902351379395,0.004014505539089441,-0.021611766889691353,0.020697692409157753,-0.0009825450833886862,0.03509791940450668
0.041192300617694855,0.004011538811028004,-0.021892832592129707,0.02086315117776394,-0.0009374755900353193,0.03516722097992897
0.04171155393123627,0.004117225296795368,-0.022617429494857788,0.020419886335730553,-0.000961372337769717,0.03482137992978096
0.04117659851908684,0.004529304802417755,-0.022461961954832077,0.020289281383156776,-0.0009814081713557243,0.03426354378461838
0.04129541665315628,0.004637781996279955,-0.022133199498057365,0.02002961002290249,-0.0010463300859555602,0.03454514965415001
0.04130784422159195,0.0047688898630440235,-0.02225417271256447,0.019668975844979286,-0.0010272617219015956,0.03451301530003548
0.04202374070882797,0.00445033423602581,-0.022594735026359558,0.020264942198991776,-0.0009925239719450474,0.03462982922792435
0.041885100305080414,0.004327083006501198,-0.022576874122023582,0.020180832594633102,-0.0009719394729472697,0.03424767777323723
0.041680529713630676,0.004202104639261961,-0.022595122456550598,0.019800351932644844,-0.000950526213273406,0.03409887105226517
0.041820064187049866,0.004831036552786827,-0.022171922028064728,0.01983683742582798,-0.0009419454727321863,0.03415351361036301
0.041995178908109665,0.004502611234784126,-0.022383496165275574,0.02042883075773716,-0.0009361470001749694,0.03487513214349747
